/* XPM */
static const char *Helmet_anim2[] = {
/* columns rows colors chars-per-pixel */
"640 360 8 1 ",
"  c gray5",
". c #141E24",
"X c #2A373F",
"o c #9D6522",
"O c #C96E00",
"+ c #8FAABC",
"@ c #A5BECE",
"# c None",
/* pixels */
"################################################################################################################################################################################################################################################################################################################################################################################################################################################################################################################################################################################################################################################################",
"################################################################################################################################################################################################################################################################################################################################################################################################################################################################################################################################################################################################################################################################",
"################################################################################################################################################################################################################################################################################################################################################################################################################################################################################################################################################################################################################################################################",
"################################################################################################################################################################################################################################################################################################################################################################################################################################################################################################################################################################################################################################################################",
"################################################################################################################################################################################################################################################################################################################################################################################################################################################################################################################################################################################################################################################################",
"################################################################################################################################################################################################################################################################################################################################################################################################################################################################################################################################################################################################################################################################",
"################################################################################################################################################################################################################################################################################################################################################################################################################################################################################################################################################################################################################################################################",
"################################################################################################################################################################################################################################################################################################################################################################################################################################################################################################################################################################################################################################################################",
"################################################################################################################################################################################################################################################################################################################################################################################################################################################################################################################################################################################################################################################################",
"################################################################################################################################################################################################################################################################################################################################################################################################################################################################################################################################################################################################################################################################",
"################################################################################################################################################################################################################################################################################################################################################################################################################################################################################################################################################################################################################################################################",
"################################################################################################################################################################################################################################################################################################################################################################################################################################################################################################################################################################################################################################################################",
"################################################################################################################################################################################################################################################################################################################################################################################################################################################################################################################################################################################################################################################################",
"################################################################################################################################################################################################################################################################################################################################################################################################################################################################################################################################################################################################################################################################",
"################################################################################################################################################################################################################################################################################################################################################################################################################################################################################################################################################################################################################################################################",
"################################################################################################################################################################################################################################################################################################################################################################################################################################################################################################################################################################################################################################################################",
"################################################################################################################################################################################################################################################################################################################################################################################################################################################################################################################################################################################################################################################################",
"################################################################################################################################################################################################################################################################################################################################################################################################################################################################################################################################################################################################################################################################",
"################################################################################################################################################################################################################################################################################################################################################################################################################################################################################################################################################################################################################################################################",
"################################################################################################################################################################################################################################################################################################################################################################################################################################################################################################################################################################################################################################################################",
"################################################################################################################################################################################################################################################################################################################################################################################################################################################################################################################################################################################################################################################################",
"################################################################################################################################################################################################################################################################################################################################################################################################################################################################################################################################################################################################################################################################",
"################################################################################################################################################################################################################################################################################################################################################################################################################################################################################################################################################################################################################################################################",
"################################################################################################################################################################################################################################################################################################################################################################################################################################################################################################################################################################################################################################################################",
"################################################################################################################################################################################################################################################################################################################################################################################################################################################################################################################################################################################################################################################################",
"################################################################################################################################################################################################################################################################################################################################################################################################################################################################################################################################################################################################################################################################",
"################################################################################################################################################################################################################################################################################################################################################################################################################################################################################################################################################################################################################################################################",
"################################################################################################################################################################################################################################################################################################################################################################################################################################################################################################################################################################################################################################################################",
"################################################################################################################################################################################################################################################################################################################################################################################################################################################################################################################################################################################################################################################################",
"################################################################################################################################################################################################################################################################################################################################################################################################################################################################################################################################################################################################################################################################",
"################################################################################################################################################################################################################################################################################################################################################################################################################################################################################################################################################################################################################################################################",
"################################################################################################################################################################################################################################################################################################################################################################################################################################################################################################################################################################################################################################################################",
"################################################################################################################################################################################################################################################################################################################################################################################################################################################################################################################################################################################################################################################################",
"################################################################################################################################################################################################################################################################################################################################################################################################################################################################################################################################################################################################################################################################",
"################################################################################################################################################################################################################################################################################################################################################################################################################################################################################################################################################################################################################################################################",
"################################################################################################################################################################################################################################################################################################################################################################################################################################################################################################################################################################################################################################################################",
"################################################################################################################################################################################################################################################################################################################################################################################################################################################################################################################################################################################################################################################################",
"################################################################################################################################################################################################################################################################################################################################################################################################################################################################################################################################################################################################################################################################",
"################################################################################################################################################################################################################################################################################################################################################################################################################################################################################################################################################################################################################################################################",
"################################################################################################################################################################################################################################################################################################################################################################################################################################################################################################################################################################################################################################################################",
"################################################################################################################################################################################################################################################################################################################################################################################################################################################################################################################################################################################################################################################################",
"################################################################################################################################################################################################################################################################################################################################################################################################################################################################################################################################################################################################################################################################",
"################################################################################################################################################################################################################################################################################################################################################################################################################################################################################################################################################################################################################################################################",
"################################################################################################################################################################################################################################################################################################################################################################################################################################################################################################################################################################################################################################################################",
"################################################################################################################################################################################################################################################################################################################################################################################################################################################################################################################################################################################################################################################################",
"################################################################################################################################################################################################################################################################################################################################################################################################################################################################################################################################################################################################################################################################",
"################################################################################################################################################################################################################################################################################################################################################################################################################################################################################################################################################################################################################################################################",
"################################################################################################################################################################################################################################################################################################################################################################################################################################################################################################################################################################################################################################################################",
"################################################################################################################################################################################################################################################################################################################################################################################################################################################################################################################################################################################################################################################################",
"################################################################################################################################################################################################################################################################################################################################################################################################################################################################################################################################################################################################################################################################",
"################################################################################################################################################################################################################################################################################################################################################################################################################################################################################################################################################################################################################################################################",
"################################################################################################################################################################################################################################################################################################################################################################################################################################################################################################################################################################################################################################################################",
"################################################################################################################################################################################################################################################################################################################################################################################################################################################################################################################################################################################################################################################################",
"################################################################################################################################################################################################################################################################################################################################################################################################################################################################################################################################################################################################################################################################",
"################################################################################################################################################################################################################################################################################################################################################################################################################################################################################################################################################################################################################################################################",
"################################################################################################################################################################################################################################################################################################################################################################################################################################################################################################################################################################################################################################################################",
"################################################################################################################################################################################################################################################################################################################################################################################################################################################################################################################################################################################################################################################################",
"################################################################################################################################################################################################################################################################################################################################################################################################################################################################################################################################################################################################################################################################",
"################################################################################################################################################################################################################################################################################################################################################################################################################################################################################################################################################################################################################################################################",
"################################################################################################################################################################################################################################################################################################################################################################################################################################################################################################################################################################################################################################################################",
"################################################################################################################################################################################################################################################################################################################################################################################################################################################################################################################################################################################################################################################################",
"################################################################################################################################################################################################################################################################################################################################################################################################################################################################################################################################################################################################################################################################",
"################################################################################################################################################################################################################################################################################################################################################################################################################################################################################################################################################################################################################################################################",
"################################################################################################################################################################################################################################################################################################################################################################################################################################################################################################################################################################################################################################################################",
"################################################################################################################################################################################################################################################################################################################################################################################################################################################################################################################################################################################################################################################################",
"################################################################################################################################################################################################################################################################################################################################################################################################################################################################################################################################################################################################################################################################",
"################################################################################################################################################################################################################################################################################################################################################################################################################################################################################################################################################################################################################################################################",
"################################################################################################################################################################################################################################################################################################################################################################################################################################################################################################################################################################################################################################################################",
"################################################################################################################################################################################################################################################################################################################################################################################################################################################################################################################################################################################################################################################################",
"################################################################################################################################################################################################################################################################################################################################################################################################################################################################################################################################################################################################################################################################",
"################################################################################################################################################################################################################################################################################################################################################################################################################################################################################################################################################################################################################################################################",
"################################################################################################################################################################################################################################################################################################################################################################################################################################################################################################################################################################################################################################################################",
"################################################################################################################################################################################################################################################################################################################################################################################################################################################################################################################################################################################################################################################################",
"################################################################################################################################################################################################################################################################################################################################################################################################################################################################################################################################################################################################################################################################",
"################################################################################################################################################################################################################################################################################################################################################################################################################################################################################################################################################################################################################################################################",
"################################################################################################################################################################################################################################################################################################################################################################################################################################################################################################################################################################################################################################################################",
"################################################################################################################################################################################################################################################################################################################################################################################################################################################################################################################################################################################################################################################################",
"################################################################################################################################################################################################################################################################################################################################################################################################################################################################################################################################################################################################################################################################",
"################################################################################################################################################################################################################################################################################################################################################################################################################################################################################################################################################################################################################################################################",
"################################################################################################################################################################################################################################################################################################################################################################################################################################################################################################################################################################################################################################################################",
"################################################################################################################################################################################################################################################################################################################################################################################################################################################################################################################################################################################################################################################################",
"################################################################################################################################################################################################################################################################################################################################################################################################################################################################################################################################################################################################################################################################",
"################################################################################################################################################################################################################################################################################################################################################################################################################################################################################################################################################################################################################################################################",
"################################################################################################################################################################################################################################################################################################################################################################################################################################################################################################################################################################################################################################################################",
"################################################################################################################################################################################################################################################################################################################################################################################################################################################################################################################################################################################################################################################################",
"################################################################################################################################################################################################################################################################################################################################################################################################################################################################################################################################################################################################################################################################",
"################################################################################################################################################################################################################################################################################################################################################################################################################################################################################################################################################################################################################################################################",
"################################################################################################################################################################################################################################################################################################################################################################################################################################################################################################################################################################################################################################################################",
"################################################################################################################################################################################################################################################################################################################################################################################################################################################################################################################################################################################################################################################################",
"################################################################################################################################################################################################################################################################################################################################################################################################################################################################################################################################################################################################################################################################",
"################################################################################################################################################################################################################################################################################################################################################################################################################################################################################################################################################################################################################################################################",
"################################################################################################################################################################################################################################################################################################################################################################################################################################################################################################################################################################################################################################################################",
"################################################################################################################################################################################################################################################################################################################################################################################################################################################################################################################################################################################################################################################################",
"################################################################################################################################################################################################################################################################################################################################################################################################################################################################################################################################################################################################################################################################",
"################################################################################################################################################################################################################################################################################################################################################################################################################################################################################################################################################################################################################################################################",
"################################################################################################################################################################################################################################################################################################################################################################################################################################################################################################################################################################################################################################################################",
"################################################################################################################################################################################################################################################################################################################################################################################################################################################################################################################################################################################################################################################################",
"################################################################################################################################################################################################################################################################################################################################################################################################################################################################################################################################################################################################################################################################",
"################################################################################################################################################################################################################################################################################################################################################################################################################################################################################################################################################################################################################################################################",
"################################################################################################################################################################################################################################################################################################################################################################################################################################################################################################################################################################################################################################################################",
"################################################################################################################################################################################################################################################################################################################################################################################################################################################################################################################################################################################################################################################################",
"################################################################################################################################################################################################################################################################################################################################################################################################################################################################################################################################################################################################################################################################",
"################################################################################################################################################################################################################################################################################################################################################################################################################################################################################################################################################################################################################################################################",
"################################################################################################################################################################################################################################################################################################################################################################################################################################################################################################################################################################################################################################################################",
"################################################################################################################################################################################################################################################################################################################################################################################################################################################################################################################################################################################################################################################################",
"################################################################################################################################################################################################################################################################################################################################################################################################################################################################################################################################################################################################################################################################",
"################################################################################################################################################################################################################################################################################################################################################################################################################################################################################################################################################################################################################################################################",
"################################################################################################################################################################################################################################################################################################################################################################################################################################################################################################################################################################################################################################################################",
"################################################################################################################################################################################################################################################################################################################################################################################################################################################################################################################################################################################################################################################################",
"################################################################################################################################################################################################################################################################################################################################################################################################################################################################################################################################################################################################################################################################",
"################################################################################################################################################################################################################################################################################################################################################################################################################################################################################################################################################################################################################################################################",
"################################################################################################################################################################################################################################################################################################################################################################################################################################################################################################################################################################################################################################################################",
"################################################################################################################################################################################################################################################################################################################################################################################################################################################################################################################################################################################################################################################################",
"################################################################################################################################################################################################################################################################################################################################################################################################################################################################################################################################################################################################################################################################",
"################################################################################################################################################################################################################################################################################################################################################################################################################################################################################################################################################################################################################################################################",
"################################################################################################################################################################################################################################################################################################################################################################################################################################################################################################################################################################################################################################################################",
"################################################################################################################################################################################################################################################################################################################################################################################################################################################################################################################################################################################################################################################################",
"################################################################################################################################################################################################################################################################################################################################################################################################################################################################################################################################################################################################################################################################",
"################################################################################################################################################################################################################################################################################################################################################################################################################################################################################################################################################################################################################################################################",
"################################################################################################################################################################################################################################################################################################################################################################################################################################################################################################################################################################################################################################################################",
"################################################################################################################################################################################################################################################################################################################################################################################################################################################################################################################################################################################################################################################################",
"################################################################################################################################################################################################################################################################################################################################################################################################################################################################################################################################################################################################################################################################",
"################################################################################################################################################################################################################################################################################################################################################################################################################################################################################################################################################################################################################################################################",
"################################################################################################################################################################################################################################################################################################################################################################################################################################################################################################################################################################################################################################################################",
"################################################################################################################################################################################################################################################################################################################################################################################################################################################################################################################################################################################################################################################################",
"################################################################################################################################################################################################################################################################################################################################################################################################################################################################################################################################################################################################################################################################",
"################################################################################################################################################################################################################################################################################################################################################################################################################################################################################################################################################################################################################################################################",
"################################################################################################################################################################################################################################################################################################################################################################################################################################################################################################################################################################################################################################################################",
"################################################################################################################################################################################################################################################################################################################################################################################################################################################################################################################################################################################################################################################################",
"################################################################################################################################################################################################################################################################################################################################################################################################################################################################################################################################################################################################################################################################",
"################################################################################################################################################################################################################################################################################################################################################################################################################################################################################################################################################################################################################################################################",
"################################################################################################################################################################################################################################################################################################################################################################################################################################################################################################################################################################################################################################################################",
"################################################################################################################################################################################################################################################################################################################################################################################################################################################################################################################################################################################################################################################################",
"################################################################################################################################################################################################################################################################################################################################################################################################################################################################################################################################################################################################################################################################",
"################################################################################################################################################################################################################################################################################################################################################################################################################################################################################################################################################################################################################################################################",
"################################################################################################################################################################################################################################################################################################################################################################################################################################################################################################################################################################################################################################################################",
"################################################################################################################################################################################################################################################################################################################################################################################################################################################################################################################################################################################################################################################################",
"################################################################################################################################################################################################################################################################################################################################################################################################################################################################################################################################################################################################################################################################",
"################################################################################################################################################################################################################################################################################################################################################################################################################################################################################################################################################################################################################################################################",
"################################################################################################################################################################################################################################################################################################################################################################################################################################################################################################################################################################################################################################################################",
"################################################################################################################################################################################################################################################################################################################################################################################################################################################################################################################################################################################################################################################################",
"################################################################################################################################################################################################################################################################################################################################################################################################################################################################################################################################################################################################################################################################",
"################################################################################################################################################################################################################################################################################################################################################################################################################################################################################################################################################################################################################################################################",
"################################################################################################################################################################################################################################################################################################################################################################################################################################################################################################################################################################################################################################################################",
"################################################################################################################################################################################################################################################################################################################################################################################################################################################################################################################################################################################################################################################################",
"################################################################################################################################################################################################################################################################################################################################################################################################################################################################################################################################################################################################################################################################",
"################################################################################################################################################################################################################################################################################################################################################################################################################################################################################################################################################################################################################################################################",
"################################################################################################################################################################################################################################################################################################################################################################################################################################################################################################################################################################################################################################################################",
"################################################################################################################################################################################################################################################################################################################################################################################################################################################################################################################################################################################################################################################################",
"################################################################################################################################################################################################################################################################################################################################################################################################################################################################################################################################################################################################################################################################",
"################################################################################################################################################################################################################################################################################################################################################################################################################################################################################################################################################################################################################################################################",
"################################################################################################################################################################################################################################################################################################################################################################################################################################################################################################################################################################################################################################################################",
"################################################################################################################################################################################################################################################################################################################################################################################################################################################################################################################################################################################################################################################################",
"################################################################################################################################################################################################################################################################################################################################################################################################################################################################################################################################################################################################################################################################",
"################################################################################################################################################################################################################################################################################################################################################################################################################################################################################################################################################################################################################################################################",
"################################################################################################################################################################################################################################################################################################################################################################################################################################################################################################################################################################################################################################################################",
"################################################################################################################################################################################################################################################################################################################################################################################################################################################################################################################################################################################################################################################################",
"################################################################################################################################################################################################################################################################################################################################################################################################################################################################################################################################################################################################################################################################",
"################################################################################################################################################################################################################################################################################################################################################################################################################################################################################################################################################################################################################################################################",
"################################################################################################################################################################################################################################################################################################################################################################################################################################################################################################################################################################################################################################################################",
"################################################################################################################################################################################################################################################################################################################################################################################################################################################################################################################################################################################################################################################################",
"################################################################################################################################################################################################################################################################################################################################################################################################################################################################################################################################################################################################################################################################",
"################################################################################################################################################################################################################################################################################################################################################################################################################################################################################################################################################################################################################################################################",
"################################################################################################################################################################################################################################################################################################################################################################################################################################################################################################################################################################################################################################################################",
"################################################################################################################################################################################################################################################################################################################################################################################################################################################################################################################################################################################################################################################################",
"################################################################################################################################################################################################################################################################################################################################################################################################################################################################################################################################################################################################################################################################",
"################################################################################################################################################################################################################################################################################################################################################################################################################################################################################################################################################################################################################################################################",
"################################################################################################################################################################################################################################################################################################################################################################################################################################################################################################################################################################################################################################################################",
"################################################################################################################################################################################################################################################################################################################################################################################################################################################################################################################################################################################################################################################################",
"################################################################################################################################################################################################################################################################################################################################################################################################################################################################################################################################################################################################################################################################",
"################################################################################################################################################################################################################################################################################################################################################################################################################################################################################################################################################################################################################################################################",
"################################################################################################################################################################################################################################################################################################################################################################################################################################################################################################################################################################################################################################################################",
"################################################################################################################################################################################################################################################################################################################################################################################################################################################################################################################################################################################################################################################################",
"################################################################################################################################################################################################################################################################################################################################################################################################################################################################################################################################################################################################################################################################",
"################################################################################################################################################################################################################################################################################################################################################################################################################################################################################################################################################################################################################################################################",
"################################################################################################################################################################################################################################################################################################################################################################################################################################################################################################################################################################################################################################################################",
"################################################################################################################################################################################################################################################################################################################################################################################################################################################################################################################################################################################################################################################################",
"################################################################################################################################################################################################################################################################################################################################################################################################################################################################################################################################################################################################################################################################",
"################################################################################################################################################################################################################################################################################################################################################################################################################################################################################################################################################################################################################################################################",
"################################################################################################################################################################################################################################################################################################################################################################################################################################################################################################################################################################################################################################################################",
"################################################################################################################################################################################################################################################################################################################################################################################################################################################################################################################################################################################################################################################################",
"################################################################################################################################################################################################################################################################################################################################################################################################################################################################################################################################################################################################################################################################",
"################################################################################################################################################################################################################################################################################################################################################################################################################################################################################################################################################################################################################################################################",
"################################################################################################################################################################################################################################################################################################################################################################################################################################################################################################################################################################################################################################################################",
"################################################################################################################################################################################################################################################################################################################################################################################################################################################################################################################################################################################################################################################################",
"################################################################################################################################################################################################################################################################################################################################################################################################################################################################################################################################################################################################################################################################",
"################################################################################################################################################################################################################################################################################################################################################################################################################################################################################################################################################################################################################################################################",
"################################################################################################################################################################################################################################################################################################################################################################################################################################################################################################################################################################################################################################################################",
"################################################################################################################################################################################################################################################################################################################################################################################################################################################################################################################################################################################################################################################################",
"################################################################################################################################################################################################################################################################################################################################################################################################################################################################################################################################################################################################################################################################",
"################################################################################################################################################################################################################################################################################################################################################################################################################################################################################################################################################################################################################################################################",
"################################################################################################################################################################################################################################################################################################################################################################################################################################################################################################################################################################################################################################################################",
"################################################################################################################################################################################################################################################################################################################################################################################################################################################################################################################################################################################################################################################################",
"################################################################################################################################################################################################################################################################################################################################################################################################################################################################################################################################################################################################################################################################",
"################################################################################################################################################################################################################################################################################################################################################################################################################################################################################################################################################################################################################################################################",
"################################################################################################################################################################################################################################################################################################################################################################################################################################################################################################################################################################################################################################################################",
"################################################################################################################################################################################################################################################################################################################################################################################################################################################################################################################################################################################################################################################################",
"################################################################################################################################################################################################################################################################################################################################################################################################################################################################################################################################################################################################################################################################",
"################################################################################################################################################################################################################################################################################################################################################################################################################################################################################################################################################################################################################################################################",
"################################################################################################################################################################################################################################################################################################################################################################################################################################################################################################################################################################################################################################################################",
"################################################################################################################################################################################################################################################################################################################################################################################################################################################################################################################################################################################################################################################################",
"################################################################################################################################################################################################################################################################################################################################################################################################################################################################################################################################################################################################################################################################",
"################################################################################################################################################################################################################################################################################################################################################################################################################################################################################################################################################################################################################################################################",
"################################################################################################################################################################################################################################################################################################################################################################################################################################################################################################################################################################################################################################################################",
"################################################################################################################################################################################################################################################################################################################################################################################################################################################################################################################################################################################################################################################################",
"################################################################################################################################################################################################################################################################################################################################################################################################################################################################################################################################################################################################################################################################",
"################################################################################################################################################################################################################################################################################################################################################################################################################################################################################################################################################################################################################################################################",
"################################################################################################################################################################################################################################################################################################################################################################################################################################################################################################################################################################################################################################################################",
"################################################################################################################################################################################################################################################################################################################################################################################################################################################################################################################################################################################################################################################################",
"################################################################################################################################################################################################################################################################################################################################################################################################################################################################################################################################################################################################################################################################",
"################################################################################################################################################################################################################################################################################################################################################################################################################################################################################################################################################################################################################################################################",
"################################################################################################################################################################################################################################################################################################################################################################################################################################################################################################################################################################################################################################################################",
"################################################################################################################################################################################################################################################################################################################################################################################################################################################################################################################################################################################################################################################################",
"################################################################################################################################################################################################################################################################################################################################################################################################################################################################################################################################################################################################################################################################",
"################################################################################################################################################################################################################################################################################################################################################################################################################################################################################################################################################################################################################################################################",
"################################################################################################################################################################################################################################################################################################################################################################################################################################################################################################################################################################################################################################################################",
"################################################################################################################################################################################################################################################################################################################################################################################################################################################################################################################################################################################################################################################################",
"################################################################################################################################################################################################################################################################################################################################################################################################################################################################################################################################################################################################################################################################",
"################################################################################################################################################################################################################################################################################################################################################################################################################################################################################################################################################################################################################################################################",
"################################################################################################################################################################################################################################################################################################################################################################################################################################################################################################################################################################################################################################################################",
"################################################################################################################################################################################################################################################################################################################################################################################################################################################################################################################################################################################################################################################################",
"################################################################################################################################################################################################################################################################################################################################################################################################################################################################################################################################################################################################################################################################",
"################################################################################################################################################################################################################################################################################################################################################################################################################################################################################################################################################################################################################################################################",
"################################################################################################################################################################################################################################################################################################################################################################################################################################################################################################################################################################################################################################################################",
"################################################################################################################################################################################################################################################################################################################################################################################################################################################################################################################################################################################################################################################################",
"################################################################################################################################################################################################################################################################################################################################################################################################################################################################################################################################################################################################################################################################",
"################################################################################################################################################################################################################################################################################################################################################################################################################################################################################################################################################################################################################################################################",
"################################################################################################################################################################################################################################################################################################################################################################################################################################################################################################################################################################################################################################################################",
"################################################################################################################################################################################################################################################################################################################################################################################################################################################################################################################################################################################################################################################################",
"################################################################################################################################################################################################################################################################################################################################################################################################################################################################################################################################################################################################################################################################",
"################################################################################################################################################################################################################################################################################################################################################################################################################################################################################################################################################################################################################################################################",
"################################################################################################################################################################################################################################################################################################################################################################################################################################################################################################################################################################################################################################################################",
"################################################################################################################################################################################################################################################################################################################################################################################################################################################################################################################################################################################################################################################################",
"################################################################################################################################################################################################################################################################################################################################################################################################################################################################################################################################################################################################################################################################",
"################################################################################################################################################################################################################################################################################################################################################################################################################################################################################################################################################################################################################################################################",
"################################################################################################################################################################################################################################################################################################################################################################################################################################################################################################################################################################################################################################################################",
"################################################################################################################################################################################################################################################################################################################################################################################################################################################################################################################################################################################################################################################################",
"################################################################################################################################################################################################################################################################################################################################################################################################################################################################################################################################################################################################################################################################",
"################################################################################################################################################################################################################################################################################################################################################################################################################################################################################################################################################################################################################################################################",
"################################################################################################################################################################################################################################################################################################################################################################################################################################################################################################################################################################################################################################################################",
"################################################################################################################################################################################################################################################################################################################################################################################################################################################################################################################################################################################################################################################################",
"################################################################################################################################################################################################################################################################################################################################################################################################################################################################################################################################################################################################################################################################",
"################################################################################################################################################################################################################################################################################################################################################################################################################################################################################################################################################################################################################################################################",
"################################################################################################################################################################################################################################################################################################################################################################################################################################################################################################################################################################################################################################################################",
"################################################################################################################################################################################################################################################################################################################################################################################################################################################################################################################################################################################################################################################################",
"################################################################################################################################################################################################################################################################################################################################################################################################################################################################################################################################################################################################################################################################",
"################################################################################################################################################################################################################################################################################################################################################################################################################################################################################################################################################################################################################################################################",
"################################################################################################################################################################################################################################################################################################################################################################################################################################################################################################################################################################################################################################################################",
"################################################################################################################################################################################################################################################################################################################################################################################################################################################################################################################################################################################################################################################################",
"################################################################################################################################################################################################################################################################################################################################################################################################################################################################################################################################################################################################################################################################",
"################################################################################################################################################################################################################################################################################################################################################################################################################################################################################################################################################################################################################################################################",
"################################################################################################################################################################################################################################################################################################################################################################################################################################################################################################################################################################################################################################################################",
"################################################################################################################################################################################################################################################################################################################################################################################################################################################################################################################################################################################################################################################################",
"################################################################################################################################################################################################################################################################################################################################################################################################################################################################################################################################################################################################################################################################",
"################################################################################################################################################################################################################################################################################################################################################################################################################################################################################################################################################################################################################################################################",
"################################################################################################################################################################################################################################################################################################################################################################################################################################################################################################################################################################################################################################################################",
"################################################################################################################################################################################################################################################################################################################################################################################################################################################################################################################################################################################################################################################################",
"################################################################################################################################################################################################################################################################################################################################################################################################################################################################################################################################################################################################################################################################",
"################################################################################################################################################################################################################################################################################################################################################################################################################################################################################################################################################################################################################################################################",
"################################################################################################################################################################################################################################################################################################################################################################################################################################################################################################################################################################################################################################################################",
"################################################################################################################################################################################################################################################################################################################################################################################################################################################################################################################################################################################################################################################################",
"################################################################################################################################################################################################################################################################################################################################################################################################################################################################################################################################################################################################################################################################",
"################################################################################################################################################################################################################################################################################################################################################################################################################################################################################################################################################################################################################################################################",
"################################################################################################################################################################################################################################################################################################################################################################################################################################################################################################################################################################################################################################################################",
"################################################################################################################################################################################################################################################################################################################################################################################################################################################################################################################################################################################################################################################################",
"################################################################################################################################################################################################################################################################################################################################################################################################################################################################################################################################################################################################################################################################",
"################################################################################################################################################################################################################################################################################################################################################################################################################################################################################################################################################################################################################################################################",
"################################################################################################################################################################################################################################################################################################################################################################################################################################################################################################################################################################################################################################################################",
"################################################################################################################################################################################################################################################################################################################################################################################################################################################################################################################################################################################################################################################################",
"################################################################################################################################################################################################################################################################################################################################################################################################################################################################################################################################################################################################################################################################",
"################################################################################################################################################################################################################################################################################################################################################################################################################################################################################################################################################################################################################################################################",
"################################################################################################################################################################################################################################################################################################################################################################################################################################################################################################################################################################################################################################################################",
"################################################################################################################################################################################################################################################################################################################################################################################################################################################################################################################################################################################################################################################################",
"################################################################################################################################################################################################################################################################################################################################################################################################################################################################################################################################################################################################################################################################",
"################################################################################################################################################################################################################################################################################################################################################################################################################################################################################################################################################################################################################################################################",
"################################################################################################################################################################################################################################################################################################################################################################################################################################################################################################################################################################################################################################################################",
"################################################################################################################################################################################################################################################################################################################################################################################################################################################################################################################################################################################################################################################################",
"################################################################################################################################################################################################################################################################################################################################################################################################################################################################################################################################################################################################################################################################",
"########################################################################################################################################################################################################################################################################################################################XXXX####################################################################################################################################################################################################################################################################################################################################",
"######################################################################################################################################################################################################################################################################################################################XXXXXXXXX#################################################################################################################################################################################################################################################################################################################################",
"####################################################################################################################################################################################################################################################################################################################XXXXXXXXXXXXXX##############################################################################################################################################################################################################################################################################################################################",
"##################################################################################################################################################################################################################################################################################################################XXXXXXXXXXXXXXXXXXX###########################################################################################################################################################################################################################################################################################################################",
"################################################################################################################################################################################################################################################################################################################XXXXXXXXXX.XXXXXXXXXXXXX########################################################################################################################################################################################################################################################################################################################",
"##############################################################################################################################################################################################################################################################################################################XXXXXXXXX.XX..XXXXXXXXXXXXXXX#####################################################################################################################################################################################################################################################################################################################",
"############################################################################################################################################################################################################################################################################################################XXXXXXXX.XXXX.XX.XXXX.XXXXXXXXXXXX##################################################################################################################################################################################################################################################################################################################",
"##########################################################################################################################################################################################################################################################################################################XXXXXXXXXXX.XX.XXXX.XX.XXXX.XXXXXXXXXXX###############################################################################################################################################################################################################################################################################################################",
"########################################################################################################################################################################################################################################################################################################XXXXXXXXXX..XX..XX..XX..XX..XX..XXXXXXXXXXXX############################################################################################################################################################################################################################################################################################################",
"######################################################################################################################################################################################################################################################################################################XXXXXXXXXXXX..XX..XX..XX..XX..XX..XX.XXXXXXXXXXXX#########################################################################################################################################################################################################################################################################################################",
"####################################################################################################################################################################################################################################################################################################XXXXXXXXXXXX.XXXX.XX.XXXX.XX.XXXX.XX.XXXX.XXXXXXXXXXXX######################################################################################################################################################################################################################################################################################################",
"####################################################################################################################################################################################################################################################################################################XXXXXXXXXXXXX.XX.XXXX.XX.XXXX.XX.XXXX.XX.XXXXXXXXXXXXXX#####################################################################################################################################################################################################################################################################################################",
"##################################################################################################################################################################################################################################################################################################XXXXXXXXXXXX..XX..XX..X             ..XX..XX..XXXXXXXXXXXX####################################################################################################################################################################################################################################################################################################",
"##################################################################################################################################################################################################################################################################################################XXXXXXXXX.XX..XX..XX.     X      .    XX..XX..XX..XXXXXXXX####################################################################################################################################################################################################################################################################################################",
"#################################################################################################################################################################################################################################################################################################XXXXXXXX.XX.XXXX.XX       X.     XX     . X.XXXX.XX.XXXXXXXX###################################################################################################################################################################################################################################################################################################",
"################################################################################################################################################################################################################################################################################################XXXXXXXX.XXXX.XX.X  X      XX     XX      X   XX.XXXX.XXXXXXXX##################################################################################################################################################################################################################################################################################################",
"###############################################################################################################################################################################################################################################################################################XXXXXXX..XX..XX.    .X      XXX     XX     .X     X..XX..XXXXXX##################################################################################################################################################################################################################################################################################################",
"##############################################################################################################################################################################################################################################################################################XXXXXXXX..XX..XX     .X      XXX     XX     .X      ..XX..XXXXXXX#################################################################################################################################################################################################################################################################################################",
"##############################################################################################################################################################################################################################################################################################XXXXXXX.XX.XXX XX    XXX     XXX ....X...   XX        X.XX.XXXXXXX################################################################################################################################################################################################################################################################################################",
"#############################################################################################################################################################################################################################################################################################XXXXXXX.XXXX.X  XX     XX .....X.............XX        .XXXX.XXXXXX################################################################################################################################################################################################################################################################################################",
"############################################################################################################################################################################################################################################################################################XXXXXX..XX..XX   X.     XX.....................X.         ..XX..XXXXX###############################################################################################################################################################################################################################################################################################",
"###########################################################################################################################################################################################################################################################################################XXXXXXX..XX..X    X.     X..........................        .XX..XXXXXX##############################################################################################################################################################################################################################################################################################",
"##########################################################################################################################################################################################################################################################################################XXXXXXX.XX.XX      XX   ..............................        X.XX.XXXXXX#############################################################################################################################################################################################################################################################################################",
"##########################################################################################################################################################################################################################################################################################XXX.XX.XXXX.       XX .................................        XXXX.XXXXX#############################################################################################################################################################################################################################################################################################",
"########################################################################################################################################################################################################################################################################################XXXXXX..XX..X        XX..................................         ..XX..XXXX############################################################################################################################################################################################################################################################################################",
"########################################################################################################################################################################################################################################################################################XXXXXX..XX..         X...................@@@@............       OO  XX..XXXXX###########################################################################################################################################################################################################################################################################################",
"#######################################################################################################################################################################################################################################################################################XXXXXX.XX.XX         ............@@@@@@@@@@@@@@@@@@@......       OOOO .XX.XXXXX##########################################################################################################################################################################################################################################################################################",
"######################################################################################################################################################################################################################################################################################XXXXXX.XXXX.         ...........@@@@@@@@@@@@@@@@@@@@@@@....       OOOO  XXX.XXXX##########################################################################################################################################################################################################################################################################################",
"######################################################################################################################################################################################################################################################################################XXXX..XX..X         ........@@@@@@@@@@@@@@@@@@@@@@@@@@@@@..       OOOOOOO.XX..XXX#########################################################################################################################################################################################################################################################################################",
"######################################################################################################################################################################################################################################################################################XXXX..XX..         ........@@@@@@@@@@@@@@@@@@@@@@@@@@@@@@@@       OOOOOOOOXX..XXXX########################################################################################################################################################################################################################################################################################",
"#####################################################################################################################################################################################################################################################################################XXXX.XX.XX    O     .......@@@@@@@@@@@@@@@@@@@@@@@@@@@@@@@@@       OoOOOOOOX.XX.XXX########################################################################################################################################################################################################################################################################################",
"#####################################################################################################################################################################################################################################################################################XXX.XXXX.    OO     .....@@@@@@@@@@@@@@@@@@ .... .@@@@@@@@@@       oOOOOOOOOXXXX.XXX#######################################################################################################################################################################################################################################################################################",
"#####################################################################################################################################################################################################################################################################################XX.XX..     OOO     ....@@@@@@@@@@ ..  ..  ..  ..  .. @@@@@@       OOooOOOOOO..XXXXXX######################################################################################################################################################################################################################################################################################",
"####################################################################################################################################################################################################################################################################################XXX.XX..    OOOO     ...@@@@@@@@@@  ..  ..  ..  ..  ..  .@@@@       OOooOOOOOOO.XX.XXX######################################################################################################################################################################################################################################################################################",
"####################################################################################################################################################################################################################################################################################XXXX.XX    OOOOO      @@@@@@@@@.. .. .... .. .... .. .... .@@       +OOOOoOOOOOOX.XXXXX#####################################################################################################################################################################################################################################################################################",
"####################################################################################################################################################################################################################################################################################XXXXX.    OOOOOO      @@@@@@@ .. .... .. .... .. .... .. ...@       @+OOoOOOOOOO.XXXXXX#####################################################################################################################################################################################################################################################################################",
"####################################################################################################################################################################################################################################################################################XX..XX   OOOOOoo      @@@@@ ..  ..      XX  XX  XX      ..  .       @@+oOOooOOOOOX..XXXX####################################################################################################################################################################################################################################################################################",
"###################################################################################################################################################################################################################################################################################XXX..XX  OOOOOOoo      @@@@@ ..      XX  XX  XX  XX  XX  ..  .       @@++OOooOOOOOO..XXXX####################################################################################################################################################################################################################################################################################",
"###################################################################################################################################################################################################################################################################################XXXXXX  OOOOOOoOO      @@@@...    XXXX XX XXXX XX XXXX XX   ..       @+@@+OOOOoOOOOXXX.XX####################################################################################################################################################################################################################################################################################",
"###################################################################################################################################################################################################################################################################################XX.XX  OOOOOOoOOO      @@@ .. . XX XX XXXX XX XXXX XX XXXX           +@@@@+OOoOOOOOOX.XXXX###################################################################################################################################################################################################################################################################################",
"##################################################################################################################################################################################################################################################################################XXXX.. OOOOOooOOoo      @@..   X  XX  XX              XX  XX  X       .@++@@+oOOooOOOOXX.XX###################################################################################################################################################################################################################################################################################",
"##################################################################################################################################################################################################################################################################################XXXX..OOOOOOooOOoo@       ..  XX  XX                      XX  XX      ..++@@++OOooOOOOXX.XXX##################################################################################################################################################################################################################################################################################",
"##################################################################################################################################################################################################################################################################################XXX.XXOOOOOoOOoOO@@      ..  X XXX                          XX XX      ..@@+@@+OOOOOOO.XXXXX##################################################################################################################################################################################################################################################################################",
"##################################################################################################################################################################################################################################################################################XX.XXOOOOOoOOOOo@@+      .  XXX XX                           XX X     . ..+@@@@+OOoOOOO.XXXX##################################################################################################################################################################################################################################################################################",
"#################################################################################################################################################################################################################################################################################XX.XX.OOOOOOOooO@++@       .   XX                              XX      ..  .@++@@+oOOOOOO..XXX#################################################################################################################################################################################################################################################################################",
"#################################################################################################################################################################################################################################################################################XX.XXOOOOOoOOoo@@++@        X  XX                               X      ..  ..++@@++OOoOOO..XXX#################################################################################################################################################################################################################################################################################",
"#################################################################################################################################################################################################################################################################################XXX.XOOOOOOoOOO@+@@+        XXXX                                 XX    . .. ...@+@@+OOOOOXXXXXX################################################################################################################################################################################################################################################################################",
"#################################################################################################################################################################################################################################################################################XXXX.OOOOOOOoO@+@@@@       X XX                                  XXX    .... ..+@@@@+OOOOOXXXXX################################################################################################################################################################################################################################################################################",
"################################################################################################################################################################################################################################################################################XX..XOOOOOooOO++@@++.       XX                                      XX  ..  ..  ..++@@+oOOOOXXXX################################################################################################################################################################################################################################################################################",
"################################################################################################################################################################################################################################################################################XX..XOOOOOooO@++@@+ .       XX                                      XX  ..  ..  ..++@@+oOOOOXXXXX###############################################################################################################################################################################################################################################################################",
"################################################################################################################################################################################################################################################################################XXXXOOOOoOOO@+@@+@...      XX X                                    XX X  .... .. ...@+@@oOOOX.XXX###############################################################################################################################################################################################################################################################################",
"################################################################################################################################################################################################################################################################################X.XXOOOOOoOO+@@@@ ..      XX X                                       XX . .. .... .. @@@@oOO.XXXXX##############################################################################################################################################################################################################################################################################",
"###############################################################################################################################################################################################################################################################################XXX..OOooOOo+@@++..  .       XX                                      XX  ..  ..  ..  .@++@@ooXX.XXX##############################################################################################################################################################################################################################################################################",
"###############################################################################################################################################################################################################################################################################XXX.OOOooOOo+@@++..  .       XX                                      XX  ..  ..  ..  ..++@@ooOX.XXX##############################################################################################################################################################################################################################################################################",
"###############################################################################################################################################################################################################################################################################XX.XOOOOOOo@@+@@.. ..      XX X                                       XXX  .. .... .. .@@@+OO.XXXXXX#############################################################################################################################################################################################################################################################################",
"##############################################################################################################################################################################################################################################################################XX.XOOOOOOoO@@@+.. ....    XXXX                                         XX .... .. .... .@+@OOX.XXXXX#############################################################################################################################################################################################################################################################################",
"##############################################################################################################################################################################################################################################################################XXXXOOOOooO@++@@  ..  ..   X  X                                        X   .  ..  ..  ..  @@..XX..XXXX############################################################################################################################################################################################################################################################################",
"##############################################################################################################################################################################################################################################################################XXXXOOOOooO@++@.  ..  ..  XX  X                                            .  ..  ..  ..  @@..XX..XXXX############################################################################################################################################################################################################################################################################",
"##############################################################################################################################################################################################################################################################################XX.XOOOoOO+@@@. .. ....    XXXX                                         XX  ... .. .... ..+@@XX.XX.XXX############################################################################################################################################################################################################################################################################",
"##############################################################################################################################################################################################################################################################################XXX.OOoOOO@+@@ .... .. .. X XX                                          XXX .. .... .. ...@+@X.XXXXXXXX###########################################################################################################################################################################################################################################################################",
"##############################################################################################################################################################################################################################################################################XXXXOOOOo+@@+ ..  ..  ..  XX                                              X   ..  ..  ..  .@+.XX..XXXXX###########################################################################################################################################################################################################################################################################",
"##############################################################################################################################################################################################################################################################################XXXXOOOOo+@@  ..  ..  ..  XX                                              XX  ..  ..  ..  .@+.XX..XXXXXX##########################################################################################################################################################################################################################################################################",
"##############################################################################################################################################################################################################################################################################XXX.OOoO@@@+.. .... .. . XX XX                                           XX  . .... .. ....+@X.XXXX.XXXX##########################################################################################################################################################################################################################################################################",
"##############################################################################################################################################################################################################################################################################XX.XOOOo@@+.... .. ....  X XXX                                           X X .. .. .... .. @@@X.XX.XXXXX##########################################################################################################################################################################################################################################################################",
"##############################################################################################################################################################################################################################################################################XXXX..OO++..  ..  ..  ..  XX                                              XX  ..  ..  ..  .@++XX..XXXXXXX#########################################################################################################################################################################################################################################################################",
"##############################################################################################################################################################################################################################################################################XXXX..XO++..  ..  ..  ..  XX                                              XX  ..  ..  ..  ..++XX..XXXXXXX#########################################################################################################################################################################################################################################################################",
"##############################################################################################################################################################################################################################################################################XX.XXXX+@. .... .. ....  X XX                                              XX . .. .... .. .@@X.XX.XXXXXXX########################################################################################################################################################################################################################################################################",
"##############################################################################################################################################################################################################################################################################XXX.XX.@@.. .. .... .. . XX X                                             X X  .... .. .... @@.XXXX.XXXXXX########################################################################################################################################################################################################################################################################",
"##############################################################################################################################################################################################################################################################################XXXX..X@+ ..  ..  ..  ..  XX                                              XX  ..  ..  ..  ..++XX..XXXXXXXX########################################################################################################################################################################################################################################################################",
"##############################################################################################################################################################################################################################################################################XXXX..X@+ ..  ..  ..  ..  XX                                              XX  ..  ..  ..  ..++XX..XXXXXXXX########################################################################################################################################################################################################################################################################",
"##############################################################################################################################################################################################################################################################################XXX.XX.@@.. .. .... .. . XX XX                                            X XX .... .. .... @@.XXXX.XXXXXX########################################################################################################################################################################################################################################################################",
"##############################################################################################################################################################################################################################################################################XX.XXXX+@. .... .. ....  X XXX                                             XXX. .. .... .. ..@X.XX.XXXXXXX########################################################################################################################################################################################################################################################################",
"##############################################################################################################################################################################################################################################################################XXXX..XX+ ..  ..  ..  ..  XX                                               X   .  ..  ..  .. +XX..XX.XXXXX########################################################################################################################################################################################################################################################################",
"##############################################################################################################################################################################################################################################################################XXXX..XX+ ..  ..  ..  ..  XX                                               X   .  ..  ..  .. +@X..XX.XXXXX########################################################################################################################################################################################################################################################################",
"##############################################################################################################################################################################################################################################################################XXXXXXX.@. .... .. ....  X XXX                                             XXX  .. .... .. ..@@.XX.XXXXXXX########################################################################################################################################################################################################################################################################",
"##############################################################################################################################################################################################################################################################################XXX.XX.X@.. .. .... .. . XX XX                                              XX .... .. .... ..+XXXX.XXXXXX########################################################################################################################################################################################################################################################################",
"##############################################################################################################################################################################################################################################################################XXXX..XX+ ..  ..  ..  ..  XX                                                   .  ..  ..  ..  @X..XX..XXXX########################################################################################################################################################################################################################################################################",
"##############################################################################################################################################################################################################################################################################XXXX..XX+ ..  ..  ..  ..  XX                                                  X   ..  ..  ..  @X..XX..XXXX########################################################################################################################################################################################################################################################################",
"##############################################################################################################################################################################################################################################################################XXX.XX.X@.. .. .... .. . XX XX                                              XX  ... .. .... ..+@XXX.XXXXXXX#######################################################################################################################################################################################################################################################################",
"##############################################################################################################################################################################################################################################################################XXXXXXX.@. .... .. ....  X XXX                                              XXX .. .... .. ...@+XX.XXXXXXXX#######################################################################################################################################################################################################################################################################",
"##############################################################################################################################################################################################################################################################################XXXX..XX+ ..  ..  ..  ..  XX                                                  X   ..  ..  ..  @@..XX..XXXXX#######################################################################################################################################################################################################################################################################",
"##############################################################################################################################################################################################################################################################################XXXX..XX+ ..  ..  ..  ..  XX                                                  X   ..  ..  ..  @@..XX..XXXXX#######################################################################################################################################################################################################################################################################"
};
