/* XPM */
static const char *Door[] = {
/* columns rows colors chars-per-pixel */
"64 64 11 1 ",
"  c #17233A",
". c #4F6082",
"X c #7086B3",
"o c #6E91D7",
"O c #809DD7",
"+ c #8FA4CE",
"@ c #9EB3DB",
"# c #B5C6E9",
"$ c #C6D6F6",
"% c #C6D9FF",
"& c #D4F7FB",
/* pixels */
"%%%%%%%%%%%%%%%%%%%%%%%%%%%%+%%%%%%+%%%%%%%%%%%%%%%%%%%%%%%%%%%%",
"%%&+%%&+%%&+%%&+%%&+%%%&+%%&++&++&++&%%+&%%%+&%%+&%%+&%%+&%%+&%%",
"%&+++&+++&+++&+++&+++%&+++&++++  ++++&+++&%+++&+++&+++&+++&+++&%",
"&++X+++X+++X+++X+++X++++X+++++ ++ +++++X++++X+++X+++X+++X+++X++&",
"++XXX+XXX+XXX+XXX+XXX+XXXX+++.%  %.+++XXXX+XXX+XXX+XXX+XXX+XXX++",
"##########################X++X%++%X++X##########################",
"                        ###+++.%%.+++###                        ",
".+.+.+.+.+.+.+.+.+.+.+.+.###++X..X++###.+.+.+.+.+.+.+.+.+.+.+.+.",
"+###+###+###+###+###+###+.###++XX++###.+###+###+###+###+###+###+",
"$$$$$$$$$$$$$$$$$$$$$$$$++.###+XX+###.++$$$$$$$$$$$$$$$$$$$$$$$$",
"XXXXXXXXXXXXXXXXXXXXXXX$$#+.##+XX+##.+#$$XXXXXXXXXXXXXXXXXXXXXXX",
"++++++++.+..+...........$$++##+XX+##++$$...........+..+.++++++++",
"..........................+.##+XX+##.+..........................",
"ooooo+X+X+X+X+X+X+X+X+XX.$#+##++++##+#$.XX+X+X+X+X+X+X+X+X+ooooo",
"oOoOoX###############XXX.$#.##+&&+##.#$.XXX###############XoOoOo",
"OoO+X###&#&&&&&&&&&&#+Xo.$#+##&XX&##+#$.oX+#&&&&&&&&&&#&###X+OoO",
"OOoX##&+++++++++++++++Xo.$#.##+XX+##.#$.oX+++++++++++++++&##XoOO",
"O+X##&+++++++++++++++.Xo+$#+##+XX+##+#$+oX.+++++++++++++++&##X+O",
"OX###+++$$$$  @@$$...Xoo.$#.##+XX+##.#$.ooX...$$@@  $$$$+++###XO",
"X##&++++@@$$$ @@@$XXXooO.$#+##+XX+##+#$.OooXXX$@@@ $$$@@++++&##X",
"+#&+++  @@@$$  @@$$oooOo+$#.##+XX+##.#$+oOooo$$@@  $$@@@  +++&#+",
"X#&+++.  @@@$$ @@@$$oOoO.$#+##++++##+#$.OoOo$$@@@ $$@@@  .+++&#X",
"X#&++$$.  @@@$$ @@@$OoOO+$#.##+&&+##.#$+OOoO$@@@ $$@@@  .$$++&#X",
"%#&++$$$.  @@$$$ @@@$OOO+$#+##&XX&##+#$+OOO$@@@ $$$@@  .$$$++&#%",
"+#&++@@$$.  @@$$..@@$$OO+$#.##+XX+##.#$+OO$$@@..$$@@  .$$@@++&#+",
"%#&++@@@$$.  @@$$.@@@$$+%+#+##++++##+#+%+$$@@@.$$@@  .$$@@@++&#%",
"+#&++.@@@$$. @@$$..@@$$%%%+.##+XX+##.+%%%$$@@..$$@@ .$$@@@.++&#+",
"+#&+++.@@@$$ #################+&&+################# $$@@@.+++&#+",
"+##++.o.@@$$$#$#$$$#$$$#$$$#$#&++&#$#$$$#$$$#$$$#$#$$$@@.o.++##+",
"%....+o+.@@$$++$+++$+++$+++$++.++.++$+++$+++$+++$++$$@@.+o+....%",
".%.$..+oo.@@$$+++.+++.+++.+++.+..+.+++.+++.+++.+++$$@@.oo+..$.%.",
"%%$$.+o+oo@@$$%+.o.+.o.+.o.+.+o++o+.+.o.+.o.+.o.+%$$@@oo+o+.$$%%",
"%%$$.+o+oo@@$$%+ooo+ooo+ooo+o+o++o+o+ooo+ooo+ooo+%$$@@oo+o+.$$%%",
".%.$..+oo@@@$$+++o+++o+++o+++o+oo+o+++o+++o+++o+++$$@@@oo+..$.%.",
"%....+o+@@@$$++#+++#+++#+++#++o++o++#+++#+++#+++#++$$@@@+o+....%",
"+##++.oo@@$$$#################++++#################$$$@@oo.++##+",
"+#&+++o@@@$$ #################&++&################# $$@@@o+++&#+",
"+##++.@@@$$  @@$$..@@$$   + ##+&&+## +   $$@@..$$@@  $$@@@.++##+",
"%#&++@@@$$  .@@$$.@@@$.+.+.+##++++##+.+.+.$@@@.$$@@.  $$@@@++&#%",
"+##++@@$$  .@@$$..@@$$..+...##++++##...+..$$@@..$$@@.  $$@@++##+",
"X#&++$$$  .@@$$$.@@@$XX.+$#+##++++##+#$+.XX$@@@.$$$@@.  $$$++&#X",
"%#&++$$  .@@@$$.@@@$XXXX+$#%##++++##%#$+XXXX$@@@.$$@@@.  $$++&#%",
"%#&+++  .@@@$$.@@@$XXoXX+$#+##&++&##+#$+XXoXX$@@@.$$@@@.  +++&#%",
"+#&+++ .@@@$$..@@$$XXoXX+$#%##+&&+##%#$+XXoXX$$@@..$$@@@. +++&#+",
"X##&++++@@$$$.@@@$XXooXX+$#+##++++##+#$+XXooXX$@@@.$$$@@++++&##X",
"X.##&+++$$$$..@@$XXoooXX+$#%##++++##%#$+XXoooXX$@@..$$$$+++&##.X",
"X+.##&+++++++++++++++ooX+$#+##++++##+#$+Xoo+++++++++++++++&##.+X",
"X++.##&+++++++++++++++oX+$#%##++++##%#$+Xo+++++++++++++++&##.++X",
"oX++.###&&&&&##&&#&##+oX+$#+##&++&##+#$+Xo+##&#&&##&&&&&###.++Xo",
"XoX++.###############.oX+$#%##+&&+##%#$+Xo.###############.++XoX",
"oXoX++.+.+.+.+.+.+.+.+oX+$#+##++++##+#$+Xo+.+.+.+.+.+.+.+.++XoXo",
"ooXoXXXXXXXXXXXXXXXXXXoX+++%##++++##%+++XoXXXXXXXXXXXXXXXXXXoXoo",
"++++++++++++++++++++++++$$++##++++##++$$++++++++++++++++++++++++",
"XXXXXXXXXXXXXXXXXXXXXXX$$$+%##&++&##%+$$$XXXXXXXXXXXXXXXXXXXXXXX",
"$$$$$$$$$$$$$$$$$$$$$$$$++%###+&&+###%++$$$$$$$$$$$$$$$$$$$$$$$$",
"+%%%+%%%+%%%+%%%+%%%+%%%+%### ++++ ###%+%%%+%%%+%%%+%%%+%%%+%%%+",
"%+%+%+%+%+%+%+%+%+%+%+%+%### X++++X ###%+%+%+%+%+%+%+%+%+%+%+%+%",
"########################### X++  ++X ###########################",
"#######&&#&###&#&&&##&&&&# X++ ++ ++X #&&&&##&&&#&###&#&&#######",
"                          X++.%%%%.++X                          ",
"XXXXXXXXXXXXXXXXXXXXXXXXXX+X++.++.++X+XXXXXXXXXXXXXXXXXXXXXXXXXX",
"+++++X+++X+++X+++X+++XX+++X++++  ++++X+++XX+++X+++X+++X+++X+++++",
"   +   +   +   +   +    +   ++ ++ ++   +    +   +   +   +   +   ",
"                            +      +                            "
};
