/* XPM */
static char *dummy[]={
"64 64 2286 2",
"Fz c #1c0e16",
"B8 c #20020f",
"z9 c #210f1b",
"db c #221d21",
"ce c #231b22",
"qS c #240d16",
"qT c #241119",
"aX c #241c23",
"lo c #242424",
"vv c #250f1c",
"Fn c #25121e",
"CB c #26061d",
"t9 c #260a16",
"Fs c #260e1e",
"Bl c #26121e",
"D7 c #270b24",
"kh c #270d10",
"BT c #280b20",
"Ex c #280b26",
"sS c #280e1f",
"br c #281420",
"DR c #282128",
"eh c #282828",
"BI c #290a21",
"Cx c #290c18",
"CT c #290e21",
"aV c #291121",
"v2 c #291221",
"gT c #291321",
"rL c #291d25",
"Gx c #2a0921",
"DD c #2a0a21",
"t4 c #2a141d",
"Cv c #2a1625",
"Bo c #2a1e27",
"rZ c #2a2229",
"en c #2a2b2a",
"u. c #2b0b1a",
"Cc c #2b0b22",
"ta c #2b0d22",
"GJ c #2b1122",
"jj c #2b1123",
"Dd c #2b1523",
"CL c #2b1526",
"GP c #2b1623",
"q2 c #2b1b25",
"AC c #2b1f20",
"o7 c #2b2129",
"zn c #2c0520",
"DC c #2c0823",
"qU c #2c0b15",
"EG c #2c0d23",
"em c #2c1224",
"Gr c #2c1324",
"pG c #2c132b",
"m# c #2c1424",
"D9 c #2c1524",
"kv c #2c2022",
"C4 c #2c232b",
"v# c #2c2c2c",
"kM c #2d081b",
"D. c #2d0924",
"mi c #2d151f",
"px c #2d1925",
"Ba c #2d2122",
"kV c #2e031f",
"y5 c #2e0a1a",
"Cl c #2e0e25",
"eq c #2e111d",
"sk c #2e122c",
"oK c #2e1526",
"Gv c #2e1626",
"Ha c #2e1726",
"kJ c #2e1727",
"mw c #2e1927",
"CG c #2f031f",
"ym c #2f0320",
"AM c #2f041c",
"oz c #2f0d29",
"oy c #2f1027",
"Bj c #2f141f",
"EQ c #2f161f",
"tw c #2f1627",
"ct c #2f1727",
"fa c #2f1a23",
"xX c #2f1a27",
"wX c #2f1d2c",
"kt c #2f2029",
"Ci c #300320",
"Cj c #300521",
"ED c #301628",
"CS c #301828",
"fP c #301c24",
"x3 c #31031d",
"uj c #31041d",
"vL c #31041e",
"Dx c #310421",
"lK c #310521",
"C0 c #31060f",
"zo c #310720",
"fT c #310b22",
"yL c #310f2d",
"EV c #311028",
"h6 c #311128",
"gk c #311227",
"Go c #311228",
"C. c #311229",
"iX c #311520",
"ji c #311829",
"t5 c #311b24",
"Cq c #311c29",
"Dw c #311e28",
"wO c #31222c",
"gM c #312839",
"lL c #320036",
"Cd c #320312",
"Dt c #320422",
"nJ c #32051e",
"vM c #320522",
"y7 c #320523",
"jC c #32061e",
"Ay c #320929",
"vQ c #320a1e",
"v. c #32122d",
"gl c #321329",
"n# c #32172a",
"zc c #321829",
"pL c #321b30",
"oF c #321d25",
"q3 c #321d2a",
"z6 c #321e30",
"xc c #322228",
"qZ c #323032",
"ek c #323232",
"BJ c #330419",
"iQ c #33061f",
"vP c #330622",
"vO c #330623",
"A9 c #330929",
"gK c #330c21",
"fe c #330c23",
"iC c #330e21",
"Fm c #33122a",
"gx c #331329",
"GK c #33132a",
"jO c #33142b",
"dx c #331627",
"f# c #331722",
"n. c #33182a",
"xE c #33192c",
"FF c #331a2b",
"yF c #331b1a",
"gN c #331b2b",
"eX c #331c2b",
"pf c #331d2b",
"j7 c #331d31",
"po c #331f26",
"CH c #331f27",
"D3 c #332127",
"d# c #33252f",
"xJ c #340624",
"ez c #340720",
"k# c #340724",
"t8 c #340821",
"fK c #341023",
"Bd c #341125",
"xP c #341222",
"CJ c #34142b",
"os c #341621",
"xZ c #34172b",
"DL c #341823",
"u6 c #341a26",
"Bx c #341a2c",
"oM c #341b2b",
"wa c #341c26",
"Gb c #341c2c",
"nc c #341d2c",
"vU c #341d2d",
"ha c #341e2b",
"ep c #341f29",
"Hk c #341f2c",
"cI c #342c33",
"hZ c #350821",
"Ac c #350825",
"BW c #350921",
"Aq c #350f24",
"Do c #351123",
"tQ c #351124",
"eA c #35112a",
"kN c #351224",
"E# c #351323",
"u8 c #35152c",
"qH c #35181c",
"n1 c #351a24",
"w7 c #351c1e",
"wT c #351c2b",
"hM c #351c2d",
"F2 c #351d2d",
"r4 c #351d2e",
"lw c #35222d",
"f1 c #352530",
"km c #36010b",
"vN c #360425",
"C3 c #360825",
"Et c #360922",
"gD c #360b1d",
"gJ c #360c25",
"vK c #360f19",
"lA c #361124",
"dh c #361128",
"d4 c #361224",
"bp c #36152d",
"cG c #36162d",
"w0 c #361930",
"EU c #361a1d",
"zK c #361a25",
"Ep c #361a26",
"z# c #361a29",
"u7 c #361b2f",
"xp c #361c33",
"Db c #361d2e",
"cX c #361e2e",
"pY c #361e35",
"Ef c #361f2e",
"jn c #36212a",
"GU c #36222d",
"iU c #370426",
"dp c #370922",
"AG c #370923",
"dZ c #370a23",
"n8 c #371025",
"eE c #371125",
"fJ c #371325",
"AF c #371428",
"E4 c #371525",
"lh c #37162e",
"r9 c #37172b",
"qc c #37172e",
"we c #37172f",
"zy c #371829",
"hD c #37182f",
"pg c #37191d",
"or c #371926",
"F5 c #37192f",
"pO c #371a25",
"A2 c #371b26",
"f3 c #371b30",
"vT c #371c26",
"fu c #371e2f",
"bI c #371f2f",
"yr c #37212a",
"iB c #372e36",
"E2 c #380927",
"zI c #380b24",
"t# c #380b28",
"DS c #380b29",
"pH c #380e18",
"t7 c #380e2b",
"t. c #380f2a",
"pm c #381025",
"EN c #38112b",
"ql c #381426",
"hS c #38142c",
"hn c #38182f",
"rs c #38192d",
"u2 c #381930",
"vJ c #381931",
"F3 c #381a30",
"x0 c #381b26",
"f9 c #381b2f",
"lg c #381c1e",
"eH c #381e31",
"vS c #381f2e",
"yB c #381f30",
"oL c #382030",
"cg c #382131",
"c4 c #382230",
"GS c #382430",
"uD c #382a34",
"yM c #39000b",
"wd c #390116",
"BZ c #390929",
"my c #390b25",
"f0 c #390c25",
"E1 c #390d25",
"tz c #39131c",
"lM c #391323",
"Ap c #391327",
"gu c #391428",
"fH c #391527",
"xb c #391628",
"dt c #391721",
"bP c #391930",
"D8 c #391a31",
"eB c #391b28",
"rc c #391c1a",
"EZ c #391c37",
"F9 c #392032",
"x9 c #3a0112",
"h1 c #3a020f",
"CC c #3a0a1a",
"j0 c #3a0c2a",
"xn c #3a0e26",
"jx c #3a121c",
"fh c #3a131c",
"gn c #3a132d",
"ld c #3a140e",
"yq c #3a1427",
"nE c #3a142c",
"xu c #3a142d",
"dU c #3a1628",
"mO c #3a171a",
"BB c #3a1729",
"pI c #3a1830",
"zP c #3a1931",
"oi c #3a1a2b",
"vo c #3a1a30",
"uE c #3a1a31",
"Aj c #3a1b31",
"Cm c #3a1b32",
"di c #3a1c2d",
"BV c #3a1d32",
"dM c #3a1e29",
"Fh c #3a2132",
"xY c #3a2232",
"cK c #3a2333",
"lk c #3a2631",
"yn c #3b0222",
"wP c #3b0a25",
"q0 c #3b0d2a",
"CK c #3b0e27",
"F8 c #3b0e2b",
"ht c #3b0f27",
"eJ c #3b0f2b",
"p. c #3b1019",
"xQ c #3b1128",
"fW c #3b141d",
"FL c #3b1429",
"kT c #3b151d",
"kb c #3b1529",
"sD c #3b1628",
"jo c #3b1629",
"gq c #3b1728",
"fS c #3b1729",
"q# c #3b172a",
"rM c #3b1829",
"x8 c #3b182a",
"qB c #3b1928",
"v1 c #3b1a32",
"oA c #3b1a35",
"fY c #3b1b32",
"l6 c #3b1c32",
"vg c #3b1c33",
"fO c #3b1f2a",
"mj c #3b272f",
"Ad c #3c0f28",
"BQ c #3c0f2d",
"DI c #3c1027",
"hX c #3c1028",
"zH c #3c102c",
"uH c #3c1129",
"jB c #3c1328",
"iO c #3c141e",
"u0 c #3c141f",
"nM c #3c1529",
"F# c #3c152f",
"tn c #3c161e",
"xv c #3c1627",
"wh c #3c1729",
"y8 c #3c172a",
"r8 c #3c181e",
"dY c #3c182a",
"e6 c #3c182b",
"v0 c #3c1b32",
"E7 c #3c1c33",
"DT c #3c2234",
"Gk c #3c2434",
"ho c #3d0b21",
"fD c #3d0b2d",
"BA c #3d0c27",
"hg c #3d1027",
"D# c #3d1028",
"mS c #3d1029",
"u5 c #3d102d",
"jt c #3d1129",
"Au c #3d112b",
"iN c #3d122d",
"nd c #3d122e",
"zW c #3d1230",
"A# c #3d131b",
"lG c #3d141d",
"k2 c #3d1518",
"ot c #3d1526",
"s7 c #3d152a",
"ne c #3d152d",
"cx c #3d152f",
"Ew c #3d1629",
"yY c #3d162a",
"vx c #3d1637",
"rX c #3d172a",
"rk c #3d172b",
"Gd c #3d1730",
"pc c #3d1a2b",
"gC c #3d1c31",
"AQ c #3d1d34",
"dq c #3d1e2c",
"i5 c #3d1e34",
"Fo c #3d212c",
"zJ c #3d222c",
"eI c #3d2535",
"ik c #3d2935",
"xI c #3e041a",
"to c #3e101e",
"lb c #3e121e",
"hs c #3e1220",
"dR c #3e122a",
"sC c #3e1324",
"Ae c #3e132a",
"qD c #3e132b",
"Af c #3e132d",
"yl c #3e132e",
"Du c #3e132f",
"tv c #3e142a",
"kQ c #3e152b",
"qP c #3e1534",
"wS c #3e162a",
"iT c #3e162b",
"Bg c #3e172a",
"uk c #3e1830",
"h# c #3e1e35",
"n7 c #3e1e3a",
"DK c #3e212d",
"BE c #3e273e",
"oG c #3e2c37",
"ru c #3f0618",
"s9 c #3f0626",
"DF c #3f0b2f",
"cP c #3f0e29",
"l5 c #3f0f1f",
"yk c #3f0f2c",
"mB c #3f1122",
"hc c #3f1230",
"rt c #3f1324",
"d0 c #3f132b",
"s6 c #3f132f",
"Cg c #3f142c",
"hx c #3f142d",
"zX c #3f142e",
"ty c #3f1512",
"w3 c #3f1519",
"E. c #3f152a",
"q8 c #3f152b",
"wg c #3f152d",
"AK c #3f1533",
"yG c #3f1621",
"gp c #3f1623",
"BU c #3f162a",
"nI c #3f1833",
"dk c #3f1930",
"Dr c #3f1c2d",
"FO c #3f1e36",
"hm c #3f1f36",
"GE c #3f2a37",
"j6 c #400426",
"tx c #40061e",
"jP c #40082f",
"u9 c #400933",
"zG c #400a2f",
"tG c #400c20",
"s8 c #400d29",
"d1 c #400f30",
"oT c #401020",
"pi c #401120",
"qR c #401123",
"BM c #401125",
"pt c #40112e",
"k. c #40122b",
"ui c #40132b",
"iK c #40132c",
"q1 c #40132f",
"pS c #401331",
"rh c #401424",
"mx c #40142b",
"ev c #40142c",
"vy c #40142d",
"lJ c #401430",
"pU c #401431",
"yK c #401435",
"Ao c #40152c",
"s4 c #40152d",
"FT c #401530",
"gr c #40162d",
"k0 c #401638",
"et c #401b34",
"yC c #401b36",
"d5 c #401c2e",
"i8 c #401f37",
"vf c #402037",
"e0 c #402838",
"hQ c #402d38",
"Bv c #404040",
"ih c #410013",
"iH c #41080c",
"gL c #410d1a",
"kk c #410e1b",
"ea c #410e30",
"zM c #411130",
"o0 c #411132",
"jG c #411216",
"yR c #41121f",
"cp c #41122c",
"zm c #41122f",
"kW c #41123a",
"h0 c #41132b",
"tk c #41132c",
"vR c #41142c",
"kK c #411431",
"l1 c #411519",
"rY c #411529",
"vE c #41152c",
"dQ c #41152d",
"xf c #41152e",
"ka c #411531",
"i# c #411623",
"x# c #41162e",
"s5 c #411630",
"q7 c #41172e",
"r0 c #411730",
"uJ c #411733",
"gI c #411830",
"xo c #411d2f",
"El c #412138",
"tb c #412238",
"zN c #41233a",
"kz c #412839",
"zg c #412939",
"uT c #420c14",
"wo c #420d1c",
"w1 c #420d22",
"lF c #420e19",
"ke c #421121",
"sW c #421122",
"C6 c #42112e",
"q9 c #42122a",
"wR c #42122c",
"xC c #42122f",
"AH c #42142c",
"d7 c #42162e",
"xK c #421632",
"qb c #42172e",
"ic c #421730",
"e2 c #421e30",
"FX c #424342",
"z0 c #430628",
"rw c #430721",
"v6 c #430a29",
"Eg c #430a31",
"vi c #430b2a",
"of c #430b43",
"tF c #430c22",
"uF c #430c2a",
"Az c #430f1a",
"qa c #430f26",
"jF c #431024",
"uV c #431033",
"v8 c #43112c",
"mp c #43122c",
"nt c #431235",
"FN c #431331",
"y0 c #431423",
"ml c #431434",
"j1 c #431534",
"sj c #431537",
"ws c #43163c",
"eG c #43172f",
"kU c #431733",
"ti c #431f32",
"u# c #44021a",
"ou c #440a2a",
"iD c #440b2b",
"w6 c #440b30",
"tE c #440c20",
"o5 c #440c2b",
"ib c #440d2f",
"uR c #440e12",
"tA c #440e24",
"tp c #440e25",
"mz c #440e26",
"nw c #440f24",
"qu c #44101b",
"nD c #44102c",
"tm c #44102d",
"o4 c #44102e",
"xq c #44122a",
"wQ c #44132e",
"vs c #44162e",
"py c #441634",
"in c #441733",
"c1 c #441734",
"i4 c #441830",
"Fe c #441834",
"E3 c #442032",
"Ck c #45082a",
"la c #450a1a",
"y6 c #450a46",
"vw c #450b1c",
"tq c #450b1d",
"r5 c #450b22",
"j3 c #450b2b",
"yT c #450d23",
"vh c #450d2c",
"xN c #450d2d",
"zu c #450e24",
"s. c #450e27",
"dl c #450e28",
"z2 c #450f24",
"pK c #450f27",
"tl c #450f2d",
"f. c #450f2e",
"lU c #45101c",
"n9 c #451028",
"A8 c #451032",
"mW c #45132e",
"pz c #451334",
"kf c #45133b",
"cT c #451630",
"xh c #451634",
"C# c #45182f",
"fl c #451931",
"dd c #451933",
"qm c #452134",
"uZ c #46051f",
"kw c #460610",
"ko c #46071f",
"zU c #460920",
"uP c #460a2b",
"hj c #460b27",
"re c #460c2c",
"qy c #460d2c",
"p# c #460d2d",
"wk c #460d31",
"Ax c #460e22",
"tH c #460e23",
"kP c #460e25",
"mM c #460e2d",
"qK c #460e35",
"Dq c #460f2d",
"t6 c #460f2e",
"si c #460f39",
"sh c #460f3a",
"go c #461033",
"l0 c #461034",
"uI c #461130",
"iY c #461223",
"ky c #461235",
"h7 c #46132a",
"iJ c #461a32",
"D0 c #461c32",
"mT c #462034",
"dJ c #46263d",
"aS c #462f3e",
"F4 c #46323f",
"Ev c #470720",
"AI c #470721",
"h9 c #470928",
"qA c #470a10",
"oj c #470a2a",
"vj c #470a2c",
"B# c #470b1d",
"s3 c #470b27",
"BR c #470c28",
"ub c #470c2d",
"tj c #470d24",
"vn c #470d25",
"gz c #470d2b",
"vr c #470d2c",
"xa c #470d2d",
"vF c #470e25",
"oo c #470e26",
"er c #470e2d",
"fN c #470e2e",
"rr c #470f2c",
"vD c #470f2e",
"mN c #470f30",
"nf c #470f31",
"ni c #470f34",
"y1 c #470f38",
"Ab c #471021",
"DY c #471236",
"ox c #471239",
"pu c #471b33",
"zS c #471c38",
"EB c #472234",
"BY c #472736",
"hG c #473440",
"ii c #48001a",
"pl c #480418",
"A5 c #48071d",
"kX c #480a1a",
"sF c #480a1b",
"v7 c #480b2c",
"u1 c #480c1d",
"qz c #480c1e",
"pW c #480c2d",
"nr c #480c2e",
"A7 c #480d23",
"yf c #480e2e",
"ri c #480e37",
"lR c #480f20",
"uK c #480f24",
"iI c #480f2e",
"EP c #480f2f",
"yp c #48102f",
"D1 c #481119",
"B9 c #48112f",
"Fl c #481133",
"he c #481326",
"zh c #481537",
"xg c #481938",
"B5 c #481d39",
"Dl c #48293f",
"dP c #483540",
"bT c #483541",
"pp c #49021c",
"sE c #49091c",
"zz c #490922",
"lC c #490a12",
"mm c #490a1f",
"gG c #490b15",
"p2 c #490b1f",
"dV c #490b23",
"ro c #490b2b",
"vC c #490c14",
"AB c #490c1e",
"kp c #490c26",
"hq c #490d2c",
"qO c #490d2d",
"o6 c #490d2e",
"oh c #490f2f",
"q. c #49102f",
"fp c #491230",
"hv c #491928",
"cO c #491b39",
"Bk c #491f35",
"xi c #492d40",
"vI c #4a0116",
"fV c #4a0521",
"rd c #4a061f",
"e9 c #4a071c",
"no c #4a091f",
"BC c #4a092d",
"qF c #4a0a13",
"om c #4a0a2f",
"nH c #4a0b20",
"wn c #4a0b23",
"qQ c #4a0b25",
"qt c #4a0c25",
"gF c #4a0d2c",
"ud c #4a0f30",
"uG c #4a102f",
"uc c #4a1030",
"Ec c #4a1139",
"yo c #4a1231",
"pJ c #4a1239",
"za c #4a163a",
"AX c #4a2d42",
"gS c #4a3442",
"fg c #4b0321",
"zB c #4b051b",
"rx c #4b0521",
"mt c #4b0620",
"gO c #4b0624",
"vp c #4b071c",
"tu c #4b072f",
"ju c #4b0926",
"BF c #4b0a20",
"ur c #4b0a2a",
"zF c #4b0c23",
"xd c #4b0d16",
"yJ c #4b0d26",
"nN c #4b0d30",
"uh c #4b0f22",
"np c #4b0f30",
"hC c #4b1131",
"FH c #4b1231",
"e7 c #4b1f37",
"qV c #4b232d",
"zC c #4c071b",
"s# c #4c0818",
"tP c #4c081c",
"sR c #4c0b1f",
"ps c #4c0d26",
"lP c #4c0e31",
"oa c #4c0f30",
"nq c #4c1031",
"rm c #4c113c",
"r6 c #4c1309",
"sT c #4c132a",
"hd c #4c142b",
"Av c #4c171f",
"AY c #4c1c3b",
"nO c #4c1f38",
"gt c #4c2038",
"BX c #4c2439",
"dB c #4c253f",
"du c #4c283b",
"f8 c #4c3544",
"H# c #4c494c",
"sP c #4d0009",
"vz c #4d001d",
"k5 c #4d0214",
"EX c #4d041f",
"x5 c #4d0525",
"gH c #4d061d",
"oU c #4d0916",
"xw c #4d091d",
"p7 c #4d0b1e",
"ua c #4d0b24",
"CY c #4d0e16",
"Dz c #4d1032",
"ob c #4d122c",
"zr c #4d1232",
"yQ c #4d1635",
"qp c #4d2139",
"jl c #4d2f45",
"A1 c #4d313b",
"h4 c #4d3244",
"w9 c #4e0016",
"BH c #4e0523",
"hy c #4e071c",
"pP c #4e071d",
"yP c #4e0930",
"id c #4e0a1f",
"vq c #4e0b1f",
"jM c #4e0e21",
"xG c #4e0e33",
"iF c #4e1534",
"ul c #4e1b26",
"Cn c #4e213a",
"kL c #4e233b",
"bl c #4e2f46",
"cL c #4e3744",
"aT c #4e3a46",
"l2 c #4f0013",
"pa c #4f001e",
"js c #4f0111",
"hr c #4f0213",
"zw c #4f051f",
"D5 c #4f0721",
"vA c #4f0934",
"yO c #4f0f24",
"qx c #4f1029",
"k6 c #4f1234",
"Fj c #4f1435",
"rN c #4f233b",
"gB c #4f2e44",
"Bp c #4f3b47",
"r# c #50011b",
"Cb c #50041f",
"DX c #500430",
"fb c #500520",
"DA c #500822",
"oB c #500832",
"rv c #500923",
"ya c #500b20",
"tD c #500c18",
"lZ c #500d18",
"zl c #501028",
"dN c #501a38",
"hU c #502f44",
"z. c #503640",
"jD c #510214",
"i. c #510315",
"r. c #51051f",
"uX c #510622",
"nm c #510a25",
"hW c #510a27",
"xB c #510b25",
"xz c #511019",
"G1 c #513d49",
"At c #513f45",
"Hi c #514f4c",
"h3 c #52021c",
"mR c #520224",
"zb c #520539",
"xL c #520717",
"z3 c #520722",
"mq c #520923",
"vm c #520929",
"nj c #520a22",
"tO c #520e22",
"pV c #521137",
"tR c #522f40",
"pA c #523d4b",
"cZ c #523f4b",
"qL c #530316",
"r3 c #530515",
"kZ c #53111e",
"Fc c #531e42",
"DU c #532142",
"vZ c #53344a",
"DW c #533a46",
"eP c #533a49",
"xy c #540322",
"wp c #540523",
"EY c #540722",
"ye c #540823",
"jq c #54092c",
"Eu c #540b1c",
"hu c #54101b",
"sZ c #54101c",
"zs c #541534",
"Bi c #54263f",
"e4 c #543a42",
"AN c #543b45",
"bR c #545454",
"wf c #550a1b",
"lE c #550c23",
"C8 c #550c26",
"wU c #551226",
"kl c #551d44",
"kC c #55354b",
"gy c #554957",
"pZ c #560018",
"p6 c #56001a",
"yh c #560424",
"y# c #560619",
"rC c #560620",
"jK c #560925",
"DB c #560a25",
"Bh c #560f18",
"DE c #563b46",
"Ag c #56414e",
"oc c #570019",
"lW c #570123",
"j8 c #570227",
"iW c #570415",
"D6 c #570b26",
"v9 c #570c20",
"u4 c #571024",
"cQ c #571c3e",
"cc c #573249",
"i2 c #580022",
"sX c #580428",
"C9 c #580c27",
"uY c #581032",
"wm c #581831",
"Dp c #581a3d",
"C7 c #581a3e",
"hT c #585157",
"le c #590029",
"BK c #59021a",
"lS c #590527",
"DJ c #592d45",
"q4 c #593547",
"ms c #5a0023",
"p4 c #5a0427",
"qq c #5a091c",
"lD c #5a0a1d",
"mn c #5a0a2c",
"pn c #5a1d3f",
"uQ c #5a1d40",
"tC c #5b001e",
"l3 c #5b0027",
"gw c #5b0627",
"uq c #5b0a2b",
"A. c #5b0b1e",
"o1 c #5b102b",
"xM c #5b1221",
"uf c #5b172d",
"CD c #5c001b",
"uO c #5c051e",
"sG c #5c061b",
"Bf c #5c061f",
"qv c #5c082a",
"w# c #5c092f",
"od c #5c0c31",
"pR c #5c0f13",
"Ar c #5c1b41",
"yX c #5d0115",
"gP c #5d052c",
"hV c #5d072d",
"zD c #5d092e",
"pd c #5d0d2e",
"oq c #5d0d4a",
"xF c #5d1c42",
"bn c #5d4955",
"wZ c #5e0018",
"jw c #5e0024",
"AE c #5e0216",
"Cz c #5e021a",
"yi c #5e0330",
"y3 c #5e0431",
"sg c #5e071a",
"CE c #5e0923",
"k4 c #5e0a2c",
"zq c #5e0b1e",
"ny c #5e1025",
"eu c #5e3149",
"nB c #5f001d",
"nl c #5f011b",
"AL c #5f0217",
"o3 c #5f031d",
"nz c #5f0b2d",
"ci c #5f4156",
"mF c #600222",
"z5 c #600418",
"s2 c #600623",
"BO c #600a25",
"mv c #600a2f",
"Be c #600b24",
"Ch c #600b25",
"tN c #600e2e",
"ks c #602b37",
"Dy c #603450",
"zR c #604756",
"CZ c #610221",
"Bc c #610519",
"iR c #610818",
"nx c #610822",
"zZ c #611421",
"xx c #621225",
"Ai c #62545e",
"zE c #63001e",
"oC c #630121",
"jz c #630b1b",
"wc c #630b21",
"BS c #63103a",
"oV c #631323",
"n2 c #63142f",
"bK c #634a57",
"yZ c #64031e",
"zk c #640323",
"D2 c #640632",
"mL c #640740",
"x. c #640c25",
"rl c #640f3b",
"k9 c #641033",
"l. c #641122",
"CF c #65011c",
"fR c #653f4c",
"rG c #656565",
"BP c #66011d",
"Aa c #66022e",
"sH c #660621",
"xr c #660722",
"oD c #660726",
"mE c #660736",
"wY c #660946",
"Fk c #664a55",
"Hc c #665e65",
"ET c #670024",
"rW c #67051b",
"BG c #67061d",
"pk c #67071a",
"x7 c #670830",
"AJ c #67091f",
"u3 c #670a1f",
"sf c #670b1f",
"vu c #670e27",
"z1 c #67103f",
"tM c #671135",
"uL c #67182b",
"qs c #671f33",
"Da c #67465b",
"wr c #680025",
"oW c #680424",
"kR c #680820",
"s1 c #680828",
"sY c #680838",
"o8 c #680a2b",
"kx c #681c38",
"r1 c #681c47",
"if c #682530",
"iE c #685e5f",
"nC c #69001a",
"mD c #690325",
"lI c #690334",
"x6 c #690827",
"z7 c #69082f",
"yS c #690929",
"y. c #69092a",
"yI c #690c2a",
"ra c #690e29",
"w5 c #690f35",
"oX c #69142a",
"Ca c #69152d",
"pb c #692344",
"lj c #69455c",
"CA c #694964",
"i0 c #6a0112",
"zY c #6a0323",
"lf c #6a0829",
"mP c #6a0a27",
"Ce c #6a0a2a",
"vH c #6a0b2b",
"sQ c #6a0b32",
"kc c #6a0c1d",
"fj c #6a465a",
"cM c #6a4c61",
"eF c #6a545b",
"GZ c #6a6968",
"ng c #6b001d",
"yH c #6b0029",
"n3 c #6b0326",
"rP c #6b061b",
"BN c #6b0628",
"se c #6b0717",
"rV c #6b081e",
"jr c #6b0a2d",
"kj c #6b0b2a",
"wb c #6b0d35",
"nh c #6b0d37",
"oe c #6b103e",
"ug c #6b173a",
"tB c #6b1d2e",
"uN c #6b1d39",
"yN c #6c0014",
"jI c #6c0125",
"nn c #6c0425",
"k7 c #6c061c",
"Bb c #6c062a",
"rO c #6c0718",
"A6 c #6c071e",
"pM c #6c0723",
"zt c #6c0b2b",
"mH c #6c0c34",
"s0 c #6c0f2c",
"lO c #6c1025",
"rn c #6c102d",
"tr c #6c1131",
"tI c #6c153b",
"qr c #6c1c2f",
"vl c #6c2243",
"fG c #6c415e",
"zT c #6d0005",
"xH c #6d011e",
"sa c #6d0122",
"rB c #6d0429",
"xs c #6d0524",
"lN c #6d071e",
"yd c #6d0723",
"z4 c #6d072b",
"sI c #6d0825",
"hz c #6d0835",
"ph c #6d093b",
"iV c #6d0a2b",
"y2 c #6d0c2c",
"rb c #6d1f3c",
"dy c #6d4e63",
"l4 c #6e011b",
"xD c #6e0618",
"yW c #6e072a",
"zx c #6e072c",
"kS c #6e072d",
"yj c #6e0824",
"yU c #6e0826",
"mr c #6e092e",
"vk c #6e1a3f",
"d3 c #6e2940",
"dj c #6e4857",
"lY c #6f0016",
"w2 c #6f021c",
"vt c #6f0310",
"xt c #6f0322",
"p8 c #6f0335",
"zv c #6f061f",
"Aw c #6f0625",
"yb c #6f072a",
"AD c #6f092d",
"dm c #6f0e3b",
"tL c #6f1a3c",
"bM c #6f5067",
"FR c #6f5465",
"lH c #70000d",
"sd c #700015",
"nk c #700319",
"mu c #700721",
"qN c #70152f",
"ok c #701943",
"on c #701d43",
"pX c #701e2f",
"fL c #70435c",
"nK c #70445c",
"rT c #710019",
"mI c #71001c",
"ff c #710020",
"wW c #71010f",
"ow c #71032a",
"sJ c #71042b",
"ns c #710822",
"z8 c #710826",
"o# c #71082b",
"rj c #711d3b",
"ry c #712e4e",
"G# c #715867",
"Ds c #715a60",
"fU c #720020",
"Cf c #720022",
"wq c #720632",
"wj c #721a3e",
"yV c #722041",
"j5 c #724f60",
"GX c #72616d",
"zj c #730022",
"Dv c #730024",
"zp c #73022b",
"o. c #73041d",
"w4 c #731232",
"wl c #731b44",
"pj c #731c3e",
"j9 c #740011",
"zA c #740024",
"l# c #740026",
"ia c #74011f",
"vG c #740128",
"rU c #740219",
"rS c #740525",
"mQ c #740c2d",
"uW c #74153d",
"mG c #741839",
"kg c #741a47",
"qC c #741b51",
"zV c #744a50",
"FU c #74546b",
"x1 c #74575e",
"wV c #75000d",
"ki c #750124",
"C5 c #750125",
"rR c #750635",
"tK c #75133b",
"wi c #751434",
"ol c #751737",
"EC c #755463",
"A3 c #75626a",
"Eb c #75636f",
"qw c #760018",
"p3 c #76001a",
"lV c #76001f",
"xe c #760020",
"kr c #760021",
"uS c #760030",
"yg c #760121",
"mK c #760124",
"pQ c #760214",
"rQ c #760236",
"uy c #761033",
"nu c #761231",
"pe c #761738",
"y4 c #770024",
"k3 c #770029",
"o2 c #770121",
"iG c #77052f",
"rf c #77153f",
"uM c #771738",
"do c #775365",
"f6 c #77575b",
"pN c #780018",
"w. c #78002b",
"AA c #780327",
"nv c #781234",
"mC c #781433",
"uU c #781838",
"nL c #785766",
"Ek c #786470",
"yc c #791134",
"rq c #791c51",
"mo c #793258",
"By c #79506c",
"vV c #79616f",
"rK c #796662",
"lX c #7a0425",
"gv c #7a0b3c",
"dW c #7a1235",
"tJ c #7a1236",
"rp c #7a1e3e",
"kO c #7a435a",
"lB c #7a5769",
"cs c #7a6272",
"p9 c #7b0018",
"pr c #7b0025",
"rA c #7b0135",
"p5 c #7b1b3b",
"xm c #7b6673",
"nG c #7c0013",
"ue c #7c132b",
"xA c #7c1437",
"rF c #7c6365",
"AP c #7c6374",
"EA c #7c7179",
"uw c #7d0b2b",
"sK c #7d0d35",
"um c #7d112b",
"rz c #7e0136",
"up c #7e1338",
"A4 c #7e5665",
"ew c #7e5a6b",
"B. c #7f0a2e",
"jy c #7f0b36",
"ux c #7f0c30",
"uv c #7f0d2d",
"p0 c #800a38",
"BL c #801030",
"ie c #801e35",
"Gp c #807366",
"ix c #80777e",
"yx c #807e77",
"us c #820c24",
"vB c #820d4a",
"qM c #82123b",
"iL c #830433",
"sO c #83122f",
"fM c #83143c",
"Hl c #837b82",
"fX c #840438",
"uo c #840934",
"qW c #845464",
"De c #846e78",
"mV c #856b72",
"sy c #875c78",
"G6 c #876f7f",
"bO c #87727f",
"tt c #880e45",
"ts c #881142",
"ex c #882043",
"FZ c #888682",
"ut c #890430",
"iP c #891540",
"fk c #89677b",
"qI c #8a0730",
"rg c #8a1641",
"th c #8a6570",
"sx c #8a667e",
"GC c #8a7682",
"sw c #8a857e",
"lQ c #8b0146",
"uu c #8b0631",
"dS c #8b6573",
"jA c #8c0c33",
"CI c #8c6e85",
"r7 c #8d053b",
"nF c #8d1d41",
"k1 c #8e1450",
"G2 c #8e6c74",
"na c #8e7186",
"ap c #8e877d",
"sV c #8f1d4d",
"xO c #8f5d6d",
"fo c #8f8a8b",
"uz c #902b49",
"sz c #906c7e",
"sU c #910434",
"r2 c #91284c",
"mA c #930725",
"w8 c #940341",
"un c #940f3a",
"cf c #948c93",
"mJ c #95204a",
"tc c #95778c",
"tS c #96878b",
"sl c #97717f",
"iM c #981938",
"op c #982242",
"FD c #987c7d",
"hh c #994666",
"ck c #996a82",
"mk c #997d90",
"lT c #9a264b",
"qJ c #9a2852",
"E0 c #9a7b91",
"h2 c #9b0a2b",
"sc c #9b1a41",
"i3 c #9c3240",
"hk c #9c847d",
"p1 c #9d3d5c",
"q5 c #9d797d",
"G7 c #9d7f84",
"kq c #9e1744",
"hi c #9f2448",
"k8 c #9f2746",
"gE c #a0173c",
"og c #a0294c",
"sA c #a07c8e",
"t3 c #a08b94",
"xR c #a08e83",
"wC c #a18d99",
"qG c #a23a5e",
"Ee c #a2979b",
"Fd c #a2a2a1",
"jH c #a30e41",
"lc c #a3356b",
"wB c #a38b9b",
"fZ c #a4849b",
"v3 c #a48994",
"eC c #a5386b",
"e8 c #a5686c",
"g5 c #a69b8d",
"fd c #a8838a",
"wA c #a88c9c",
"pT c #a93c5d",
"hf c #a97d95",
"n6 c #a9a7a4",
"jE c #aa234f",
"sb c #aa2f54",
"kY c #ab193f",
"fi c #ab295e",
"sL c #ab3054",
"kn c #ad1231",
"iZ c #ae2a5c",
"iS c #ae2e55",
"es c #ae97a6",
"wz c #af8a8d",
"e1 c #af9598",
"i7 c #af9798",
"fc c #b02346",
"jL c #b0264a",
"sN c #b02658",
"sM c #b02f57",
"Fi c #b099a0",
"Fv c #b09ca8",
"o9 c #b13069",
"jv c #b22649",
"wD c #b2928f",
"j4 c #b297a0",
"pq c #b33850",
"l8 c #b38b8f",
"sB c #b38b96",
"B0 c #b3998f",
"BD c #b49490",
"f4 c #b4979b",
"ov c #b51b40",
"m. c #b5989e",
"fQ c #b6274c",
"C1 c #b68b97",
"uA c #b68d8b",
"F6 c #b6aeb5",
"h8 c #b72747",
"wy c #b79084",
"Ak c #b7b2b2",
"hw c #b896a2",
"kd c #b9154d",
"gA c #b92146",
"ku c #b9245f",
"hp c #b92949",
"nA c #ba2e5d",
"fn c #baa6b2",
"hl c #bb1f45",
"h5 c #bc1f45",
"qE c #bc3160",
"an c #bcbab9",
"wx c #bd9d84",
"nU c #bd9d90",
"yE c #be989a",
"Cy c #c0a7ba",
"GI c #c0ae97",
"cu c #c29eb0",
"dL c #c2a3a4",
"FV c #c2a9b3",
"GY c #c2abba",
"wt c #c3a485",
"xW c #c3afbb",
"rE c #c4a0a1",
"pw c #c4abb3",
"Ge c #c4b6a6",
"cS c #c59faf",
"cn c #c59fb1",
"bS c #c5b5a2",
"bh c #c6aab7",
"md c #c7ae95",
"AZ c #c89e9d",
"Bn c #c8aa8c",
"oZ c #ca9ea9",
"cr c #caaa91",
"Er c #cab0c2",
"Dm c #cab3be",
"y9 c #cbad9d",
"dc c #cbb8b4",
"ww c #ccac92",
"EE c #ccb393",
"DZ c #ccbebf",
"ft c #cda5a9",
"x2 c #cdadb3",
"df c #cdb9ba",
"As c #cea892",
"dz c #cfad98",
"bt c #cfae90",
"lz c #cfb194",
"qk c #d0b5b9",
"Gc c #d1a7a0",
"Eq c #d2b0b3",
"lx c #d2d0bd",
"dr c #d3aaa8",
"wu c #d3b998",
"t2 c #d4b28b",
"B7 c #d4bb8b",
"Gw c #d4c1a8",
"cR c #d5b096",
"cW c #d5b0ad",
"eK c #d5c7c2",
"A0 c #d6aa9b",
"fm c #d7aea8",
"wv c #d7b697",
"dC c #d7b99b",
"cC c #d9b78a",
"FW c #d9c9c1",
"aO c #dab78a",
"cm c #dab796",
"fF c #dabe9e",
"c8 c #dbb88a",
"Dk c #dbb98b",
"CN c #dbba8f",
"CM c #dbbc92",
"iy c #dbbda3",
"xV c #dbbe98",
"F. c #dbc094",
"yv c #dbc3a3",
"uC c #dbc3b3",
"kG c #dcb98c",
"FY c #dcb98d",
"va c #dcba8d",
"E8 c #dcc2af",
"F0 c #dcc3a2",
"cv c #dcc6aa",
".2 c #ddb88a",
"eR c #ddba8c",
"DQ c #ddba8d",
"EK c #ddbb8d",
"a9 c #ddbb8e",
"b2 c #ddbc8c",
"oJ c #ddbd9f",
"aP c #ddbe91",
"bL c #ddc08d",
"fE c #ddc696",
"GG c #ddca98",
"B6 c #deb691",
"oE c #deb89c",
"eD c #deb99e",
"#o c #deba8b",
".1 c #deba8c",
"i1 c #deba9b",
"B2 c #debb8c",
"#S c #debb8d",
"Ei c #debb8e",
"Ea c #debb8f",
"#T c #debc8e",
"CW c #debc97",
"xU c #debd90",
"cJ c #debda1",
"B4 c #debe8e",
"al c #dec097",
"cH c #dec099",
"FE c #dec496",
"oR c #dec695",
"q6 c #dfb0b5",
"bA c #dfbb8c",
"d6 c #dfbb8d",
"tg c #dfbb8e",
"c2 c #dfbc8d",
".8 c #dfbc8e",
"HH c #dfbc8f",
"EO c #dfbc9a",
"#b c #dfbd8f",
"aU c #dfbd93",
"vY c #dfbe8d",
"#c c #dfbe8e",
"HJ c #dfbe93",
"Es c #dfbf8e",
"wJ c #dfc59b",
"GW c #dfc5a3",
"b# c #e0bb8d",
"fw c #e0bc8d",
"cy c #e0bc8e",
"#C c #e0bc8f",
"#U c #e0bd8e",
"a8 c #e0bd8f",
"tf c #e0bd90",
"ys c #e0bd91",
"cB c #e0be90",
"#V c #e0bf8f",
"ak c #e0bf93",
"wE c #e0bfa5",
"bb c #e0c091",
"g# c #e0c092",
"Hd c #e0c096",
"bz c #e1bc8d",
"#p c #e1bc8e",
"GD c #e1bc8f",
"aW c #e1bd8e",
"GB c #e1bd8f",
"#X c #e1bd90",
".7 c #e1be8f",
"Qt c #e1be90",
"#D c #e1be91",
"CV c #e1be92",
"## c #e1bf91",
"dH c #e1bf92",
"aJ c #e1c090",
"bs c #e1c092",
"am c #e1c094",
"#a c #e1c191",
"dD c #e1c192",
"HK c #e1c195",
"ER c #e1c295",
"G0 c #e1c298",
"wL c #e1c698",
"it c #e2bc8e",
"bC c #e2bd8e",
"aK c #e2bd8f",
"il c #e2bd90",
"g. c #e2bd95",
"cw c #e2be8e",
"c9 c #e2be8f",
".W c #e2be90",
"oQ c #e2be91",
"tZ c #e2be93",
"im c #e2be95",
"#x c #e2bf90",
"a3 c #e2bf91",
".5 c #e2bf92",
"Dj c #e2c092",
"HG c #e2c093",
"c7 c #e2c191",
"Hn c #e2c196",
"Hp c #e2c293",
"bN c #e2c296",
"FB c #e2c494",
"GL c #e3ba9f",
"iz c #e3bc98",
"gg c #e3bd8f",
"EM c #e3bd9c",
"E5 c #e3be8e",
"b1 c #e3be8f",
"ax c #e3be90",
"iv c #e3be91",
"GO c #e3be9a",
"yt c #e3be9b",
"bJ c #e3bf8f",
"aZ c #e3bf90",
"c. c #e3bf91",
"#0 c #e3bf92",
"ly c #e3bf97",
"#m c #e3c091",
"c0 c #e3c092",
"#I c #e3c093",
"ei c #e3c094",
"bB c #e3c190",
"aA c #e3c193",
"#3 c #e3c194",
"FG c #e3c196",
"bq c #e3c292",
"iA c #e3c293",
"wK c #e3c294",
"ee c #e3c297",
"AS c #e3c393",
"xT c #e3c394",
"tW c #e3c397",
"Df c #e3c596",
"bG c #e3c8a2",
"cl c #e4b4b6",
"GF c #e4bcb8",
"b. c #e4be8f",
"kH c #e4be90",
"Bz c #e4be91",
"AV c #e4bf8f",
"aE c #e4bf90",
"bF c #e4bf91",
"hI c #e4bf92",
"F1 c #e4bf96",
"AW c #e4c090",
"aH c #e4c091",
".Z c #e4c092",
"#s c #e4c093",
"Bm c #e4c094",
"Ga c #e4c095",
".Y c #e4c192",
"a0 c #e4c193",
"oH c #e4c194",
"vX c #e4c291",
"aL c #e4c294",
"vb c #e4c295",
"ES c #e4c298",
"ga c #e4c392",
"cb c #e4c393",
"gh c #e4c398",
"dn c #e4c39e",
"v4 c #e4c3ad",
"bo c #e4c494",
"Fb c #e4c495",
"Ho c #e4c498",
"ln c #e4d1c4",
"Gq c #e5bc9b",
"kE c #e5bf90",
".0 c #e5bf91",
"Bu c #e5c090",
"a7 c #e5c091",
"#R c #e5c092",
"#l c #e5c191",
".o c #e5c192",
"eQ c #e5c193",
"Ah c #e5c199",
"ij c #e5c1a5",
"zL c #e5c1a6",
"ay c #e5c293",
"bY c #e5c294",
"dI c #e5c297",
"B1 c #e5c392",
"aI c #e5c395",
"CO c #e5c493",
"ah c #e5c494",
"Dn c #e5c495",
"cN c #e5c496",
"e# c #e5c497",
"ds c #e5c49f",
".S c #e5c595",
".w c #e5c596",
"oI c #e5c597",
"AR c #e5c598",
"gm c #e5c599",
"Gs c #e5c792",
"eY c #e5cd9b",
"fq c #e5ce97",
"ze c #e5cf9f",
"yu c #e6bea2",
"Ej c #e6c191",
"fx c #e6c192",
".j c #e6c193",
"Hb c #e6c198",
"aj c #e6c292",
"#Q c #e6c293",
".g c #e6c294",
"i6 c #e6c295",
"#H c #e6c394",
"#4 c #e6c395",
"#J c #e6c396",
"CP c #e6c493",
".x c #e6c496",
"gj c #e6c497",
"wI c #e6c594",
"#L c #e6c595",
"eb c #e6c696",
"Ft c #e6c697",
"ig c #e6d2a4",
"hY c #e7b3bf",
"DM c #e7bca5",
"b9 c #e7bf8f",
"#n c #e7c192",
"mc c #e7c193",
"fC c #e7c196",
"l9 c #e7c197",
"dE c #e7c292",
"d. c #e7c293",
"g7 c #e7c294",
"GR c #e7c295",
"t0 c #e7c297",
"#5 c #e7c393",
".v c #e7c394",
".# c #e7c395",
"oN c #e7c396",
"aY c #e7c397",
"#d c #e7c495",
".T c #e7c496",
"wF c #e7c497",
"DO c #e7c593",
"#1 c #e7c594",
"E6 c #e7c595",
"Hg c #e7c597",
"tV c #e7c598",
"yy c #e7c599",
"mg c #e7c59a",
"eO c #e7c5a0",
"Gf c #e7c695",
"bZ c #e7c696",
"FA c #e7c6a5",
"cE c #e7cfaf",
"gR c #e7d09e",
"fr c #e8b9a3",
".i c #e8c190",
"GQ c #e8c290",
".h c #e8c293",
"ad c #e8c393",
".s c #e8c394",
"g2 c #e8c395",
"ca c #e8c494",
"#W c #e8c495",
"#B c #e8c496",
"kF c #e8c497",
"c# c #e8c593",
"GH c #e8c595",
"ej c #e8c596",
"nQ c #e8c597",
"c5 c #e8c694",
"#6 c #e8c695",
"kA c #e8c696",
"mf c #e8c698",
"FJ c #e8c69a",
"bH c #e8c796",
".p c #e8c797",
"Em c #e8c897",
"ma c #e8c899",
"bg c #e8c89a",
"zd c #e8ce9c",
"yz c #e8d19f",
"vd c #e9bdaa",
"te c #e9c191",
"pF c #e9c29d",
"io c #e9c2a9",
".I c #e9c394",
"cz c #e9c39c",
"be c #e9c494",
"#z c #e9c495",
"jV c #e9c496",
"GM c #e9c497",
"kB c #e9c49b",
"zO c #e9c591",
".O c #e9c595",
"#t c #e9c596",
"da c #e9c597",
"H. c #e9c598",
"Gt c #e9c59d",
"c6 c #e9c694",
"a4 c #e9c697",
".6 c #e9c698",
"b4 c #e9c796",
"yw c #e9c797",
"HO c #e9c799",
"Fp c #e9c79b",
"wH c #e9c897",
"Hf c #e9c898",
"HI c #e9c999",
"fs c #e9cd9a",
"f5 c #eab3bb",
"aQ c #eabca0",
"gf c #eac192",
"eg c #eac392",
"Bt c #eac492",
"eV c #eac495",
".K c #eac595",
"#j c #eac596",
"eT c #eac597",
".Q c #eac696",
"#y c #eac697",
"ss c #eac698",
"jh c #eac699",
"Cs c #eac795",
".y c #eac798",
"qX c #eac799",
"tY c #eac79a",
"D4 c #eac79e",
"dK c #eac79f",
"Ez c #eac7aa",
"Am c #eac896",
".X c #eac897",
"tX c #eac89a",
"mh c #eac89b",
"aR c #eac998",
"wG c #eac999",
"de c #eac99b",
"cV c #eac9b0",
"EH c #eacab8",
"tU c #eacb9b",
"GN c #eacd9d",
"wM c #eace9b",
"qe c #eace9c",
"CX c #eaceb2",
"Cu c #eacf9f",
"FI c #ebbab5",
"e3 c #ebbd9e",
"gQ c #ebc39d",
"Fr c #ebc3a0",
"Bw c #ebc493",
"eM c #ebc593",
".V c #ebc596",
"g3 c #ebc597",
".r c #ebc696",
".F c #ebc697",
"E9 c #ebc795",
"b3 c #ebc797",
"a1 c #ebc798",
"ab c #ebc799",
"sr c #ebc79a",
"Gu c #ebc79c",
"G5 c #ebc79f",
"An c #ebc7a9",
"#i c #ebc896",
"#r c #ebc899",
"m7 c #ebc89a",
"zQ c #ebc89e",
"ef c #ebc997",
"aM c #ebc998",
"m9 c #ebc99b",
"DV c #ebcb98",
"jR c #ebd6a5",
"FP c #ecbfaa",
"me c #ecc29a",
"ve c #ecc2a2",
".f c #ecc493",
"b7 c #ecc594",
"iw c #ecc59c",
"ac c #ecc694",
"jS c #ecc696",
"Ct c #ecc697",
".b c #ecc797",
"jT c #ecc798",
"uB c #ecc799",
"ch c #ecc7a3",
"at c #ecc898",
"kD c #ecc899",
"qf c #ecc89a",
"ba c #ecc997",
".4 c #ecc99a",
"bv c #ecca99",
"m3 c #ecca9b",
"HA c #ecca9c",
"qg c #ecca9d",
"Dg c #eccb99",
"HM c #eccb9b",
"yD c #eccba0",
"DP c #eccba2",
"m2 c #eccc9c",
"vW c #eccca5",
"dA c #eccd9c",
"cj c #eccda0",
"Eo c #ecce98",
"jp c #edb5be",
"FK c #edb7bd",
"dv c #edc2a0",
"aD c #edc594",
"GT c #edc5b5",
"CR c #edc695",
"by c #edc795",
"Cw c #edc796",
"g6 c #edc798",
"G. c #edc894",
".J c #edc898",
"cF c #edc899",
"bf c #edc999",
"#A c #edc99a",
"is c #edc99b",
"dO c #edca98",
"mb c #edca9b",
"td c #edca9c",
"nR c #edcaa0",
"bQ c #edcb99",
"cA c #edcb9a",
"DH c #edcba6",
"Hr c #edcc9b",
"EW c #edcc9e",
"fB c #edcd9d",
"e. c #edcdb9",
"pB c #eec59f",
"Hw c #eec69c",
"oS c #eec6ab",
"bm c #eec795",
".a c #eec796",
"FM c #eec79c",
"#w c #eec896",
"hP c #eec899",
".E c #eec999",
"hH c #eec99a",
".9 c #eeca9a",
"fA c #eeca9b",
"m8 c #eeca9d",
".P c #eecb99",
".C c #eecb9c",
"gb c #eecc9a",
"aB c #eecc9b",
"zf c #eecd9b",
"hR c #eecd9e",
"sp c #eecf9d",
"x4 c #eecfa7",
"bV c #eed5bb",
"FS c #eed8a2",
"DG c #efc0a3",
"cq c #efc4a5",
"EL c #efc795",
"Hv c #efc796",
"aw c #efc896",
".L c #efc897",
".R c #efc997",
"eU c #efc99a",
"ey c #efc9cc",
".B c #efca9a",
"dg c #efca9b",
"gU c #efca9c",
"t1 c #efca9e",
"dw c #efcaad",
"f7 c #efcb98",
"#Z c #efcb9b",
"Hj c #efcb9c",
"AO c #efcb9e",
".n c #efcc9a",
"Hs c #efcc9d",
"sm c #efcc9e",
"EI c #efcd9b",
"gY c #efcd9c",
"G8 c #efcda1",
"jN c #efd09f",
"bk c #efd5a0",
"gs c #f0bcb7",
"ed c #f0c59f",
"Gy c #f0c6a6",
"#u c #f0c997",
"#Y c #f0c998",
".u c #f0ca98",
"zi c #f0ca9b",
"Eh c #f0cb99",
".t c #f0cb9b",
"Hy c #f0cb9c",
"kI c #f0cba8",
"az c #f0cc98",
".M c #f0cc9c",
"lq c #f0cc9d",
"GA c #f0cc9f",
"ae c #f0cd9b",
"#E c #f0cd9e",
"gV c #f0ce9c",
"HC c #f0ce9d",
"HR c #f0cf9d",
"yA c #f0cf9e",
"gW c #f0d09d",
"hF c #f0d0a9",
"aa c #f1c998",
"Gm c #f1ca97",
"eN c #f1ca98",
"#G c #f1ca99",
".U c #f1cb99",
"B3 c #f1cb9a",
"gd c #f1cb9c",
"eo c #f1cb9e",
"DN c #f1cc98",
"#e c #f1cc9c",
"HQ c #f1cc9d",
".k c #f1cd9d",
".3 c #f1cd9e",
"cY c #f1cda4",
".z c #f1ce9c",
"Hx c #f1ce9d",
"Hz c #f1ce9f",
"Ht c #f1cf9e",
"eW c #f1d09e",
"f2 c #f2caa4",
"a5 c #f2cb98",
"b5 c #f2cb99",
".A c #f2cb9a",
"#h c #f2cc9a",
"He c #f2cca5",
"Dh c #f2cd99",
"EF c #f2cd9b",
"#q c #f2cd9d",
"g4 c #f2cd9e",
"Gh c #f2cd9f",
"Cp c #f2cdaa",
"En c #f2ce9a",
"bu c #f2ce9e",
"nW c #f2ce9f",
"gX c #f2cf9d",
"Hh c #f2d09e",
"CQ c #f2d09f",
"qY c #f2d1a1",
"Hu c #f2d2a4",
"jQ c #f3c7b0",
"b6 c #f3ca98",
"#K c #f3cb9a",
"co c #f3cbaf",
"Fa c #f3cc99",
".c c #f3cc9a",
"#7 c #f3cc9b",
"G4 c #f3cc9e",
"qd c #f3ccaa",
".q c #f3cd9b",
"as c #f3ce9a",
"Ed c #f3ce9d",
"#F c #f3ce9e",
"ir c #f3ce9f",
"wN c #f3cea9",
"fv c #f3cf9f",
"Hm c #f3cfa0",
"AT c #f3cfa1",
"oY c #f3cfac",
"cd c #f3d09e",
"cU c #f3d0a0",
"HB c #f3d0a1",
"Gg c #f3d19e",
"nV c #f3d19f",
"tT c #f3d1a0",
"sq c #f3d29f",
"Bq c #f3d2a1",
"nT c #f3d3ba",
"mX c #f3d5ae",
"CU c #f4c69e",
"Di c #f4cb99",
".H c #f4cc9a",
"g1 c #f4cc9b",
"jU c #f4cc9c",
"Bs c #f4cd9a",
"#P c #f4cd9b",
".G c #f4cd9c",
"ar c #f4ce9c",
"vc c #f4ce9d",
"EJ c #f4cf9a",
"a# c #f4cf9b",
"bc c #f4cf9f",
"hL c #f4cfa0",
"GV c #f4d09c",
"j# c #f4d0a0",
"v5 c #f4d0ae",
"rH c #f4d19f",
"HP c #f4d2a0",
"l7 c #f4d4bf",
"rD c #f5c5bd",
"bE c #f5cc9a",
"bU c #f5cd9a",
"b8 c #f5cd9b",
"sv c #f5cd9c",
"a6 c #f5ce9b",
".D c #f5ce9c",
"ja c #f5ce9d",
"Fq c #f5ce9e",
".N c #f5cf9d",
"Ff c #f5cf9e",
"hE c #f5cf9f",
"#2 c #f5d09c",
"Fu c #f5d09f",
"dF c #f5d0a0",
"bd c #f5d19d",
"c3 c #f5d19f",
"jg c #f5d1a1",
"pv c #f5d1ab",
"#O c #f5d2a0",
"HF c #f5d3a0",
"nS c #f5d3a4",
"qh c #f5d4a8",
"Ey c #f5d4ba",
"jJ c #f5d9ac",
"qn c #f6c9b2",
"aG c #f6cd9a",
"dG c #f6ce9b",
"bX c #f6ce9c",
"bD c #f6ce9d",
"ai c #f6cf9c",
"#k c #f6cf9d",
"a. c #f6cf9e",
"Fw c #f6cfa0",
"eZ c #f6cfa6",
"au c #f6d09e",
"mU c #f6d0a6",
"Cr c #f6d19c",
"ao c #f6d19d",
"Co c #f6d19f",
"ec c #f6d29e",
"pC c #f6d2a2",
"lp c #f6d3a1",
"m4 c #f6d4a3",
"dX c #f6dcb5",
"Gn c #f7c5a5",
"dT c #f7c8b0",
"F7 c #f7cea2",
"FC c #f7cf9c",
"eS c #f7cf9d",
"fy c #f7cf9e",
"ge c #f7cf9f",
"xk c #f7d09d",
"eL c #f7d09e",
"gi c #f7d09f",
"jb c #f7d19f",
"aq c #f7d29d",
"aC c #f7d29e",
"iu c #f7d2a2",
"Fg c #f7d39e",
"gc c #f7d39f",
"jY c #f7d3a3",
"Hq c #f7d4a2",
"HD c #f7d5a3",
"jm c #f7d7a7",
"Gl c #f8c5a9",
"qo c #f8c6aa",
"el c #f8cba4",
"d8 c #f8cea6",
"Gj c #f8d09d",
"jd c #f8d09f",
"#g c #f8d19e",
"cD c #f8d19f",
"#8 c #f8d1a0",
"Fy c #f8d29d",
"a2 c #f8d2a0",
"C2 c #f8d2a4",
"Br c #f8d39e",
"#. c #f8d39f",
"bW c #f8d3a0",
"HL c #f8d3a3",
"jk c #f8d3cf",
"Fx c #f8d4a0",
"oO c #f8d5a3",
"hb c #f8d5aa",
"jX c #f8d6a4",
"jZ c #f8d6a5",
"ll c #f8deab",
"d2 c #f9ceb1",
".e c #f9d19e",
"#f c #f9d19f",
"gZ c #f9d1a0",
"bi c #f9d29f",
"aN c #f9d2a0",
"n0 c #f9d2a1",
"bw c #f9d39e",
"#M c #f9d3a1",
"rJ c #f9d3a2",
"G3 c #f9d3a8",
"bx c #f9d49f",
"#v c #f9d4a0",
"AU c #f9d4a2",
"b0 c #f9d5a0",
"HN c #f9d5a1",
"m1 c #f9d5a2",
"jc c #f9d5a5",
"ip c #f9d6a4",
"mY c #f9d7a5",
"Gi c #fad2a0",
"hJ c #fad2a1",
"xl c #fad2a2",
"xS c #fad2a9",
"j2 c #fad2ba",
"Al c #fad3a0",
"bj c #fad3a1",
"jW c #fad3a2",
"sn c #fad4a2",
"af c #fad5a1",
"lv c #fad5a5",
".l c #fad6a2",
"rI c #fad7a5",
"HE c #fad8a5",
"n5 c #fad8a8",
"n4 c #fbcfa7",
"Dc c #fbcfaa",
"li c #fbd1ab",
"av c #fbd3a0",
"g0 c #fbd3a1",
"fI c #fbd3aa",
"G9 c #fbd4a1",
"xj c #fbd4a2",
"st c #fbd4a3",
"lr c #fbd5a3",
"Gz c #fbd6a2",
"nX c #fbd6a6",
"#N c #fbd7a3",
"FQ c #fbd7a9",
"i9 c #fbd8a6",
"e5 c #fcc6b7",
"aF c #fcd4a1",
"#9 c #fcd4a2",
".m c #fcd5a2",
"pE c #fcd5a3",
"lm c #fcd5a8",
"g8 c #fcd6a4",
"hB c #fcd9a5",
"m6 c #fcd9a7",
"pD c #fcd9ab",
"m5 c #fcdaa7",
".d c #fdd3a1",
"fz c #fdd4a2",
"ag c #fdd5a2",
"hK c #fdd5a3",
"nb c #fdd6a3",
"j. c #fdd7a5",
"hN c #fdd7a8",
"hO c #fdd8a4",
"iq c #fdd9a5",
"hA c #fddca8",
"qj c #fed2a7",
"su c #fed5a4",
"nP c #fed5a8",
"d9 c #fed6a2",
"so c #fed7a4",
"oP c #fed7a5",
"jf c #fed8a6",
"mZ c #fedba9",
"m0 c #fedcaa",
"qi c #ffd7a8",
"nZ c #ffd8a6",
"je c #ffd8a7",
"h. c #ffd8ad",
"lu c #ffd9a8",
"ls c #ffdaa9",
"nY c #ffdaaa",
"g9 c #ffdbaa",
"lt c #ffdcac",
"Qt.#.a.b.c.d.e.f.g.h.i.j.k.l.m.n.o.p.q.r.s.t.u.v.w.x.y.z.A.B.r.#.C.D.E.F.G.H.a.I.E.J.K.L.r.M.N.b.O.P.u.b.Q.t.R.v.S.T.y.U.q.V.WQt",
".X.t.Y.Z.0.1.2.Z.3.4.5.6.b.7.8.8.9#..b###a#b#c#d#e#f#g#h#i#j.E#k.t#l.8#m#n#o#p.V#q#r#s#t#u.E.O.v.r.q.E.Y#a#b.8.#.M#v.D#w#xQt#y.#",
".E#z.6#A#B#C#D.u.M#E#F#G#H#I#J#h#K.Z#L.k#M#N#O.N#P.v#Q#z#R#S#T#U#S#V.X.M#W#X.Z#Y#Z#E#F#G.v#0#y#h#Y.s#1#e#M#N#O#2.D.J.O.g#3#4#5#6",
"#7.9#8#9a..Aa#aa#Wabacadaeafag.u#xah.nai.B.J.Uaj#S.7akalam.Qanaoap#haqar#P.Uas#u#Wabacadatauavawaxayazai.B.J.Uaj#S.7aA.xaBaC.taz",
".Q#YaDaE.aaFaGaEaH#4aIaJQt#UaKaLaMaNar#xaO.8aPaQ.6.yaRaS#h.qaTaUaV.RadaW.raXaGaEaHaYaIaJ#maZaKa0a1a2ara3aO.8aJaya4aM.yar#ga5a#a6",
".Ya7a8a9a8b.b##tba##bb#ybcbd#e.k#2bea3bf.n.Xbgbhbibjbkblbm#Qbnbobp.Ra0bq#xbrb##tbabsbt#y#Far#ebua6bea3bf.n.XbvbwbxafbibybzbAbBbC",
"#P.B.t#e.c#Wa1bDbE#k#.ai#WbF.Ia7#xQtbGbH.P#v#vbIbJbKbLbMbNaybOa#bP.YbQbRbSbTa1bDbUbVbWbXaj#m.K.KaW.7bYbZ.Pafb0#ub1b2bC.ob3b3b4.t",
"#5.Kb5b6b7#eb8b9bCc.c#b1a8.g#jcacbbfcccd#hcecfcgchcicjckclcmcncocpcqcrcsctcub8cvcwcxc#b1cyaJczaj#mbv#.#va#.sba#6b4cAar#k.Nao#2ba",
".1.W#pbC.t.D.F#W#HcBcC#c.9cDcEcF#e#2cacGcHcIcJcKcLcMcNcOcPcQcRcScTcUcVcWcXcY.FcZc0c1cCc2atc3c4.Raraic5#V#Uc6#Vc7#P#P#1#Sc8bAc9cy",
"#H.KaAaA.od.at.cb8#Yb4.U#h#Qd#a0dadbdcdddedfdgdhdidj#tdkdldmdndodpdqdrdsdtdudvdwdxdyb4dzdAdBdCaybaa7QtdDb4b4bQ#hdEaW.Qatba#h.J#H",
"b8.adFaN.Ja0.g.obJ.cagdGajdHdIdJaedKdLdMdNdOdPdQdRdSdTdUdVdWdXdYdZd0d1d2d3d4d5d6d7d8d9e.e#eaebar.ub4#Zecedeeef.ra1.P#P#..qa7#Q#h",
"eg.L.Ia7.j#t#q#8b5.aeheiejekelemeneoepeqereseteuevdYewdYdVexeydUezdQeAeBeCeDeEeFeGeHeIc9eJeKeLeMQtateNeOePbd#Z.P.U.FeQ#SeR.JeSb6",
".r.K#ReT.Aa2eUb.eVeW.FeXeYeZe0e1e2e3e4e5e6d7e7e8e9f.f#fafbfcfddUfefffgfhfifjfkd7flfmfnfofpfq.Jfrfs.cftfueN#idOb3.O#Zfvbv.Oadfw#S",
".sfx.JfyfzbDeUfAcDfB.gfCfDfEfFfGfpfHfIfJfKevevfLfMfNfOfPfbfQfRfSfTfUfVfWfXfYfZf0d0f1f2f3f4f5f6.Pf7f8f9g.g#gagb#Oaf.N.tgcao#Q#y#A",
".Ic.gdgegfggghgiaDc0gj.ygkglgmgngogpgqgrgsgtd0gugvgwgxgygzgAgBgCgDgEgFgGgHgIgJgKgLgMgNdQgOgPgQgRgSgTgUgVgWgXgYaBeV#G#qdOd..E.D.A",
"gZg0g1g2g3g4g5g6g7gYg8g9h.h#hahbhchdhehfd7evdQhghhhihjhkevhlhmhnhohphqhrhsd0hthuhvhwhxhyhzhAhBhChDhEhF.n.uhG#d#HhH.L.Fbfbu#h.AbD",
".I.LhI.#hJhKhLhMhNhO.NhPhQhRhShThUhVhWd0hXhYhZh0h1h2h3h4evh5h#h6h7h8h9i.i#hZdRiaibicidieifigihiiijikiliminioipiqirgU.3cAis.ob#it",
".0#Wg4iu.aitiviwcGixiyiziAiBiCiDiEiFiGiHiIiJiKeveviLiMiNiOiPdQiQiRiSiTevdQiUiViWiXiYiZi0i1i2i3i4i5i6i7i8i9j.j#atja#8.GjbipjcfAfx",
"jdhKjejfg8jgjheTQtjijjjkjljmjne2jojpjqjrjsd0jtezevjujvjwjxjyd7iQjzjAjBdQjCjDjEjFjGjHjIjJjKjLjMdRjNjOjPjQjRjS.Z#Zgd#4.9jT.J.EgdjU",
"aa#K.VaKjVjWhKjXjYjZj0j1j2j3j4j5j6fSj7j8j9k.gzk#kakbkckdkekfkgkhkikjkkklkmknkokpkqkrksktkukvkwkxkykzkAkBkCa1ip#MkDdFjafvfAa1.FkE",
"dEax#jkDkFkGkH#G.NkIkJkKdRkLkMkNkOkPkQkPkRkSkTkUkVkWkXkYkZk0k1k2k3k4k5k6k7k8k9l.l#lalblcldlelflglhliljlklllmlnlolp.JjVhHjbdFja.c",
"lqlrlsltlulvja.blwlxlylzd0evlAlBlClDlElFlGlHlIlJlKlLlMlNlOlPlQlRk3lSlTlUlVlWlXlYlZl0l1l2l3l4l5l6l7h6l8l9m.bIm#ma.xkDa.jbmb#L.Z#d",
"j.#F#j#zmcmdmemfmgmhmimjmkmlmmmnmompmqmrmsmtmumvmwmxmymzmAmBmCmDmEmFmGmHmImJmKmLmMmNmOmPmQmRevmSmTmUmVhtmWmXmYmZm0m1m2m3.6m4m5m6",
".r.gm7.4m8m9n.n#nalunb.LncndnenfngnhninjnknlnmnnnonpnqnrnsntnunvnwnxnynznAnBnCnDevnEnFnGnHnInJnKnLnMnNnOh.nP.G#ynQaLnRnSnTnU.MnV",
"#BnWnXmZlsnYnZn0h#n1n2n3n4n5n6n7n8n9o.o#oaobocodoeofogohoiojokolomonooopoqorosotouovowoxoyozlJoAoBoCoDoEoFoGoHoIoJoKoLoM.BaboNQt",
"oOluoPdF.teVkEoQoRoSoToUoVoWoXoYoZevo0o1o2o3o4o5o6o7o8o9p.p#papbdUpcpdpepfpgphpipjpkplpmpnpopppqprpsptpupvpwpxpypzpApB#Q.YeQdgpC",
"cD.Lax#Cc.#yfAdgaNpDpEpFpGpHpIpJpuevpKfSpLpMpNcTpOpPcXpQpRpSpTpUpVpWpXpYpZp0p1p2p3p4p5p6p7p8p9q.oAq#qaqbiXqccGqdqeqffA.B.4kD#j#F",
"c.#WqgfvqhnbqiqjqkpcqlqmqnqoqpevqqqrqspsqtquqvqwqxqyqzqAn3qBqCqDqEqFqGqHqIqJqKqLqMqNqOqPqQmMqRjtqSqTqUqVqWiseQ##dHqXa.#EqYpC.Ca0",
"ipip.N.GqZq0q1q2q3q4q5q6q7q8d0evq9q9r.r#rarbrcrdmMrerfrgrhrierd7rjrkrlrmrnrorprqrrrsrtrurvrwrxryrzrArBrCrDrErFrGrHgi#ZmhirjarIjc",
"fv.F.v#jg6gZrJrKrLrMqlqlqbrNrOrPrQrRrSrTrUrVrWrXrYrZr0r1r2r3r4r5r6r7r8r9dQevs.evs#sasbscsdsesfsgshsisjskslsmsnsolr.kspsqsrsscF.M",
"Qt#6dFstsusvswsxsyszsAsBevdQsCsDsEsFsGsHsIsJsKsLsMsNsOsPsQsRsSsTsUsVsWsXsYevevevsZs0s1s2s3s4s5s6fSfSs7eGdRs8s9t.t#tatbtc.MtdnQ.Z",
"#AgihJ#Gte#ptftg#oeTthtidQdRtjtjtktktltltmtntotptqtrtstttutvtwtxtytztAtBtCdQjtdQtDtEtFtGtHtItJtKtLtMtNtOtPtQtRtSfAtTtUtV.TtWtX#q",
"bu#7.s#W.gejtYtZt0t1t2t3t4t5jtdQt6t7t8t9u.u#uaevevubucudueufuguhuiujukpIlJulumunuoupuqurkpusutuuuvuwuxuyuzuAgj#EcDauaC.quBbcfvlq",
"a2#GatuCuDi5bPqcuEuFo5uGevuHdQevuIuJuKuLuMuNuOuPuQuRuSuTuUuVuWuXevevuYuZu0lJu1u2u3u4dRhDu5q1dQkau6oMu7hnu8u9v.v#.va8vavba..N.qa2",
"#Q.b.P#ha6#Pvcvdvet1vfvgvhvifOvjvkvlvmvnvovpvqvrvsvtvuvvvwvxvyqLvzlAvAvBvCvDvElJvFvGvHvIvJvKvLvMvNvOvPvQvRvSvTvUvVvWqX.BmhaZ#HeQ",
".J.vvXajc9vYvZv0v1v2v3v4.Ev5dYv6pWv7v8kPv9w.w#wawbwcwdwewfwgwhwiwjdYwkwlvHwmwnevdQwowpwqwrwsevhtwtwuwvwwwxwywzwAwBwCwDwEaIwF.6wG",
".B#6wHa4wIwJwKwLwM.qwNwOwPwQwRwSkQkQwTwUwVwWwXwYwZw0d0w1w2w3whw4w5dYw6w7w8w9x.x#evxaxbxcxdxexfevxgxhxi.Fa..ka4.q.u.v#Q.Y#4bf#8xj",
"#5.Uxk#2ecb0#vxlxmxnd0d0hXevfSxoxpxqxrxsxtxaucdVxuxvxwxxxytmxzxAxBxCn9xDxExFxGxHxIxJkaxKevdRxLxMxNo5xOxPxQxRxSeN#HxTaA.p.NaN.Lfx",
".rac#xxUxVxWxXxYxZx0x1x2f0x3x4jox5x6fUx7o0fSx8x9y.q#tOy#yaevybycydyeyfygyhfSfHyiyjykylymdQevq#ynyoypyqyrysytyuyvbZaBbc#v.Uc.aZ#W",
"ajaHwIywyxyy.8ayyzyAyByCyDyEyFyGyHyIyJf.yKyLyMyNyOyPyQyRySyTyUyVyWyXyYyZkiy0y1y2y3y4y5y6lJy7d0y8y9z.z#zazbzczdzeauaN.D.bc0###t#j",
".B#h.D.u#hcD.Dzfzgzhzi#ufOvTtlzjzkzlzmlJznzozpzqvEzrvizsztzuzvzwzxyXzyzzzAzBo6zCzDzEzFzGzHlJeGzIzJzKaA#2zLzMkazN#5c9#xaA.xcA.J.Q",
".EbeaKbezOaH.QzPzQeQzRzSi4xfzTzUzVpIzWvOzXzYzZhnevdUz0z1zkz2zvz3z4z5z6lJz7z8qzz9A.A#AaAbAcAc.hAddQAeAfAgc2aPAhAiAjAkxTnQcdAlxk.q",
".ZbYAmby#m#1.ucaAnAoeGApAqArAsAtdQAdeJAuAvAwAxevevAyAzAAABy8uSACADAEAFAGAHl4AIdRhtAJAKALd0evAMANAOAPpIAQAQARASbvarATAU#.eNAVAW.s",
".z#kar.tgX.cgjAXAYAZA0A1A2.EA3mMAddQA4A5A6A7A8evd0A9lFB.B#y8uSBaBbBcBdujd0BeBfeviQBgBhBgBievBjBkBlBm.8BnBoBpBqBrBsc6BtBuaWaHbq.v",
".n#w.b.ceNbeBv.HBw.IBxByBzBABBBCBDBEBFBGBHx#evu2BIBJBKBLBMevBNs7BOBPvMu5BQBRBSevgtBTBUBVBWAdBXBYBZB0bfrHrH.c.q.Pc9.7B1.BaCaNaC.N",
"B2c2fxBu.I#qB3aEB4B5B6B7B8B9mM#kC.C#CaCbt6puevCcqcCdCeCfdQd0lfCgChBPCis6CjfSCkevdQuEClCmd0dRCnCoCpCqCrdOCsaH.oc7bfbi.Nb3AWcwajaZ",
"#x.ZaH#T.YCtcF#kcDCu.5CvypzICwCxCyqqCzvDCAevf0CBcGCCCeCDhXdQlfCgCECFCGlJCjCHevevd0CIu8CJevCKevf#jV#ACLCMCNCs#6CO.r#nc9#x#UCP.bca",
".BeNkDCQdg.Za3#QCR.cCSCTCUCVCWCXCYCZC0fHC1evevC2C3C4C5C6t#lJC7evC8C9D.dQD#h6DazJmMDbDcDdevjtevf0De.rDfDgbdc6efxk.b#x#tBrbiDhd.#W",
"Dib7#K#u.r.6bZDjDkDlDmaac9DnDoypDpDq#hqlDrevd7DsDtDuDvDwDxDyDzevDADBDCd7evDDu8DEmMDFDGDHDIDJDKDLcGDM#hDNc6.JatbB#y#.g1DOvX#x.JeS",
"aE.L.W#Cejj#.mbjDPeUDQeR#tDRDSDTDUDVDWAmDXDYDZD0nJD1D2D3CcD4wRevD5D6D7D8l6AddQxlD9E.E#EaEbEcEdEeEfEgEhAm.UdG#2a2ar.b.scBEic6bmEj",
".#d..9eLjd.c#7augi#GfA#Z.cEkElEmEnEoEpEqB9ErEsflEtEuEvEwDDeMevevD5yeExEyhmd7AdEzEAd4EBEC.cEDCJEEEFEGEHB1ajc9Es.Y.WDQ##EIEJc6#ccb",
".Bbq.ZfxbFa8vaEK#Xa0atELEMEN.RaBacQtEOEPEQERESevevETEUo6EVEWevevEXEYEZE0AQf0E1E2aUrXE3E4E5E6E7E8E9F.F#wHejahbYDj.Y#ha##gFaat.N#g",
"#d.Mbfa4.xFb.ykD#LnQ.#.OFc#P.R.K#mFd#2FeFfFgFhdQeGFifSqyuE.xeveGFjFkFlFmFnFoeGyB#LFpkaqXFq#PFrFs##FtFuFvFwFgFx#.Fy.u.K#m#S#ladaZ",
"a.#G#Y.Dbjg0#hkDgXAlgiFzFAFBd.#t#2FCFDkaFEaWFFjtdQFGfSFHFIFJdQFKFLFMFNFOFPFQevFRgXFSFTFUFV.od.FWFXFC#B.7#UaW#5.J#Q#VcBa8#Hay#ba1",
"#t#XFYEic.c.eTgiaNCtFZF0ata4oHcbd.F1F2bZ#tkFF3F4F5gbzHF6F7cdF8.HF9G.cGG#Gac.GbGc#8CtkFGdkDa4a0a0Gebz#UGf#t.v.ZcywIgbGgaoxkcdrHeL",
"c0#Bssbf.yfAgi.q.Z.vGhdg.EbiGiGj.q#ZGkGlGmGnGoa.AN.Ut#GpaWc7s6GqGrGsh#GtGufAGvgNGw.v.GGxGyaNGzAlGA#Z#PbXGma6#v#k.U.U.P#5aWc7#W.j",
"a1bD.c#j#qbD#z###ybfc0dD#ya0a3GB#xGCwFGDeMGEGFGGhHGHkUGIa0#dxK#dGJ.bGKGL#qbDGMgN#yGNc0GOGPaH#Q#Qa3.FfxGDeMGQc9#6.P.O.5#ma0#dDjAS",
".Db7d6#y.t#yGRabaMnQ.3cDcF#J#4cb#Lv#.wat#iGS.p.U#6GTGUGVFxjbuEarGW.JGXGY.t#yGRxYa1ej.kjbGZG0ahcb#L#L#Lat.rc0b4.U#6bY.pGVFxjbgV.k",
"#j.Z#t.I#s#r#edg#qgi#h.suBaNAlGzg0afxj#2.qG1Bs.bgXG2G3G4.Oayhndgcac.G5G6a0#r#qG7G8n0.D#thP#vGzGzG9afGz#k.qao#P.F#ejb#g#h.Oay.9#G",
"#4ej#z.xgjH.qXa.areQ#VoH#7b3#H.g.YbHejay#tAmCPba.UH#b4aAaLwHHa.Wd6.5HbHcHd#3nQHe.N#tc0.6#FkD#Hay#mwI.#c0#t.Q.Y#ddg.9b4DjaLwHaydH",
"ab#qa.gisnaNbj.Ga1.3bjhJ.VHf.4mb.9bZHggYHhbv.9.9a4HiaLHja2#MHk.yay#e#eHlHmaflr#Z#LtXHm#va1HnHowGfAebHpbZa1bocA.Ba4ahHglqHqoOjgHr",
"au.A.Vfxax#pGD.ZjTCt.hbFaeaNaC#e.XHsip.G.B.Uba.yHtHua2.NcF#4.T#ZxkHvHwHx#FHykD.6Hzipa2a1HAHBoOjbHCHDHEbjbuHF.qaMbuHqafjb.9#4wGau",
".J#y.TaIHGHHEa.Z.FoHc0cFeUc.QtbY.kaujTeQ.o.Za0aear#q.BeQ.xHIHfah.o.sa0HGHJHKwFnWHLbudaHMjYHNtTHtpCrH#Z#y#e.MbZaB#q#ejTeQ.xHOtdhH",
".F.Qgisn#8a.sveL#Pa.Gi.H#BwGcFauaraH#HaCoPHP#2eN.veQa0.p#qaNaC.N.E.rHQgYmbHtjYcd.X#r#FFx#Zvb.CFxHfaAbY.9a2HRGVb5.#bY#dbv#qa2cD.G"};
