/* XPM */
static const char *WALL2[] = {
/* columns rows colors chars-per-pixel */
"64 64 6 1 ",
"  c #5A5E44",
". c #6F7455",
"X c #8F9479",
"o c #999D85",
"O c #9CA184",
"+ c #B6BC96",
/* pixels */
"++oooXXXXXX+   O+o  +o Oooo  OXXXXO  oooO o+  o+O   +XXXXXXooo++",
"++++oooo  OX+o. O+o. +oOoo XO OOOO OX ooOo+ .o+O .o+XO  oooo++++",
"+XXX++++.. OX+o. O+o.OoXo XOoX .. XoOX oXoO.o+O .o+XO ..++++XXX+",
".......O+o. O+oo. +ooXoo.XOooooXXooooOX.ooXoo+ .oo+O .o+O.......",
"XXXXXXX.O+o. O+oo.+ooo..XX++++oooo++++XX..ooo+.oo+O .o+O.XXXXXXX",
"oooooooX.O+o. O+o.Xoo.XXX++++++++++++++XXX.ooX.o+O .o+O.Xooooooo",
"oXXXXXXXXO+oo O+o.Xo.XX+++XOOO++++OOOX+++XX.oX.o+O oo+OXXXXXXXXo",
"+X+++++XXXO+o. +.oo XX+OOOXXXOO..OOXXXOOO+XX oo.+ .o+OXXX+++++X+",
"XXXXXXX++XXX.. +oo XX+O   XXXXo++oXXXX   O+XX oo+ ..XXX++XXXXXXX",
"X     XXX+X.XX Xo XX+  . .  X......X  . .  +XX oX XX.X+XXX     X",
" .....  XXX.X..     O .X X..XO++++OX..X X. O     ..X.XXX  ..... ",
"........ XX.X....... X.X.X.XX......XX.X.X.X .......X.XX ........",
"......... X.XXXXXXXX.o.o.o.X O++++O X.o.o.o.XXXXXXXX.X .........",
".XXXXXX.. XX       XXXXo.oX ........ Xo.oXXXX       XX ..XXXXXX.",
"XXXXXXXX.. X....... XXXXXX .O++++++O. XXXXXX .......X ..XXXXXXXX",
"XooooooXX..X...XXX.XXX++++.OO......OO.++++XXX.XXX...X..XXooooooX",
"ooooooooXX.X.X.X  XX+++++++ Oo++++oO +++++++XX  X.X.X.XXoooooooo",
"oooooooooX.X.X.X..X++++++++  X....X  ++++++++X..X.X.X.Xooooooooo",
"ooooooooOO.X.X.X..X+++ +++++  X++X  +++++ +++X..X.X.X.OOoooooooo",
"oooooooOO+.X.X....X++O. ++++. XooX .++++ .O++X....X.X.+OOooooooo",
"OooooOOO+.XX.X.o.XX+Oo.. O++. XXXX .++O ..oO+XX.o.X.XX.+OOOooooO",
"+OoOOO++..X.XX.o.XX ooX.. O++      ++O ..Xoo XX.o.XX.X..++OOOoO+",
"+++++++..X.XX.oo.XXX ooXXXoO++    ++OoXXXoo XXX.oo.XX.X..+++++++",
".++++...XXXX..o XX.XX ooooooO+ XX +Ooooooo XX.XX o..XXXX...++++.",
"X.....XXXXXX.oo XX..X.  oooooo XX oooooo  .X..XX oo.XXXXXX.....X",
"XXXXXXXXXXXXXoo.XX......      XXXX      ......XX.ooXXXXXXXXXXXXX",
" XXXXXXXX  XXXo.XX..........XXX..XXX..........XX.oXXX  XXXXXXXX ",
". XXXXXX    XXo.XX....++++...X....X...++++....XX.oXX    XXXXXX .",
".. X   XX . XXo.XX..+++ ++++...  ...++++ +++..XX.oXX . XX   X ..",
"X..XX.. X... Xo.XX.++++.  +++..  ..+++  .++++.XX.oX ...X ..XX..X",
".X.XX.o.XX...Xoo X+++++O.. +++.  .+++ ..O+++++X ooX...XX.o.XX.X.",
".Xo.X.o.XX.o.Xoo X++++++OOO+++    +++OOO++++++X ooX.o.XX.o.X.oX.",
"oXooX.ooXX.o.Xoo.X++OOOOOOOO++    ++OOOOOOOO++X.ooX.o.XXoo.XooXo",
"oXoXX.ooXX.o.Xoo.X+Ooooo   oO+    +Oo   ooooO+X.ooX.o.XXoo.XXoXo",
"Xo+XX.o+X.oooXo XX.oooo ..Xoo      ooX.. oooo.XX oXooo.X+o.XX+oX",
"o+.X.++XX.oo+Xo XXX.ooo.XXoo        ooXX.ooo.XXX oX+oo.XX++.X.+o",
"+.XXXXXX.+o+XXo XXXX..oooo  .X.  .X.  oooo..XXXX oXX+o+.XXXXXX.+",
".XXXXXXXXX+XXXo XX.XXX    ..XXX..XXX..    XXX.XX oXXX+XXXXXXXXX.",
"XXXXXXXXXXXXX.o.XX..X.........XXXX.........X..XX.o.XXXXXXXXXXXXX",
"X     XXXXXX.oo.XX......++++++ XX ++++++......XX.oo.XXXXXX     X",
" .....  XXXX+oo.XX....++++++++ XX ++++++++....XX.oo+XXXX  ..... ",
"........ X XX+oo XX..++++++++o    o++++++++..XX oo+XX X ........",
".XXXXX... X XX+o XX.+++   Xoo      ooX   +++.XX o+XX X ...XXXXX.",
"XXoooXX.. XX X+o.XX+++ ..Xoo  XXXX  ooX.. +++XX.o+X XX ..XXoooXX",
"XoooooXX.. X X oo X+++..XOoo  X++X  ooOX..+++X oo X X ..XXoooooX",
"oooooooXX. X X +o X++o.XoOOo .X++X. oOOoX.o++X o+ X X .XXooooooo",
"ooooooooX. X X +o.X+ooooooO .X....X. Ooooooo+X.o+ X X .Xoooooooo",
"ooooooooX..X X X+.XXOOooooO .o++++o. OooooOOXX.+X X X..Xoooooooo",
"ooooooooX..X   XXX XXXOOOO ... .. ... OOOOXXX XXX   X..Xoooooooo",
"oooooooOO..X..      XXXXXX .o++++++o. XXXXXX      ..X..OOooooooo",
"OoooooOO+.XX.......XXXX   X   ....   X   XXXX.......XX.+OOoooooO",
"OOoooOO++.X.XXXXXXXX       X.o++++o.X       XXXXXXXX.X.++OOoooOO",
"+OOOOO++.XX.XX      .  . ..    ..    .. .  .      XX.XX.++OOOOO+",
".+++++..XXX.X ......X..X.X.X.o++++o.X.X.X..X...... X.XXX..+++++.",
"X.....XXXXX.XX....X+Xo.X.X.oX  ..  Xo.X.X.oX+X....XX.XXXXX.....X",
"XXXXXXXXX+XX.o..XX X++Xo.oXXXXo++oXXXXo.oX++X XX..o.XX+XXXXXXXXX",
"+XXXXXX++XXX+o.+XX  XX+XXXX++      ++XXXX+XX  XX+.o+XXX++XXXXXX+",
"o+++++++XXX+o.X+oX X XX++X++ X....X ++X++XX X Xo+X.o+XXX+++++++o",
"ooo++oo.XX+oo.X+oo.oX  X+++ X.XXXX.X +++X  Xo.oo+X.oo+XX.oo++ooo",
"..oooo.XX+oo.X+oo..oo X XX X.XooooX.X XX X oo..oo+X.oo+XX.oooo..",
"XX....XX+o..XX+oo.Xoo.o. XX.oooXXooo.XX .o.ooX.oo+XX..o+XX....XX",
"XXXXXX++o..XX+Oo.XXo.Xo.X.XXoXX++XXoXX.X.oX.oXX.oO+XX..o++XXXXXX",
"XXX+++oo..XXX+O.XXOO.Xo.oX.XX++++++XX.Xo.oX.OOXX.O+XXX..oo+++XXX",
"X++oo....XX++O.XXO..Xo.XooX.XXX++XXX.XooX.oX..OXX.O++XX....oo++X"
};
