/* XPM */
static const char *WALL3[] = {
/* columns rows colors chars-per-pixel */
"64 64 5 1 ",
"  c #5A5E44",
". c #6F7455",
"X c #8F9479",
"o c #9CA184",
"O c #B6BC96",
/* pixels */
"OOOOOOOOOOO.... XOOO.. OOOXXXXXXXXXXXXOOO ..OOOX ....OOOOOOOOOOO",
"  X  X  XXOOO...  XOOO. OOOOOOXXXXOOOOOO .OOOX  ...OOOXX  X  X  ",
"X. O. O  XXXOOO... XOOO. OOOX OOOO XOOO .OOOX ...OOOXXX  O .O .X",
"XX.O..O. X  XXOOOO. XXOO. OOOX.  .XOOO .OOXX .OOOOXX  X .O..O.XX",
"XXXOX.OX.O  X XXXXOO  XOO. OOOOXXOOOO .OOX  OOXXXX X  O.XO.XOXXX",
"XXXOXXOXXO. O  O  XXOOOXOO.OOO OO OOO.OOXOOOXX  O  O .OXXOXXOXXX",
"XOOOOOOOOOOOOOOO    XXOOXOOOOOX  XOOOOOXOOXX    OOOOOOOOOOOOOOOX",
"OOOOOOOOOOOOOOOOOOO   XXXOOO OOXXOO OOOXXX   OOOOOOOOOOOOOOOOOOO",
"OOOOOOOOOOOOOOOOOOOOO   XXOOO OOOO OOOXX   OOOOOOOOOOOOOOOOOOOOO",
"O    X  X   X   OOOOOOO   XOOOOXXOOOOX   OOOOOOO   X   X  X    O",
" .... X  X.  X.  X OOOOO.. O OOOOOO O ..OOOOO X  .X  .X  X .... ",
".XXX.. X. X.  X.  X  OOOO..OO OXXO OO..OOOO  X  .X  .X .X ..XXX.",
"XXXXXX. O. O. O.. O   OOOO.OOOOOOOOOO.OOOO   O ..O .O .O .XXXXXX",
"oXXoXoX.O..OOOOO..O. X  OOO.OOO..OOO.OOO  X .O..OOOOO..O.XoXoXXo",
"XoX.o.XX.OOOOOOOOO.. X  OOO.oO.OO.Oo.OOO  X ..OOOOOOOOO.XX.o.XoX",
"XoXo.oXX.OOXXXXXOO...O  OOO.o.OOOO.o.OOO  O...OOXXXXXOO.XXo.oXoX",
"XoX.X.X.OOX     XOO.O . OOX.o oooo o.XOO . O.OOX     XOO.X.X.XoX",
"XoXooo.OOO       XOO ..XOOX.oo oo oo.XOOX.. OOX       OOO.oooXoX",
"oXX....OOO   XX   XO..X OOX.XXo  oXX.XOO X..OX   XX   OOO....XXo",
"oXXXX.XOOO  X    XX OO  OOX..XXooXX..XOO  OO XX    X  OOOX.XXXXo",
"XXoX.X OOO .X..  X .   .OXX..XXXXXX..XXO.   . X  ..X. OOO X.XoXX",
"XXo.O  OOO .OO..OO.....XOX ..XXXXXX.. XOX.....OO..OO. OOO  O.oXX",
"oXo.O  XOO...OOOO....XXOX ...XXXXXX... XOXX....OOOO...OOX  O.oXo",
"oX..O. XXOOX.......XXOOX ...OOOXXOOO... XOOXX.......XOOXX .O..Xo",
"Xo.OX.X  XOOXXXXXXXOOXX ...OOOX  XOOO... XXOOXXXXXXXOOX  X.XO.oX",
"Xo.OX.X.  XOOOOOOOOOX  ..OOOXX    XXOOO..  XOOOOOOOOOX  .X.XO.oX",
"Xo.OX.X.. XXXXXXXXX  ...OOOX  ....  XOOO...  XXXXXXXXX ..X.XO.oX",
"Xo.OX.O..X     XX   ..OOOXX  XO..OX  XXOOO..   XX     X..O.XO.oX",
"Xo.OX.OX.X..  X   ...OOOX   X  OO  X   XOOO...   X  ..X.XO.XO.oX",
"oX.OX.OX.OX.. X  ...OOXX   X .oOOo. X   XXOO...  X ..XO.XO.XO.Xo",
"oX.OX.OX.OXX..X ..OOOX   ..OOOoOOoOOO..   XOOO.. X..XXO.XO.XO.Xo",
"XX.OX.OX.OXXX.O .OOOO  ..OO   OOOO   OO..  OOOO. O.XXXO.XO.XO.XX",
"XX.OX.OX.OXXX.O..XXOO ...XX.ooXXXXoo.XX... OOXX..O.XXXO.XO.XO.XX",
"oX.Oo.OX.OXXX.O..  XOO...  OOO XX OOO  ...OOX  ..O.XXXO.XO.oO.Xo",
"oX.Oo.OX.OoXX.O.... XXOO.. O  .OO.  O ..OOXX ....O.XXoO.XO.oO.Xo",
"Xo.Oo.Oo.OooX.O..... XXOO.. O.oOOo.O ..OOXX .....O.XooO.oO.oO.oX",
"Xo.Oo.Oo.OoooX.OO....  XOOO. XX  XX .OOOX  ....OO.XoooO.oO.oO.oX",
"Xo.Oo.Oo..OoOOOOOOO...  XOOO.  ..  .OOOX  ...OOOOOOOoO..oO.oO.oX",
"Xo.Oo.Ooo..OOOOOOOOOOOO  XXOO......OOXX  OOOOOOOOOOOO..ooO.oO.oX",
"Xo.Oo.OoooOOOOOOOOOOOOOO   XOOO..OOOX   OOOOOOOOOOOOOOoooO.oO.oX",
"oXX.O..OoOOO       OOOOOO . XOOOOOOX . OOOOOO       OOOoO..O.XXo",
"oXo.Oo..OOO  XXXX      OOO . OOOOOO . OOO      XXXX  OOO..oO.oXo",
"XXo.OoXOOO  XX  XX      OOO..OO  OO..OOO      XX  XX  OOOXoO.oXX",
"XXoX.OoOOO  X    X..... OOX..O OO O..XOO .....X    X  OOOoO.XoXX",
"oXXX..OOOO  O .. OO.OO..OOX..O.OO.O..XOO..OO.OO .. O  OOOO..XXXo",
"oXXXX..XOO  .OO.. OX  O.OOX.OOO..OOO.XOO.O  XO ..OO.  OOX..XXXXo",
"XoXooo.XXO ......OOX   OOOX oOOOOOOo XOOO   XOO...... OXX.oooXoX",
"XoX.....XOO.....OOX O   OXX o.OOOO.o XXO   O XOO.....OOX.....XoX",
"XoXoXoX..XOOOOOOOX   O. OXX oo OO oo XXO .O   XOOOOOOOX..XoXoXoX",
"XoX.o.XX.XXXOOOOXX . O. OXX OooooooO XXO .O . XXOOOOXXX.XX.o.XoX",
"oXXo.oXXO  XXXXX  O. OXXOXX OOooooOO XXOXXO .O  XXXXX  OXXo.oXXo",
"oXX.X.XoO. X  O   O. OXOOX OO OOOO OO XOOXO .O   O  X .OoX.X.XXo",
"XXXXXXoO .O . O . OX OOOX .OXX OO XXO. XOOO XO . O . O. OoXXXXXX",
"oXXXXoO XO .XO .XO XOOOX ..OoXXXXXXoO.. XOOOX OX. OX. OX OoXXXXo",
"OooooO XO XXO XXOOOOOXX ..OooXXXXXXooO.. XXOOOOOXX OXX OX OooooO",
"OOOOOOOOOOOOOOOOOOOXX  .XOooXXOXXOXXooOX.  XXOOOOOOOOOOOOOOOOOOO",
"XOOOOOOOOOOOOOOOXXX   XoOooXXOoXXoOXXooOoX   XXXOOOOOOOOOOOOOOOX",
" XXXXXXXXXXXXXXX    oooOooXXOooXXooOXXooOooo    XXXXXXXXXXXXXXX ",
".  O  O  O  O  O  ooXOOooX oOoXXXXoOo XooOOXoo  O  O  O  O  O  .",
"X. O  O  O. O.oooXXXOooXX oOoXX  XXoOo XXooOXXXooo.O .O  O  O .X",
"X. O. O. O..ooXXXX OooXX  OoXXX  XXXoO  XXooO XXXXoo..O .O .O .X",
"XX.O..O..XoooXX   OooXX  OooXX    XXooO  XXooO   XXoooX..O..O.XX",
"XXO..O..ooXXX  ..OoXXX  OooXX      XXooO  XXXoO..  XXXoo..O..OXX",
"OOOOOOoooXX  ...OoXX   OooXX   ..   XXooO   XXoO...  XXoooOOOOOO"
};
