/* XPM */
static const char *WALL4[] = {
/* columns rows colors chars-per-pixel */
"64 64 5 1 ",
"  c #5A5E44",
". c #6F7455",
"X c #8F9479",
"o c #999D85",
"O c #B6BC96",
/* pixels */
"oO............................................................Oo",
"XXO.....oOo....Oo..Oo......................oO..oO....oOo.....OXX",
" XXO...oOoOo..Oooo.XX .o.....XoOOoX.....o. XX.oooO..oOoOo...OXX ",
"  XXO..OoOooo.XXoo       ..oX      Xo..       ooXX.oooOoO..OXX  ",
"O  XoO  XXXoo  XX   oOOOo o          o oOOOo   XX  ooXXX  OoX  O",
"OO  XoO   XX     oOOXXXXOo   .XOOX.   oOXXXXOOo     XX   OoX  OO",
"OOO  XoO      oOOXXXXXXXXOo .X    X. oOXXXXXXXXOOo      OoX  OOO",
"ooOO  XoOoooooXXXXXX     XOoX      XoOX     XXXXXXoooooOoX  OOoo",
"XooOO  XXoOOOXXXX        XXo  .OO.  oXX        XXXXOOOoXX  OOooX",
" XooOO  XXXXXX      XXX   XOo.X  X.oOX   XXX      XXXXXX  OOooX ",
"  XooOO          ...  XX  XOoX    XoOX  XX  ...          OOooX  ",
"O  XoOOO    X   OOOO   X  XOo  OO  oOX  X   OOOO   X    OOOoX  O",
"OO  XoOOO oo  OOOO.OOO    XOo X  X oOX    OOO.OOOO  oo OOOoX  OO",
"oOO  XoOOoo  OOOO.o.OOO   XOoX    XoOX   OOO.o.OOOO  ooOOoX  OOo",
"ooO.  XoOoO .oOOOO.OOOO   XoO  OO  OoX   OOOO.OOOOo. OoOoX  .Ooo",
" ooO.  XoOo.oooooOOOOOOO. XXO X  X OXX .OOOOOOOooooo.oOoX  .Ooo ",
" XooO.  Xoo.oo.oooO...OO.  XOo    oOX  .OO...Oooo.oo.ooX  .OooX ",
" XoooO.  Xo.X X.oo.o .OO.  XoO .. OoX  .OO. o.oo.X X.oX  .OoooX ",
" X oooO.  X.XX oo.o X.OO.   XoOooOoX   .OO.X o.oo XX.X  .Oooo X ",
" X  oooO. X. XXXo  X .OO..   XXOOXX   ..OO. X  oXXX .X .Oooo  X ",
" X   ooOO. X XXXX X .ooOO..   XXXX   ..OOoo. X XXXX X .OOoo   X ",
" X   oooOO. . XXX   XXooO...        ...OooXX   XXX . .OOooo   X ",
".X   XoooOOO..  XXXXXXXoo.O  XO  OX  O.ooXXXXXXX  ..OOOoooX   X.",
"..X  X  ooooOO       XXX XXO  XOOX  OXX XXX       OOoooo  X  X..",
"..X   X  XooooOOOo        X    XX    X        oOOOooooX  X   X..",
"...X  X  X  oooooOOOoo.     XX    XX     .ooOOOooooo  X  X  X...",
"...X . X  X  XXoooooOOOOO.. XX XX XX ..OOOOOoooooXX  X  X . X...",
"...X . X  X   X  XXooooooOO.        .OOooooooXX  X   X  X . X...",
"...X ..X . X  X   X   XooooOo  XX  oOooooX   X   X  X . X.. X...",
"O...X .X ..X . X . X  X  oooOO    OOooo  X  X . X . X.. X. X...O",
"OO..X .X ..X ..X ..X ..X   oooO  Oooo   X.. X.. X.. X.. X. X..OO",
"oO..o .X ..X ..X ..X ..X .   ooOOoo   . X.. X.. X.. X.. X. o..Oo",
"Xo..o .o ..X ..o ..X ..X ..  XOooOX  .. X.. X.. o.. X.. o. o..oX",
"Xo..O .o ..o ..o ..o ..o ..oOOX  XOOo.. o.. o.. o.. o.. o. O..oX",
"X ..o .o ..o ..O ..O .O .ooOXX    XXOoo. O. O.. O.. o.. o. o.. X",
" ..O ..O ..O .O ..O ..OoOOOXX  oo  XXOOOoO.. O.. O. O.. O.. O.. ",
"...O ..O .O ..O .OooOOOOXXX   .  .   XXXOOOOooO. O.. O. O.. O...",
"...O ..O .O .OoooOOOXXXXX   oo.XX.oo   XXXXXOOOoooO. O. O.. O...",
"...o .O .O .ooOOOXXXXX     .XX    XX.     XXXXXOOOoo. O. O. o...",
"..O ..O .OooOOXXXX       .o.  .oo.  .o.       XXXXOOooO. O.. O..",
"..o .O .ooXXXX       OOO.oXo  oXXo  oXo.OOO       XXXXoo. O. o..",
".O ..O oXXXX    OOOOOOOOO X  oX  Xo  X OOOOOOOOO    XXXXo O.. O.",
".O ..OoXXX    OOOO.OOOOoo              ooOOOO.OOOO    XXXoO.. O.",
".O ..oXX   X.OOOO.O.Ooooo  .. OOOO ..  ooooO.O.OOOO.X   XXo.. O.",
".O .oXX   o .OOOOO.oooXX  ...OooooO...  XXooo.OOOOO. o   XXo. O.",
".O .oX   .O OOO..oooXX X  ..OoXXXXoO..  X XXooo..OOO O.   Xo. O.",
".O oXX  .OO OO. X.oXX X   .Ooo    ooO.   X XXo.X .OO OO.  XXo O.",
".XoXX   OOo Oo.o X.XXX X ..ooO.  .Ooo.. X XXX.X o.oO oOO   XXoX.",
".oXX   OOoo oo. o X XXXX .Ooo O..O ooO. XXXX X o .oo ooOO   XXo.",
"oXX   OOooo  oX. X X XX  .Ooo  XX  ooO.  XX X X .Xo  oooOO   XXo",
"XX   OOoXoo  XXXX X  XX  .OoXO    OXoO.  XX  X XXXX  ooXoOO   XX",
"XX  OOoXX XX  XXXX  XX   .OXo O  O oXO.   XX  XXXX  XX XXoOO  XX",
"X  OOoXX    X   XXXX   X .OXo  XX  oXO. X   XXXX   X    XXoOO  X",
"  oOoXX  ...          XX .OXXO    OXXO. XX          ...  XXoOo  ",
" oOoXX  OOOOOOO.    XXX  .OXX X  X XXO.  XXX    .OOOOOOO  XXoOo ",
"oOoXX  ooooooooOO..     .OoO   XX   OoO.     ..OOoooooooo  XXoOo",
"OoXX  oXXXXXoooooOOO   ..OXoO.    .OoXO..   OOOoooooXXXXXo  XXoO",
"oXX  oXX      XXXXXXOOOOOXX  X.  .X  XXOOOOOXXXXXX      XXo  XXo",
"XX  oXX   oo     XXXXXXooo    XXXX    oooXXXXXX     oo   XXo  XX",
"X  oXX  ooooo  oo   XXXXo O..      ..O oXXXX   oo  ooooo  XXo  X",
"  oXX  oooooo oooo         OX.    .XO         oooo oooooo  XXo  ",
" oXX   oXXXo  XXoo oo  X     XXXXXX     X  oo ooXX  oXXXo   XXo ",
"oXX   . XXX    XX  XX.. ..            .. ..XX  XX    XXX .   XXo",
"XX   ...   ..     .  .......        .......  .     ..   ...   XX"
};
