/* XPM */
static const char *VISOR[] = {
/* columns rows colors chars-per-pixel */
"640 360 43 1 ",
"  c black",
". c #0A0F28",
"X c #1F1A2F",
"o c #0F1531",
"O c #0A1A37",
"+ c #0F1F3E",
"@ c #2B1120",
"# c #28192C",
"$ c #381926",
"% c #3E1924",
"& c #301929",
"* c #331C2D",
"= c #3B1C2A",
"- c #231E35",
"; c #2C1D31",
": c #32243F",
"> c #39233A",
", c #79160D",
"< c #441821",
"1 c #411B27",
"2 c #471B25",
"3 c #0B2343",
"4 c #0F2749",
"5 c #0B2B4D",
"6 c #102844",
"7 c #1A2148",
"8 c #0F2E52",
"9 c #182951",
"0 c #0B365C",
"q c #0E385F",
"w c #163354",
"e c #14355E",
"r c #2A2644",
"t c #363A4F",
"y c #0C3A62",
"u c #0E3C64",
"i c #19496B",
"p c #0D4C79",
"a c #E92020",
"s c #28648F",
"d c #D2D2D2",
"f c white",
"g c None",
/* pixels */
"oo.............................................................................................................................................................................................................................................................................................................................................................................................................................................................................................................................................................................................................................................................o",
"o...............................................................................................................................................................................................................................................................................................................................................................................................................................................................................................................................................................................................................................................................",
"..............................................oooooooooooooooooooooooooooooooooooooooooooooooooooooooooooooooooooooooooooooooooooooooooooooooooooooooooooooooooooooooooooooooooo................................................................................................................................................................................................................................................................................................ooooooooooooooooooooooooooooooooooooooooooooooooooooooooooooooooooooooooooooooooooooooooooooooooooooooooooooooooooooooooooooooooooo.............................................",
".............................................ooooooooooooooooooooooooooooooooooooooooooooooooooooooooooooooooooooooooooooooooooooooooooooooooooooooooooooooooooooooooooooooooooooooooooooooooooooooooooooooooooooooooooooooooooooooooooooooooooo.................................................................................................................................................................ooooooooooooooooooooooooooooooooooooooooooooooooooooooooooooooooooooooooooooooooooooooooooooooooooooooooooooooooooooooooooooooooooooooooooooooooooooooooooooooooooooooooooooooooooooooooooooooooooo............................................",
"............................................ooooooooooo77oooooooooooooooooooooooooooooooooooooooooooooooooooooooooooooooooooooooooooooooooooooooooooooooooooooooooooooooooooooooooooooooooooooooooooooooooooooooooooooooooooooooooooooooooooooooooooooooooooooooooooooooooooooooooooooooooooooooooooooo...................................................oooooooooooooooooooooooooooooooooooooooooooooooooooooooooooooooooooooooooooooooooooooooooooooooooooooooooooooooooooooooooooooooooooooooooooooooooooooooooooooooooooooooooooooooooooooooooooooooooooooooooooooooooooooooooooooooooooooooooooo7o77ooooooooooo...........................................",
"...........................................ooooooooooo77o7777o77o7777o77o7777o77o7777o77o7777oooooooooooooooooooooooooooooooooooooooooooooooooooooooooooooooooooooooooooooooooooooooooooooooooooooooooooooooooooooooooooooooooooooooooooooooooooooooooooooooooooooooooooooooooooooooooooooooooooooooooooooooooooooooooooo...............oooooooooooooooooooooooooooooooooooooooooooooooooooooooooooooooooooooooooooooooooooooooooooooooooooooooooooooooooooooooooooooooooooooooooooooooooooooooooooooooooooooooooooooooooooooooooooooooooooooooooooooooooooooooooooo77o7777o77o7777o77o7777o77o7777o77o7777ooooooooooo..........................................",
".........................................ooooooooooo77oo77oo77oo77oo77oo77oo77oo77oo77oo77oo77oo77oo77oo77oo77oo77oo77oo77oo77oo77oo77oo77oo77oo77oo77oo77oo77oo77oooooooooooooooooooooooooooooooooooooooooooooooooooooooooooooooooooooooooooooooooooooooooooooooooooooooooooooooooooooooooooooooooooooooooooooooooooooooooooooooooooooooooooooooooooooooooooooooooooooooooooooooooooooooooooooooooooooooooooooooooooooooooooooooooooooooooooooooooooooooooooooooooooooooooooooooooooooooooooo77oo77oo77oo77oo77oo77oo77oo77oo77oo77oo77oo77oo77oo77oo77oo77oo77oo77oo77oo77oo77oo77oo77oo77oo77oo77oo77oo77oooooooooooo........................................",
"........................................oooooooooooo77oo77oo77oo77oo77oo77oo77oo77oo77oo77oo77oo77oo77oo77oo77oo77oo77oo77oo77oo77oo77oo77oo77oo77oo77oo77oo77oo77oo77oo77oo77oo77oo77oo77oo77oo77oo77oo77oo77oo77oooooooooooooooooooooooooooooooooooooooooooooooooooooooooooooooooooooooooooooooooooooooooooooooooooooooooooooooooooooooooooooooooooooooooooooooooooooooooooooooooooooooooooooooooooooooooooooooooooooooooooooooooooooooooooo77oo77oo77oo77oo77oo77oo77oo77oo77oo77oo77oo77oo77oo77oo77oo77oo77oo77oo77oo77oo77oo77oo77oo77oo77oo77oo77oo77oo77oo77oo77oo77oo77oo77oo77oo77oo77oo77oo77oo77oo7ooooooooo........................................",
".......................................oooooooooo7777o77o7777777o7777o77o7777o77o7777o77o7777o77o7777o77o7777o77o7777o77o7777o77o7777o77o7777o77o7777o77o7777o77o7777o77o7777o77o7777o77o7777o77o7777o77o7777o77o7777o77o7777o77o7777o77o7777o77o7777o77o7777o77o7777o77o7777o77o7777o77o7ooooooooooooooooooooooooooooooooooooooooooooooooooooooooooooooooooooooooooooo7777o77o7777o77o7777o77o7777o77o7777o77o7777o77o7777o77o7777o77o7777o77o7777o77o7777o77o7777o77o7777o77o7777o77o7777o77o7777o77o7777o77o7777o77o7777o77o7777o77o7777o77o7777o77o7777o77o7777o77o7777o77o7777o77o7777o77o7777777o7777o77o77ooooooooo......................................",
"......................................oooooooo777o77o77777777777777777777o77o7777o77o7777o77o7777o77o7777o77o7777o77o7777o77o7777o77o7777o77o7777o77o7777o77o7777o77o7777o77o7777o77o7777o77o7777o77o7777o77o7777o77o7777o77o7777o77o7777o77o7777o77o7777o77o7777o77o7777o77o7777o77o7777o77o7777o77o7777o77o7777o77o7777o77o77o7oo7777o77o7777o77o7777o77o7777o77o7777o77o7777o77o7777o77o7777o77o7777o77o7777o77o7777o77o7777o77o7777o77o7777o77o7777o77o7777o77o7777o77o7777o77o7777o77o7777o77o7777o77o7777o77o7777o77o7777o77o7777o77o7777o7777777o77o7777o77o7777o77o7777o77o7777o77o777777777777777o7777o77ooooooooo.....................................",
"....................................oooooooo77oo77oo77oo77777777777777777777777777oo77oo77oo77oo77oo77oo77oo77oo77oo77oo77oo77oo77oo77oo77oo77oo77oo77oo77oo77oo77oo77oo77oo77oo77oo77oo77oo77oo77oo77oo77oo77oo77oo77oo77oo77oo77oo77oo77oo77oo77oo77oo77oo77oo77oo77oo77oo77oo77oo77oo77oo77oo77oo77oo77oo77oo77oo77oo77oo77oooo77oo77oo77oo77oo77oo77oo77oo77oo77oo77oo77oo77oo77oo77oo77oo77oo77oo77oo77oo77oo77oo77oo77oo77oo77oo77oo77oo77oo77oo77oo77oo77oo77oo77oo77oo77oo77oo77oo77oo77oo77oo77oo77oo77oo77oo77oo77oo77oo77oo77oo77oo77oo77oo77oo77oo77oo77oo77oo77oo77o777777777777777777777777o77oo77oo77oooooooo....................................",
"....................................oooooooo77oo77oo77oo777777777777777777777777777777oo77oo77oo77oo77oo77oo77oo77oo77oo77oo77oo77oo77oo77oo77oo77oo77oo77oo77oo77oo77oo77oo77oo77oo77oo77oo77oo77oo77oo77oo77oo77oo77oo77oo77oo77oo77oo77oo77oo77oo77oo77oo77oo77oo77oo77oo77oo77oo77oo77oo77oo77oo77oo77oo77oo77oo77oo77oo77oooo77oo77oo77oo77oo77oo77oo77oo77oo77oo77oo77oo77oo77oo77oo77oo77oo77oo77oo77oo77oo77oo77oo77oo77oo77oo77oo77oo77oo77oo77oo77oo77oo77oo77oo77oo77oo77oo77oo77oo77oo77oo77oo77oo77oo77oo77oo77oo77oo77oo77oo77oo77oo77oo77oo77oo77oo77oo77oo7777777777777777777777777777777o77oo77oo77ooooooooo...................................",
"..................................oooooooo77o7777o77o7777777777777777777777777777777777777777777777777777o77o7777o77o7777o77o7777o77o7777o77o7777o77o7777o77o7777o77o7777o77o7777o77o7777o77o7777o77o7777o77o7777o77o7777o77o7777o77o7777o77o7777o77o7777o77o7777o77o7777o77o7777o77o7777o77o7777o77o7777o77o7777o77o7777o77o77777o7777o77o7777o77o7777o77o7777o77o7777o77o7777o77o7777o77o7777o77o7777o77o7777o77o7777o77o7777o77o7777o77o7777o77o7777o77o7777o77o7777o77o7777o77o7777o77o7777o77o7777o77o7777o77o7777o77o7777o77o7777o77o7777o77o7777o77777777777777777777777777777777777777777777777777o7777o77o7777oooooooo.................................",
".................................oooooooo7777o77o7777o77777777777777777777777777777777777777777777777777777777777777777777777o77o7777o77o7777o77o7777o77o7777o77o7777o77o7777o77o7777o77o7777o77o7777o77o7777o77o7777o77o7777o77o7777o77o7777o77o7777o77o7777o77o7777o77o7777o77o7777o77o7777o77o7777o77o7777o77o7777o77o7777o77o77o77o7777o77o7777o77o7777o77o7777o77o7777o77o7777o77o7777o77o7777o77o7777o77o7777o77o7777o77o7777o77o7777o77o7777o77o7777o77o7777o77o7777o77o7777o77o7777o77o7777o77o7777o77o7777o77o7777o77o7777o77777777777777777777777777777777777777777777777777777777777777777777777o77o7777o77o7oooooooo................................",
"................................oooooooo77oo77oo77oo77oo7777777777777777777777777777777777777777777777777777777777777777777777777777777777777777777777oo77oo77oo77oo77oo77oo77oo77oo77oo77oo77oo77oo77oo77oo77oo77oo77oo77oo77oo77oo77oo77oo77oo77oo77oo77oo77oo77oo77oo77oo77oo77oo77oo77oo77oo77oo77oo77oo77oo77oo77oo77oo7777o777oo77oo77oo77oo77oo77oo77oo77oo77oo77oo77oo77oo77oo77oo77oo77oo77oo77oo77oo77oo77oo77oo77oo77oo77oo77oo77oo77oo77oo77oo77oo77oo77oo77oo77oo77oo77oo77oo77oo77oo77oo77oo7777777777777777777777777777777777777777777777777777777777777777777777777777777777777777777777oo77oo77oo77oo77ooooooooo...............................",
"...............................ooooooooo77oo77oo77oo77oo777777777777777777777777777777777777777777777777777777777777777777777777777777777777777777777777777777777777777o77oo77oo77oo77oo77oo77oo77oo77oo77oo77oo77oo77oo77oo77oo77oo77oo77oo77oo77oo77oo77oo77oo77oo77oo77oo77oo77oo77oo77oo77oo77oo77oo77oo77oo77oo77oo77oo7777o7777o77oo77oo77oo77oo77oo77oo77oo77oo77oo77oo77oo77oo77oo77oo77oo77oo77oo77oo77oo77oo77oo77oo77oo77oo77oo77oo77oo77oo77oo77oo77oo77oo77oo77oo77oo77oo77oo77777777777777777777777777777777777777777777777777777777777777777777777777777777777777777777777777777777777777oo77oo77oo77oo77oo7ooooooo..............................",
".............................ooooooo7o77o7777o77o7777o77o7777o77o7777o77o7777o77o7777o77o7777o7777777777777777777777777777777777777777777777777777777777777777777777777777777777777777777777777777777o77o7777o77o7777o77o7777o77o7777o77o7777o77o7777o77o7777o77o7777o77o7777o77o7777o77o7777o77o7777o77o7777o77o7777o77o7777777o77777o7777o77o7777o77o7777o77o7777o77o7777o77o7777o77o7777o77o7777o77o7777o77o7777o77o7777o77o7777o77o7777o77o7777o77o7777o7777777777777777777777777777777777777777777777777777777777777777777777777777777777777777777777777777777o77o7777o77o7777o77o7777o77o7777o77o7777o77o7777o77o7777o7ooooooo............................",
"............................ooooooo7o7777o77o7777o77o7777o7777777o77o7777o77o7777o77o7777o77o7777o7777777777777777777777777777777777777777777777777777777777777777777777777777777777777777777777777777777777777777777777777777777o77o7777o77o7777o77o7777o77o7777o77o7777o77o7777o77o7777o77o7777o77o7777o77o7777o77o7777o77777777o7777o77o7777o77o7777o77o7777o7777777o77o7777o77o7777o77o7777o77o7777o77o7777o77o7777o77o7777o7777777777777777777777777777777777777777777777777777777777777777777777777777777777777777777777777777777777777777777777777777777o77o7777o77o7777o77o7777o77o7777o7777777o77o7777o77o7777o77o777oooooo............................",
"...........................oooooo7oo77oo77oo77oo77oo77oogggggggggggggggggggggggggggggggggggggggo77oo77oo77oo77oo77oo77oo77777777777777777777777777777777777777777777777777777777777777777777777777777777777777777777777777777777777777oo77oo77oo77oo77oo77oo77oo77oo77oo77oo77oo77oo77oo77oo77oo77oo77oo77oo77oo77oo77oo777777oooo7777777o77oo77oo77oo77oo77oo77oo77oo77oo77oo77oo77oo77oo77oo77oo77oo77oo77oo77oo77oo77oo77o77777777777777777777777777777777777777777777777777777777777777777777777777777777777777777777777777777777777oo77oo77oo77oo77oo77oo77oogggggggggggggggggggggggggggggggggggggggo77oo77oo77oo77oo77oo77oooooo..........................",
"..........................oooooo77oo77oo77oo77oo77oo777gggggggggggggggggggggggggggggggggggggggggg77777oo77oo77oo77oo77oo77oo77oo77oo77oo77oo7777777777777777777777777777777777777777777777777777777777777777777777777777777777777777777777oo77oo77oo77oo77oo77oo77oo77oo77oo77oo77oo77oo77oo77oo77oo77oo77oo77oo77oo77o7777777oggg77o7777777oo77oo77oo77oo77oo77oo77oo77oo77oo77oo77oo77oo77oo77oo77oo77oo77oo77oo77oo77o7777777777777777777777777777777777777777777777777777777777777777777777777777777777777777777oo77oo77oo77oo77oo77oo77oo77oo77oo77oo777777gggggggggggggggggggggggggggggggggggggggggg77oo77oo77oo77oo77oo77ooooooo.........................",
"........................ooooooo77o77o7777o77o7777o77ggggggggggggggggggggggggggggggggggggggggggggggggggggggggggggggggggggg77777777777o7777o77o7777o77o7777o77o7777o77o7777777777777777777777777777777777777777777777777777777777777777777777777777o77o7777o77o7777o77o7777o77o7777o77o7777o77o7777o77o7777o77o7777o77o7777777o7ggggg777777777777o77o7777o77o7777o77o7777o77o7777o77o7777o77o7777o77o7777o77o7777o77o77777777777777777777777777777777777777777777777777777777777777777777777o7777o77o7777o77o7777o77o7777o77o7777777777777ggggggggggggggggggggggggggggggggggggggggggggggggggggggggggggggggggggg77o77o7777o77o7777o77oooooo........................",
"........................oooooo77o7777o77o7777o77o77ggggggggggggggggggggggggggggggggggggggggggggggggggggggggggggggggggggggggggggggggggggggggg777777777777o7777o77o7777o77o7777o77o7777o77o777777777777777777777777777777777777777777777777777777777777o77o7777o77o7777o77o7777o77o7777o77o7777o77o7777o77o7777o77o777777777777ggggggg77o7777777o7777o77o7777o77o7777o77o7777o77o7777o77o7777o77o7777o77o7777o77o777777777777777777777777777777777777777777777777777777777777o77o7777o77o7777o77o7777o77o77777777777777ggggggggggggggggggggggggggggggggggggggggggggggggggggggggggggggggggggggggggggggggggggggggg77777o77o7777o77o7777oooooo.......................",
"......................ooooooo7oo77oo77oo77oo77oo7gggggggggggggggggggggggggggggggggggggggggggggggggggggggggggggggggggggggggggggggggggggggggggggggggggggggggggggggggggggggg77777oo77oo77oo77oo77oo77oo77oo77oo77oo77oo77oo7777777777777777777777777777777o77oo77oo77oo77oo77oo77oo77oo77oo77oo77oo77oo77oo77oo77oo77o7777777oogggggggggo7777777777oo77oo77oo77oo77oo77oo77oo77oo77oo77oo77oo77oo77oo77oo77oo777777777777777777777777777777oo77oo77oo77oo77oo77oo77oo77oo77oo77oo77oo777777gggggggggggggggggggggggggggggggggggggggggggggggggggggggggggggggggggggggggggggggggggggggggggggggggggggggggggggggggggggggg7o77oo77oo77oo77oo77ooooooo.....................",
".....................ooooooo77oo77oo77oo77oo77o7gggggggggggggggggggggggggggggggggggggggggggggggggggggggggggggggggggggggggggggggggggggggggggggggggggggggggggggggggggggggggggggggggggggggggggg777777oo77oo77oo77oo77oo77oo77oo77oo777777777777777777777777777o77oo77oo77oo77oo77oo77oo77oo77oo77oo77oo77oo77oo77oo7777777777oggggggggggg77o7777777oo77oo77oo77oo77oo77oo77oo77oo77oo77oo77oo77oo77oo77oo77777777777777777777777777oo77oo77oo77oo77oo77oo77oo77oo7777777gggggggggggggggggggggggggggggggggggggggggggggggggggggggggggggggggggggggggggggggggggggggggggggggggggggggggggggggggggggggggggggggggggggggggggg777oo77oo77oo77oo77oooooooo....................",
"....................ooooooo77o77o7777o77o7777o7ggggggggggggggggggggggggggggggggggggggggggggggggggggggggggggggggggggggggggggggggggggggggggggggggggggggggggggggggggggggggggggggggggggggggggggggggggggggggggggggggggggggggg77777o77o777777777777777777777777777777777777o77o7777o77o7777o77o7777o77o7777o77o7777o7777777777o7ggggggggggggg777777777777o77o7777o77o7777o77o7777o77o7777o77o7777o7777777777777777777777777777777777o7777o7777gggggggggggggggggggggggggggggggggggggggggggggggggggggggggggggggggggggggggggggggggggggggggggggggggggggggggggggggggggggggggggggggggggggggggggggggggggggggggggggggggggggggggg7o77o7777o77o7777o77ooooooo...................",
"...................ooooooo77o7777o77o7777o77o7ggggggggggggggggggggggggggggggggggggggggggggggggggggggggggggggggggggggggggggggggggggggggggggggggggggggggggggggggggggggggggggggggggggggggggggggggggggggggggggggggggggggggggggggo7777o777777777777777777777777777777777777777o77o7777o77o7777o77o7777o77o7777o77o777777777777ggggggggggggggg77o7777777o7777o77o7777o77o7777o77o7777o77o7777o777777777777777777777777777777777777777o77o77gggggggggggggggggggggggggggggggggggggggggggggggggggggggggggggggggggggggggggggggggggggggggggggggggggggggggggggggggggggggggggggggggggggggggggggggggggggggggggggggggggggggggggggg7777o77o7777o77o7777ooooooo..................",
".................oooooooo7oo77oo77oo77oo77o77gggggggggggggggggggggggggggggggggggggggggggggggggggggggggggggggggggggggggggggggggggggggggggggggggggggggggggggggggggggggggggggggggggggggggggggggggggggggggggggggggggggggggggggggggg777oo77oo77o777777777777777777777777777777777777777oo77oo77oo77oo77oo77oo77oo7777777777oogggggggggggggggggo7777777777oo77oo77oo77oo77oo77oo77oo77o777777777777777777777777777777777777777oo77oo77o7gggggggggggggggggggggggggggggggggggggggggggggggggggggggggggggggggggggggggggggggggggggggggggggggggggggggggggggggggggggggggggggggggggggggggggggggggggggggggggggggggggggggggggggggggg7777oo77oo77oo77oo77oooooooo................",
"................oooooooo77oo77oo77oo77oo7777gggggggggggggggggggggggggggggggggggggggggggggggggggggggggggggggggggggggggggggggggggggggggggggggggggggggggggggggggggggggggggggggggggggggggggggggggggggggggggggggggggggggggggggggggggggggg77oo77oo77oo77777777777777777777777777777777777777oo77oo77oo77oo77oo77oo7777777777oggggggggggggggggggg7777777777oo77oo77oo77oo77oo77oo77777777777777777777777777777777777777oo77oo77oo77oggggggggggggggggggggggggggggggggggggggggggggggggggggggggggggggggggggggggggggggggggggggggggggggggggggggggggggggggggggggggggggggggggggggggggggggggggggggggggggggggggggggggggggggggggggggg7777oo77oo77oo77oo77oooooooo................",
"...............oooooooo77o77o7777o77o7777777ggggggggggggggggggggggggggggggggggggggggggggggggggggggggggggggggggggggggggggggggggggggggggggggggggggggggggggggggggggggggggggggggggggggggggggggggggggggggggggggggggggggggggggggggggggggggggggggggo7777o77o777777777777777777777777777777777777777o7777o77o7777o7777777777o7ggggggggggggggggggggg777777777777o77o7777o77o777777777777777777777777777777777777777o7777o77o77gggggggggggggggggggggggggggggggggggggggggggggggggggggggggggggggggggggggggggggggggggggggggggggggggggggggggggggggggggggggggggggggggggggggggggggggggggggggggggggggggggggggggggggggggggggggggggggggg77777o7777o77o7777o77oooooooo..............",
"..............oooooooo77o7777o77o7777o77777gggggggggggggggggggggggggggggggggggggggggggggggggggggggggggggggggggggggggggggggggggggggggggggggggggggggggggggggggggggggggggggggggggggggggggggggggggggggggggggggggggggggggggggggggggggggggggggggggggggg7777o77o7777o777777777777777777777777777777777777777o77o777777777777ggggggggggggggggggggggg7777777777o7777o77o777777777777777777777777777777777777o77o7777o77o7gggggggggggggggggggggggggggggggggggggggggggggggggggggggggggggggggggggggggggggggggggggggggggggggggggggggggggggggggggggggggggggggggggggggggggggggggggggggggggggggggggggggggggggggggggggggggggggggggggggg77777o77o7777o77o7777oooooooo.............",
".............ooooooooooo77oo77oo77oo77o777ggggggggggggggggggggggggggggggggggggggggggggggggggggggggggggggggggggggggggggggggggggggggggggggggggggggggggggggggggggggggggggggggggggggggggggggggggggggggggggggggggggggggggggggggggggggggggggggggggggggggggggggg7oo77oo77oo7777777777777777777777777777777777777777777777oogggggggggggggggggggggggg7o7777777777777777777777777777777777777777777777oo77oo77oo77gggggggggggggggggggggggggggggggggggggggggggggggggggggggggggggggggggggggggggggggggggggggggggggggggggggggggggggggggggggggggggggggggggggggggggggggggggggggggggggggggggggggggggggggggggggggggggggggggggggggggggggg777777oo77oo77oo77oo7ooooooooo............",
".............oooooooo7oo77oo77oo77oo777777gggggggggggggggggggggggggggggggggggggggggggggggggggggggggggggggggggggggggggggggggggggggggggggggggggggggggggggggggggggggggggggggggggggggggggggggggggggggggggggggggggggggggggggggggggggggggggggggggggggggggggggggggggg7777oo77oo77o777777777777777777777777777777777777777o7ggggggggggggggggggggggggg7777777777777777777777777777777777777777777oo77oo77o77gggggggggggggggggggggggggggggggggggggggggggggggggggggggggggggggggggggggggggggggggggggggggggggggggggggggggggggggggggggggggggggggggggggggggggggggggggggggggggggggggggggggggggggggggggggggggggggggggggggggggggggggggggg77777oo77oo77oo77oo77oooooooo............",
"............oooooooooo77o7777o77o77777777ggggggggggggggggggggggggggggggggggggggggggggggggggggggggggggggggggggggggggggggggggggggggggggggggggggggggggggggggggggggggggggggggggggggggggggggggggggggggggggggggggggggggggggggggggggggggggggggggggggggggggggggggggggggggggggg77o7777o77o7777777777777777777777777777777o7gggggggggggggggggggggggggggg77777777777777777777777777777777o7777o77o7777ggggggggggggggggggggggggggggggggggggggggggggggggggggggggggggggggggggggggggggggggggggggggggggggggggggggggggggggggggggggggggggggggggggggggggggggggggggggggggggggggggggggggggggggggggggggggggggggggggggggggggggggggggggggggggggg777777o7777o77o7777oooooooooo...........",
"............ooooooooo7777o77o7777o7777777gggggggggggggggggggggggggggggggggggggggggggggggggggggggggggggggggggggggggggggggggggggggggggggggggggggggggggggggggggggggggggggggggggggggggggggggggggggggggggggggggggggggggggggggggggggggggggggggggggggggggggggggggggggggggggggggggg777777o77o77777777777777777777777777777ggggggggggggggggggggggggggggg777777777777777777777777777o7777o77o777gggggggggggggggggggggggggggggggggggggggggggggggggggggggggggggggggggggggggggggggggggggggggggggggggggggggggggggggggggggggggggggggggggggggggggggggggggggggggggggggggggggggggggggggggggggggggggggggggggggggggggggggggggggggggggggggggg7777777o77o7777o77o7ooooooooo...........",
"............oooooooo77oo77oo77oo77o77777ggggggggggggggggggggggggggggggggggggggggggggggggggggggggggggggggggggggggggggggggggggggggggggggggggggggggggggggggggggggggggggggggggggggggggggggggggggggggggggggggggggggggggggggggggggggggggggggggggggggggggggggggggggggggggggggggggggggggggg777oo77oo77oo77777777777777ooggggggggggggggggggggggggggggggggoo777777777777777o77oo77oo7777gggggggggggggggggggggggggggggggggggggggggggggggggggggggggggggggggggggggggggggggggggggggggggggggggggggggggggggggggggggggggggggggggggggggggggggggggggggggggggggggggggggggggggggggggggggggggggggggggggggggggggggggggggggggggggggggggggggggggg77777777oo77oo77oo77ooooooooo...........",
"...........ooooooooo77oo77oo77oo77777777gggggggggggggggggggggggggggggggggggggggggggggggggggggggggggggggggggggggggggggggggggggggggggggggggggggggggggggggggggggggggggggggggggggggggggggggggggggggggggggggggggggggggggggggggggggggggggggggggggggggggggggggggggggggggggggggggggggggggggggggg77oo77oo77oo7777777777oogggggggggggggggggggggggggggggggggo7777777777oo77oo77oo777gggggggggggggggggggggggggggggggggggggggggggggggggggggggggggggggggggggggggggggggggggggggggggggggggggggggggggggggggggggggggggggggggggggggggggggggggggggggggggggggggggggggggggggggggggggggggggggggggggggggggggggggggggggggggggggggggggggggggggggggg7777777oo77oo77oo77oooooooooo..........",
"...........oooooooooo7777o77o7777777777ggggggggggggggggggggggggggggggggggggggggggggggggggggggggggggggggggggggggggggggggggggggggggggggggggggggggggggggggggggggggggggggggggggggggggggggggggggggggggggggggggggggggggggggggggggggggggggggggggggggggggggggggggggggggggggggggggggggggggggggggggggggggg7777o7777o77o7ggggggggggggggggggggggggggggggggggggo7777o77o777777ggggggggggggggggggggggggggggggggggggggggggggggggggggggggggggggggggggggggggggggggggggggggggggggggggggggggggggggggggggggggggggggggggggggggggggggggggggggggggggggggggggggggggggggggggggggggggggggggggggggggggggggggggggggggggggggggggggggggggggggggggggggggg77777777o7777o77o77ooooooooo..........",
"...........ooooooooo7o77o7777o77777777ggggggggggggggggggggggggggggggggggggggggggggggggggggggggggggggggggggggggggggggggggggggggggggggggggggggggggggggggggggggggggggggggggggggggggggggggggggggggggggggggggggggggggggggggggggggggggggggggggggggggggggggggggggggggggggggggggggggggggggggggggggggggggggggg777o7777ogggggggggggggggggggggggggggggggggggggo77o77777gggggggggggggggggggggggggggggggggggggggggggggggggggggggggggggggggggggggggggggggggggggggggggggggggggggggggggggggggggggggggggggggggggggggggggggggggggggggggggggggggggggggggggggggggggggggggggggggggggggggggggggggggggggggggggggggggggggggggggggggggggggggggggggg777777777o77o7777o7ooooooooo..........",
"...........ooooooooo77oo77oo7777777777ggggggggggggggggggggggggggggggggggggggggggggggggggggggggggggggggggggggggggggggggggggggggggggggggggggggggggggggggggggggggggggggggggggggggggggggggggggggggggggggggggggggggggggggggggggggggggggggggggggggggggggggggggggggggggggggggggggggggggggggggggggggggggggggggggggggggggggggggggggggggggggggggggggggggggggggggggggggggggggggggggggggggggggggggggggggggggggggggggggggggggggggggggggggggggggggggggggggggggggggggggggggggggggggggggggggggggggggggggggggggggggggggggggggggggggggggggggggggggggggggggggggggggggggggggggggggggggggggggggggggggggggggggggggggggggggggggggggggggggggggggggg777777777oo77oo77oooooooooo..........",
"..........oooooooooo77oo77oo777777777ggggggggggggggggggggggggggggggggggggggggggggggggggggggggggggggggggggggggggggggggggggggggggggggggggggggggggggggggggggggggggggggggggggggggggggggggggggggggggggggggggggggggggggggggggggggggggggggggggggggggggggggggggggggggggggggggggggggggggggggggggggggggggggggggggggggggggggggggggggggggggggggggggggggggggggggggggggggggggggggggggggggggggggggggggggggggggggggggggggggggggggggggggggggggggggggggggggggggggggggggggggggggggggggggggggggggggggggggggggggggggggggggggggggggggggggggggggggggggggggggggggggggggggggggggggggggggggggggggggggggggggggggggggggggggggggggggggggggggggggggggggggg77777777oo77oo77oooooooooo..........",
"..........ooooooooo77o77o77777777777ggggggggggggggggggggggggggggggggggggggggggggggggggggggggggggggggggggggggggggggggggggggggggggggggggggggggggggggggggggggggggggggggggggggggggggggggggggggggggggggggggggggggggggggggggggggggggggggggggggggggggggggggggggggggggggggggggggggggggggggggggggggggggggggggggggggggggggggggggggggggggggggggggggggggggggggggggggggggggggggggggggggggggggggggggggggggggggggggggggggggggggggggggggggggggggggggggggggggggggggggggggggggggggggggggggggggggggggggggggggggggggggggggggggggggggggggggggggggggggggggggggggggggggggggggggggggggggggggggggggggggggggggggggggggggggggggggggggggggggggggggggggggg777777777o7777o77oooooooo..........",
"..........oooooooo77o7777o7777777777ggggggggggggggggggggggggggggggggggggggggggggggggggggggggggggggggggggggggggggggggggggggggggggggggggggggggggggggggggggggggggggggggggggggggggggggggggggggggggggggggggggggggggggggggggggggggggggggggggggggggggggggggggggggggggggggggggggggggggggggggggggggggggggggggggggggggggggggggggggggggggggggggggggggggggggggggggggggggggggggggggggggggggggggggggggggggggggggggggggggggggggggggggggggggggggggggggggggggggggggggggggggggggggggggggggggggggggggggggggggggggggggggggggggggggggggggggggggggggggggggggggggggggggggggggggggggggggggggggggggggggggggggggggggggggggggggggggggggggggggggggggggggg7777777777o77o777oooooooo..........",
"..........oooooooooo77oo77777777777ggggggggggggggggggggggggggggggggggggggggggggggggggggggggggggggggggggggggggggggggggggggggggggggggggggggggggggggggggggggggggggggggggggggggggggggggggggggggggggggggggggggggggggggggggggggggggggggggggggggggggggggggggggggggggggggggggggggggggggggggggggggggggggggggggggggggggggggggggggggggggggggggggggggggggggggggggggggggggggggggggggggggggggggggggggggggggggggggggggggggggggggggggggggggggggggggggggggggggggggggggggggggggggggggggggggggggggggggggggggggggggggggggggggggggggggggggggggggggggggggggggggggggggggggggggggggggggggggggggggggggggggggggggggggggggggggggggggggggggggggggggggggggg7777777777oo77oo7oooooooo.........",
"..........oooooooooo77o777777777777ggggggggggggggggggggggggggggggggggggggggggggggggggggggggggggggggggggggggggggggggggggggggggggggggggggggggggggggggggggggggggggggggggggggggggggggggggggggggggggggggggggggggggggggggggggggggggggggggggggggggggggggggggggggggggggggggggggggggggggggggggggggggggggggggggggggggggggggggggggggggggggggggggggggggggggggggggggggggggggggggggggggggggggggggggggggggggggggggggggggggggggggggggggggggggggggggggggggggggggggggggggggggggggggggggggggggggggggggggggggggggggggggggggggggggggggggggggggggggggggggggggggggggggggggggggggggggggggggggggggggggggggggggggggggggggggggggggggggggggggggggggggggggg7777777777o777oo7oooooooo.........",
"..........oooooooo77o77777777777777ggggggggggggggggggggggggggggggggggggggggggggggggggggggggggggggggggggggggggggggggggggggggggggggggggggggggggggggggggggggggggggggggggggggggggggggggggggggggggggggggggggggggggggggggggggggggggggggggggggggggggggggggggggggggggggggggggggggggggggggggggggggggggggggggggggggggggggggggggggggggggggggggggggggggggggggggggggggggggggggggggggggggggggggggggggggggggggggggggggggggggggggggggggggggggggggggggggggggggggggggggggggggggggggggggggggggggggggggggggggggggggggggggggggggggggggggggggggggggggggggggggggggggggggggggggggggggggggggggggggggggggggggggggggggggggggggggggggggggggggggggggggggggg777777777777o7777oooooooo.........",
"..........oooooooo777o77o777777777gggggggggggggggggggggggggggggggggggggggggggggggggggggggggggggggggggggggggggggggggggggggggggggggggggggggggggggggggggggggggggggggggggggggggggggggggggggggggggggggggggggggggggggggggggggggggggggggggggggggggggggggggggggggggggggggggggggggggggggggggggggggggggggggggggggggggggggggggggggggggggggggggggggggggggggggggggggggggggggggggggggggggggggggggggggggggggggggggggggggggggggggggggggggggggggggggggggggggggggggggggggggggggggggggggggggggggggggggggggggggggggggggggggggggggggggggggggggggggggggggggggggggggggggggggggggggggggggggggggggggggggggggggggggggggggggggggggggggggggggggggggggggggg7777777777777o77ooooooooo.........",
".........oooooooo7oo77oo7777777777ggggggggggggggggggggggggggggggggggggggggggggggggggggggggggggggggggggggggggggggggggggggggggggggggggggggggggggggggggggggggggggggggggggggggggggggggggggggggggggggggggggggggggggggggggggggggggggggggggggggggggggggggggggggggggggggggggggggggggggggggggggggggggggggggggggggggggggggggggggggggggggggggggggggggggggggggggggggggggggggggggggggggggggggggggggggggggggggggggggggggggggggggggggggggggggggggggggggggggggggggggggggggggggggggggggggggggggggggggggggggggggggggggggggggggggggggggggggggggggggggggggggggggggggggggggggggggggggggggggggggggggggggggggggggggggggggggggggggggggggggggggggggggggg777777777oo77oo77oooooooo........",
".........oooooooo7oo77oo777777777ggggggggggggggggggggggggggggggggggggggggggggggggggggggggggggggggggggggggggggggggggggggggggggggggggggggggggggggggggggggggggggggggggggggggggggggggggggggggggggggggggggggggggggggggggggggggggggggggggggggggggggggggggggggggggggggggggggggggggggggggggggggggggggggggggggggggggggggggggggggggggggggggggggggggggggggggggggggggggggggggggggggggggggggggggggggggggggggggggggggggggggggggggggggggggggggggggggggggggggggggggggggggggggggggggggggggggggggggggggggggggggggggggggggggggggggggggggggggggggggggggggggggggggggggggggggggggggggggggggggggggggggggggggggggggggggggggggggggggggggggggggggggggggggg77777777oo77oo77oooooooo........",
".........oooooooo7777o77777777777ggggggggggggggggggggggggggggggggggggggggggggggggggggggggggggggggggggggggggggggggggggggggggggggggggggggggggggggggggggggggggggggggggggggggggggggggggggggggggggggggggggggggggggggggggggggggggggggggggggggggggggggggggggggggggggggggggggggggggggggggggggggggggggggggggggggggggggggggggggggggggggggggggggggggggggggggggggggggggggggggggggggggggggggggggggggggggggggggggggggggggggggggggggggggggggggggggggggggggggggggggggggggggggggggggggggggggggggggggggggggggggggggggggggggggggggggggggggggggggggggggggggggggggggggggggggggggggggggggggggggggggggggggggggggggggggggggggggggggggggggggggggggggggggg77777777777o77o7oooooooo........",
".........ooooooooo77o77777777777gggggggggggggggggggggggggggggggggggggggggggggggggggggggggggggggggggggggggggggggggggggggggggggggggggggggggggggggggggggggggggggggggggggggggggggggggggggggggggggggggggggggggggggggggggggggggggggggggggggggggggggggggggggggggggggggggggggggggggggggggggggggggggggggggggggggggggggggggggggggggggggggggggggggggggggggggggggggggggggggggggggggggggggggggggggggggggggggggggggggggggggggggggggggggggggggggggggggggggggggggggggggggggggggggggggggggggggggggggggggggggggggggggggggggggggggggggggggggggggggggggggggggggggggggggggggggggggggggggggggggggggggggggggggggggggggggggggggggggggggggggggggggggggggg7777777777o7777ooooooooo........",
"........ooooooooo7oo77o777777777ggggggggggggggggggggggggggggggggggggggggggggggggggggggggggggggggggggggggggggggggggggggggggggggggggggggggggggggggggggggggggggggggggggggggggggggggggggggggggggggggggggggggggggggggggggggggggggggggggggggggggggggggggggggggggggggggggggggggggggggggggggggggggggggggggggggggggggggggggggggggggggggggggggggggggggggggggggggggggggggggggggggggggggggggggggggggggggggggggggggggggggggggggggggggggggggggggggggggggggggggggggggggggggggggggggggggggggggggggggggggggggggggggggggggggggggggggggggggggggggggggggggggggggggggggggggggggggggggggggggggggggggggggggggggggggggggggggggggggggggggggggggggggggggggg77777777777oo77oooooooo........",
"........oooooooo77oo77o777777777ggggggggggggggggggggggggggggggggggggggggggggggggggggggggggggggggggggggggggggggggggggggggggggggggggggggggggggggggggggggggggggggggggggggggggggggggggggggggggggggggggggggggggggggggggggggggggggggggggggggggggggggggggggggggggggggggggggggggggggggggggggggggggggggggggggggggggggggggggggggggggggggggggggggggggggggggggggggggggggggggggggggggggggggggggggggggggggggggggggggggggggggggggggggggggggggggggggggggggggggggggggggggggggggggggggggggggggggggggggggggggggggggggggggggggggggggggggggggggggggggggggggggggggggggggggggggggggggggggggggggggggggggggggggggggggggggggggggggggggggggggggggggggggggggg77777777777oo77oooooooo........",
"........oooooooo7o77o77777777777ggggggggggggggggggggggggggggggggggggggggggggggggggggggggggggggggggggggggggggggggggggggggggggggggggggggggggggggggggggggggggggggggggggggggggggggggggggggggggggggggggggggggggggggggggggggggggggggggggggggggggggggggggggggggggggggggggggggggggggggggggggggggggggggggggggggggggggggggggggggggggggggggggggggggggggggggggggggggggggggggggggggggggggggggggggggggggggggggggggggggggggggggggggggggggggggggggggggggggggggggggggggggggggggggggggggggggggggggggggggggggggggggggggggggggggggggggggggggggggggggggggggggggggggggggggggggggggggggggggggggggggggggggggggggggggggggggggggggggggggggggggggggggggggggg777777777o7777ooooooooo........",
"........ooooooooo7777o777777777ggggggggggggggggggggggggggggggggggggggggggggggggggggggggggggggggggggggggggggggggggggggggggggggggggggggggggggggggggggggggggggggggggggggggggggggggggggggggggggggggggggggggggggggggggggggggggggggggggggggggggggggggggggggggggggggggggggggggggggggggggggggggggggggggggggggggggggggggggggggggggggggggggggggggggggggggggggggggggggggggggggggggggggggggggggggggggggggggggggggggggggggggggggggggggggggggggggggggggggggggggggggggggggggggggggggggggggggggggggggggggggggggggggggggggggggggggggggggggggggggggggggggggggggggggggggggggggggggggggggggggggggggggggggggggggggggggggggggggggggggggggggggggggggggggg777777777o77o77ooooooo........",
"........oooooooo77oo77777777777ggggggggggggggggggggggggggggggggggggggggggggggggggggggggggggggggggggggggggggggggggggggggggggggggggggggggggggggggggggggggggggggggggggggggggggggggggggggggggggggggggggggggggggggggggggggggggggggggggggggggggggggggggggggggggggggggggggggggggggggggggggggggggggggggggggggggggggggggggggggggggggggggggggggggggggggggggggggggggggggggggggggggggggggggggggggggggggggggggggggggggggggggggggggggggggggggggggggggggggggggggggggggggggggggggggggggggggggggggggggggggggggggggggggggggggggggggggggggggggggggggggggggggggggggggggggggggggggggggggggggggggggggggggggggggggggggggggggggggggggggggggggggggggggggggg7777777777oo77ooooooooo.......",
"........oooooooo77oo7777777777ggggggggggggggggggggggggggggggggggggggggggggggggggggggggggggggggggggggggggggggggggggggggggggggggggggggggggggggggggggggggggggggggggggggggggggggggggggggggggggggggggggggggggggggggggggggggggggggggggggggggggggggggggggggggggggggggggggggggggggggggggggggggggggggggggggggggggggggggggggggggggggggggggggggggggggggggggggggggggggggggggggggggggggggggggggggggggggggggggggggggggggggggggggggggggggggggggggggggggggggggggggggggggggggggggggggggggggggggggggggggggggggggggggggggggggggggggggggggggggggggggggggggggggggggggggggggggggggggggggggggggggggggggggggggggggggggggggggggggggggggggggggggggggggggggggg777777777oo77ooooooooo.......",
"........ooooooo7o7777777777777ggggggggggggggggggggggggggggggggggggggggggggggggggggggggggggggggggggggggggggggggggggggggggggggggggggggggggggggggggggggggggggggggggggggggggggggggggggggggggggggggggggggggggggggggggggggggggggggggggggggggggggggggggggggggggggggggggggggggggggggggggggggggggggggggggggggggggggggggggggggggggggggggggggggggggggggggggggggggggggggggggggggggggggggggggggggggggggggggggggggggggggggggggggggggggggggggggggggggggggggggggggggggggggggggggggggggggggggggggggggggggggggggggggggggggggggggggggggggggggggggggggggggggggggggggggggggggggggggggggggggggggggggggggggggggggggggggggggggggggggggggggggggggggggggggggg77777777777o777ooooooo.......",
".......oooooooo77o77o77777777ggggggggggggggggggggggggggggggggggggggggggggggggggggggggggggggggggggggggggggggggggggggggggggggggggggggggggggggggggggggggggggggggggggggggggggggggggggggggggggggggggggggggggggggggggggggggggggggggggggggggggggggggggggggggggggggggggggggggggggggggggggggggggggggggggggggggggggggggggggggggggggggggggggggggggggggggggggggggggggggggggggggggggggggggggggggggggggggggggggggggggggggggggggggggggggggggggggggggggggggggggggggggggggggggggggggggggggggggggggggggggggggggggggggggggggggggggggggggggggggggggggggggggggggggggggggggggggggggggggggggggggggggggggggggggggggggggggggggggggggggggggggggggggggggggggggg77777777777o77oooooooo......",
".......ooooooooo77oo777777777ggggggggggggggggggggggggggggggggggggggggggggggggggggggggggggggggggggggggggggggggggggggggggggggggggggggggggggggggggggggggggggggggggggggggggggggggggggggggggggggggggggggggggggggggggggggggggggggggggggggggggggggggggggggggggggggggggggggggggggggggggggggggggggggggggggggggggggggggggggggggggggggggggggggggggggggggggggggggggggggggggggggggggggggggggggggggggggggggggggggggggggggggggggggggggggggggggggggggggggggggggggggggggggggggggggggggggggggggggggggggggggggggggggggggggggggggggggggggggggggggggggggggggggggggggggggggggggggggggggggggggggggggggggggggggggggggggggggggggggggggggggggggggggggggggggggg77777777oo77oooooooooo......",
".......ooooooooo77oo777777777ggggggggggggggggggggggggggggggggggggggggggggggggggggggggggggggggggggggggggggggggggggggggggggggggggggggggggggggggggggggggggggggggggggggggggggggggggggggggggggggggggggggggggggggggggggggggggggggggggggggggggggggggggggggggggggggggggggggggggggggggggggggggggggggggggggggggggggggggggggggggggggggggggggggggggggggggggggggggggggggggggggggggggggggggggggggggggggggggggggggggggggggggggggggggggggggggggggggggggggggggggggggggggggggggggggggggggggggggggggggggggggggggggggggggggggggggggggggggggggggggggggggggggggggggggggggggggggggggggggggggggggggggggggggggggggggggggggggggggggggggggggggggggggggggggggggg77777777oo77oooooooooo......",
"......oooooooo777o7777777777gggggggggggggggggggggggggggggggggggggggggggggggggggggggggggggggggggggggggggggggggggggggggggggggggggggggggggggggggggggggggggggggggggggggggggggggggggggggggggggggggggggggggggggggggggggggggggggggggggggggggggggggggggggggggggggggggggggggggggggggggggggggggggggggggggggggggggggggggggggggggggggggggggggggggggggggggggggggggggggggggggggggggggggggggggggggggggggggggggggggggggggggggggggggggggggggggggggggggggggggggggggggggggggggggggggggggggggggggggggggggggggggggggggggggggggggggggggggggggggggggggggggggggggggggggggggggggggggggggggggggggggggggggggggggggggggggggggggggggggggggggggggggggggggggggggggg77777777777o77oooooooo......",
"......oooooooo77o77777777777ggggggggggggggggggggggggggggggggggggggggggggggggggggggggg77777777777777777777777777777777777777777777777777777777777777ggggggggggggggggggggggggggggggggggggggggggggggggggggggggggggggggggggggggggggggggggggggggggggggggggggggggggggggggggggggggggggggggggggggggggggggggggggggggggggggggggggggggggggggggggggggggggggggggggggggggggggggggggggggggggggggggggggggggggggggggggggggggggggggggggggggggggggggggggggggggggggggggggggggggggggggggggggggggggggggggggggggggggggggggggggggggggggg77777777777777777777777777777777777777777777777777777777777777ggggggggggggggggggggggggggggggggggggggggggggggggggggggg777777777o7777ooooooo......",
"......ooooooo7oo77o777777777gggggggggggggggggggggggggggggggggggggggggggggg777777777777777777777777777777777777777777777777777777777777777777777777777777777ggggggggggggggggggggggggggggggggggggggggggggggggggggggggggggggggggggggggggggggggggggggggggggggggggggggggggggggggggggggggggggggggggggggggggggggggggggggggggggggggggggggggggggggggggggggggggggggggggggggggggggggggggggggggggggggggggggggggggggggggggggggggggggggggggggggggggggggggggggggggggggggggggggggggggggggggggggggggggggggggggggggggggggg777777777777777777777777777777777777777777777777777777777777777777777777777777777gggggggggggggggggggggggggggggggggggggggggggg77777777777oo77ooooooo.....",
"......ooooooo7oo77o77777777ggggggggggggggggggggggggggggggggggggggggggggg77777777777777777777777777777777777777777777777777777777777777777777777777777777777777777ggggggggggggggggggggggggggggggggggggggggggggggggggggggggggggggggggggggggggggggggggggggggggggggggggggggggggggggggggggggggggggggggggggggggggggggggggggggggggggggggggggggggggggggggggggggggggggggggggggggggggggggggggggggggggggggggggggggggggggggggggggggggggggggggggggggggggggggggggggggggggggggggggggggggggggggggggggggggggggggggg77777777777777777777777777777777777777777777777777777777777777777777777777777777777777777ggggggggggggggggggggggggggggggggggggggggggg7777777777oo77ooooooo.....",
"......oooooooo77o7777777777gggggggggggggggggggggggggggggggggggggggggg77777777777777777777777777777777777777777777777777777777777777777777777777777777777777777777777777777ggggggggggggggggggggggggggggggggggggggggggggggggggggggggggggggggggggggggggggggggggggggggggggggggggggggggggggggggggggggggggggggggggggggggggggggggggggggggggggggggggggggggggggggggggggggggggggggggggggggggggggggggggggggggggggggggggggggggggggggggggggggggggggggggggggggggggggggggggggggggggggggggggggggggggggggg77777777777777777777777777777777777777777777777777777777777777777777777777777777777777777777777777777gggggggggggggggggggggggggggggggggggggggg77777777o7777oooooooo.....",
"......ooooooo7777o777777777gggggggggggggggggggggggggggggggggggggggg777777777777777777777777777777777777777777777777777777777777777777777777777777777777777777777777777777777777ggggggggggggggggggggggggggggggggggggggggggggggggggggggggggggggggggggggggggggggggggggggggggggggggggggggggggggggggggggggggggggggggggggggggggggggggggggggggggggggggggggggggggggggggggggggggggggggggggggggggggggggggggggggggggggggggggggggggggggggggggggggggggggggggggggggggggggggggggggggggggggggggggggg777777777777777777777777777777777777777777777777777777777777777777777777777777777777777777777777777777777777gggggggggggggggggggggggggggggggggggggg777777777o77o7ooooooo.....",
".....ooooooo77oo7777777777gggggggggggggggggggggggggggggggggggggg777777777777777777777777777777oo77oo77oo77oo77oo77oo77oo77oo77oo77777777777777777777777777777777777777777777777777777ggggggggggggggggggggggggggggggggggggggggggggggggggggggggggggggggggggggggggggggggggggggggggggggggggggggggggggggggggggggggggggggggggggggggggggggggggggggggggggggggggggggggggggggggggggggggggggggggggggggggggggggggggggggggggggggggggggggggggggggggggggggggggggggggggggggggggggggggggggggggg77777777777777777777777777777777777777777777777777oo77oo77oo77oo77oo77oo77oo77oo77oo777777777777777777777777777777777ggggggggggggggggggggggggggggggggggg7777777777oo77oooooooo....",
".....ooooooo77oo7777777777gggggggggggggggggggggggggggggggggggg77777777777777777777oo77oo77oo77oo77oo77oo77oo77oo77oo77oo77oo77oo77oo77oo77o7777777777777777777777777777777777777777777gggggggggggggggggggggggggggggggggggggggggggggggggggggggggggggggggggggggggggggggggggggggggggggggggggggggggggggggggggggggggggggggggggggggggggggggggggggggggggggggggggggggggggggggggggggggggggggggggggggggggggggggggggggggggggggggggggggggggggggggggggggggggggggggggggggggggggggggggggggg77777777777777777777777777777777777777777777oo77oo77oo77oo77oo77oo77oo77oo77oo77oo77oo77oo77oo77oo77777777777777777777777gggggggggggggggggggggggggggggggggg777777777oo77oooooooo....",
".....oooooo7o7777o77777777ggggggggggggggggggggggggggggggggg77777777777777o77o7777o77o7777o77o7777o77o7777o77o7777o77o7777o77o7777o77o7777o77o7777o77o777777777777777777777777777777777777ggggggggggggggggggggggggggggggggggggggggggggggggggggggggggggggggggggggggggggggggggggggggggggggggggggggggggggggggggggggggggggggggggggggggggggggggggggggggggggggggggggggggggggggggggggggggggggggggggggggggggggggggggggggggggggggggggggggggggggggggggggggggggggggggggggggggggggggggg77777777777777777777777777777777o7777o77o7777o77o7777o77o7777o77o7777o77o7777o77o7777o77o7777o77o7777o77o7777o7777777777777777ggggggggggggggggggggggggggggggg77777777o77o777oooooo....",
".....oooooo77o77o77777777gggggggggggggggggggggggggggggggg777777777777777o7777o77777777777777777777777777777777777777777777777o77o7777o77o7777o77o7777o77o7777o77o7777777777777777777777777gggggggggggggggggggggggggggggggggggggggggggggggggggggggggggggggggggggggggggggggggggggggggggggggggggggggggggggggggggggggggggggggggggggggggggggggggggggggggggggggggggggggggggggggggggggggggggggggggggggggggggggggggggggggggggggggggggggggggggggggggggggggggggggggggggggggggggggg777777777777777777777777777o77o7777o77o7777o77o7777o77o7777o77o77777777777777777777777777777777777777777777o77o7777777777777777777gggggggggggggggggggggggggggggg77777777777o77oooooo....",
"....oooooooo77oo777777777ggggggggggggggggggggggggggggg7777777777777o77oo77oogggggggggggggggggggggggggggggggggggggggggggggggggggggggggggg7777777777oo77oo77oo77oo77oo77oo77oo77777777777777777ggggggggggggggggggggggggggggggggggggggggggggggggggggggggggggggggggggggggggggggggggggggggggggggggggggggggggggggggggggggggggggggggggggggggggggggggggggggggggggggggggggggggggggggggggggggggggggggggggggggggggggggggggggggggggggggggggggggggggggggggggggggggggggggggggggggggg77777777777777oo77oo77oo77oo77oo77oo77oo777777777777gggggggggggggggggggggggggggggggggggggggggggggggggggggggggggog77o77oo777777777777777ggggggggggggggggggggggggggg77777777oo77oooooooo....",
"....oooooooo77oo77777777gggggggggggggggggggggggggggg77777777777777oo7777ggggggggggggggggggggggggggggggggggggggggggggggggggggggggggggggggggggggggg77777oo77oo77oo77oo77oo77oo77o777777777777777gggggggggggggggggggggggggggggggggggggggggggggggggggggggggggggggggggggggggggggggggggggggggggggggggggggggggggggggggggggggggggggggggggggggggggggggggggggggggggggggggggggggggggggggggggggggggggggggggggggggggggggggggggggggggggggggggggggggggggggggggggggggggggggggggggggg7777777777777777oo77oo777o77oo77oo77oo77o77777gggggggggggggggggggggggggggggggggggggggggggggggggggggggggggggggggggggggg77oo77777777777777777ggggggggggggggggggggggggg77777777oo77oooooooo....",
"....oooooo777o77o7777777ggggggggggggggggggggggggg777777777777777o77777gggggggggggggggggggggggggggggggggggggggggggggggggggggggggggggggggggggggggggggggggggggg7777o7777o77o7777o77o7777777777777777ggggggggggggggggggggggggggggggggggggggggggggggggggggggggggggggggggggggggggggggggggggggggggggggggggggggggggggggggggggggggggggggggggggggggggggggggggggggggggggggggggggggggggggggggggggggggggggggggggggggggggggggggggggggggggggggggggggggggggggggggggggggggggggggggg777777777777o7777o77o7777o77o77777777gggggggggggggggggggggggggggggggggggggggggggggggggggggggggggggggggggggggggggggggggggggg7o7777777777777777777ggggggggggggggggggggggg7777777777o77oooooo....",
"....oooooo77o77777777777ggggggggggggggggggggggg777777777777777777o77ggggggggggggggggggggggggggggggggggggggggggggggggggggggggggggggggggggggggggggggggggggggggggggg77777777o77o7777o77o7777777777777gggggggggggggggggggggggggggggggggggggggggggggggggggggggggggggggggggggggggggggggggggggggggggggggggggggggggggggggggggggggggggggggggggggggggggggggggggggggggggggggggggggggggggggggggggggggggggggggggggggggggggggggggggggggggggggggggggggggggggggggggggggggggggggg777777777777777o7777777o7777777777gggggggggggggggggggggggggggggggggggggggggggggggggggggggggggggggggggggggggggggggggggggggggggg7o77o77777777777777777ggggggggggggggggggggg777777777o7777oooooo...",
"....ooooo7oo77oo7777777ggggggggggggggggggggg77777777777777oo77o777ggggggggggggggggggggggggggggggggggggggggggggggggggggggggggggggggggggggggggggggggggggggggggggggggggggggg77777oo77oo77oo7777777777777ggggggggggggggggggggggggggggggggggggggggggggggggggggggggggggggggggggggggggggggggggggggggggggggggggggggggggggggggggggggggggggggggggggggggggggggggggggggggggggggggggggggggggggggggggggggggggggggggggggggggggggggggggggggggggggggggggggggggggggggggggggggggg77777777777o77oo77oo77777777ggggggggggggggggggggggggggggggggggggggggggggggggggggggggggggggggggggggggggggggggggggggggggggggggggggggg777oo77777777777777777ggggggggggggggggggg777777oo77oo77ooooo...",
"....ooooo7oo77oo7777777ggggggggggggggggggg7777777777777777oo7777gggggggggggggggggggggggggggggggggggggggggggggggggggggggggggggggggggggggggggggggggggggggggggggggggggggggggggggg7777oo77oo77777777777777gggggggggggggggggggggggggggggggggggggggggggggggggggggggggggggggggggggggggggggggggggggggggggggggggggggggggggggggggggggggggggggggggggggggggggggggggggggggggggggggggggggggggggggggggggggggggggggggggggggggggggggggggggggggggggggggggggggggggggggggggggggg777777777777oo77oo77o7777gggggggggggggggggggggggggggggggggggggggggggggggggggggggggggggggggggggggggggggggggggggggggggggggggggggggggggggg7oo7777777777777777777ggggggggggggggggg777777oo77oo77ooooo...",
"....oooooo77o7777777777gggggggggggggggg777777777777777777o7777gggggggggggggggggggggggggggggggggggggggggggggggggggggggggggggggggggggggggggggggggggggggggggggggggggggggggggggggggggg77o7777o777777777777777ggggggggggggggggggggggggggggggggggggggggggggggggggggggggggggggggggggggggggggggggggggggggggggggggggggggggggggggggggggggggggggggggggggggggggggggggggggggggggggggggggggggggggggggggggggggggggggggggggggggggggggggggggggggggggggggggggggggggggggggggg7777777777777o77o777777gggggggggggggggggggggggggggggggggggggggggggggggggggggggggggggggggggggggggggggggggggggggggggggggggggggggggggggggggggg77o77777777777777777777gggggggggggggg77777777o7777oooooo...",
"...oooooo7777o777777777gggggggggggggg7777777777777777o77o777gggggggggggggggggggggggggggggggggggggggggggggggggggggggggggggggggggggggggggggggggggggggggggggggggggggggggggggggggggggggg7o77o7777o777777777777gggggggggggggggggggggggggggggggggggggggggggggggggggggggggggggggggggggggggggggggggggggggggggggggggggggggggggggggggggggggggggggggggggggggggggggggggggggggggggggggggggggggggggggggggggggggggggggggggggggggggggggggggggggggggggggggggggggggggggggg77777777777o77o7777o777gggggggggggggggggggggggggggggggggggggggggggggggggggggggggggggggggggggggggggggggggggggggggggggggggggggggggggggggggggggggg7777o777777777777777777gggggggggggg777777777o77o7oooooo..",
"...ooooo77oo77oo777777gggggggggggg7777777777777777oo77o77gggggggggggggggggggggggggggggggggggggggggggggggggggggggggggggggggggggggggggggggggggggggggggggggggggggggggggggggggggggggggggggg777oo77oo7777777777777ggggggggggggggggggggggggggggggggggggggggggggggggggggggggggggggggggggggggggggggggggggggggggggggggggggggggggggggggggggggggggggggggggggggggggggggggggggggggggggggggggggggggggggggggggggggggggggggggggggggggggggggggggggggggggggggggggggggggg7777777777oo77oo77o777gggggggggggggggggggggggggggggggggggggggggggggggggggggggggggggggggggggggggggggggggggggggggggggggggggggggggggggggggggggggggggggg77oo777777777777777777gggggggggg7777777o77oo77oooooo..",
"...ooooo77oo77oo777777gggggggggg777777777777777777oo7777ggggggggggggggggggggggggggggggggggggggggggggggggggggggggggggggggggggggggggggggggggggggggggggggggggggggggggggggggggggggggggggggggg7oo77oo77777777777777gggggggggggggggggggggggggggggggggggggggggggggggggggggggggggggggggggggggggggggggggggggggggggggggggggggggggggggggggggggggggggggggggggggggggggggggggggggggggggggggggggggggggggggggggggggggggggggggggggggggggggggggggggggggggggggggggggggg777777777777oo77oo7777ggggggggggggggggggggggggggggggggggggggggggggggggggggggggggggggggggggggggggggggggggggggggggggggggggggggggggggggggggggggggggggggggg7oo77777777777777777777ggggggggg777777o77oo77oooooo..",
"...oooooo7777o77777777ggggggg7777777777777777777o7777ggggggggggggggggggggggggggggggggggggggggggggggggggggggggggggggggggggggggggggggggggggggggggggggggggggggggggggggggggggggggggggggggggggggg7o77o7777777777777777ggggggggggggggggggggggggggggggggggggggggggggggggggggggggggggggggggggggggggggggggggggggggggggggggggggggggggggggggggggggggggggggggggggggggggggggggggggggggggggggggggggggggggggggggggggggggggggggggggggggggggggggggggggggggggggggggg777777777777o7777o777gggggggggggggggggggggggggggggggggggggggggggggggggggggggggggggggggggggggggggggggggggggggggggggggggggggggggggggggggggggggggggggggggggggggo77777777777777777777777ggggg77777777o77o7oooooo..",
"..oooooo7o77o77777777gggggg77777777777777777o777777ggggggggggggggggggggggggggggggggggggggggggggggggggggggggggggggggggggggggggggggggggggggggggggggggggggggggggggggggggggggggggggggggggggggggggg777o77o7777777777777gggggggggggggggggggggggggggggggggggggggggggggggggggggggggggggggggggggggggggggggggggggggggggggggggggggggggggggggggggggggggggggggggggggggggggggggggggggggggggggggggggggggggggggggggggggggggggggggggggggggggggggggggggggggggggggg7777777777o7777o77o77ggggggggggggggggggggggggggggggggggggggggggggggggggggggggggggggggggggggggggggggggggggggggggggggggggggggggggggggggggggggggggggggggggggggggggg77o777777777777777777777gggg777777o7777ooooooo..",
"..oooooo77oo77o777777g77777777777777777777oo77777gggggggggggggggggggggggggggggggggggggggggggggggggggggggggggggggggggggggggggggggggggggggggggggggggggggggggggggggggggggggggggggggggggggggggggggggg7oo77oo7777777777777ggggggggggggggggggggggggggggggggggggggggggggggggggggggggggggggggggggggggggggggggggggggggggggggggggggggggggggggggggggggggggggggggggggggggggggggggggggggggggggggggggggggggggggggggggggggggggggggggggggggggggggggggggggggggg7777777777oo77oo7777gggggggggggggggggggggggggggggggggggggggggggggggggggggggggggggggggggggggggggggggggggggggggggggggggggggggggggggggggggggggggggggggggggggggggggggggg77oo77777777777777777777gg77777777oo77oooooo..",
"..oooooo77oo77o777777777777777777777777777oo777ggggggggggggggggggggggggggggggggggggggggggggggggggggggggggggggggggggggggggggggggggggggggggggggggggggggggggggggggggggggggggggggggggggggggggggggggggggo77oo77o77777777777gggggggggggggggggggggggggggggggggggggggggggggggggggggggggggggggggggggggggggggggggggggggggggggggggggggggggggggggggggggggggggggggggggggggggggggggggggggggggggggggggggggggggggggggggggggggggggggggggggggggggggggggggggggg777777777777oo77oo77ggggggggggggggggggggggggggggggggggggggggggggggggggggggggggggggggggggggggggggggggggggggggggggggggggggggggggggggggggggggggggggggggggggggggggggggggggggoo77o777777777777777777777777777oo77ooooooo.",
"..oooooo7o77o7777777777777777777777777777o777ggggggggggggggggggggggggggggggggggggggggggggggggggggggggggggggggggggggggggggggggggggggggggggggggggggggggggggggggggggggggggggggggggggggggggggggggggggggggg777o77o777777777777ggggggggggggggggggggggggggggggggggggggggggggggggggggggggggggggggggggggggggggggggggggggggggggggggggggggggggggggggggggggggggggggggggggggggggggggggggggggggggggggggggggggggggggggggggggggggggggggggggggggggggggggggg7777777777777o77o77ggggggggggggggggggggggggggggggggggggggggggggggggggggggggggggggggggggggggggggggggggggggggggggggggggggggggggggggggggggggggggggggggggggggggggggggggggggggggg7o77o77777777777777777777777o7777o7oooooo.",
"..ooooo7o7777o77777777777777777777777o77777gggggggggggggggggggggggggggggggggggggggggggggggggggggggggggggggggggggggggggggggggggggggggggggggggggggggggggggggggggggggggggggggggggggggggggggggggggggggggggg7o7777o777777777777gggggggggggggggggggggggggggggggggggggggggggggggggggggggggggggggggggggggggggggggggggggggggggggggggggggggggggggggggggggggggggggggggggggggggggggggggggggggggggggggggggggggggggggggggggggggggggggggggggggggggggggg77777777777o77o77777gggggggggggggggggggggggggggggggggggggggggggggggggggggggggggggggggggggggggggggggggggggggggggggggggggggggggggggggggggggggggggggggggggggggggggggggggggggggggggg777o77777777777777777777777o77o777ooooo.",
"..oooooo77oo7777777777777777777777oo7777ggggggggggggggggggggggggggggggggggggggggggggggggggggggggggggggggggggggggggggggggggggggggggggggggggggggggggggggggggggggggggggggggggggggggggggggggggggggggggggggggggoo77oo7777777777777ggggggggggggggggggggggggggggggggggggggggggggggggggggggggggggggggggggggggggggggggggggggggggggggggggggggggggggggggggggggggggggggggggggggggggggggggggggggggggggggggggggggggggggggggggggggggggggggggggggggggg7777777777oo77oo777ggggggggggggggggggggggggggggggggggggggggggggggggggggggggggggggggggggggggggggggggggggggggggggggggggggggggggggggggggggggggggggggggggggggggggggggggggggggggggggggggg77oo7777777777777777777777oo77ooooooo.",
"..oooooo77oo7777777777777777777777oo777ggggggggggggggggggggggggggggggggggggggggggggggggggggggggggggggggggggggggggggggggggggggggggggggggggggggggggggggggggggggggggggggggggggggggggggggggggggggggggggggggggggg77oo77oo7777777777gggggggggggggggggggggggggggggggggggggggggggggggggggggggggggggggggggggggggggggggggggggggggggggggggggggggggggggggggggggggggggggggggggggggggggggggggggggggggggggggggggggggggggggggggggggggggggggggggggggg77777777oo77oo77o77ggggggggggggggggggggggggggggggggggggggggggggggggggggggggggggggggggggggggggggggggggggggggggggggggggggggggggggggggggggggggggggggggggggggggggggggggggggggggggggggggggggg7o77o7777777777777777777oo77ooooooo.",
"..ooooo7o7777o777777777777777777o777ggggggggggggggggggggggggggggggggggggggggggggggggggggggggggggggggggggggggggggggggggggggggggggggggggggggggggggggggggggggggggggggggggggggggggggggggggggggggggggggggggggggggggg7o7777o77777777777ggggggggggggggggggggggggggggggggggggggggggggggggggggggggggggggggggggggggggggggggggggggggggggggggggggggggggggggggggggggggggggggggggggggggggggggggggggggggggggggggggggggggggggggggggggggggggggggggg777777777o77o77777gggggggggggggggggggggggggggggggggggggggggggggggggggggggggggggggggggggggggggggggggggggggggggggggggggggggggggggggggggggggggggggggggggggggggggggggggggggggggggggggggggggggggg777777777777777777777o77o777ooooo.",
"..ooooo77o77o777777777777777o7777o7ggggggggggggggggggggggggggggggggggggggggggggggggggggggggggggggggggggggggggggggggggggggggggggggggggggggggggggggggggggggggggggggggggggggggggggggggggggggggggggggggggggggggggggg7o77o7777777777777gggggggggggggggggggggggggggggggggggggggggggggggggggggggggggggggggggggggggggggggggggggggggggggggggggggggggggggggggggggggggggggggggggggggggggggggggggggggggggggggggggggggggggggggggggggggggggggg7777777777o7777o77gggggggggggggggggggggggggggggggggggggggggggggggggggggggggggggggggggggggggggggggggggggggggggggggggggggggggggggggggggggggggggggggggggggggggggggggggggggggggggggggggggggggggggggo77o77777777777777777777o77ooooo.",
"..oooooo77oo77777777777777oo77oo77ggggggggggggggggggggggggggggggggggggggggggggggggggggggggggggggggggggggggggggggggggggggggggggggggggggggggggggggggggggggggggggggggggggggggggggggggggggggggggggggggggggggggggggggggg777oo77oo7777777777ggggggggggggggggggggggggggggggggggggggggggggggggggggggggggggggggggggggggggggggggggggggggggggggggggggggggggggggggggggggggggggggggggggggggggggggggggggggggggggggggggggggggggggggggggggggg77777777o77oo77o777ggggggggggggggggggggggggggggggggggggggggggggggggggggggggggggggggggggggggggggggggggggggggggggggggggggggggggggggggggggggggggggggggggggggggggggggggggggggggggggggggggggggggggggggggoo77oo77777777777777oo77ooooooo.",
"..oooooo77oo77777777777777oo77oo7gggggggggggggggggggggggggggggggggggggggggggggggggggggggggggggggggggggggggggggggggggggggggggggggggggggggggggggggggggggggggggggggggggggggggggggggggggggggggggggggggggggggggggggggggggg7oo77oo77777777777777gggggggggggggggggggggggggggggggggggggggggggggggggggggggggggggggggggggggggggggggggggggggggggggggggggggggggggggggggggggggggggggggggggggggggggggggggggggggggggggggggggggggggggggg777777777777oo77oo7777gggggggggggggggggggggggggggggggggggggggggggggggggggggggggggggggggggggggggggggggggggggggggggggggggggggggggggggggggggggggggggggggggggggggggggggggggggggggggggggggggggggggggggggggggggo77oo77777777777777oo77ooooooo.",
"..ooooo77o77o777777777777o77o777gggggggggggggggggggggggggggggggggggggggggggggggggggggggggggggggggggggggggggggggggggggggggggggggggggggggggggggggggggggggggggggggggggggggggggggggggggggggggggggggggggggggggggggggggggggggg7o77o777777777777777777777ggggggggggggggggggggggggggggggggggggggggggggggggggggggggggggggggggggggggggggggggggggggggggggggggggggggggggggggggggggggggggggggggggggggggggggggggggggggggggggggg77777777777777777o7777o777gggggggggggggggggggggggggggggggggggggggggggggggggggggggggggggggggggggggggggggggggggggggggggggggggggggggggggggggggggggggggggggggggggggggggggggggggggggggggggggggggggggggggggggggggggggggo7777o777777777777777o77ooooo.",
"..ooooo7o777777777777o77o7777o7ggggggggggggggggggggggggggggggggggggggggggggggggggggggggggggggggggggggggggggggggggggggggggggggggggggggggggggggggggggggggggggggggggggggggggggggggggggggggggggggggggggggggggggggggggggggggggg777o77o7777777777777777777777ggggggggggggggggggggggggggggggggggggggggggggggggggggggggggggggggggggggggggggggggggggggggggggggggggggggggggggggggggggggggggggggggggggggggggggggggggggg77777777777777777777777o77o77ggggggggggggggggggggggggggggggggggggggggggggggggggggggggggggggggggggggggggggggggggggggggggggggggggggggggggggggggggggggggggggggggggggggggggggggggggggggggggggggggggggggggggggggggggggggggggo77o7777o7777777777o777ooooo.",
"..oooooo77oo7777777o77oo77oo7ggggggggggggggggggggggggggggggggggggggggggggggggggggggggggggggggggggggggggggggggggggggggggggggggggggggggggggggggggggggggggggggggggggggggggggggggggggggggggggggggggggggggggggggggggggggggggggggg77oo77oo77777777777777777777777777ggggggggggggggggggggggggggggggggggggggggggggggggggggggggggggggggggggggggggggggggggggggggggggggggggggggggggggggggggggggggggggggggggggggg77777777777777777777777oo77oo7777ggggggggggggggggggggggggggggggggggggggggggggggggggggggggggggggggggggggggggggggggggggggggggggggggggggggggggggggggggggggggggggggggggggggggggggggggggggggggggggggggggggggggggggggggggggggggggggggoo77oo77oo777777oo77ooooooo.",
"..oooooo77oo777777oo77oo77oogggggggggggggggggggggggggggggggggggggggggggggggggggggggggggggggggggggggggggggggggggggggggggggggggggggggggggggggggggggggggggggggggggggggggggggggggggggggggggggggggggggggggggggggggggggggggggggggggg7o77oo7777777777777777777777777777777777ggggggggggggggggggggggggggggggggggggggggggggggggggggggggggggggggggggggggggggggggggggggggggggggggggggggggggggggggggggggg7777777777777777777777777777777oo77oo77gggggggggggggggggggggggggggggggggggggggggggggggggggggggggggggggggggggggggggggggggggggggggggggggggggggggggggggggggggggggggggggggggggggggggggggggggggggggggggggggggggggggggggggggggggggggggggggggggo77oo77oo777777oo77ooooooo.",
"..ooooo7o7777777o7777o77o77gggggggggggggggggggggggggggggggggggggggggggggggggggggggggggggggggggggggggggggggggggggggggggggggggggggggggggggggggggggggggggggggggggggggggggggggggggggggggggggggggggggggggggggggggggggggggggggggggggggg7777o77o7777777777777777777777777777777777777777777777777777777777777gggggggggggggggggggggggggggggggggggggggggggggggggggggg7777777777777777777777777777777777777777777777777777777777o7777o77o777ggggggggggggggggggggggggggggggggggggggggggggggggggggggggggggggggggggggggggggggggggggggggggggggggggggggggggggggggggggggggggggggggggggggggggggggggggggggggggggggggggggggggggggggggggggggggggggggggggggo7777o77o7777777o777ooooo.",
"..ooooo77o7777777o77o7777oggggggggggggggggggggggggggggggggggggggggggggggggggggggggggggggggggggggggggggggggggggggggggggggggggggggggggggggggggggggggggggggggggggggggggggggggggggggggggggggggggggggggggggggggggggggggggggggggggggggggg7o7777o77o7777o77777777777777777777777777777777777777777777777777777777777777777777777777ggggggggggg777777777777777777777777777777777777777777777777777777777777777777777777o77o7777o77o77777gggggggggggggggggggggggggggggggggggggggggggggggggggggggggggggggggggggggggggggggggggggggggggggggggggggggggggggggggggggggggggggggggggggggggggggggggggggggggggggggggggggggggggggggggggggggggggggggggggggg7o77o7777o77o7777o77ooooo.",
"..oooooo77oo77oo77oo77oo7ggggggggggggggggggggggggggggggggggggggggggggggggggggggggggggggggggggggggggggggggggggggggggggggggggggggggggggggggggggggggggggggggggggggggggggggggggggggggggggggggggggggggggggggggggggggggggggggggggggggggggggg7777oo77oo77oo77oo77oo77oo77777777777777777777777777777777777777777777777777777777777777777777777777777777777777777777777777777777777777777777777777777777oo77oo77oo77oo77oo77oo7777777gggggggggggggggggggggggggggggggggggggggggggggggggggggggggggggggggggggggggggggggggggggggggggggggggggggggggggggggggggggggggggggggggggggggggggggggggggggggggggggggggggggggggggggggggggggggggggggggggggggggggggoo77oo77oo77oo77ooooooo.",
"..oooooo77oo77oo77oo77ooggggggggggggggggggggggggggggggggggggggggggggggggggggggggggggggggggggggggggggggggggggggggggggggggggggggggggggggggggggggggggggggggggggggggggggggggggggggggggggggggggggggggggggggggggggggggggggggggggggggggggggggggggg7777777oo77oo77oo77oo77oo77oo77o7777777777777777777777777777777777777777777777777777777777777777777777777777777777777777777777777777777777777oo77oo77oo77oo77oo77oo7777777777gggggggggggggggggggggggggggggggggggggggggggggggggggggggggggggggggggggggggggggggggggggggggggggggggggggggggggggggggggggggggggggggggggggggggggggggggggggggggggggggggggggggggggggggggggggggggggggggggggggggggggggggg7o77oo77oo77oo77ooooooo.",
"..ooooo77o77o7777o77o777gggggggggggggggggggggggggggggggggggggggggggggggggggggggggggggggggggggggggggggggggggggggggggggggggggggggggggggggggggggggggggggggggggggggggggggggggggggggggggggggggggggggggggggggggggggggggggggggggggggggggggggggggggggggggggggg777777o7777o77o7777o77o7777o77o7777o77o77777777777777777777777777777777777777777777777777777777777777777777777777o77o7777o77o7777o77o7777o77o7777777777gggggggggggggggggggggggggggggggggggggggggggggggggggggggggggggggggggggggggggggggggggggggggggggggggggggggggggggggggggggggggggggggggggggggggggggggggggggggggggggggggggggggggggggggggggggggggggggggggggggggggggggggggggggggggggg7o7777o77o7777o77ooooo.",
"..ooooo7o7777o77o7777o7gggggggggggggggggggggggggggggggggggggggggggggggggggggggggggggggggggggggggggggggggggggggggggggggggggggggggggggggggggggggggggggggggggggggggggggggggggggggggggggggggggggggggggggggggggggggggggggggggggggggggggggggggggggggggggggggggggggg77777777o77o7777o77o7777o77o7777o77o7777o77o7777o77o7777o77o7777o77777o77o7777o77o7777o77o7777o77o7777o77o7777o77o7777o77o7777o7777777777gggggggggggggggggggggggggggggggggggggggggggggggggggggggggggggggggggggggggggggggggggggggggggggggggggggggggggggggggggggggggggggggggggggggggggggggggggggggggggggggggggggggggggggggggggggggggggggggggggggggggggggggggggggggggggggggggggg7o77o7777o77o777ooooo.",
"..oooooo77oo77oo77oo77ggggggggggggggggggggggggggggggggggggggggggggggggggggggggggggggggggggggggggggggggggggggggggggggggggggggggggggggggggggggggggggggggggggggggggggggggggggggggggggggggggggggggggggggggggggggggggggggggggggggggggggggggggggggggggggggggggggggggggggggggg7777777oo77oo77oo77oo77oo77oo77oo77oo77oo77oo77oo77oo77oooo77oo77oo77oo77oo77oo77oo77oo77oo77oo77oo77oo77oo7777777777gggggggggggggggggggggggggggggggggggggggggggggggggggggggggggggggggggggggggggggggggggggggggggggggggggggggggggggggggggggggggggggggggggggggggggggggggggggggggggggggggggggggggggggggggggggggggggggggggggggggggggggggggggggggggggggggggggggggggggggg77oo77oo77oo77ooooooo.",
"..oooooo77oo77oo77oo77gggggggggggggggggggggggggggggggggggggggggggggggggggggggggggggggggggggggggggggggggggggggggggggggggggggggggggggggggggggggggggggggggggggggggggggggggggggggggggggggggggggggggggggggggggggggggggggggggggggggggggggggggggggggggggggggggggggggggggggggggggggggg7777oo77oo77oo77oo77oo77oo77oo77oo77oo77oo77oo77oooo77oo77oo77oo77oo77oo77oo77oo77oo77oo77oo77oo7777777gggggggggggggggggggggggggggggggggggggggggggggggggggggggggggggggggggggggggggggggggggggggggggggggggggggggggggggggggggggggggggggggggggggggggggggggggggggggggggggggggggggggggggggggggggggggggggggggggggggggggggggggggggggggggggggggggggggggggggggggggggggg7oo77oo77oo77ooooooo.",
"..ooooo7o7777o77o7777ggggggggggggggggggggggggggggggggggggggggggggggggggggggggggggggggggggggggggggggggggggggggggggggggggggggggggggggggggggggggggggggggggggggggggggggggggggggggggggggggggggggggggggggggggggggggggggggggggggggggggggggggggggggggggggggggggggggggggggggggggggggggggggggggggggggggggggggggggggggggggggggggggggggggggggggggggggggggggggggggggggggggggggggggggggggggggggggggggggggggggggggggggggggggggggggggggggggggggggggggggggggggggggggggggggggggggggggggggggggggggggggggggggggggggggggggggggggggggggggggggggggggggggggggggggggggggggggggggggggggggggggggggggggggggggggggggggggggggggggggggggggggggggggggggggggggggggggggggggggg77o7777o77o777ooooo.",
"..ooooo77o77o7777o77ggggggggggggggggggggggggggggggggggggggggggggggggggggggggggggggggggggggggggggggggggggggggggggggggggggggggggggggggggggggggggggggggggggggggggggggggggggggggggggggggggggggggggggggggggggggggggggggggggggggggggggggggggggggggggggggggggggggggggggggggggggggggggggggggggggggggggggggggggggggggggggggggggggggggggggggggggggggggggggggggggggggggggggggggggggggggggggggggggggggggggggggggggggggggggggggggggggggggggggggggggggggggggggggggggggggggggggggggggggggggggggggggggggggggggggggggggggggggggggggggggggggggggggggggggggggggggggggggggggggggggggggggggggggggggggggggggggggggggggggggggggggggggggggggggggggggggggggggggggggggg77o77o7777o77ooooo.",
"..oooooo77oo77oo777ggggggggggggggggggggggggggggggggggggggggggggggggggggggggggggggggggggggggggggggggggggggggggggggggggggggggggggggggggggggggggggggggggggggggggggggggggggggggggggggggggggggggggggggggggggggggggggggggggggggggggggggggggggggggggggggggggggggggggggggggggggggggggggggggggggggggggggggggggggggggggggggggggggggggggggggggggggggggggggggggggggggggggggggggggggggggggggggggggggggggggggggggggggggggggggggggggggggggggggggggggggggggggggggggggggggggggggggggggggggggggggggggggggggggggggggggggggggggggggggggggggggggggggggggggggggggggggggggggggggggggggggggggggggggggggggggggggggggggggggggggggggggggggggggggggggggggggggggggggggggggg77oo77oo77ooooooo.",
"..oooooo77oo77oo77gggggggggggggggggggggggggggggggggggggggggggggggggggggggggggggggggggggggggggggggggggggggggggggggggggggggggggggggggggggggggggggggggggggggggggggggggggggggggggggggggggggggggggggggggggggggggggggggggggggggggggggggggggggggggggggggggggggggggggggggggggggggggggggggggggggggggggggggggggggggggggggggggggggggggggggggggggggggggggggggggggggggggggggggggggggggggggggggggggggggggggggggggggggggggggggggggggggggggggggggggggggggggggggggggggggggggggggggggggggggggggggggggggggggggggggggggggggggggggggggggggggggggggggggggggggggggggggggggggggggggggggggggggggggggggggggggggggggggggggggggggggggggggggggggggggggggggggggggggggggggggg77oo77oo77ooooooo.",
"..ooooo77o77o77777ggggggggggggggggggggggggggggggggggggggggggggggggggggggggggggggggggggggggggggggggggggggggggggggggggggggggggggggggggggggggggggggggggggggggggggggggggggggggggggggggggggggggggggggggggggggggggggggggggggggggggggggggggggggggggggggggggggggggggggggggggggggggggggggggggggggggggggggggggggggggggggggggggggggggggggggggggggggggggggggggggggggggggggggggggggggggggggggggggggggggggggggggggggggggggggggggggggggggggggggggggggggggggggggggggggggggggggggggggggggggggggggggggggggggggggggggggggggggggggggggggggggggggggggggggggggggggggggggggggggggggggggggggggggggggggggggggggggggggggggggggggggggggggggggggggggggggggggggggggggggggggg777o7777o77ooooo.",
"..ooooo7o7777o777ggggggggggggggggggggggggggggggggggggggggggggggggggggggggggggggggggggggggggggggggggggggggggggggggggggggggggggggggggggggggggggggggggggggggggggggggggggggggggggggggggggggggggggggggggggggggggggggggggggggggggggggggggggggggggggggggggggggggggggggggggggggggggggggggggggggggggggggggggggggggggggggggggggggggggggggggggggggggggggggggggggggggggggggggggggggggggggggggggggggggggggggggggggggggggggggggggggggggggggggggggggggggggggggggggggggggggggggggggggggggggggggggggggggggggggggggggggggggggggggggggggggggggggggggggggggggggggggggggggggggggggggggggggggggggggggggggggggggggggggggggggggggggggggggggggggggggggggggggggggggggggggg777o77o777ooooo.",
"..oooooo77oo7777gggggggggggggggggggggggggggggggggggggggggggggggggggggggggggggggggggggggggggggggggggggggggggggggggggggggggggggggggggggggggggggggggggggggggggggggggggggggggggggggggggggggggggggggggggggggggggggggggggggggggggggggggggggggggggggggggggggggggggggggggggggggggggggggggggggggggggggggggggggggggggggggggggggggggggggggggggggggggggggggggggggggggggggggggggggggggggggggggggggggggggggggggggggggggggggggggggggggggggggggggggggggggggggggggggggggggggggggggggggggggggggggggggggggggggggggggggggggggggggggggggggggggggggggggggggggggggggggggggggggggggggggggggggggggggggggggggggggggggggggggggggggggggggggggggggggggggggggggggggggggggggggg7777oo77ooooooo.",
"..oooooo77oo7777ggggggggggggggggggggggggggggggggggggggggggggggggggggggggggggggggggggggggggggggggggggggggggggggggggggggggggggggggggggggggggggggggggggggggggggggggggggggggggggggggggggggggggggggggggggggggggggggggggggggggggggggggggggggggggggggggggggggggggggggggggggggggggggggggggggggggggggggggggggggggggggggggggggggggggggggggggggggggggggggggggggggggggggggggggggggggggggggggggggggggggggggggggggggggggggggggggggggggggggggggggggggggggggggggggggggggggggggggggggggggggggggggggggggggggggggggggggggggggggggggggggggggggggggggggggggggggggggggggggggggggggggggggggggggggggggggggggggggggggggggggggggggggggggggggggggggggggggggggggggggggggggggg777oo77ooooooo.",
"..oooo77o7777777gggggggggggggggggggggggggggggggggggggggggggggggggggggggggggggggggggggggggggggggggggggggggggggggggggggggggggggggggggggggggggggggggggggggggggggggggggggggggggggggggggggggggggggggggggggggggggggggggggggggggggggggggggggggggggggggggggggggggggggggggggggggggggggggggggggggggggggggggggggggggggggggggggggggggggggggggggggggggggggggggggggggggggggggggggggggggggggggggggggggggggggggggggggggggggggggggggggggggggggggggggggggggggggggggggggggggggggggggggggggggggggggggggggggggggggggggggggggggggggggggggggggggggggggggggggggggggggggggggggggggggggggggggggggggggggggggggggggggggggggggggggggggggggggggggggggggggggggggggggggggggggggg777777o777ooooo.",
"..oooo777o777777gggggggggggggggggggggggggggggggggggggggggggggggggggggggggggggggggggggggggggggggggggggggggggggggggggggggggggggggggggggggggggggggggggggggggggggggggggggggggggggggggggggggggggggggggggggggggggggggggggggggggggggggggggggggggggggggggggggggggggggggggggggggggggggggggggggggggggggggggggggggggggggggggggggggggggggggggggggggggggggggggggggggggggggggggggggggggggggggggggggggggggggggggggggggggggggggggggggggggggggggggggggggggggggggggggggggggggggggggggggggggggggggggggggggggggggggggggggggggggggggggggggggggggggggggggggggggggggggggggggggggggggggggggggggggggggggggggggggggggggggggggggggggggggggggggggggggggggggggggggggggggggggg7777777o77ooooo.",
"..oooooo77o77777gggggggggggggggggggggggggggggggggggggggggggggggggggggggggggggggggggggggggggggggggggggggggggggggggggggggggggggggggggggggggggggggggggggggggggggggggggggggggggggggggggggggggggggggggggggggggggggggggggggggggggggggggggggggggggggggggggggggggggggggggggggggggggggggggggggggggggggggggggggggggggggggggggggggggggggggggggggggggggggggggggggggggggggggggggggggggggggggggggggggggggggggggggggggggggggggggggggggggggggggggggggggggggggggggggggggggggggggggggggggggggggggggggggggggggggggggggggggggggggggggggggggggggggggggggggggggggggggggggggggggggggggggggggggggggggggggggggggggggggggggggggggggggggggggggggggggggggggggggggggggggggggg77777777oo7oooo.",
"..oooooo77o77777gggggggggggggggggggggggggggggggggggggggggggggggggggggggggggggggggggggggggggggggggggggggggggggggggggggggggggggggggggggggggggggggggggggggggggggggggggggggggggggggggggggggggggggggggggggggggggggggggggggggggggggggggggggggggggggggggggggggggggggggggggggggggggggggggggggggggggggggggggggggggggggggggggggggggggggggggggggggggggggggggggggggggggggggggggggggggggggggggggggggggggggggggggggggggggggggggggggggggggggggggggggggggggggggggggggggggggggggggggggggggggggggggggggggggggggggggggggggggggggggggggggggggggggggggggggggggggggggggggggggggggggggggggggggggggggggggggggggggggggggggggggggggggggggggggggggggggggggggggggggggggggggg77777777oo7oooo.",
"..ooo7777o777777gggggggggggggggggggggggggggggggggggggggggggggggggggggggggggggggggggggggggggggggggggggggggggggggggggggggggggggggggggggggggggggggggggggggggggggggggggggggggggggggggggggggggggggggggggggggggggggggggggggggggggggggggggggggggggggggggggggggggggggggggggggggggggggggggggggggggggggggggggggggggggggggggggggggggggggggggggggggggggggggggggggggggggggggggggggggggggggggggggggggggggggggggggggggggggggggggggggggggggggggggggggggggggggggggggggggggggggggggggggggggggggggggggggggggggggggggggggggggggggggggggggggggggggggggggggggggggggggggggggggggggggggggggggggggggggggggggggggggggggggggggggggggggggggggggggggggggggggggggggggggggggggg7777777o77o7ooo.",
"..oooo77o7777777gggggggggggggggggggggggggggggggggggggggggggggggggggggggggggggggggggggggggggggggggggggggggggggggggggggggggggggggggggggggggggggggggggggggggggggggggggggggggggggggggggggggggggggggggggggggggggggggggggggggggggggggggggggggggggggggggggggggggggggggggggggggggggggggggggggggggggggggggggggggggggggggggggggggggggggggggggggggggggggggggggggggggggggggggggggggggggggggggggggggggggggggggggggggggggggggggggggggggggggggggggggggggggggggggggggggggggggggggggggggggggggggggggggggggggggggggggggggggggggggggggggggggggggggggggggggggggggggggggggggggggggggggggggggggggggggggggggggggggggggggggggggggggggggggggggggggggggggggggggggggggggggg777777o7777oooo.",
"..ooo7oo77777777gggggggggggggggggggggggggggggggggggggggggggggggggggggggggggggggggggggggggggggggggggggggggggggggggggggggggggggggggggggggggggggggggggggggggggggggggggggggggggggggggggggggggggggggggggggggggggggggggggggggggggggggggggggggggggggggggggggggggggggggggggggggggggggggggggggggggggggggggggggggggggggggggggggggggggggggggggggggggggggggggggggggggggggggggggggggggggggggggggggggggggggggggggggggggggggggggggggggggggggggggggggggggggggggggggggggggggggggggggggggggggggggggggggggggggggggggggggggggggggggggggggggggggggggggggggggggggggggggggggggggggggggggggggggggggggggggggggggggggggggggggggggggggggggggggggggggggggggggggggggggggggggg77777777oo77ooo.",
"..ooo7oo77777777gggggggggggggggggggggggggggggggggggggggggggggggggggggggggggggggggggggggggggggggggggggggggggggggggggggggggggggggggggggggggggggggggggggggggggggggggggggggggggggggggggggggggggggggggggggggggggggggggggggggggggggggggggggggggggggggggggggggggggggggggggggggggggggggggggggggggggggggggggggggggggggggggggggggggggggggggggggggggggggggggggggggggggggggggggggggggggggggggggggggggggggggggggggggggggggggggggggggggggggggggggggggggggggggggggggggggggggggggggggggggggggggggggggggggggggggggggggggggggggggggggggggggggggggggggggggggggggggggggggggggggggggggggggggggggggggggggggggggggggggggggggggggggggggggggggggggggggggggggggggggggggggg77777777oo77ooo.",
"..oooo77o7777777ggggggggggggggggggggggggggggggggggggggggggggggggggggggggggggggg777777777777777777777777777777777777777777777777777777777777777777777ggggggggggggggggggggggggggggggggggggggggggggggggggggggggggggggggggggggggggggggggggggggggggggggggggggggggggggggggggggggggggggggggggggggggggggggggggggggggggggggggggggggggggggggggggggggggggggggggggggggggggggggggggggggggggggggggggggggggggggggggggggggggggggggggggggggggggggggggggggggggggggggggggggggggggggggggggggggggggggggggggggggggggggggggggggggggg777777777777777777777777777777777777777777777777777777777777777777777gggggggggggggggggggggggggggggggggggggggggggggggggggggggggggggg77777777777oooo.",
".oooo7777o777777gggggggggggggggggggggggggggggggggggggggggggggggggggggggggg7777777777777777777777777777777777777777777777777777777777777777777777777777777ggggggggggggggggggggggggggggggggggggggggggggggggggggggggggggggggggggggggggggggggggggggggggggggggggggggggggggggggggggggggggggggggggggggggggggggggggggggggggggggggggggggggggggggggggggggggggggggggggggggggggggggggggggggggggggggggggggggggggggggggggggggggggggggggggggggggggggggggggggggggggggggggggggggggggggggggggggggggggggggggggggggggggggggg7777777777777777777777777777777777777777777777777777777777777777777777777777777ggggggggggggggggggggggggggggggggggggggggggggggggggggggggg7777777o77o7oooo",
".oooo7oo77777777ggggggggggggggggggggggggggggggggggggggggggggggggggggggg77777777777777777777777777777777777777777777o77oo777777777777777777777777777777777777777777ggggggggggggggggggggggggggggggggggggggggggggggggggggggggggggggggggggggggggggggggggggggggggggggggggggggggggggggggggggggggggggggggggggggggggggggggggggggggggggggggggggggggggggggggggggggggggggggggggggggggggggggggggggggggggggggggggggggggggggggggggggggggggggggggggggggggggggggggggggggggggggggggggggggggggggggggggggggggggggg777777777777777777777777777777777777777777o77oo77777777777777777777777777777777777777777777gggggggggggggggggggggggggggggggggggggggggggggggggggggg77777777oo77oooo",
".oooo7oo77777777ggggggggggggggggggggggggggggggggggggggggggggggggggggg777777777777777777777777777777777oo77oo77oo77oo77oo77oo77oo7777777777777777777777777777777777777777ggggggggggggggggggggggggggggggggggggggggggggggggggggggggggggggggggggggggggggggggggggggggggggggggggggggggggggggggggggggggggggggggggggggggggggggggggggggggggggggggggggggggggggggggggggggggggggggggggggggggggggggggggggggggggggggggggggggggggggggggggggggggggggggggggggggggggggggggggggggggggggggggggggggggggggggggg777777777777777777777777777777777777777oo77oo77oo77oo77oo77oo77oo77o7777777777777777777777777777777gggggggggggggggggggggggggggggggggggggggggggggggggggg77777777oo77oooo",
"ooooo7777o777777gggggggggggggggggggggggggggggggggggggggggggggggggg777777777777777o77o7777o77o7777o77o7777o77o7777o77o7777o77o7777o77o7777o77o7777o777777777777777777777777777777ggggggggggggggggggggggggggggggggggggggggggggggggggggggggggggggggggggggggggggggggggggggggggggggggggggggggggggggggggggggggggggggggggggggggggggggggggggggggggggggggggggggggggggggggggggggggggggggggggggggggggggggggggggggggggggggggggggggggggggggggggggggggggggggggggggggggggggggggggggggggggggggggg777777777777777777777777777777o77o7777o77o7777o77o7777o77o7777o77o7777o77o7777o77o7777o77o7777o77o777777777777ggggggggggggggggggggggggggggggggggggggggggggggggg7777777o77o7oooo",
"oooo7o77o7777777gggggggggggggggggggggggggggggggggggggggggggggggg7777777777777o77o7777o77o7777o77o7777o77o7777o77o7777o77o7777o77o7777o77o7777o77o7777o77777777777777777777777777777ggggggggggggggggggggggggggggggggggggggggggggggggggggggggggggggggggggggggggggggggggggggggggggggggggggggggggggggggggggggggggggggggggggggggggggggggggggggggggggggggggggggggggggggggggggggggggggggggggggggggggggggggggggggggggggggggggggggggggggggggggggggggggggggggggggggggggggggggggggggggggg77777777777777777777777777777o77o7777o77o7777o77o7777o77o7777o77o7777o77o7777o77o7777o77o7777o77o7777o77o7777777777ggggggggggggggggggggggggggggggggggggggggggggggg77777777777o7ooo",
"oooo77oo77777777ggggggggggggggggggggggggggggggggggggggggggggg777777777oo77oo77oo77oo77oo77oo77oo77oo77oo77oo77oo77oo77oo77oo77oo77oo77oo77oo77oo77oo77oo77oo7777777777777777777777777ggggggggggggggggggggggggggggggggggggggggggggggggggggggggggggggggggggggggggggggggggggggggggggggggggggggggggggggggggggggggggggggggggggggggggggggggggggggggggggggggggggggggggggggggggggggggggggggggggggggggggggggggggggggggggggggggggggggggggggggggggggggggggggggggggggggggggggggggggggggg777777777777777777777777oo77oo77oo77oo77oo77oo77oo77oo77oo77oo77oo77oo77oo77oo77oo77oo77oo77oo77oo77oo77oo77oo7777777777gggggggggggggggggggggggggggggggggggggggggggg77777777oo77oooo",
"oooo77oo77777777ggggggggggggggggggggggggggggggggggggggggggg77777777777oo77oo77oo77777777777777oo77oo77oo77oo77oo77oo77oo77oo77oo77oo77oo77oo77oo77oo77oo77oo77oo77777777777777777777777ggggggggggggggggggggggggggggggggggggggggggggggggggggggggggggggggggggggggggggggggggggggggggggggggggggggggggggggggggggggggggggggggggggggggggggggggggggggggggggggggggggggggggggggggggggggggggggggggggggggggggggggggggggggggggggggggggggggggggggggggggggggggggggggggggggggggggggggggggg7777777777777777777777oo77oo77oo77oo77oo77oo77oo77oo77oo77oo77oo77oo77oo77oo77oo77oo77oo77o77777777777oo77oo77oo777777777777gggggggggggggggggggggggggggggggggggggggggg77777777oo77oooo",
"oooo7777o7777777gggggggggggggggggggggggggggggggggggggggg7777777777777o77o7777777ggggggggggggggggggggggggggggg77777777777777777777777777777777o77o7777o77o7777o77o7777o7777777777777777777ggggggggggggggggggggggggggggggggggggggggggggggggggggggggggggggggggggggggggggggggggggggggggggggggggggggggggggggggggggggggggggggggggggggggggggggggggggggggggggggggggggggggggggggggggggggggggggggggggggggggggggggggggggggggggggggggggggggggggggggggggggggggggggggggggggggggggggggg7777777777777777777o77o7777o77o7777o77o7777o77o77777777777777777777777777777gggggggggggggggggggggggggggg77777777777o7777777777777ggggggggggggggggggggggggggggggggggggggg7777777777777ooo",
"ooooo7777o777777gggggggggggggggggggggggggggggggggggggg77777777777o77o77777gggggggggggggggggggggggggggggggggggggggggggggggggggggggggggggg7777o7777777o7777o77o7777o77o7777o77777777777777777ggggggggggggggggggggggggggggggggggggggggggggggggggggggggggggggggggggggggggggggggggggggggggggggggggggggggggggggggggggggggggggggggggggggggggggggggggggggggggggggggggggggggggggggggggggggggggggggggggggggggggggggggggggggggggggggggggggggggggggggggggggggggggggggggggggggggggg77777777777777777o77o7777o77o7777o77o7777777777777ggggggggggggggggggggggggggggggggggggggggggggggggggggggggggggggg777o7777o77777777777ggggggggggggggggggggggggggggggggggggg7777777o77o77ooo",
"oooo77oo77777777ggggggggggggggggggggggggggggggggggg77777777777oo77oo77gggggggggggggggggggggggggggggggggggggggggggggggggggggggggggggggggggggggggggggggg7777oo77oo77oo777777oo77oo7777777777777ggggggggggggggggggggggggggggggggggggggggggggggggggggggggggggggggggggggggggggggggggggggggggggggggggggggggggggggggggggggggggggggggggggggggggggggggggggggggggggggggggggggggggggggggggggggggggggggggggggggggggggggggggggggggggggggggggggggggggggggggggggggggggggggggggggggg777777777777oo77oo77o777oo77oo77oo77777gggggggggggggggggggggggggggggggggggggggggggggggggggggggggggggggggggggggggggggggg7oo77oo777777777777gggggggggggggggggggggggggggggggggg77777777oo77oooo",
"oooo77oo77777777ggggggggggggggggggggggggggggggggg7777777777777oo77o7gggggggggggggggggggggggggggggggggggggggggggggggggggggggggggggggggggggggggggggggggggggggg777777oo77oo77oo77oo777777777777777ggggggggggggggggggggggggggggggggggggggggggggggggggggggggggggggggggggggggggggggggggggggggggggggggggggggggggggggggggggggggggggggggggggggggggggggggggggggggggggggggggggggggggggggggggggggggggggggggggggggggggggggggggggggggggggggggggggggggggggggggggggggggggggggggggg77777777777777oo77oo77oo77oo77o7777gggggggggggggggggggggggggggggggggggggggggggggggggggggggggggggggggggggggggggggggggggggggg777oo77777777777777gggggggggggggggggggggggggggggggg77777777oo77oooo",
"ooooo77777777777gggggggggggggggggggggggggggggg77777777777777o77777gggggggggggggggggggggggggggggggggggggggggggggggggggggggggggggggggggggggggggggggggggggggggggggggggg77777o77o7777o77o777777777777ggggggggggggggggggggggggggggggggggggggggggggggggggggggggggggggggggggggggggggggggggggggggggggggggggggggggggggggggggggggggggggggggggggggggggggggggggggggggggggggggggggggggggggggggggggggggggggggggggggggggggggggggggggggggggggggggggggggggggggggggggggggggggggggg777777777777777o77o7777o77777gggggggggggggggggggggggggggggggggggggggggggggggggggggggggggggggggggggggggggggggggggggggggggggggggg777o7777777777777777ggggggggggggggggggggggggggggg7777777777o77ooo",
"oooo7o77o7777777gggggggggggggggggggggggggggg77777777777777777o77ggggggggggggggggggggggggggggggggggggggggggggggggggggggggggggggggggggggggggggggggggggggggggggggggggggggggg7777777o7777o7777777777777ggggggggggggggggggggggggggggggggggggggggggggggggggggggggggggggggggggggggggggggggggggggggggggggggggggggggggggggggggggggggggggggggggggggggggggggggggggggggggggggggggggggggggggggggggggggggggggggggggggggggggggggggggggggggggggggggggggggggggggggggggggggggggg7777777777777o77o777777777ggggggggggggggggggggggggggggggggggggggggggggggggggggggggggggggggggggggggggggggggggggggggggggggggggggggggg77o77o77777777777777ggggggggggggggggggggggggggg77777777777o7ooo",
"oooo77oo77777777ggggggggggggggggggggggggg77777777777777o77oo7ggggggggggggggggggggggggggggggggggggggggggggggggggggggggggggggggggggggggggggggggggggggggggggggggggggggggggggggggggg77oo77oo7777777777777ggggggggggggggggggggggggggggggggggggggggggggggggggggggggggggggggggggggggggggggggggggggggggggggggggggggggggggggggggggggggggggggggggggggggggggggggggggggggggggggggggggggggggggggggggggggggggggggggggggggggggggggggggggggggggggggggggggggggggggggggggggggg777777777777oo77oo777ggggggggggggggggggggggggggggggggggggggggggggggggggggggggggggggggggggggggggggggggggggggggggggggggggggggggggggggggggg7o77oo77777777777777gggggggggggggggggggggggg77777777oo77oooo",
"oooo77oo77777777ggggggggggggggggggggggg777777777777777oo7777gggggggggggggggggggggggggggggggggggggggggggggggggggggggggggggggggggggggggggggggggggggggggggggggggggggggggggggggggggggg7777oo77oo77777777777ggggggggggggggggggggggggggggggggggggggggggggggggggggggggggggggggggggggggggggggggggggggggggggggggggggggggggggggggggggggggggggggggggggggggggggggggggggggggggggggggggggggggggggggggggggggggggggggggggggggggggggggggggggggggggggggggggggggggggggggggggg77777777777o77oo77o77gggggggggggggggggggggggggggggggggggggggggggggggggggggggggggggggggggggggggggggggggggggggggggggggggggggggggggggggggggggg777oo7777777777777777gggggggggggggggggggggg77777777oo77oooo",
"oooo7o77o7777777gggggggggggggggggggg77777777777777777o777gggggggggggggggggggggggggggggggggggggggggggggggggggggggggggggggggggggggggggggggggggggggggggggggggggggggggggggggggggggggggggg777o7777o77777777777ggggggggggggggggggggggggggggggggggggggggggggggggggggggggggggggggggggggggggggggggggggggggggggggggggggggggggggggggggggggggggggggggggggggggggggggggggggggggggggggggggggggggggggggggggggggggggggggggggggggggggggggggggggggggggggggggggggggggggggggg77777777777o77o77777gggggggggggggggggggggggggggggggggggggggggggggggggggggggggggggggggggggggggggggggggggggggggggggggggggggggggggggggggggggggggggg777o7777777777777777gggggggggggggggggggg77777777777o7ooo",
"ooooo77777777777gggggggggggggggggg777777777777777o77o77gggggggggggggggggggggggggggggggggggggggggggggggggggggggggggggggggggggggggggggggggggggggggggggggggggggggggggggggggggggggggggggggg77o77o77777777777777ggggggggggggggggggggggggggggggggggggggggggggggggggggggggggggggggggggggggggggggggggggggggggggggggggggggggggggggggggggggggggggggggggggggggggggggggggggggggggggggggggggggggggggggggggggggggggggggggggggggggggggggggggggggggggggggggggggggggggg777777777777o7777o77gggggggggggggggggggggggggggggggggggggggggggggggggggggggggggggggggggggggggggggggggggggggggggggggggggggggggggggggggggggggggggggggg77777o77777777777777gggggggggggggggggg7777777777o77ooo",
"oooo77oo77777777ggggggggggggggg777777777777777oo77o77ggggggggggggggggggggggggggggggggggggggggggggggggggggggggggggggggggggggggggggggggggggggggggggggggggggggggggggggggggggggggggggggggggggg7o77oo77o7777777777ggggggggggggggggggggggggggggggggggggggggggggggggggggggggggggggggggggggggggggggggggggggggggggggggggggggggggggggggggggggggggggggggggggggggggggggggggggggggggggggggggggggggggggggggggggggggggggggggggggggggggggggggggggggggggggggggggggggg777777777777oo77oo7ggggggggggggggggggggggggggggggggggggggggggggggggggggggggggggggggggggggggggggggggggggggggggggggggggggggggggggggggggggggggggggggggggggg7777oo7777777777777777gggggggggggggg77777777oo77oooo",
"oooo77oo77777777ggggggggggggg7777777777777oo77oo777ggggggggggggggggggggggggggggggggggggggggggggggggggggggggggggggggggggggggggggggggggggggggggggggggggggggggggggggggggggggggggggggggggggggggg77oo77oo77777777777ggggggggggggggggggggggggggggggggggggggggggggggggggggggggggggggggggggggggggggggggggggggggggggggggggggggggggggggggggggggggggggggggggggggggggggggggggggggggggggggggggggggggggggggggggggggggggggggggggggggggggggggggggggggggggggggggggg7777777777oo77oo777ggggggggggggggggggggggggggggggggggggggggggggggggggggggggggggggggggggggggggggggggggggggggggggggggggggggggggggggggggggggggggggggggggggggggg77oo77oo77777777777777gggggggggggg77777777oo77oooo",
"ooo7o77777777777gggggggggg777777777777777o77o777ggggggggggggggggggggggggggggggggggggggggggggggggggggggggggggggggggggggggggggggggggggggggggggggggggggggggggggggggggggggggggggggggggggggggggggggg77o77o777777777777ggggggggggggggggggggggggggggggggggggggggggggggggggggggggggggggggggggggggggggggggggggggggggggggggggggggggggggggggggggggggggggggggggggggggggggggggggggggggggggggggggggggggggggggggggggggggggggggggggggggggggggggggggggggggggggggg7777777777o7777o77gggggggggggggggggggggggggggggggggggggggggggggggggggggggggggggggggggggggggggggggggggggggggggggggggggggggggggggggggggggggggggggggggggggggggggggg7777777o77777777777777gggggggggg7777777777o777oo",
"oo777o77o7777777gggggggg7777777777777777o777777gggggggggggggggggggggggggggggggggggggggggggggggggggggggggggggggggggggggggggggggggggggggggggggggggggggggggggggggggggggggggggggggggggggggggggggggggg7777o77o7777777777ggggggggggggggggggggggggggggggggggggggggggggggggggggggggggggggggggggggggggggggggggggggggggggggggggggggggggggggggggggggggggggggggggggggggggggggggggggggggggggggggggggggggggggggggggggggggggggggggggggggggggggggggggggggggggg7777777777777o77o7gggggggggggggggggggggggggggggggggggggggggggggggggggggggggggggggggggggggggggggggggggggggggggggggggggggggggggggggggggggggggggggggggggggggggggggggggg7777o777777777777777777ggggggg77777777777o77oo",
"oooo77oo77777777ggg7777777777777777o77oo7777gggggggggggggggggggggggggggggggggggggggggggggggggggggggggggggggggggggggggggggggggggggggggggggggggggggggggggggggggggggggggggggggggggggggggggggggggggggggg77oo77oo777777777ggggggggggggggggggggggggggggggggggggggggggggggggggggggggggggggggggggggggggggggggggggggggggggggggggggggggggggggggggggggggggggggggggggggggggggggggggggggggggggggggggggggggggggggggggggggggggggggggggggggggggggggggggggggg777777777o77oo777ggggggggggggggggggggggggggggggggggggggggggggggggggggggggggggggggggggggggggggggggggggggggggggggggggggggggggggggggggggggggggggggggggggggggggggggggggggggg7777oo77oo7777777777777777gg77777777oo77oo7o",
"oooo77oo77o77777777777777777777777oo77oo777gggggggggggggggggggggggggggggggggggggggggggggggggggggggggggggggggggggggggggggggggggggggggggggggggggggggggggggggggggggggggggggggggggggggggggggggggggggggggggoo77oo77777777777ggggggggggggggggggggggggggggggggggggggggggggggggggggggggggggggggggggggggggggggggggggggggggggggggggggggggggggggggggggggggggggggggggggggggggggggggggggggggggggggggggggggggggggggggggggggggggggggggggggggggggggggggggg7777777777oo77oo7ggggggggggggggggggggggggggggggggggggggggggggggggggggggggggggggggggggggggggggggggggggggggggggggggggggggggggggggggggggggggggggggggggggggggggggggggggggggggggg777o77oo77777777777777777777777777oo77oo7o",
"oo777o77o77777777777777777777777o7777777gggggggggggggggggggggggggggggggggggggggggggggggggggggggggggggggggggggggggggggggggggggggggggggggggggggggggggggggggggggggggggggggggggggggggggggggggggggggggggggggg77777o77o77777777ggggggggggggggggggggggggggggggggggggggggggggggggggggggggggggggggggggggggggggggggggggggggggggggggggggggggggggggggggggggggggggggggggggggggggggggggggggggggggggggggggggggggggggggggggggggggggggggggggggggggggggggg77777777777o77o7ggggggggggggggggggggggggggggggggggggggggggggggggggggggggggggggggggggggggggggggggggggggggggggggggggggggggggggggggggggggggggggggggggggggggggggggggggggggggggggggggg77777o77777777777777777777777o7777o77oo",
"oo77o7777o77o777777777777o77o7777o7777gggggggggggggggggggggggggggggggggggggggggggggggggggggggggggggggggggggggggggggggggggggggggggggggggggggggggggggggggggggggggggggggggggggggggggggggggggggggggggggggggggg77o7777o777777777ggggggggggggggggggggggggggggggggggggggggggggggggggggggggggggggggggggggggggggggggggggggggggggggggggggggggggggggggggggggggggggggggggggggggggggggggggggggggggggggggggggggggggggggggggggggggggggggggggggggggggg777777777o77o7777ggggggggggggggggggggggggggggggggggggggggggggggggggggggggggggggggggggggggggggggggggggggggggggggggggggggggggggggggggggggggggggggggggggggggggggggggggggggggggggggggggg77777o77o7777o77o777777777777o77o7777o",
"oooo77oo77oo77oo77oo77oo77oo77oo7777ggggggggggggggggggggggggggggggggggggggggggggggggggggggggggggggggggggggggggggggggggggggggggggggggggggggggggggggggggggggggggggggggggggggggggggggggggggggggggggggggggggggggg7oo77oo777777777ggggggggggggggggggggggggggggggggggggggggggggggggggggggggggggggggggggggggggggggggggggggggggggggggggggggggggggggggggggggggggggggggggggggggggggggggggggggggggggggggggggggggggggggggggggggggggggggggggggggg77777777oo77oo77ggggggggggggggggggggggggggggggggggggggggggggggggggggggggggggggggggggggggggggggggggggggggggggggggggggggggggggggggggggggggggggggggggggggggggggggggggggggggggggggggggggggggg777oo77oo77oo77oo77oo77oo77oo77oo7o",
"oooo77oo77oo77oo77oo77oo77oo77oo77ggggggggggggggggggggggggggggggggggggggggggggggggggggggggggggggggggggggggggggggggggggggggggggggggggggggggggggggggggggggggggggggggggggggggggggggggggggggggggggggggggggggggggggg777oo77o77777777ggggggggggggggggggggggggggggggggggggggggggggggggggggggggggggggggggggggggggggggggggggggggggggggggggggggggggggggggggggggggggggggggggggggggggggggggggggggggggggggggggggggggggggggggggggggggggggggggggg7777777777oo77o7gggggggggggggggggggggggggggggggggggggggggggggggggggggggggggggggggggggggggggggggggggggggggggggggggggggggggggggggggggggggggggggggggggggggggggggggggggggggggggggggggggggggggggg77oo77oo77oo77oo77oo77oo77oo77oo7o",
"oo77o7777o77o7777o77o7777o77o777gggggggggggggggggggggggggggggggggggggggggggggggggggggggggggggggggggggggggggggggggggggggggggggggggggggggggggggggggggggggggggggggggggggggggggggggggggggggggggggggggggggggggggggggggg77o7777o7777777ggggggggggggggggggggggggggggggggggggggggggggggggggggggggggggggggggggggggggggggggggggggggggggggggggggggggggggggggggggggggggggggggggggggggggggggggggggggggggggggggggggggggggggggggggggggggggggggg7777777o77o7777ggggggggggggggggggggggggggggggggggggggggggggggggggggggggggggggggggggggggggggggggggggggggggggggggggggggggggggggggggggggggggggggggggggggggggggggggggggggggggggggggggggggggggggggggg77o7777o77o7777o77o7777o77o7777o",
"oo777o77o7777o77o7777o77o777777gggggggggggggggggggggggggggggggggggggggggggggggggggggggggggggggggggggggggggggggggggggggggggggggggggggggggggggggggggggggggggggggggggggggggggggggggggggggggggggggggggggggggggggggggggg77o77o77777777777ggggggggggggggggggggggggggggggggggggggggggggggggggggggggggggggggggggggggggggggggggggggggggggggggggggggggggggggggggggggggggggggggggggggggggggggggggggggggggggggggggggggggggggggggggggggggg777777777o7777o77gggggggggggggggggggggggggggggggggggggggggggggggggggggggggggggggggggggggggggggggggggggggggggggggggggggggggggggggggggggggggggggggggggggggggggggggggggggggggggggggggggggggggggggggggggg7777o7777o77o7777o77o7777o77oo",
"oooo77oo77oo77oo77oo77oo77o77ggggggggggggggggggggggggggggggggggggggggggggggggggggggggggggggggggggggggggggggggggggggggggggggggggggggggggggggggggggggggggggggggggggggggggggggggggggggggggggggggggggggggggggggggggggggggg7o77oo77o777777777777ggggggggggggggggggggggggggggggggggggggggggggggggggggggggggggggggggggggggggggggggggggggggggggggggggggggggggggggggggggggggggggggggggggggggggggggggggggggggggggggggggggggggggg77777777777777oo77oo7ggggggggggggggggggggggggggggggggggggggggggggggggggggggggggggggggggggggggggggggggggggggggggggggggggggggggggggggggggggggggggggggggggggggggggggggggggggggggggggggggggggggggggggggggggggggggg7777oo77oo77oo77oo77oo77oo7o",
"oooo77oo77oo77oo77oo77oo7777gggggggggggggggggggggggggggggggggggggggggggggggggggggggggggggggggggggggggggggggggggggggggggggggggggggggggggggggggggggggggggggggggggggggggggggggggggggggggggggggggggggggggggggggggggggggggggg77oo77oo7777777777777777ggggggggggggggggggggggggggggggggggggggggggggggggggggggggggggggggggggggggggggggggggggggggggggggggggggggggggggggggggggggggggggggggggggggggggggggggggggggggggggggggg777777777777777oo77oo777gggggggggggggggggggggggggggggggggggggggggggggggggggggggggggggggggggggggggggggggggggggggggggggggggggggggggggggggggggggggggggggggggggggggggggggggggggggggggggggggggggggggggggggggggggggggggggg777oo77oo77oo77oo77oo77oo7o",
"oo777o77o7777o77o7777o7777ggggggggggggggggggggggggggggggggggggggggggggggggggggggggggggggggggggggggggggggggggggggggggggggggggggggggggggggggggggggggggggggggggggggggggggggggggggggggggggggggggggggggggggggggggggggggggggggggg77o77o7777777777777777777777ggggggggggggggggggggggggggggggggggggggggggggggggggggggggggggggggggggggggggggggggggggggggggggggggggggggggggggggggggggggggggggggggggggggggggggggggggg77777777777777777777o7777o77ggggggggggggggggggggggggggggggggggggggggggggggggggggggggggggggggggggggggggggggggggggggggggggggggggggggggggggggggggggggggggggggggggggggggggggggggggggggggggggggggggggggggggggggggggggggggggggggggg7777o77o7777o77o7777o77oo",
"oo77o7777o77o7777o77o7777ggggggggggggggggggggggggggggggggggggggggggggggggggggggggggggggggggggggggggggggggggggggggggggggggggggggggggggggggggggggggggggggggggggggggggggggggggggggggggggggggggggggggggggggggggggggggggggggggggg77777o77o77777777777777777777777ggggggggggggggggggggggggggggggggggggggggggggggggggggggggggggggggggggggggggggggggggggggggggggggggggggggggggggggggggggggggggggggggggggggggg77777777777777777777777777o77o7gggggggggggggggggggggggggggggggggggggggggggggggggggggggggggggggggggggggggggggggggggggggggggggggggggggggggggggggggggggggggggggggggggggggggggggggggggggggggggggggggggggggggggggggggggggggggggggggggggg77o7777o77o7777o77o7777o",
"oooo77oo77oo77oo77oo777gggggggggggggggggggggggggggggggggggggggggggggggggggggggggggggggggggggggggggggggggggggggggggggggggggggggggggggggggggggggggggggggggggggggggggggggggggggggggggggggggggggggggggggggggggggggggggggggggggggggg777oo77o777777777777777777777777777777777777777gggggggggggggggggggggggggggggggggggggggggggggggggggggggggggggggggggggggggggggggggggggggggggggggggggg777777777777777777777777777777777777777777oo7777gggggggggggggggggggggggggggggggggggggggggggggggggggggggggggggggggggggggggggggggggggggggggggggggggggggggggggggggggggggggggggggggggggggggggggggggggggggggggggggggggggggggggggggggggggggggggggggggggggggggg77oo77oo77oo77oo77oo7o",
"oooo77oo77oo77oo77oo77ggggggggggggggggggggggggggggggggggggggggggggggggggggggggggggggggggggggggggggggggggggggggggggggggggggggggggggggggggggggggggggggggggggggggggggggggggggggggggggggggggggggggggggggggggggggggggggggggggggggggggg7oo77oo77oo77777777777777777777777777777777777777777777777777777777gggggggggggggggggggggggggggggggggggggggggggggggggggggggg77777777777777777777777777777777777777777777777777777777oo77oo77oo77ggggggggggggggggggggggggggggggggggggggggggggggggggggggggggggggggggggggggggggggggggggggggggggggggggggggggggggggggggggggggggggggggggggggggggggggggggggggggggggggggggggggggggggggggggggggggggggggggggggggggggg77o77oo77oo77oo77oo7o",
"oo77o7777o77o7777o77gggggggggggggggggggggggggggggggggggggggggggggggggggggggggggggggggggggggggggggggggggggggggggggggggggggggggggggggggggggggggggggggggggggggggggggggggggggggggggggggggggggggggggggggggggggggggggggggggggggggggggggggg77777o77o7777o77o77777777777777777777777777777777777777777777777777777777777777777777777777777777777777777777777777777777777777777777777777777777777777777777777777777o7777o77o7777o77o77gggggggggggggggggggggggggggggggggggggggggggggggggggggggggggggggggggggggggggggggggggggggggggggggggggggggggggggggggggggggggggggggggggggggggggggggggggggggggggggggggggggggggggggggggggggggggggggggggggggggggggggggg77o77o7777o77o7777o",
"oo777o77o7777o7777gggggggggggggggggggggggggggggggggggggggggggggggggggggggggggggggggggggggggggggggggggggggggggggggggggggggggggggggggggggggggggggggggggggggggggggggggggggggggggggggggggggggggggggggggggggggggggggggggggggggggggggggggggg77o7777o77o7777o77o7777o7777777777777777777777777777777777777777777777777777777777777777777777777777777777777777777777777777777777777777777777777777777777777o77o7777o77o7777o77o7777ggggggggggggggggggggggggggggggggggggggggggggggggggggggggggggggggggggggggggggggggggggggggggggggggggggggggggggggggggggggggggggggggggggggggggggggggggggggggggggggggggggggggggggggggggggggggggggggggggggggggggggggggggg77777o77o7777o77oo",
"oooo77oo77oo77777gggggggggggggggggggggggggggggggggggggggggggggggggggggggggggggggggggggggggggggggggggggggggggggggggggggggggggggggggggggggggggggggggggggggggggggggggggggggggggggggggggggggggggggggggggggggggggggggggggggggggggggggggggggggggggggg777oo77oo77oo77oo77oo77oo7777777777777777777777777777777777777777777777777777777777777777777777777777777777777777777777777777777777777777oo77oo77oo77oo77oo77oo7777gggggggggggggggggggggggggggggggggggggggggggggggggggggggggggggggggggggggggggggggggggggggggggggggggggggggggggggggggggggggggggggggggggggggggggggggggggggggggggggggggggggggggggggggggggggggggggggggggggggggggggggggggggggggggggggg7777oo77oo77oo7o",
"oooo77oo77oo7777gggggggggggggggggggggggggggggggggggggggggggggggggggggggggggggggggggggggggggggggggggggggggggggggggggggggggggggggggggggggggggggggggggggggggggggggggggggggggggggggggggggggggggggggggggggggggggggggggggggggggggggggggggggggggggggggggggggg7o77oo77oo77oo77oo77oo77oo77oo77oo77oo77oo77oo77oo77oo7777777777777777777777777777777777777777oo77oo77oo77oo77oo77oo77oo77oo77oo77oo77oo77oo77oo77oo7ggggggggggggggggggggggggggggggggggggggggggggggggggggggggggggggggggggggggggggggggggggggggggggggggggggggggggggggggggggggggggggggggggggggggggggggggggggggggggggggggggggggggggggggggggggggggggggggggggggggggggggggggggggggggggggggggggggg7777oo77oo77oo7o",
"oo777o77o777777ggggggggggggggggggggggggggggggggggggggggggggggggggggggggggggggggggggggggggggggggggggggggggggggggggggggggggggggggggggggggggggggggggggggggggggggggggggggggggggggggggggggggggggggggggggggggggggggggggggggggggggggggggggggggggggggggggggggggggggggggg77777o77o7777o77o7777o77o7777o77o7777o77o7777o77o7777o77o7777o77777o77o7777o77o7777o77o7777o77o7777o77o7777o77o7777o77o7777o77777ggggggggggggggggggggggggggggggggggggggggggggggggggggggggggggggggggggggggggggggggggggggggggggggggggggggggggggggggggggggggggggggggggggggggggggggggggggggggggggggggggggggggggggggggggggggggggggggggggggggggggggggggggggggggggggggggggggggggggggggggg7777o7777o77oo",
"oo77o7777o77777gggggggggggggggggggggggggggggggggggggggggggggggggggggggggggggggggggggggggggggggggggggggggggggggggggggggggggggggggggggggggggggggggggggggggggggggggggggggggggggggggggggggggggggggggggggggggggggggggggggggggggggggggggggggggggggggggggggggggggggggggggggggg77777o7777o77o7777o77o7777o77o7777o77o7777o77o7777o77o77777o7777o77o7777o77o7777o77o7777o77o7777o77o7777o77o7777777gggggggggggggggggggggggggggggggggggggggggggggggggggggggggggggggggggggggggggggggggggggggggggggggggggggggggggggggggggggggggggggggggggggggggggggggggggggggggggggggggggggggggggggggggggggggggggggggggggggggggggggggggggggggggggggggggggggggggggggggggggggggg77777o77o7777o",
"oooo77oo77oo777ggggggggggggggggggggggggggggggggggggggggggggggggggggggggggggggggggggggggggggggggggggggggggggggggggggggggggggggggggggggggggggggggggggggggggggggggggggggggggggggggggggggggggggggggggggggggggggggggggggggggggggggggggggggggggggggggggggggggggggggggggggggggggggggggg77777777777777777777777777oo77oo77oo77oo77oo77oooo77oo77oo77oo77oo77oo777777777777777777777777777ggggggggggggggggggggggggggggggggggggggggggggggggggggggggggggggggggggggggggggggggggggggggggggggggggggggggggggggggggggggggggggggggggggggggggggggggggggggggggggggggggggggggggggggggggggggggggggggggggggggggggggggggggggggggggggggggggggggggggggggggggggggggggggggggg777o77oo77oo7o",
"oooo77oo77oo777ggggggggggggggggggggggggggggggggggggggggggggggggggggggggggggggggggggggggggggggggggggggggggggggggggggggggggggggggggggggggggggggggggggggggggggggggggggggggggggggggggggggggggggggggggggggggggggggggggggggggggggggggggggggggggggggggggggggggggggggggggggggggggggggggggggggggggggggggggggggggggggggggggggggggggggggggggggggggggggggggggggggggggggggggggggggggggggggggggggggggggggggggggggggggggggggggggggggggggggggggggggggggggggggggggggggggggggggggggggggggggggggggggggggggggggggggggggggggggggggggggggggggggggggggggggggggggggggggggggggggggggggggggggggggggggggggggggggggggggggggggggggggggggggggggggggggggggggggggggggggggggggggggg777o77oo77oo7o",
"oo77o7777o77777ggggggggggggggggggggggggggggggggggggggggggggggggggggggggggggggggggggggggggggggggggggggggggggggggggggggggggggggggggggggggggggggggggggggggggggggggggggggggggggggggggggggggggggggggggggggggggggggggggggggggggggggggggggggggggggggggggggggggggggggggggggggggggggggggggggggggggggggggggggggggggggggggggggggggggggggggggggggggggggggggggggggggggggggggggggggggggggggggggggggggggggggggggggggggggggggggggggggggggggggggggggggggggggggggggggggggggggggggggggggggggggggggggggggggggggggggggggggggggggggggggggggggggggggggggggggggggggggggggggggggggggggggggggggggggggggggggggggggggggggggggggggggggggggggggggggggggggggggggggggggggggggggggg77777o77o7777o",
"oo777o77o777777ggggggggggggggggggggggggggggggggggggggggggggggggggggggggggggggggggggggggggggggggggggggggggggggggggggggggggggggggggggggggggggggggggggggggggggggggggggggggggggggggggggggggggggggggggggggggggggggggggggggggggggggggggggggggggggggggggggggggggggggggggggggggggggggggggggggggggggggggggggggggggggggggggggggggggggggggggggggggggggggggggggggggggggggggggggggggggggggggggggggggggggggggggggggggggggggggggggggggggggggggggggggggggggggggggggggggggggggggggggggggggggggggggggggggggggggggggggggggggggggggggggggggggggggggggggggggggggggggggggggggggggggggggggggggggggggggggggggggggggggggggggggggggggggggggggggggggggggggggggggggggggggggggg7777o7777o77oo",
"oooo77oo7777777ggggggggggggggggggggggggggggggggggggggggggggggggggggggggggggggggggggggggggggggggggggggggggggggggggggggggggggggggggggggggggggggggggggggggggggggggggggggggggggggggggggggggggggggggggggggggggggggggggggggggggggggggggggggggggggggggggggggggggggggggggggggggggggggggggggggggggggggggggggggggggggggggggggggggggggggggggggggggggggggggggggggggggggggggggggggggggggggggggggggggggggggggggggggggggggggggggggggggggggggggggggggggggggggggggggggggggggggggggggggggggggggggggggggggggggggggggggggggggggggggggggggggggggggggggggggggggggggggggggggggggggggggggggggggggggggggggggggggggggggggggggggggggggggggggggggggggggggggggggggggggggggggggg777777oo77oo7o",
"oooo77oo7777777ggggggggggggggggggggggggggggggggggggggggggggggggggggggggggggggggggggggggggggggggggggggggggggggggggggggggggggggggggggggggggggggggggggggggggggggggggggggggggggggggggggggggggggggggggggggggggggggggggggggggggggggggggggggggggggggggggggggggggggggggggggggggggggggggggggggggggggggggggggggggggggggggggggggggggggggggggggggggggggggggggggggggggggggggggggggggggggggggggggggggggggggggggggggggggggggggggggggggggggggggggggggggggggggggggggggggggggggggggggggggggggggggggggggggggggggggggggggggggggggggggggggggggggggggggggggggggggggggggggggggggggggggggggggggggggggggggggggggggggggggggggggggggggggggggggggggggggggggggggggggggggggggggg777777oo77oo7o",
"oo777o77o777777ggggggggggggggggggggggggggggggggggggggggggggggggggggggggggggggggggggggggggggggggggggggggggggggggggggggggggggggggggggggggggggggggggggggggggggggggggggggggggggggggggggggggggggggggggggggggggggggggggggggggggggggggggggggggggggggggggggggggggggggggggggggggggggggggggggggggggggggggggggggggggggggggggggggggggggggggggggggggggggggggggggggggggggggggggggggggggggggggggggggggggggggggggggggggggggggggggggggggggggggggggggggggggggggggggggggggggggggggggggggggggggggggggggggggggggggggggggggggggggggggggggggggggggggggggggggggggggggggggggggggggggggggggggggggggggggggggggggggggggggggggggggggggggggggggggggggggggggggggggggggggggggggggg777777777o77oo",
"oo77o7777777777ggggggggggggggggggggggggggggggggggggggggggggggggggggggggggggggggggggggggggggggggggggggggggggggggggggggggggggggggggggggggggggggggggggggggggggggggggggggggggggggggggggggggggggggggggggggggggggggggggggggggggggggggggggggggggggggggggggggggggggggggggggggggggggggggggggggggggggggggggggggggggggggggggggggggggggggggggggggggggggggggggggggggggggggggggggggggggggggggggggggggggggggggggggggggggggggggggggggggggggggggggggggggggggggggggggggggggggggggggggggggggggggggggggggggggggggggggggggggggggggggggggggggggggggggggggggggggggggggggggggggggggggggggggggggggggggggggggggggggggggggggggggggggggggggggggggggggggggggggggggggggggggggggg77777777o7777o",
"oooo77oo7777777ggggggggggggggggggggggggggggggggggggggggggggggggggggggggggggggggggggggggggggggggggggggggggggggggggggggggggggggggggggggggggggggggggggggggggggggggggggggggggggggggggggggggggggggggggggggggggggggggggggggggggggggggggggggggggggggggggggggggggggggggggggggggggggggggggggggggggggggggggggggggggggggggggggggggggggggggggggggggggggggggggggggggggggggggggggggggggggggggggggggggggggggggggggggggggggggggggggggggggggggggggggggggggggggggggggggggggggggggggggggggggggggggggggggggggggggggggggggggggggggggggggggggggggggggggggggggggggggggggggggggggggggggggggggggggggggggggggggggggggggggggggggggggggggggggggggggggggggggggggggggggggggggggg7777777o77oo7o",
"oooo77oo7777777ggggggggggggggggggggggggggggggggggggggggggggggggggggggggggggggggggggggggggggggggggggggggggggggggggggggggggggggggggggggggggggggggggggggggggggggggggggggggggggggggggggggggggggggggggggggggggggggggggggggggggggggggggggggggggggggggggggggggggggggggggggggggggggggggggggggggggggggggggggggggggggggggggggggggggggggggggggggggggggggggggggggggggggggggggggggggggggggggggggggggggggggggggggggggggggggggggggggggggggggggggggggggggggggggggggggggggggggggggggggggggggggggggggggggggggggggggggggggggggggggggggggggggggggggggggggggggggggggggggggggggggggggggggggggggggggggggggggggggggggggggggggggggggggggggggggggggggggggggggggggggggggggggg7777777o77oo7o",
"oo77o77777777777ggggggggggggggggggggggggggggggggggggggggggggggggggggggggggggggggggggggggggggggggggggggggggggggggggggggggggggggggggggggggggggggggggggggggggggggggggggggggggggggggggggggggggggggggggggggggggggggggggggggggggggggggggggggggggggggggggggggggggggggggggggggggggggggggggggggggggggggggggggggggggggggggggggggggggggggggggggggggggggggggggggggggggggggggggggggggggggggggggggggggggggggggggggggggggggggggggggggggggggggggggggggggggggggggggggggggggggggggggggggggggggggggggggggggggggggggggggggggggggggggggggggggggggggggggggggggggggggggggggggggggggggggggggggggggggggggggggggggggggggggggggggggggggggggggggggggggggggggggggggggggggggggg777777777o7777o",
"oo777o7777777777gggggggggggggggggggggggggggggggggggggggggggggggggggggggggggggggggggggggggggggggggggggggggggggggggggggggggggggggggggggggggggggggggggggggggggggggggggggggggggggggggggggggggggggggggggggggggggggggggggggggggggggggggggggggggggggggggggggggggggggggggggggggggggggggggggggggggggggggggggggggggggggggggggggggggggggggggggggggggggggggggggggggggggggggggggggggggggggggggggggggggggggggggggggggggggggggggggggggggggggggggggggggggggggggggggggggggggggggggggggggggggggggggggggggggggggggggggggggggggggggggggggggggggggggggggggggggggggggggggggggggggggggggggggggggggggggggggggggggggggggggggggggggggggggggggggggggggggggggggggggggggggggg77777777777o77oo",
"oooo77o7777777777ggggggggggggggggggggggggggggggggggggggggggggggggggggggggggggggggggggggggggggggggggggggggggggggggggggggggggggggggggggggggggggggggggggggggggggggggggggggggggggggggggggggggggggggggggggggggggggggggggggggggggggggggggggggggggggggggggggggggggggggggggggggggggggggggggggggggggggggggggggggggggggggggggggggggggggggggggggggggggggggggggggggggggggggggggggggggggggggggggggggggggggggggggggggggggggggggggggggggggggggggggggggggggggggggggggggggggggggggggggggggggggggggggggggggggggggggggggggggggggggggggggggggggggggggggggggggggggggggggggggggggggggggggggggggggggggggggggggggggggggggggggggggggggggggggggggggggggggggggggggggggggggg777777777777oo7o",
"oooo77o7777777777ggggggggggggggggggggggggggggggggggggggggggggggggggggggggggggggggggggggggggggggggggggggggggggggggggggggggggggggggggggggggggggggggggggggggggggggggggggggggggggggggggggggggggggggggggggggggggggggggggggggggggggggggggggggggggggggggggggggggggggggggggggggggggggggggggggggggggggggggggggggggggggggggggggggggggggggggggggggggggggggggggggggggggggggggggggggggggggggggggggggggggggggggggggggggggggggggggggggggggggggggggggggggggggggggggggggggggggggggggggggggggggggggggggggggggggggggggggggggggggggggggggggggggggggggggggggggggggggggggggggggggggggggggggggggggggggggggggggggggggggggggggggggggggggggggggggggggggggggggggggggggggggg777777777777oo7o",
"oo777o777777777777ggggggggggggggggggggggggggggggggggggggggggggggggggggggggggggggggggggggggggggggggggggggggggggggggggggggggggggggggggggggggggggggggggggggggggggggggggggggggggggggggggggggggggggggggggggggggggggggggggggggggggggggggggggggggggggggggggggggggggggggggggggggggggggggggggggggggggggggggggggggggggggggggggggggggggggggggggggggggggggggggggggggggggggggggggggggggggggggggggggggggggggggggggggggggggggggggggggggggggggggggggggggggggggggggggggggggggggggggggggggggggggggggggggggggggggggggggggggggggggggggggggggggggggggggggggggggggggggggggggggggggggggggggggggggggggggggggggggggggggggggggggggggggggggggggggggggggggggggggggggggggggg777777777777o77oo",
"oo77o7777777777777ggggggggggggggggggggggggggggggggggggggggggggggggggggggggggggggggggggggggggggggggggggggggggggggggggggggggggggggggggggggggggggggggggggggggggggggggggggggggggggggggggggggggggggggggggggggggggggggggggggggggggggggggggggggggggggggggggggggggggggggggggggggggggggggggggggggggggggggggggggggggggggggggggggggggggggggggggggggggggggggggggggggggggggggggggggggggggggggggggggggggggggggggggggggggggggggggggggggggggggggggggggggggggggggggggggggggggggggggggggggggggggggggggggggggggggggggggggggggggggggggggggggggggggggggggggggggggggggggggggggggggggggggggggggggggggggggggggggggggggggggggggggggggggggggggggggggggggggggggggggggggggg77777777777o7777o",
"oooo77oo77777777777ggggggggggggggggggggggggggggggggggggggggggggggggggggggggggggggggggggggggggggggggggggggggggggggggggggggggggggggggggggggggggggggggggggggggggggggggggggggggggggggggggggggggggggggggggggggggggggggggggggggggggggggggggggggggggggggggggggggggggggggggggggggggggggggggggggggggggggggggggggggggggggggggggggggggggggggggggggggggggggggggggggggggggggggggggggggggggggggggggggggggggggggggggggggggggggggggggggggggggggggggggggggggggggggggggggggggggggggggggggggggggggggggggggggggggggggggggggggggggggggggggggggggggggggggggggggggggggggggggggggggggggggggggggggggggggggggggggggggggggggggggggggggggggggggggggggggggggggggggggggggggg77777777777o77oo7o",
"oooo77oo77777777777ggggggggggggggggggggggggggggggggggggggggggggggggggggggggggggggggggggggggggggggggggggggggggggggggggggggggggggggggggggggggggggggggggggggggggggggggggggggggggggggggggggggggggggggggggggggggggggggggggggggggggggggggggggggggggggggggggggggggggggggggggggggggggggggggggggggggggggggggggggggggggggggggggggggggggggggggggggggggggggggggggggggggggggggggggggggggggggggggggggggggggggggggggggggggggggggggggggggggggggggggggggggggggggggggggggggggggggggggggggggggggggggggggggggggggggggggggggggggggggggggggggggggggggggggggggggggggggggggggggggggggggggggggggggggggggggggggggggggggggggggggggggggggggggggggggggggggggggggggggggggggg77777777777o77oo7o",
"oo77o777777777777777gggggggggggggggggggggggggggggggggggggggggggggggggggggggggggggggggggggggggggggggggggggggggggggggggggggggggggggggggggggggggggggggggggggggggggggggggggggggggggggggggggggggggggggggggggggggggggggggggggggggggggggggggggggggggggggggggggggggggggggggggggggggggggggggggggggggggggggggggggggggggggggggggggggggggggggggggggggggggggggggggggggggggggggggggggggggggggggggggggggggggggggggggggggggggggggggggggggggggggggggggggggggggggggggggggggggggggggggggggggggggggggggggggggggggggggggggggggggggggggggggggggggggggggggggggggggggggggggggggggggggggggggggggggggggggggggggggggggggggggggggggggggggggggggggggggggggggggggggggggggg77777777777777o777oo",
"oo777o777777777777777ggggggggggggggggggggggggggggggggggggggggggggggggggggggggggggggggggggggggggggggggggggggggggggggggggggggggggggggggggggggggggggggggggggggggggggggggggggggggggggggggggggggggggggggggggggggggggggggggggggggggggggggggggggggggggggggggggggggggggggggggggggggggggggggggggggggggggggggggggggggggggggggggggggggggggggggggggggggggggggggggggggggggggggggggggggggggggggggggggggggggggggggggggggggggggggggggggggggggggggggggggggggggggggggggggggggggggggggggggggggggggggggggggggggggggggggggggggggggggggggggggggggggggggggggggggggggggggggggggggggggggggggggggggggggggggggggggggggggggggggggggggggggggggggggggggggggggggggggggggggg777777777777777o77oo",
"oooo77oo7777777777777ggggggggggggggggggggggggggggggggggggggggggggggggggggggggggggggggggggggggggggggggggggggggggggggggggggggggggggggggggggggggggggggggggggggggggggggggggggggggggggggggggggggggggggggggggggggggggggggggggggggggggggggggggggggggggggggggggggggggggggggggggggggggggggggggggggggggggggggggggggggggggggggggggggggggggggggggggggggggggggggggggggggggggggggggggggggggggggggggggggggggggggggggggggggggggggggggggggggggggggggggggggggggggggggggggggggggggggggggggggggggggggggggggggggggggggggggggggggggggggggggggggggggggggggggggggggggggggggggggggggggggggggggggggggggggggggggggggggggggggggggggggggggggggggggggggggggggggggggggggggg777777777777oo77oo7o",
"oooo77oo77777777777777ggggggggggggggggggggggggggggggggggggggggggggggggggggggggggggggggggggggggggggggggggggggggggggggggggggggggggggggggggggggggggggggggggggggggggggggggggggggggggggggggggggggggggggggggggggggggggggggggggggggggggggggggggggggggggggggggggggggggggggggggggggggggggggggggggggggggggggggggggggggggggggggggggggggggggggggggggggggggggggggggggggggggggggggggggggggggggggggggggggggggggggggggggggggggggggggggggggggggggggggggggggggggggggggggggggggggggggggggggggggggggggggggggggggggggggggggggggggggggggggggggggggggggggggggggggggggggggggggggggggggggggggggggggggggggggggggggggggggggggggggggggggggggggggggggggggggggggggggggggg7777777777777oo77oo7o",
"oo77oo77o7777777777777gggggggggggggggggggggggggggggggggggggggggggggggggggggggggggggggggggggggggggggggggggggggggggggggggggggggggggggggggggggggggggggggggggggggggggggggggggggggggggggggggggggggggggggggggggggggggggggggggggggggggggggggggggggggggggggggggggggggggggggggggggggggggggggggggggggggggggggggggggggggggggggggggggggggggggggggggggggggggggggggggggggggggggggggggggggggggggggggggggggggggggggggggggggggggggggggggggggggggggggggggggggggggggggggggggggggggggggggggggggggggggggggggggggggggggggggggggggggggggggggggggggggggggggggggggggggggggggggggggggggggggggggggggggggggggggggggggggggggggggggggggggggggggggggggggggggggggggggggggg77777777777777777o77oo",
"oo77o777777777777777777ggggggggggggggggggggggggggggggggggggggggggggggggggggggggggggggggggggggggggggggggggggggggggggggggggggggggggggggggggggggggggggggggggggggggggggggggggggggggggggggggggggggggggggggggggggggggggggggggggggggggggggggggggggggggggggggggggggggggggggggggggggggggggggggggggggggggggggggggggggggggggggggggggggggggggggggggggggggggggggggggggggggggggggggggggggggggggggggggggggggggggggggggggggggggggggggggggggggggggggggggggggggggggggggggggggggggggggggggggggggggggggggggggggggggggggggggggggggggggggggggggggggggggggggggggggggggggggggggggggggggggggggggggggggggggggggggggggggggggggggggggggggggggggggggggggggggggggggggggg7777777777777777o777oo",
"oooo77oo7777777777777777ggggggggggggggggggggggggggggggggggggggggggggggggggggggggggggggggggggggggggggggggggggggggggggggggggggggggggggggggggggggggggggggggggggggggggggggggggggggggggggggggggggggggggggggggggggggggggggggggggggggggggggggggggggggggggggggggggggggggggggggggggggggggggggggggggggggggggggggggggggggggggggggggggggggggggggggggggggggggggggggggggggggggggggggggggggggggggggggggggggggggggggggggggggggggggggggggggggggggggggggggggggggggggggggggggggggggggggggggggggggggggggggggggggggggggggggggggggggggggggggggggggggggggggggggggggggggggggggggggggggggggggggggggggggggggggggggggggggggggggggggggggggggggggggggggggggggggggggggg777777777777777oo77oo7o",
"oooo77oo77777777777777777ggggggggggggggggggggggggggggggggggggggggggggggggggggggggggggggggggggggggggggggggggggggggggggggggggggggggggggggggggggggggggggggggggggggggggggggggggggggggggggggggggggggggggggggggggggggggggggggggggggggggggggggggggggggggggggggggggggggggggggggggggggggggggggggggggggggggggggggggggggggggggggggggggggggggggggggggggggggggggggggggggggggggggggggggggggggggggggggggggggggggggggggggggggggggggggggggggggggggggggggggggggggggggggggggggggggggggggggggggggggggggggggggggggggggggggggggggggggggggggggggggggggggggggggggggggggggggggggggggggggggggggggggggggggggggggggggggggggggggggggggggggggggggggggggggggggggggggggg7777777777777777oo77oo7o",
"oo77oo777o777777777777777ggggggggggggggggggggggggggggggggggggggggggggggggggggggggggggggggggggggggggggggggggggggggggggggggggggggggggggggggggggggggggggggggggggggggggggggggggggggggggggggggggggggggggggggggggggggggggggggggggggggggggggggggggggggggggggggggggggggggggggggggggggggggggggggggggggggggggggggggggggggggggggggggggggggggggggggggggggggggggggggggggggggggggggggggggggggggggggggggggggggggggggggggggggggggggggggggggggggggggggggggggggggggggggggggggggggggggggggggggggggggggggggggggggggggggggggggggggggggggggggggggggggggggggggggggggggggggggggggggggggggggggggggggggggggggggggggggggggggggggggggggggggggggggggggggggggggggggggg777777777777777o77oo77oo",
"oo77oo77o77777777777777777ggggggggggggggggggggggggggggggggggggggggggggggggggggggggggggggggggggggggggggggggggggggggggggggggggggggggggggggggggggggggggggggggggggggggggggggggggggggggggggggggggggggggggggggggggggggggggggggggggggggggggggggggggggggggggggggggggggggggggggggggggggggggggggggggggggggggggggggggggggggggggggggggggggggggggggggggggggggggggggggggggggggggggggggggggggggggggggggggggggggggggggggggggggggggggggggggggggggggggggggggggggggggggggggggggggggggggggggggggggggggggggggggggggggggggggggggggggggggggggggggggggggggggggggggggggggggggggggggggggggggggggggggggggggggggggggggggggggggggggggggggggggggggggggggggggggggggggg7777777777777777777oo77oo",
"oooo77oo77o777777777777777ggggggggggggggggggggggggggggggggggggggggggggggggggggggggggggggggggggggggggggggggggggggggggggggggggggggggggggggggggggggggggggggggggggggggggggggggggggggggggggggggggggggggggggggggggggggggggggggggggggggggggggggggggggggggggggggggggggggggggggggggggggggggggggggggggggggggggggggggggggggggggggggggggggggggggggggggggggggggggggggggggggggggggggggggggggggggggggggggggggggggggggggggggggggggggggggggggggggggggggggggggggggggggggggggggggggggggggggggggggggggggggggggggggggggggggggggggggggggggggggggggggggggggggggggggggggggggggggggggggggggggggggggggggggggggggggggggggggggggggggggggggggggggggggggggggggggggggg77777777777777777oo77oooo",
"oooo77oo77o7777777777777777ggggggggggggggggggggggggggggggggggggggggggggggggggggggggggggggggggggggggggggggggggggggggggggggggggggggggggggggggggggggggggggggggggggggggggggggggggggggggggggggggggggggggggggggggggggggggggggggggggggggggggggggggggggggggggggggggggggggggggggggggggggggggggggggggggggggggggggggggggggggggggggggggggggggggggggggggggggggggggggggggggggggggggggggggggggggggggggggggggggggggggggggggggggggggggggggggggggggggggggggggggggggggggggggggggggggggggggggggggggggggggggggggggggggggggggggggggggggggggggggggggggggggggggggggggggggggggggggggggggggggggggggggggggggggggggggggggggggggggggggggggggggggggggggggggggggggggg777777777777777777oo77oooo",
"oooooo77oo777777777777777777ggggggggggggggggggggggggggggggggggggggggggggggggggggggggggggggggggggggggggggggggggggggggggggggggggggggggggggggggggggggggggggggggggggggggggggggggggggggggggggggggggggggggggggggggggggggggggggggggggggggggggggggggggggggggggggggggggggggggggggggggggggggggggggggggggggggggggggggggggggggggggggggggggggggggggggggggggggggggggggggggggggggggggggggggggggggggggggggggggggggggggggggggggggggggggggggggggggggggggggggggggggggggggggggggggggggggggggggggggggggggggggggggggggggggggggggggggggggggggggggggggggggggggggggggggggggggggggggggggggggggggggggggggggggggggggggggggggggggggggggggggggggggggggggggggggggggg77777777777777777oo77oooooo",
"oooooo77oo777777777777777777ggggggggggggggggggggggggggggggggggggggggggggggggggggggggggggggggggggggggggggggggggggggggggggggggggggggggggggggggggggggggggggggggggggggggggggggggggggggggggggggggggggggggggggggggggggggggggggggggggggggggggggggggggggggggggggggggggggggggggggggggggggggggggggggggggggggggggggggggggggggggggggggggggggggggggggggggggggggggggggggggggggggggggggggggggggggggggggggggggggggggggggggggggggggggggggggggggggggggggggggggggggggggggggggggggggggggggggggggggggggggggggggggggggggggggggggggggggggggggggggggggggggggggggggggggggggggggggggggggggggggggggggggggggggggggggggggggggggggggggggggggggggggggggggggggggggggg777777777777777777o77oooooo",
"ooooo7oo77oo77777777777777777ggggggggggggggggggggggggggggggggggggggggggggggggggggggggggggggggggggggggggggggggggggggggggggggggggggggggggggggggggggggggggggggggggggggggggggggggggggggggggggggggggggggggggggggggggggggggggggggggggggggggggggggggggggggggggggggggggggggggggggggggggggggggggggggggggggggggggggggggggggggggggggggggggggggggggggggggggggggggggggggggggggggggggggggggggggggggggggggggggggggggggggggggggggggggggggggggggggggggggggggggggggggggggggggggggggggggggggggggggggggggggggggggggggggggggggggggggggggggggggggggggggggggggggggggggggggggggggggggggggggggggggggggggggggggggggggggggggggggggggggggggggggggggggggggggggggg7777777777777777oo77oo77oooo",
".ooooooo77oo77777777777777777ggggggggggggggggggggggggggggggggggggggggggggggggggggggggggggggggggggggggggggggggggggggggggggggggggggggggggggggggggggggggggggggggggggggggggggggggggggggggggggggggggggggggggggggggggggggggggggggggggggggggggggggggggggggggggggggggggggggggggggggggggggggggggggggggggggggggggggggggggggggggggggggggggggggggggggggggggggggggggggggggggggggggggggggggggggggggggggggggggggggggggggggggggggggggggggggggggggggggggggggggggggggggggggggggggggggggggggggggggggggggggggggggggggggggggggggggggggggggggggggggggggggggggggggggggggggggggggggggggggggggggggggggggggggggggggggggggggggggggggggggggggggggggggggggggggggg7777777777777777oo77oo7ooooo",
"..oooo77oo77o77777777777777777ggggggggggggggggggggggggggggggggggggggggggggggggggggggggggggggggggggggggggggggggggggggggggggggggggggggggggggggggggggggggggggggggggggggggggggggggggggggggggggggggggggggggggggggggggggggggggggggggggggggggggggggggggggggggggggggggggggggggggggggggggggggggggggggggggggggggggggggggggggggggggggggggggggggggggggggggggggggggggggggggggggggggggggggggggggggggggggggggggggggggggggggggggggggggggggggggggggggggggggggggggggggggggggggggggggggggggggggggggggggggggggggggggggggggggggggggggggggggggggggggggggggggggggggggggggggggggggggggggggggggggggggggggggggggggggggggggggggggggggggggggggggggggggggggggggg7777777777777777777oo77ooooo.",
"..oooo77oo777o7777777777777777gggggggggggggggggggggggggggggggggggggggggggggggggggggggggggggggggggggggggggggggggggggggggggggggggggggggggggggggggggggggggggggggggggggggggggggggggggggggggggggggggggggggggggggggggggggggggggggggggggggggggggggggggggggggggggggggggggggggggggggggggggggggggggggggggggggggggggggggggggggggggggggggggggggggggggggggggggggggggggggggggggggggggggggggggggggggggggggggggggggggggggggggggggggggggggggggggggggggggggggggggggggggggggggggggggggggggggggggggggggggggggggggggggggggggggggggggggggggggggggggggggggggggggggggggggggggggggggggggggggggggggggggggggggggggggggggggggggggggggggggggggggggggggggggggggg77777777777777777o77oo77ooooo.",
"..oooooo77oo77o7777777777777777ggggggggggggggggggggggggggggggggggggggggggggggggggggggggggggggggggggggggggggggggggggggggggggggggggggggggggggggggggggggggggggggggggggggggggggggggggggggggggggggggggggggggggggggggggggggggggggggggggggggggggggggggggggggggggggggggggggggggggggggggggggggggggggggggggggggggggggggggggggggggggggggggggggggggggggggggggggggggggggggggggggggggggggggggggggggggggggggggggggggggggggggggggggggggggggggggggggggggggggggggggggggggggggggggggggggggggggggggggggggggggggggggggggggggggggggggggggggggggggggggggggggggggggggggggggggggggggggggggggggggggggggggggggggggggggggggggggggggggggggggggggggggggggggggggg777777777777777777oo77ooooooo.",
"..oooooo77oo77oo7777777777777777ggggggggggggggggggggggggggggggggggggggggggggggggggggggggggggggggggggggggggggggggggggggggggggggggggggggggggggggggggggggggggggggggggggggggggggggggggggggggggggggggggggggggggggggggggggggggggggggggggggggggggggggggggggggggggggggggggggggggggggggggggggggggggggggggggggggggggggggggggggggggggggggggggggggggggggggggggggggggggggggggggggggggggggggggggggggggggggggggggggggggggggggggggggggggggggggggggggggggggggggggggggggggggggggggggggggggggggggggggggggggggggggggggggggggggggggggggggggggggggggggggggggggggggggggggggggggggggggggggggggggggggggggggggggggggggggggggggggggggggggggggggggggggggggggg7777777777777777o77oo77oooooo..",
"..oooooooo77oo777777777777777777ggggggggggggggggggggggggggggggggggggggggggggggggggggg777777777777777777777777777777777777777777777777777777777777ggggggggggggggggggggggggggggggggggggggggggggggggggggggggggggggggggggggggggggggggggggggggggggggggggggggggggggggggggggggggggggggggggggggggggggggggggggggggggggggggggggggggggggggggggggggggggggggggggggggggggggggggggggggggggggggggggggggggggggggggggggggggggggggggggggggggggggggggggggggggggggggggggggggggggggggggggggggggggggggggggggggggggggggggggggggggggggggg777777777777777777777777777777777777777777777777777777777777gggggggggggggggggggggggggggggggggggggggggggggggggggg7777777777777777777o77oo7ooooo..",
"...ooooooo77oo7777777777777777777ggggggggggggggggggggggggggggggggggggggggg7777777777777777777777777777777777777777777777777777777777777777777777777777gggggggggggggggggggggggggggggggggggggggggggggggggggggggggggggggggggggggggggggggggggggggggggggggggggggggggggggggggggggggggggggggggggggggggggggggggggggggggggggggggggggggggggggggggggggggggggggggggggggggggggggggggggggggggggggggggggggggggggggggggggggggggggggggggggggggggggggggggggggggggggggggggggggggggggggggggggggggggggggggggggggggggggggggggggg7777777777777777777777777777777777777777777777777777777777777777777777777777gggggggggggggggggggggggggggggggggggggggggg777777777777777777oo77oo7ooooo..",
"...ooooo77oo77oo777777777777777777gggggggggggggggggggggggggggggggggggggg777777777777777777777777777777777777777777777777777777777777777777777777777777777777777ggggggggggggggggggggggggggggggggggggggggggggggggggggggggggggggggggggggggggggggggggggggggggggggggggggggggggggggggggggggggggggggggggggggggggggggggggggggggggggggggggggggggggggggggggggggggggggggggggggggggggggggggggggggggggggggggggggggggggggggggggggggggggggggggggggggggggggggggggggggggggggggggggggggggggggggggggggggggggggggggggg777777777777777777777777777777777777777777777777777777777777777777777777777777777777777gggggggggggggggggggggggggggggggggggggg77777777777777777oo77oo77oooooo..",
"...oooooo7oo77oo777777777777777777gggggggggggggggggggggggggggggggggggg77777777777777777777777777777777777777777777777777777777777777777777777777777777777777777777777ggggggggggggggggggggggggggggggggggggggggggggggggggggggggggggggggggggggggggggggggggggggggggggggggggggggggggggggggggggggggggggggggggggggggggggggggggggggggggggggggggggggggggggggggggggggggggggggggggggggggggggggggggggggggggggggggggggggggggggggggggggggggggggggggggggggggggggggggggggggggggggggggggggggggggggggggggggggg77777777777777777777777777777777777777777777777777777777777777777777777777777777777777777777777gggggggggggggggggggggggggggggggggggg77777777777777777oo77oo77oooooo..",
"...ooooooo77oo777o77777777777777777gggggggggggggggggggggggggggggggg7777777777777777777777777777777777777777777777777o7777o77o7777o77o7777o77777777777777777777777777777777777ggggggggggggggggggggggggggggggggggggggggggggggggggggggggggggggggggggggggggggggggggggggggggggggggggggggggggggggggggggggggggggggggggggggggggggggggggggggggggggggggggggggggggggggggggggggggggggggggggggggggggggggggggggggggggggggggggggggggggggggggggggggggggggggggggggggggggggggggggggggggggggggggggggggg77777777777777777777777777777777777o77o7777o77o7777o77o777777777777777777777777777777777777777777777777777gggggggggggggggggggggggggggggggg77777777777777777o77oo77oooooooo..",
"...ooooooo77oo77o777777777777777777gggggggggggggggggggggggggggggg777777777777o77o7777o77o7777o77o7777o77o7777o77o7777o77o7777o77o7777o77o7777o77o777777777777777777777777777777777ggggggggggggggggggggggggggggggggggggggggggggggggggggggggggggggggggggggggggggggggggggggggggggggggggggggggggggggggggggggggggggggggggggggggggggggggggggggggggggggggggggggggggggggggggggggggggggggggggggggggggggggggggggggggggggggggggggggggggggggggggggggggggggggggggggggggggggggggggggggggggggg7777777777777777777777777777777o7777o77o7777o77o7777o77o7777o77o7777o77o7777o77o7777o77o7777o77o7777o777777777777gggggggggggggggggggggggggggggg7777777777777777o777oo77oooooooo..",
"....oooooooo77oo77oo7777777777777777gggggggggggggggggggggggggg777777777777oo77oo77oo77oo77oo77oo77oo77oo77oo77oo77oo77oo77oo77oo77oo77oo77oo77oo77oo77oo77oo777777777777777777777777gggggggggggggggggggggggggggggggggggggggggggggggggggggggggggggggggggggggggggggggggggggggggggggggggggggggggggggggggggggggggggggggggggggggggggggggggggggggggggggggggggggggggggggggggggggggggggggggggggggggggggggggggggggggggggggggggggggggggggggggggggggggggggggggggggggggggggggggggggggggg777777777777777777777777oo77oo77oo77oo77oo77oo77oo77oo77oo77oo77oo77oo77oo77oo77oo77oo77oo77oo77oo77oo77oo77o7777777777gggggggggggggggggggggggggg7777777777777777o77oo77ooooooooo...",
"....oooooooo77oo77oo77777777777777777ggggggggggggggggggggggg7777777777oo77oo77oo77oo77oo77oo77oo77oo77oo77oo77oo77oo77oo77oo77oo77oo77oo77oo77oo77oo77oo77oo77oo7777777777777777777777ggggggggggggggggggggggggggggggggggggggggggggggggggggggggggggggggggggggggggggggggggggggggggggggggggggggggggggggggggggggggggggggggggggggggggggggggggggggggggggggggggggggggggggggggggggggggggggggggggggggggggggggggggggggggggggggggggggggggggggggggggggggggggggggggggggggggggggggggggggg777777777777777777777oo77oo77oo77oo77oo77oo77oo77oo77oo77oo77oo77oo77oo77oo77oo77oo77oo77oo77oo77oo77oo77oo77oo77777777777ggggggggggggggggggggggg7777777777777777oo77oo77ooooooooo...",
"....ooooooo7oo77oo777o7777777777777777ggggggggggggggggggg777777777777o77o7777o777777777777777777777777777777777777777o77o7777o77o7777o77o7777o77o7777o77o7777o77o7777o777777777777777777gggggggggggggggggggggggggggggggggggggggggggggggggggggggggggggggggggggggggggggggggggggggggggggggggggggggggggggggggggggggggggggggggggggggggggggggggggggggggggggggggggggggggggggggggggggggggggggggggggggggggggggggggggggggggggggggggggggggggggggggggggggggggggggggggggggggggggggggg7777777777777777777o77o7777o77o7777o77o7777o77o7777o77o7777o77o7777o777777777777777777777777777777777777777o77o7777o777777777777ggggggggggggggggggg7777777777777777o77oo77oo77ooooooo...",
"....ooooooo7oo77oo77o7777777777777777777ggggggggggggggg7777777777777o7777o777ggggggggggggggggggggggggggggggggggggggggggggggggggggggggg77777777777o77o7777o77o7777o77o7777o7777777777777777ggggggggggggggggggggggggggggggggggggggggggggggggggggggggggggggggggggggggggggggggggggggggggggggggggggggggggggggggggggggggggggggggggggggggggggggggggggggggggggggggggggggggggggggggggggggggggggggggggggggggggggggggggggggggggggggggggggggggggggggggggggggggggggggggggggggggggggg7777777777777777o77o7777o77o7777o77o7777o7777777777gggggggggggggggggggggggggggggggggggggggggggggggggggggggggg777o77o777777777777777ggggggggggggggg77777777777777777o777oo77oo77ooooooo...",
"....oooooooo77oo77oo77oo777777777777777777gggggggggg7777777777oo77oo77ggggggggggggggggggggggggggggggggggggggggggggggggggggggggggggggggggggggggggg777777777oo77oo77oo77oo77oo77oo777777777777gggggggggggggggggggggggggggggggggggggggggggggggggggggggggggggggggggggggggggggggggggggggggggggggggggggggggggggggggggggggggggggggggggggggggggggggggggggggggggggggggggggggggggggggggggggggggggggggggggggggggggggggggggggggggggggggggggggggggggggggggggggggggggggggggggggggg7777777777777o77oo77oo77oo77oo77oo7777777777gggggggggggggggggggggggggggggggggggggggggggggggggggggggggggggggggggggggggg77oo77oo77777777777gggggggggg777777777777777777o77oo77oo77ooooooooo...",
"....oooooooo77oo77oo77oo77777777777777777777gggggg777777777777oo77o77gggggggggggggggggggggggggggggggggggggggggggggggggggggggggggggggggggggggggggggggggggg77777oo77oo77oo77o777oo77777777777777ggggggggggggggggggggggggggggggggggggggggggggggggggggggggggggggggggggggggggggggggggggggggggggggggggggggggggggggggggggggggggggggggggggggggggggggggggggggggggggggggggggggggggggggggggggggggggggggggggggggggggggggggggggggggggggggggggggggggggggggggggggggggggggggggggggg7777777777777oo777777oo77oo77oo777777gggggggggggggggggggggggggggggggggggggggggggggggggggggggggggggggggggggggggggggggggggg7777oo77o7777777777gggggg7777777777777777777oo77oo77oo77ooooooooo...",
"....oooooooooo77oo77o7777o77o7777777777777777gg7777777777o77o7777oggggggggggggggggggggggggggggggggggggggggggggggggggggggggggggggggggggggggggggggggggggggggggggggg77777777o77o7777o77777777777777gggggggggggggggggggggggggggggggggggggggggggggggggggggggggggggggggggggggggggggggggggggggggggggggggggggggggggggggggggggggggggggggggggggggggggggggggggggggggggggggggggggggggggggggggggggggggggggggggggggggggggggggggggggggggggggggggggggggggggggggggggggggggggggggg777777777777777o77o7777o77777777gggggggggggggggggggggggggggggggggggggggggggggggggggggggggggggggggggggggggggggggggggggggggggggg7o77o7777o7777777777gg7777777777777777777o77o777oo77oo7ooooooo....",
"....oooooooooo77oo777o77o7777o77777777777777777777777777o7777o77oggggggggggggggggggggggggggggggggggggggggggggggggggggggggggggggggggggggggggggggggggggggggggggggggggggg7777777o77o7777o777777777777ggggggggggggggggggggggggggggggggggggggggggggggggggggggggggggggggggggggggggggggggggggggggggggggggggggggggggggggggggggggggggggggggggggggggggggggggggggggggggggggggggggggggggggggggggggggggggggggggggggggggggggggggggggggggggggggggggggggggggggggggggggggggggggg777777777777o77o7777o77o777gggggggggggggggggggggggggggggggggggggggggggggggggggggggggggggggggggggggggggggggggggggggggggggggggggggg777o77o7777777777777777777777777777o77o7777o77oo77oooooooooo....",
"....ooooooooo7oo77oo77oo77oo77oo77oo77777777777777oo77oo77oo77gggggggggggggggggggggggggggggggggggggggggggggggggggggggggggggggggggggggggggggggggggggggggggggggggggggggggggggggg7777oo77oo777777777777gggggggggggggggggggggggggggggggggggggggggggggggggggggggggggggggggggggggggggggggggggggggggggggggggggggggggggggggggggggggggggggggggggggggggggggggggggggggggggggggggggggggggggggggggggggggggggggggggggggggggggggggggggggggggggggggggggggggggggggggggggggggg777777777777oo77oo77777gggggggggggggggggggggggggggggggggggggggggggggggggggggggggggggggggggggggggggggggggggggggggggggggggggggggggggggggg7oo77oo77oo777777777777777o77oo77oo77oo77oo77oo77oooooooo....",
".....ooooooooooo77oo77oo77oo77oo77oo77o77777777777oo77oo77ooggggggggggggggggggggggggggggggggggggggggggggggggggggggggggggggggggggggggggggggggggggggggggggggggggggggggggggggggggggg77o77oo77o77777777777ggggggggggggggggggggggggggggggggggggggggggggggggggggggggggggggggggggggggggggggggggggggggggggggggggggggggggggggggggggggggggggggggggggggggggggggggggggggggggggggggggggggggggggggggggggggggggggggggggggggggggggggggggggggggggggggggggggggggggggggggggggg7777777777777oo77oo77gggggggggggggggggggggggggggggggggggggggggggggggggggggggggggggggggggggggggggggggggggggggggggggggggggggggggggggggggggg7o77oo77oo77o77777777777oo77oo77oo77oo77oo77oo7ooooooooo....",
".....oooooooooo7oo77oo77o7777o77o7777o77o7777o77o7777o77o7gggggggggggggggggggggggggggggggggggggggggggggggggggggggggggggggggggggggggggggggggggggggggggggggggggggggggggggggggggggggggg7777o7777o7777777777gggggggggggggggggggggggggggggggggggggggggggggggggggggggggggggggggggggggggggggggggggggggggggggggggggggggggggggggggggggggggggggggggggggggggggggggggggggggggggggggggggggggggggggggggggggggggggggggggggggggggggggggggggggggggggggggggggggggggggggggg77777777777o77o777777gggggggggggggggggggggggggggggggggggggggggggggggggggggggggggggggggggggggggggggggggggggggggggggggggggggggggggggggggggggggggg7777o77o7777o77o7777o77o7777o77o7777o77oo77oooooooooo....",
".....ooooooooooooo77oo777o77o7777o77o7777777o7777o77o777gggggggggggggggggggggggggggggggggggggggggggggggggggggggggggggggggggggggggggggggggggggggggggggggggggggggggggggggggggggggggggggg777o77o7777777777777ggggggggggggggggggggggggggggggggggggggggggggggggggggggggggggggggggggggggggggggggggggggggggggggggggggggggggggggggggggggggggggggggggggggggggggggggggggggggggggggggggggggggggggggggggggggggggggggggggggggggggggggggggggggggggggggggggggggggggggg77777777777o7777o777gggggggggggggggggggggggggggggggggggggggggggggggggggggggggggggggggggggggggggggggggggggggggggggggggggggggggggggggggggggggggggggg7o7777o77o7777777o7777o77o7777o77oo77oo7ooooooooooo....",
".....oooooooooooo7oo77oo77oo77oo77oo77oo77oo77oo77oo77ggggggggggggggggggggggggggggggggggggggggggggggggggggggggggggggggggggggggggggggggggggggggggggggggggggggggggggggggggggggggggggggggggg7oo77oo777777777777gggggggggggggggggggggggggggggggggggggggggggggggggggggggggggggggggggggggggggggggggggggggggggggggggggggggggggggggggggggggggggggggggggggggggggggggggggggggggggggggggggggggggggggggggggggggggggggggggggggggggggggggggggggggggggggggggggggggg777777777777oo77oo77ggggggggggggggggggggggggggggggggggggggggggggggggggggggggggggggggggggggggggggggggggggggggggggggggggggggggggggggggggggggggggggggggggg77o77oo77oo77oo77oo77oo77oo77oo77oo77oooooooooooo....",
".....ooooooooooooooo77oo77oo77oo77oo77oo77oo77oo777777ggggggggggggggggggggggggggggggggggggggggggggggggggggggggggggggggggggggggggggggggggggggggggggggggggggggggggggggggggggggggggggggggggggg777oo77oo7777777777ggggggggggggggggggggggggggggggggggggggggggggggggggggggggggggggggggggggggggggggggggggggggggggggggggggggggggggggggggggggggggggggggggggggggggggggggggggggggggggggggggggggggggggggggggggggggggggggggggggggggggggggggggggggggggggggggggggg7777777777o77oo7777ggggggggggggggggggggggggggggggggggggggggggggggggggggggggggggggggggggggggggggggggggggggggggggggggggggggggggggggggggggggggggggggggggggg77777oo77oo77oo77oo77oo77oo77oo77oo7ooooooooooooo....",
".....oooooooooooooo7oo777o77o7777o77o7777o77o77777777777gggggggggggggggggggggggggggggggggggggggggggggggggggggggggggggggggggggggggggggggggggggggggggggggggggggggggggggggggggggggggggggggggggggg777o77o77777777777gggggggggggggggggggggggggggggggggggggggggggggggggggggggggggggggggggggggggggggggggggggggggggggggggggggggggggggggggggggggggggggggggggggggggggggggggggggggggggggggggggggggggggggggggggggggggggggggggggggggggggggggggggggggggggggggg7777777777o7777o777gggggggggggggggggggggggggggggggggggggggggggggggggggggggggggggggggggggggggggggggggggggggggggggggggggggggggggggggggggggggggggggggggggggg777777777o7777o77o7777o77o7777o77oo77oooooooooooooo....",
"......oooooooooooooooo77o7777o77o7777o77o7777o77o7777777gggggggggggggggggggggggggggggggggggggggggggggggggggggggggggggggggggggggggggggggggggggggggggggggggggggggggggggggggggggggggggggggggggggggg77777o77o777777777ggggggggggggggggggggggggggggggggggggggggggggggggggggggggggggggggggggggggggggggggggggggggggggggggggggggggggggggggggggggggggggggggggggggggggggggggggggggggggggggggggggggggggggggggggggggggggggggggggggggggggggggggggggggggggggg777777777777o77o77ggggggggggggggggggggggggggggggggggggggggggggggggggggggggggggggggggggggggggggggggggggggggggggggggggggggggggggggggggggggggggggggggggggggg77777777777o77o7777o77o7777o77o7777o7oooooooooooooo.....",
"........ooooooooooooo7oo77oo77oo77oo77oo77oo77oo77777777777gggggggggggggggggggggggggggggggggggggggggggggggggggggggggggggggggggggggggggggggggggggggggggggggggggggggggggggggggggggggggggggggggggggggg777oo77oo77777777gggggggggggggggggggggggggggggggggggggggggggggggggggggggggggggggggggggggggggggggggggggggggggggggggggggggggggggggggggggggggggggggggggggggggggggggggggggggggggggggggggggggggggggggggggggggggggggggggggggggggggggggggggggggg777777777o77oo77o7gggggggggggggggggggggggggggggggggggggggggggggggggggggggggggggggggggggggggggggggggggggggggggggggggggggggggggggggggggggggggggggggggggggggg7777777777oo77oo77oo77oo77oo77oo77oo77oooooooooooo..o.....",
"........oooooooooooooooo77oo77oo77oo77oo77oo77oo777777777777gggggggggggggggggggggggggggggggggggggggggggggggggggggggggggggggggggggggggggggggggggggggggggggggggggggggggggggggggggggggggggggggggggggggg77oo77oo7777777777ggggggggggggggggggggggggggggggggggggggggggggggggggggggggggggggggggggggggggggggggggggggggggggggggggggggggggggggggggggggggggggggggggggggggggggggggggggggggggggggggggggggggggggggggggggggggggggggggggggggggggggggggggggg777777777oo77oo77gggggggggggggggggggggggggggggggggggggggggggggggggggggggggggggggggggggggggggggggggggggggggggggggggggggggggggggggggggggggggggggggggggggggg777777777777oo77oo77oo77oo77oo77oo77oo7ooooooooooooo..o.....",
"......oo.oooooooooooooo7o7777o77o7777o77o7777o77o77777777777777gggggggggggggggggggggggggggggggggggggggggggggggggggggggggggggggggggggggggggggggggggggggggggggggggggggggggggggggggggggggggggggggggggggggg7o7777o7777777777gggggggggggggggggggggggggggggggggggggggggggggggggggggggggggggggggggggggggggggggggggggggggggggggggggggggggggggggggggggggggggggggggggggggggggggggggggggggggggggggggggggggggggggggggggggggggggggggggggggggggggggggg77777777777o77o777gggggggggggggggggggggggggggggggggggggggggggggggggggggggggggggggggggggggggggggggggggggggggggggggggggggggggggggggggggggggggggggggggggggggg77777777777777777o77o7777o77o7777o77o777oooooooooooo.oooo.....",
"......ooo.oooooooooooooo7o77o7777o77o7777o77o7777o77777777777777ggggggggggggggggggggggggggggggggggggggggggggggggggggggggggggggggggggggggggggggggggggggggggggggggggggggggggggggggggggggggggggggggggggggggg777o7777o77777777ggggggggggggggggggggggggggggggggggggggggggggggggggggggggggggggggggggggggggggggggggggggggggggggggggggggggggggggggggggggggggggggggggggggggggggggggggggggggggggggggggggggggggggggggggggggggggggggggggggggggggggg77777777o77o77777ggggggggggggggggggggggggggggggggggggggggggggggggggggggggggggggggggggggggggggggggggggggggggggggggggggggggggggggggggggggggggggggggggggggggg77777777777777o77o7777o77o7777o77o7777o7oooooooooooooo.oo......",
"........oo..ooooooooooooo7oo77oo77oo77oo77oo77oo77o777777777777777gggggggggggggggggggggggggggggggggggggggggggggggggggggggggggggggggggggggggggggggggggggggggggggggggggggggggggggggggggggggggggggggggggggggggg77oo77oo77777777gggggggggggggggggggggggggggggggggggggggggggggggggggggggggggggggggggggggggggggggggggggggggggggggggggggggggggggggggggggggggggggggggggggggggggggggggggggggggggggggggggggggggggggggggggggggggggggggggggggggg77777777oo77oo777ggggggggggggggggggggggggggggggggggggggggggggggggggggggggggggggggggggggggggggggggggggggggggggggggggggggggggggggggggggggggggggggggggggggggg777777777777777777oo77oo77oo77oo77oo77oo77oooooooooooo..oo........",
"........oo..oo.ooooooooooooo77oo77oo77oo77oo77oo77oo777777777777777gggggggggggggggggggggggggggggggggggggggggggggggggggggggggggggggggggggggggggggggggggggggggggggggggggggggggggggggggggggggggggggggggggggggggggoo77oo7777777777ggggggggggggggggggggggggggggggggggggggggggggggggggggggggggggggggggggggggggggggggggggggggggggggggggggggggggggggggggggggggggggggggggggggggggggggggggggggggggggggggggggggggggggggggggggggggggggggggggggg777777777oo77oo7ggggggggggggggggggggggggggggggggggggggggggggggggggggggggggggggggggggggggggggggggggggggggggggggggggggggggggggggggggggggggggggggggggggggggggg777777777777777o77oo77oo77oo77oo77oo77oo7ooooooooooooo..oo........",
"........o.oo.oooooooooooooo7o7777o77o7777o77o7777o7777777777777777777ggggggggggggggggggggggggggggggggggggggggggggggggggggggggggggggggggggggggggggggggggggggggggggggggggggggggggggggggggggggggggggggggggggggggggg7o77o77777777777gggggggggggggggggggggggggggggggggggggggggggggggggggggggggggggggggggggggggggggggggggggggggggggggggggggggggggggggggggggggggggggggggggggggggggggggggggggggggggggggggggggggggggggggggggggggggggggggg7777777777o7777ogggggggggggggggggggggggggggggggggggggggggggggggggggggggggggggggggggggggggggggggggggggggggggggggggggggggggggggggggggggggggggggggggggggggggggg7777777777777777777o77o7777o77o7777o77o777oooooooooooo.oooo.o.......",
".........oooo.oooooooooooooo7o77o7777o77o7777o77o7777777777777777777777ggggggggggggggggggggggggggggggggggggggggggggggggggggggggggggggggggggggggggggggggggggggggggggggggggggggggggggggggggggggggggggggggggggggggggg777o77o777777777ggggggggggggggggggggggggggggggggggggggggggggggggggggggggggggggggggggggggggggggggggggggggggggggggggggggggggggggggggggggggggggggggggggggggggggggggggggggggggggggggggggggggggggggggggggggggggggg7777777o7777o77gggggggggggggggggggggggggggggggggggggggggggggggggggggggggggggggggggggggggggggggggggggggggggggggggggggggggggggggggggggggggggggggggggggggggggg77777777777777777777o7777o77o7777o77o7777o7oooooooooooooo.oo.oo.......",
"........oo..oo..ooooooooooooo7oo77oo77oo77oo77oo77oo777777777777777777777gggggggggggggggggggggggggggggggggggggggggggggggggggggggggggggggggggggggggggggggggggggggggggggggggggggggggggggggggggggggggggggggggggggggggggg7oo77oo777777777777gggggggggggggggggggggggggggggggggggggggggggggggggggggggggggggggggggggggggggggggggggggggggggggggggggggggggggggggggggggggggggggggggggggggggggggggggggggggggggggggggggggggggggggggg777777777777oo77oo77gggggggggggggggggggggggggggggggggggggggggggggggggggggggggggggggggggggggggggggggggggggggggggggggggggggggggggggggggggggggggggggggggggggggggggg77777777777777777777oo77oo77oo77oo77oo77oo77oooooooooooo..oo..oo........",
".........o..oo..oooooooooooooooo77oo77oo77oo77oo77oo7777777777777777777777ggggggggggggggggggggggggggggggggggggggggggggggggggggggggggggggggggggggggggggggggggggggggggggggggggggggggggggggggggggggggggggggggggggggggggggg777oo77o77777777777777ggggggggggggggggggggggggggggggggggggggggggggggggggggggggggggggggggggggggggggggggggggggggggggggggggggggggggggggggggggggggggggggggggggggggggggggggggggggggggggggggggggggg7777777777777777oo77o7gggggggggggggggggggggggggggggggggggggggggggggggggggggggggggggggggggggggggggggggggggggggggggggggggggggggggggggggggggggggggggggggggggggggggggg7777777777777777777777oo77oo77oo77oo77oo77oo7ooooooooooooo..oo..oo........",
"..........ooo.oo.ooooooooooooo77o7777o77o7777o77o7777o7777777777777777777777gggggggggggggggggggggggggggggggggggggggggggggggggggggggggggggggggggggggggggggggggggggggggggggggggggggggggggggggggggggggggggggggggggggggggggggg777o77o77777777777777777777ggggggggggggggggggggggggggggggggggggggggggggggggggggggggggggggggggggggggggggggggggggggggggggggggggggggggggggggggggggggggggggggggggggggggggggggggggggggg77777777777777777777777o777gggggggggggggggggggggggggggggggggggggggggggggggggggggggggggggggggggggggggggggggggggggggggggggggggggggggggggggggggggggggggggggggggggggggggggggg7777777777777777777777o77o7777o77o7777o77o777oooooooooooo.oooo.oo..........",
"...........o.oooo.ooooooooooooo77o77o7777o77o7777o77o777777777777777777777777gggggggggggggggggggggggggggggggggggggggggggggggggggggggggggggggggggggggggggggggggggggggggggggggggggggggggggggggggggggggggggggggggggggggggggggggo7777o777777777777777777777777ggggggggggggggggggggggggggggggggggggggggggggggggggggggggggggggggggggggggggggggggggggggggggggggggggggggggggggggggggggggggggggggggggggggggggggg777777777777777777777777o77o77ggggggggggggggggggggggggggggggggggggggggggggggggggggggggggggggggggggggggggggggggggggggggggggggggggggggggggggggggggggggggggggggggggggggggggggggg7777777777777777777777o7777o77o7777o77o7777o77ooooooooooooo.oo.ooo..........",
"............oo..oo..oooooooooooo77oo77oo77oo77oo77oo77oo7777777777777777777777gggggggggggggggggggggggggggggggggggggggggggggggggggggggggggggggggggggggggggggggggggggggggggggggggggggggggggggggggggggggggggggggggggggggggggggggg7o77oo77777777777777777777777777777777ggggggggggggggggggggggggggggggggggggggggggggggggggggggggggggggggggggggggggggggggggggggggggggggggggggggggggggggggggggggggg7777777777777777777777777777777oo77ooggggggggggggggggggggggggggggggggggggggggggggggggggggggggggggggggggggggggggggggggggggggggggggggggggggggggggggggggggggggggggggggggggggggggggggggggg7777777777777777777777o77oo77oo77oo77oo77oo77ooooooooooooo.oo..oo............",
".............o..oo..oooooooooooo77oo77oo77oo77oo77oo77oo777777777777777777777777gggggggggggggggggggggggggggggggggggggggggggggggggggggggggggggggggggggggggggggggggggggggggggggggggggggggggggggggggggggggggggggggggggggggggggggggg77oo77oo77oo777777777777777777777777777777777777777777777ggggggggggggggggggggggggggggggggggggggggggggggggggggggggggggggggggggggggggggggg777777777777777777777777777777777777777777777o77oo77oo77ggggggggggggggggggggggggggggggggggggggggggggggggggggggggggggggggggggggggggggggggggggggggggggggggggggggggggggggggggggggggggggggggggggggggggggggggg777777777777777777777777o77oo77oo77oo77oo77oo77oooooooooooo..oo..oo............",
"..............ooo.oo.ooooooooooo7o77o7777o77o7777o77o77777777777777777777777777777ggggggggggggggggggggggggggggggggggggggggggggggggggggggggggggggggggggggggggggggggggggggggggggggggggggggggggggggggggggggggggggggggggggggggggggggggg7o7777o77o7777o77o777777777777777777777777777777777777777777777777777777777777777777777ggggggggggggg7777777777777777777777777777777777777777777777777777777777777777777o7777o77o7777o77o777ggggggggggggggggggggggggggggggggggggggggggggggggggggggggggggggggggggggggggggggggggggggggggggggggggggggggggggggggggggggggggggggggggggggggggggggggg777777777777777777777777777o7777o77o7777o77o7777oooooooooooooooo.oo..............",
"..............oo.oooo.ooooooooooo7777o77o7777o77o7777o77o777777777777777777777777777ggggggggggggggggggggggggggggggggggggggggggggggggggggggggggggggggggggggggggggggggggggggggggggggggggggggggggggggggggggggggggggggggggggggggggggggggg777o7777o77o7777o77o7777o7777777777777777777777777777777777777777777777777777777777777777777777777777777777777777777777777777777777777777777777777777777777777o77o7777o77o7777o77o77777ggggggggggggggggggggggggggggggggggggggggggggggggggggggggggggggggggggggggggggggggggggggggggggggggggggggggggggggggggggggggggggggggggggggggggggggggg777777777777777777777777777777o77o7777o77o7777o77o7ooooooooooo.oo.oooo.............",
"................oo..oo.ooooooooooooo77oo77oo77oo77oo77oo77o77777777777777777777777777gggggggggggggggggggggggggggggggggggggggggggggggggggggggggggggggggggggggggggggggggggggggggggggggggggggggggggggggggggggggggggggggggggggggggggggggggggggg7777o77oo77oo77oo77oo77oo77oo77o7777777777777777777777777777777777777777777777777777777777777777777777777777777777777777777777777777777777777oo77oo77oo77oo77oo77oo77oo7777gggggggggggggggggggggggggggggggggggggggggggggggggggggggggggggggggggggggggggggggggggggggggggggggggggggggggggggggggggggggggggggggggggggggggggggggggggggg7777777777777777777777777777oo77oo77oo77oo77oo77oo7ooooooooooooo..oo................",
"................oo..oo.ooooooooooooo77oo77oo77oo77oo77oo77oo77777777777777777777777777gggggggggggggggggggggggggggggggggggggggggggggggggggggggggggggggggggggggggggggggggggggggggggggggggggggggggggggggggggggggggggggggggggggggggggggggggggggggggggg7777oo77oo77oo77oo77oo77oo77oo77oo77oo77oo777777777777777777777777777777777777777777777777777777777777777777777777oo77oo77oo77oo77oo77oo77oo77oo77oo77oo7777ggggggggggggggggggggggggggggggggggggggggggggggggggggggggggggggggggggggggggggggggggggggggggggggggggggggggggggggggggggggggggggggggggggggggggggggggggggggggggggg77777777777777777777777777o77oo77oo77oo77oo77oo77oo7ooooooooooooo..oo................",
".................oooo.ooooooooooooo77o77o7777o77o7777o77o7777o777777777777777777777777777gggggggggggggggggggggggggggggggggggggggggggggggggggggggggggggggggggggggggggggggggggggggggggggggggggggggggggggggggggggggggggggggggggggggggggggggggggggggggggggggggggg77777777o77o7777o77o7777o77o7777o77o7777o77o7777o77o7777o77o7777o77o77o77o7777o77o7777o77o7777o77o7777o77o7777o77o7777o77o7777o77o77777gggggggggggggggggggggggggggggggggggggggggggggggggggggggggggggggggggggggggggggggggggggggggggggggggggggggggggggggggggggggggggggggggggggggggggggggggggggggggggggggggggg777777777777777777777777777o77o7777o77o7777o77o7777o77ooooooooooooo.oo.oo...............",
"................o.oo.oooooooooooooo7o7777o77o7777o77o7777o77o77777777777777777777777777777gggggggggggggggggggggggggggggggggggggggggggggggggggggggggggggggggggggggggggggggggggggggggggggggggggggggggggggggggggggggggggggggggggggggggggggggggggggggggggggggggggggggggg77777o77o7777o77o7777o77o7777o77o7777o77o7777o77o7777o77o77777o7777o77o7777o77o7777o77o7777o77o7777o77o7777o77o7777o77777gggggggggggggggggggggggggggggggggggggggggggggggggggggggggggggggggggggggggggggggggggggggggggggggggggggggggggggggggggggggggggggggggggggggggggggggggggggggggggggggggggggggggg777777777777777777777777777o7777o77o7777o77o7777o77o777oooooooooooo.oooo.o...............",
"................oo..oo..oooooooooooo77oo77oo77oo77oo77oo77oo77oo777777777777777777777777777ggggggggggggggggggggggggggggggggggggggggggggggggggggggggggggggggggggggggggggggggggggggggggggggggggggggggggggggggggggggggggggggggggggggggggggggggggggggggggggggggggggggggggggggggggggggggggg777777777777oo77oo77oo77oo77oo77oo77oo77oooo77oo77oo77oo77oo77oo77oo77oo7777777777777ggggggggggggggggggggggggggggggggggggggggggggggggggggggggggggggggggggggggggggggggggggggggggggggggggggggggggggggggggggggggggggggggggggggggggggggggggggggggggggggggggggggggggggggggggggggggggg77777777777777777777777777oo77oo77oo77oo77oo77oo77oo77oooooooooooo..oo..oo................",
".................o..oo..oooooooooooo77oo77oo77oo77oo77oo77oo77oo77777777777777777777777777777ggggggggggggggggggggggggggggggggggggggggggggggggggggggggggggggggggggggggggggggggggggggggggggggggggggggggggggggggggggggggggggggggggggggggggggggggggggggggggggggggggggggggggggggggggggggggggggggggggggggggggggggg77777777777777777777777777777777777777777ggggggggggggggggggggggggggggggggggggggggggggggggggggggggggggggggggggggggggggggggggggggggggggggggggggggggggggggggggggggggggggggggggggggggggggggggggggggggggggggggggggggggggggggggggggggggggggggggggggggggggggggg7777777777777777777777777777oo77oo77oo77oo77oo77oo77oo77oooooooooooo..oo..oo................",
"..................oo.oooo.ooooooooooo7777o77o7777o77o7777o77o7777o7777777777777777777777777777gggggggggggggggggggggggggggggggggggggggggggggggggggggggggggggggggggggggggggggggggggggggggggggggggggggggggggggggggggggggggggggggggggggggggggggggggggggggggggggggggggggggggggggggggggggggggggggggggggggggggggggggggggggggggggggggggggggggggggggggggggggggggggggggggggggggggggggggggggggggggggggggggggggggggggggggggggggggggggggggggggggggggggggggggggggggggggggggggggggggggggggggggggggggggggggggggggggggggggggggggggggggggggggggggggggggggggggggggggggggggggggggggggg77777777777777777777777777777o77o7777o77o7777o77o7777o77o7ooooooooooo.oo.oooo.................",
"..................ooo.oo.ooooooooooooo77o7777o77o7777o77o7777o77o777777777777777777777777777777ggggggggggggggggggggggggggggggggggggggggggggggggggggggggggggggggggggggggggggggggggggggggggggggggggggggggggggggggggggggggggggggggggggggggggggggggggggggggggggggggggggggggggggggggggggggggggggggggggggggggggggggggggggggggggggggggggggggggggggggggggggggggggggggggggggggggggggggggggggggggggggggggggggggggggggggggggggggggggggggggggggggggggggggggggggggggggggggggggggggggggggggggggggggggggggggggggggggggggggggggggggggggggggggggggggggggggggggggggggggggggggggggggg7777777777777777777777777777o7777o77o7777o77o7777o77o7777ooooooooooo.oooo.oo..................",
"....................oo..oo..oooooooooooo77oo77oo77oo77oo77oo77oo77oo77o7777777777777777777777777gggggggggggggggggggggggggggggggggggggggggggggggggggggggggggggggggggggggggggggggggggggggggggggggggggggggggggggggggggggggggggggggggggggggggggggggggggggggggggggggggggggggggggggggggggggggggggggggggggggggggggggggggggggggggggggggggggggggggggggggggggggggggggggggggggggggggggggggggggggggggggggggggggggggggggggggggggggggggggggggggggggggggggggggggggggggggggggggggggggggggggggggggggggggggggggggggggggggggggggggggggggggggggggggggggggggggggggggggggggggggggggggg7777777777777777777777777777oo77oo77oo77oo77oo77oo77oo77oooooooooooo..oo..oo..o.................",
"....................oo..oo..oooooooooooo77oo77oo77oo77oo77oo77oo77oo77oo7777777777777777777777777ggggggggggggggggggggggggggggggggggggggggggggggggggggggggggggggggggggggggggggggggggggggggggggggggggggggggggggggggggggggggggggggggggggggggggggggggggggggggggggggggggggggggggggggggggggggggggggggggggggggggggggggggggggggggggggggggggggggggggggggggggggggggggggggggggggggggggggggggggggggggggggggggggggggggggggggggggggggggggggggggggggggggggggggggggggggggggggggggggggggggggggggggggggggggggggggggggggggggggggggggggggggggggggggggggggggggggggggggggggggggggggggg7777777777777777777777777o77oo77oo77oo77oo77oo77oo77oo77oooooooooooo..oo..oo....................",
"...................oo.oo.oooo.oooooooooooo777o77o7777o77o7777o77o7777o77o7777777777777777777777777ggggggggggggggggggggggggggggggggggggggggggggggggggggggggggggggggggggggggggggggggggggggggggggggggggggggggggggggggggggggggggggggggggggggggggggggggggggggggggggggggggggggggggggggggggggggggggggggggggggggggggggggggggggggggggggggggggggggggggggggggggggggggggggggggggggggggggggggggggggggggggggggggggggggggggggggggggggggggggggggggggggggggggggggggggggggggggggggggggggggggggggggggggggggggggggggggggggggggggggggggggggggggggggggggggggggggggggggggggggggggggggg7777777777777777777777777777o77o7777o77o7777o77o7777o77ooooooooooooo.oo.oooo.oo..................",
"...................o.oooo.oo.oooooooooooooo7o7777o77o7777o77o7777o77o7777o7777777777777777777777777ggggggggggggggggggggggggggggggggggggggggggggggggggggggggggggggggggggggggggggggggggggggggggggggggggggggggggggggggggggggggggggggggggggggggggggggggggggggggggggggggggggggggggggggggggggggggggggggggggggggggggggggggggggggggggggggggggggggggggggggggggggggggggggggggggggggggggggggggggggggggggggggggggggggggggggggggggggggggggggggggggggggggggggggggggggggggggggggggggggggggggggggggggggggggggggggggggggggggggggggggggggggggggggggggggggggggggggggggggggggggggg7777777777777777777777777o77o7777o77o7777o77o7777o77o777oooooooooooo.oooo.oo.ooo..................",
"....................oo..oo..oo.ooooooooooooo77oo77oo77oo77oo77oo77oo77oo77oo777777777777777777777777ggggggggggggggggggggggggggggggggggggggggggggggggggggggggggggggggggggggggggggggggggggggggggggggggggggggggggggggggggggggggggggggggggggggggggggggggggggggggggggggggggggggggggggggggggggggggggggggggggggggggggggggggggggggggggggggggggggggggggggggggggggggggggggggggggggggggggggggggggggggggggggggggggggggggggggggggggggggggggggggggggggggggggggggggggggggggggggggggggggggggggggggggggggggggggggggggggggggggggggggggggggggggggggggggggggggggggggggggggggggggg77777777777777777777777oo77oo77oo77oo77oo77oo77oo77oo77oooooooooooooooo..oo..oo....................",
"....................oo..oo..oo..oooooooooooooooo77oo77oo77oo77oo77oo77oo77oo7777777777777777777777777ggggggggggggggggggggggggggggggggggggggggggggggggggggggggggggggggggggggggggggggggggggggggggggggggggggggggggggggggggggggggggggggggggggggggggggggggggggggggggggggggggggggggggggggggggggggggggggggggggggggggggggggggggggggggggggggggggggggggggggggggggggggggggggggggggggggggggggggggggggggggggggggggggggggggggggggggggggggggggggggggggggggggggggggggggggggggggggggggggggggggggggggggggggggggggggggggggggggggggggggggggggggggggggggggggggggggggggggggggggggg777777777777777777777777oo77oo77oo77oo77oo77oo77oo77oo7oooooooooooooo.oo..oo..oo....................",
".....................oooo.oo.ooooooooooooooooooo7o77o7777o77o7777o77o7777o77o7777777777777777777777777gggggggggggggggggggggggggggggggggggggggggggggggggggggggggggggggggggggggggggggggggggggggggggggggggggggggggggggggggggggggggggggggggggggggggggggggggggggggggggggggggggggggggggggggggggggggggggggggggggggggggggggggggggggggggggggggggggggggggggggggggggggggggggggggggggggggggggggggggggggggggggggggggggggggggggggggggggggggggggggggggggggggggggggggggggggggggggggggggggggggggggggggggggggggggggggggggggggggggggggggggggggggggggggggggggggggggggggggggggg777777777777777777777777o7777o77o7777o77o7777o77o7777o7ooooooooooooooooo.oooo.oo.o....................",
"......................oo.oooo.oo.oooooooooooooooo7777o77o7777o77o7777o77o7777o77o7777777777777777777777ggggggggggggggggggggggggggggggggggggggggggggggggggggggggggggggggggggggggggggggggggggggggggggggggggggggggggggggggggggggggggggggggggggggggggggggggggggggggggggggggggggggggggggggggggggggggggggggggggggggggggggggggggggggggggggggggggggggggggggggggggggggggggggggggggggggggggggggggggggggggggggggggggggggggggggggggggggggggggggggggggggggggggggggggggggggggggggggggggggggggggggggggggggggggggggggggggggggggggggggggggggggggggggggggggggggggggggggggggg7777777777777777777777777o77o7777o77o7777o77o7777o77o7ooooooooooooooooooo.oo.oooo.....................",
"........................oo..oo..oooooooooooooooooooo77oo77oo77oo77oo77oo77oo77oo77o777777777777777777777gggggggggggggggggggggggggggggggggggggggggggggggggggggggggggggggggggggggggggggggggggggggggggggggggggggggggggggggggggggggggggggggggggggggggggggggggggggggggggggggggggggggggggggggggggggggggggggggggggggggggggggggggggggggggggggggggggggggggggggggggggggggggggggggggggggggggggggggggggggggggggggggggggggggggggggggggggggggggggggggggggggggggggggggggggggggggggggggggggggggggggggggggggggggggggggggggggggggggggggggggggggggggggggggggggggggggggggggg777777777777777777777777oo77oo77oo77oo77oo77oo77oo77oo7ooooooooooooooooo..oo..oo........................",
"........................oo..oo..oooooooooooooooooooo77oo77oo77oo77oo77oo77oo77oo77oo777777777777777777777ggggggggggggggggggggggggggggggggggggggggggggggggggggggggggggggggggggggggggggggggggggggggggggggggggggggggggggggggggggggggggggggggggggggggggggggggggggggggggggggggggggggggggggggggggggggggggggggggggggggggggggggggggggggggggggggggggggggggggggggggggggggggggggggggggggggggggggggggggggggggggggggggggggggggggggggggggggggggggggggggggggggggggggggggggggggggggggggggggggggggggggggggggggggggggggggggggggggggggggggggggggggggggggggggggggggggggggggg777777777777777777777o77oo77oo77oo77oo77oo77oo77oo77oooooooooooooooooooo..oo..oo........................",
".......................o.oooo.oo.oooooooooooooooooooooo7o7777o77o7777o77o7777o77o7777o77777777777777777777gggggggggggggggggggggggggggggggggggggggggggggggggggggggggggggggggggggggggggggggggggggggggggggggggggggggggggggggggggggggggggggggggggggggggggggggggggggggggggggggggggggggggggggggggggggggggggggggggggggggggggggggggggggggggggggggggggggggggggggggggggggggggggggggggggggggggggggggggggggggggggggggggggggggggggggggggggggggggggggggggggggggggggggggggggggggggggggggggggggggggggggggggggggggggggggggggggggggggggggggggggggggggggggggggggggggggggg777777777777777777777o77o7777o77o7777o77o7777o77o777oooooooooooooooooooo.oooo.oo.ooo......................",
"........................o.oo.oooo.oooooooooooooooooooooo7o77o7777o77o7777o77o7777o77o7777777777777777777777ggggggggggggggggggggggggggggggggggggggggggggggggggggggggggggggggggggggggggggggggggggggggggggggggggggggggggggggggggggggggggggggggggggggggggggggggggggggggggggggggggggggggggggggggggggggggggggggggggggggggggggggggggggggggggggggggggggggggggggggggggggggggggggggggggggggggggggggggggggggggggggggggggggggggggggggggggggggggggggggggggggggggggggggggggggggggggggggggggggggggggggggggggggggggggggggggggggggggggggggggggggggggggggggggggggggggggg77777777777777777777o7777o77o7777o77o7777o77o7777o7oooooooooooooooooooooo.oo.oooo.o.......................",
"........................oo..oo..oo..oooooooooooooooooooooooo77oo77oo77oo77oo77oo77oo77oo77777777777777777777gggggggggggggggggggggggggggggggggggggggggggggggggggggggggggggggggggggggggggggggggggggggggggggggggggggggggggggggggggggggggggggggggggggggggggggggggggggggggggggggggggggggggggggggggggggggggggggggggggggggggggggggggggggggggggggggggggggggggggggggggggggggggggggggggggggggggggggggggggggggggggggggggggggggggggggggggggggggggggggggggggggggggggggggggggggggggggggggggggggggggggggggggggggggggggggggggggggggggggggggggggggggggggggggggggggggg77777777777777777777oo77oo77oo77oo77oo77oo77oo77oooooooooooooooooooooooo..oo..oo..oo........................",
"........................oo..oo..oo..oooooooooooooooooooooooo77oo77oo77oo77oo77oo77oo77oo777777777777777777777ggggggggggggggggggggggggggggggggggggggggggggggggggggggggggggggggggggggggggggggggggggggggggggggggggggggggggggggggggggggggggggggggggggggggggggggggggggggggggggggggggggggggggggggggggggggggggggggggggggggggggggggggggggggggggggggggggggggggggggggggggggggggggggggggggggggggggggggggggggggggggggggggggggggggggggggggggggggggggggggggggggggggggggggggggggggggggggggggggggggggggggggggggggggggggggggggggggggggggggggggggggggggggggggggggggggg77777777777777777777oo77oo77oo77oo77oo77oo77oo77oooooooooooooooooooooooo..oo..oo..oo........................",
"................pOOOOOOOOO++O++++O++O+++++++++++++++++++++++++999+99+9999+99+p777o77o7777o77777777777777777777gggggggggggggggggggggggggggggggggggggggggggggggggggggggggggggggggggggggggggggggggggggggggggggggggggggggggggggggggggggggggggggggggggggggggggggggggggggggggggggggggggggggggggggggggggggggggggggggggggggggggggggggggggggggggggggggggggggggggggggggggggggggggggggggggggggggggggggggggggggggggggggggggggggggggggggggggggggggggggggggggggggggggggggggggggggggggggggggggggggggggggggggggggggggggggggggggggggggggggggggggggggggggggggggggggg777777777777777777777o77o7777o77o7777o77o7777o77oooooooooooooooooooooooo.oooo.oo.oooo.........................",
"................pOOOOOOOO++++O++O++++O++O++++++++++++++++++++++9+9999+99+9999p77o7777o77o7777777777777777777777ggggggggggggggggggggggggggggggggggggggggggggggggggggggggggggggggggggggggggggggggggggggggggggggggggggggggggggggggggggggggggggggggggggggggggggggggggggggggggggggggggggggggggggggggggggggggggggggggggggggggggggggggggggggggggggggggggggggggggggggggggggggggggggggggggggggggggggggggggggggggggggggggggggggggggggggggggggggggggggggggggggggggggggggggggggggggggggggggggggggggggggggggggggggggggggggggggggggggggggggggggggggggggggggggggg77777777777777777777o7777o77o7777o77o7777o77o777ooooooooooooooooooooooooo.oo.oooo.oo.o........................",
"................pOOOOOOOOOOO++OO++OO++OO++OO+++++++++++++++++++++9++99++99++9poo77oo77oo77oo77777777777777777777gggggggggggggggggggggggggggggggggggggggggggggggggggggggggggggggggggggggggggggggggggggggggggggggggggggggggggggggggggggggggggggggggggggggggggggggggggggggggggggggggggggggggggggggggggggggggggggggggggggggggggggggggggggggggggggggggggggggggggggggggggggggggggggggggggggggggggggggggggggggggggggggggggggggggggggggggggggggggggggggggggggggggggggggggggggggggggggggggggggggggggggggggggggggggggggggggggggggggggggggggggggggggggggggg777777777777777777777o77oo77oo77oo77oo77oo77oo77ooooooooooooooooooooo.oo..oo..oo..oo..o.........................",
"................pOOOOOOOOOOO++OO++OO++OO++OO++++++++++++++++--------rr--rr++9poo77oo77oo77oo777777777777777777777ggggggggggggggggggggggggggggggggggggggggggggggggggggggggggggggggggggggggggggggggggggggggggggggggggggggggggggggggggggggggggggggggggggggggggggggggggggggggggggggggggggggggggggggggggggggggggggggggggggggggggggggggggggggggggggggggggggggggggggggggggggggggggggggggggggggggggggggggggggggggggggggggggggggggggggggggggggggggggggggggggggggggggggggggggggggggggggggggggggggggggggggggggggggggggggggggggggggggggggggggggggggggggggggg77777777777777777777oo77oo77oo77oo77oo77oo77oo7ooooooooooooooooooooo..oo..oo..oo..oo............................",
"................pOOO000000OO+Opppppp+O++O++++O++++++++++++++--------r-rr-r999p77o7777o77o7777o77777777777777777777gggggggggggggggggggggggggggggggggggggggggggggggggggggggggggggggggggggggggggggggggggggggggggggggggggggggggggggggggggggggggggggggggggggggggggggggggggggggggggggggggggggggggggggggggggggggggggggggggggggggggggggggggggggggggggggggggggggggggggggggggggggggggggggggggggggggggggggggggggggggggggggggggggggggggggggggggggggggggggggggggggggggggggggggggggggggggggggggggggggggggggggggggggggggggggggggggggggggggggggggggggggggggggg777777777777777777777o77o7777o77o7777o77o7777o7oooooooooooooooooooooo.oo.oooo.oo.oooo.o...........................",
"................pOOOOOOOOOOOOp+++O+qO+++pppppp++++++++++++++--;;;;;;;::::-99+p777o77o7777o77o7777777777777777777777ggggggggggggggggggggggggggggggggggggggggggggggggggggggggggggggggggggggggggggggggggggggggggggggggggggggggggggggggggggggggggggggggggggggggggggggggggggggggggggggggggggggggggggggggggggggggggggggggggggggggggggggggggggggggggggggggggggggggggggggggggggggggggggggggggggggggggggggggggggggggggggggggggggggggggggggggggggggggggggggggggggggggggggggggggggggggggggggggggggggggggggggggggggggggggggggggggggggggggggggggggggggggggg77777777777777777777o7777o77o7777o77o7777o77o7oooooooooooooooooooooo.oooo.oo.oooo.oo.oo...........................",
"................pOOOOOOOOOOOOpOO++O0++OO++OO+qOO++++p+++++++--**********>:++9poo77oo77oo77oo77oo77777777777777777777ggggggggggggggggggggggggggggggggggggggggggggggggggggggggggggggggggggggggggggggggggggggggggggggggggggggggggggggggggggggggggggggggggggggggggggggggggggggggggggggggggggggggggggggggggggggggggggggggggggggggggggggggggggggggggggggggggggggggggggggggggggggggggggggggggggggggggggggggggggggggggggggggggggggggggggggggggggggggggggggggggggggggggggggggggggggggggggggggggggggggggggggggggggggggggggggggggggggggggggggggggggggggg77777777777777777777o77oo77oo77oo77oo77oo77oooooooooooooooooooooooo..oo..oo..oo..oo..oo............................",
"................pOOOOOOOOOOOOpOO++O0++OO++OO+qOO++O++++++p++--***********:++9poo77oo77oo77oo77oo77777777777777777777ggggggggggggggggggggggggggggggggggggggggggggggggggggggggggggggggggggggggggggggggggggggggggggggggggggggggggggggggggggggggggggggggggggggggggggggggggggggggggggggggggggggggggggggggggggggggggggggggggggggggggggggggggggggggggggggggggggggggggggggggggggggggggggggggggggggggggggggggggggggggggggggggggggggggggggggggggggggggggggggggggggggggggggggggggggggggggggggggggggggggggggggggggggggggggggggggggggggggggggggggggggggggg7777777777777777777oo77oo77oo77oo77oo77oo77oooooooooooooooooooooooo..oo..oo..oo..oo..o.............................",
"................pOOOOOOOOOOOOpOO+O+qO++++O++Oq+++O++pppp++++--*=======***;+++p777o77o7777o77o777777777777777777777777ggggggggggggggggggggggggggggggggggggggggggggggggggggggggggggggggggggggggggggggggggggggggggggggggggggggggggggggggggggggggggggggggggggggggggggggggggggggggggggggggggggggggggggggggggggggggggggggggggggggggggggggggggggggggggggggggggggggggggggggggggggggggggggggggggggggggggggggggggggggggggggggggggggggggggggggggggggggggggggggggggggggggggggggggggggggggggggggggggggggggggggggggggggggggggggggggggggggggggggggggggggggg7777777777777777777777o7777o77o7777o77o7ooooooooooooooooooooooooooo.oo.oooo.oo.oooo.o...............................",
"................pOOOOOOOOOOOOpOOO++q+O++O++++0++O+++pOOOp+p+--*=======***;+++pooo7777o77o7777o77o77777777777777777777ggggggggggggggggggggggggggggggggggggggggggggggggggggggggggggggggggggggggggggggggggggggggggggggggggggggggggggggggggggggggggggggggggggggggggggggggggggggggggggggggggggggggggggggggggggggggggggggggggggggggggggggggggggggggggggggggggggggggggggggggggggggggggggggggggggggggggggggggggggggggggggggggggggggggggggggggggggggggggggggggggggggggggggggggggggggggggggggggggggggggggggggggggggggggggggggggggggggggggggggggggggggg77777777777777777777777o77o7777o77o7ooooooooooooooooooooooooooo.oo.oooo.oo.oooo.oo.o................................",
"................pOOOOOOOOOOOOpOOOOO0++OO++OO+qOO+pOpOOppp+++--*=111111***;+++poooooo77oo77oo77oo77o7777777777777777777gggggggggggggggggggggggggggggggggggggggggggggggggggggggggggggggggggggggggggggggggggggggggggggggggggggggggggggggggggggggggggggggggggggggggggggggggggggggggggggggggggggggggggggggggggggggggggggggggggggggggggggggggggggggggggggggggggggggggggggggggggggggggggggggggggggggggggggggggggggggggggggggggggggggggggggggggggggggggggggggggggggggggggggggggggggggggggggggggggggggggggggggggggggggggggggggggggggggggggggggggggg7777777777777777777777oo77oo77oo77oooooooooooooooooooooooooooo..oo..oo..oo..oo..oo..o.................................",
"................pOOOOOOOOOOOOpOOOOO0++OO++OO+qOO+pOppOOpp+O+--*=111111***;+++poooooooooo77oo77oo77oo7777777777777777777ggggggggggggggggggggggggggggggggggggggggggggggggggggggggggggggggggggggggggggggggggggggggggggggggggggggggggggggggggggggggggggggggggggggggggggggggggggggggggggggggggggggggggggggggggggggggggggggggggggggggggggggggggggggggggggggggggggggggggggggggggggggggggggggggggggggggggggggggggggggggggggggggggggggggggggggggggggggggggggggggggggggggggggggggggggggggggggggggggggggggggggggggggggggggggggggggggggggggggggggggggg7777777777777777777o77oo77oo77oo7ooooooooooooooooooooooooooooo..oo..oo..oo..oo..oo....................................",
"................pOOOOOOOOOOOOpOOOOO0OO++O++++0++O+++ppppp+p+--*=222221***;+++pooooooooooo7777o77o7777777777777777777777ggggggggggggggggggggggggggggggggggggggggggggggggggggggggggggggggggggggggggggggggggggggggggggggggggggggggggggggggggggggggggggggggggggggggggggggggggggggggggggggggggggggggggggggggggggggggggggggggggggggggggggggggggggggggggggggggggggggggggggggggggggggggggggggggggggggggggggggggggggggggggggggggggggggggggggggggggggggggggggggggggggggggggggggggggggggggggggggggggggggggggggggggggggggggggggggggggggggggggggggggggg77777777777777777777o7777o77o77ooooooooooooooooooooooooooooo.oooo.oo.oooo.oo.oooo.....................................",
"................pOOOOOOOOOOOOpOOOOO0OOO++O++Oq+++O++pppp+O++X-*=,,2221***;+++poooooooooooo77o7777o77o7777777777777777777ggggggggggggggggggggggggggggggggggggggggggggggggggggggggggggggggggggggggggggggggggggggggggggggggggggggggggggggggggggggggggggggggggggggggggggggggggggggggggggggggggggggggggggggggggggggggggggggggggggggggggggggggggggggggggggggggggggggggggggggggggggggggggggggggggggggggggggggggggggggggggggggggggggggggggggggggggggggggggggggggggggggggggggggggggggggggggggggggggggggggggggggggggggggggggggggggggggggggggggggggg7777777777777777777777o77o7777ooooooooooooooooooooooooooo.oooo.oo.oooo.oo.oooo.oo......................................",
"................pOOOOOOOOOOOOpOOOOO0OOOOOOOO+qOO++OO++OO+pOO--&$,,2221***;+++poooooooooooooo77oo77oo777777777777777777777ggggggggggggggggggggggggggggggggggggggggggggggggggggggggggggggggggggggggggggggggggggggggggggggggggggggggggggggggggggggggggggggggggggggggggggggggggggggggggggggggggggggggggggggggggggggggggggggggggggggggggggggggggggggggggggggggggggggggggggggggggggggggggggggggggggggggggggggggggggggggggggggggggggggggggggggggggggggggggggggggggggggggggggggggggggggggggggggggggggggggggggggggggggggggggggggggggggggggggggggg77777777777777777777oo77oo77oooooooooooooooooooooooooooo..oo..oo..oiiiiiiiiiiiii........................................",
"................pOOOOOOOOOOOOpOOOOO0OOOOOOOO+qOO++OOp+OO++OO--&$22<,21***;+++pooooooooooooooo7oo77oo77o7777777777777777777ggggggggggggggggggggggggggggggggggggggggggggggggggggggggggggggggggggggggggggggggggggggggggggggggggggggggggggggggggggggggggggggggggggggggggggggggggggggggggggggggggggggggggggggggggggggggggggggggggggggggggggggggggggggggggggggggggggggggggggggggggggggggggggggggggggggggggggggggggggggggggggggggggggggggggggggggggggggggggggggggggggggggggggggggggggggggggggggggggggggggggggggggggggggggggggggggggggggggggggg777777777777777777777oo77oo77oooooooooooooooooooooooooooo..oo..ooiiiiiiiiiiiiiiiiiii.....................................",
"................pOOOOOOOOOOOOpOOOOO0OOOOOOOOO0+++O++O++++O++X-*=,,22<1***;+++poooooooooooooooo777o77o777777777777777777777gggggggggggggggggggggggggggggggggggggggggggggggggggggggggggggggggggggggggggggggggggggggggggggggggggggggggggggggggggggggggggggggggggggggggggggggggggggggggggggggggggggggggggggggggggggggggggggggggggggggggggggggggggggggggggggggggggggggggggggggggggggggggggggggggggggggggggggggggggggggggggggggggggggggggggggggggggggggggggggggggggggggggggggggggggggggggggggggggggggggggggggggggggggggggggggggggggggggggggg77777777777777777777o7777o77ooooooooooooooooooooooooooooo.oo.oiiiiiiiiiiiiiiiiiiiiiiiiii..................................",
"................pOOOOOOOOOOOOpOOOOO0OOOOOOOOO0O+O++++O++O+++-X*=<22,2%***;+++pooooooooooooooooo7o7777o77777777777777777777gggggggggggggggggggggggggggggggggggggggggggggggggggggggggggggggggggggggggggggggggggggggggggggggggggggggggggggggggggggggggggggggggggggggggggggggggggggggggggggggggggggggggggggggggggggggggggggggggggggggggggggggggggggggggggggggggggggggggggggggggggggggggggggggggggggggggggggggggggggggggggggggggggggggggggggggggggggggggggggggggggggggggggggggggggggggggggggggggggggggggggggggggggggggggggggggggggggggggggg777777777777777777777o77o777ooooooooooooooooooooooooo.oo.oooiiiiiiiiiiiiissssssiiiiiiiiiii................................",
"................pOOOOOOOOOOOOpOOOOO0OOOOOOOOO0OOO+OO++OO++OO--&$,,,,21&&*;+++poooooooooooooooooo77oo77oo7777777777777777777ggggggggggggggggggggggggggggggggggggggggggggggggggggggggggggggggggggggggggggggggggggggggggggggggggggggggggggggggggggggggggggggggggggggggggggggggggggggggggggggggggggggggggggggggggggggggggggggggggggggggggggggggggggggggggggggggggggggggggggggggggggggggggggggggggggggggggggggggggggggggggggggggggggggggggggggggggggggggggggggggggggggggggggggggggggggggggggggggggggggggggggggggggggggggggggggggggggggggggg777777777777777777oo77oo77oooooooooooooooooooooooo..oo..ooiiiiiiiiiissssssssssssssssiiiiiiii..............................",
"................pOOOOOOOOOOOOpOOOOO0OOOOOOOOO0OOOOOO++OO++OO--&$22<,21&&*;OO+pooooooooooooooooooo7oo77oo7777777777777777777ggggggggggggggggggggggggggggggggggggggggggggggggggggggggggggggggggggggggggggggggggggggggggggggggggggggggggggggggggggggggggggggggggggggggggggggggggggggggggggggggggggggggggggggggggggggggggggggggggggggggggggggggggggggggggggggggggggggggggggggggggggggggggggggggggggggggggggggggggggggggggggggggggggggggggggggggggggggggggggggggggggggggggggggggggggggggggggggggggggggggggggggggggggggggggggggggggggggggggg777777777777777777oo77oo77oooooooooooooooooooo..oo..oo..oiiiiiiiiissssssssssssssssssssiiiiiiii............................",
"................pOOOOOOOOOOOOpOOOOO0OOOOOOOOO0OOOOOOpO++O+++-X*=,,,,2%**&;+++poooooooooooooooooooo777o77o7777777777777777777ggggggggggggggggggggggggggggggggggggggggggggggggggggggggggggggggggggggggggggggggggggggggggggggggggggggggggggggggggggggggggggggggggggggggggggggggggggggggggggggggggggggggggggggggggggggggggggggggggggggggggggggggggggggggggggggggggggggggggggggggggggggggggggggggggggggggggggggggggggggggggggggggggggggggggggggggggggggggggggggggggggggggggggggggggggggggggggggggggggggggggggggggggggggggggggggggggggggggg7777777777777777777777o77ooooooooooooooooooooo.oo.oooo.oiiiiiiiiissssssssssssssssssssssssiiiiiiii..........................",
"................pOOOOOOOOOOOOpOOOOO0OOOOOOOOO0OOOOOOOO+++p++X-*=,,,,<1***#++Opooo.oooooooooooooooo77o7777o777777777777777777gggggggggggggggggggggggggggggggggggggggggggggggggggggggggggggggggggggggggggggggggggggggggggggggggggggggggggggggggggggggggggggggggggggggggggggggggggggggggggggggggggggggggggggggggggggggggggggggggggggggggggggggggggggggggggggggggggggggggggggggggggggggggggggggggggggggggggggggggggggggggggggggggggggggggggggggggggggggggggggggggggggggggggggggggggggggggggggggggggggggggggggggggggggggggggggggggggggggg7777777777777777777o77o7777oooooooooooooooo.oo.oooo.oo.oiiiiiiiiisssssssssssssssssssssssssssiiiiiii.........................",
"................pOOOOOOOOOOOOpOOOOO0OOOOOOOOO0OOOOOOpppp++OO--&$22<<21&&*;OO+p..oo..oooooooooooooooo77oo777777777777777777777ggggggggggggggggggggggggggggggggggggggggggggggggggggggggggggggggggggggggggggggggggggggggggggggggggggggggggggggggggggggggggggggggggggggggggggggggggggggggggggggggggggggggggggggggggggggggggggggggggggggggggggggggggggggggggggggggggggggggggggggggggggggggggggggggggggggggggggggggggggggggggggggggggggggggggggggggggggggggggggggggggggggggggggggggggggggggggggggggggggggggggggggggggggggggggggggggggggggg77777777777777777777oo77oooooooooooooooo..oo..oo..oo..oiiiiiiiissssssssssssssssssssssssssssssiiiiiii........................",
"................pOOOOOOOOOOOOpOOOOO0OOOOOOOOO0OOOOOOppppp+pO--&$,,,,21&&*;OO+p..oo..oooooooooooooooo77oo77o777777777777777777ggggggggggggggggggggggggggggggggggggggggggggggggggggggggggggggggggggggggggggggggggggggggggggggggggggggggggggggggggggggggggggggggggggggggggggggggggggggggggggggggggggggggggggggggggggggggggggggggggggggggggggggggggggggggggggggggggggggggggggggggggggggggggggggggggggggggggggggggggggggggggggggggggggggggggggggggggggggggggggggggggggggggggggggggggggggggggggggggggggggggggggggggggggggggggggggggggggggg77777777777777777777oo77oooooooooooooooo..oo..oo..oo..iiiiiiiissssssssssssssssssssssssssssssssiiiiiii.......................",
"................pOOOOppppOOOOpOOOOO0OOOOOOOOO0OOOpOpppOppOO+X-*=2<2,<1***#++Opooo.oo.oooooooooooooooo7777o77777777777777777777ggggggggggggggggggggggggggggggggggggggggggggggggggggggggggggggggggggggggggggggggggggggggggggggggggggggggggggggggggggggggggggggggggggggggggggggggggggggggggggggggggggggggggggggggggggggggggggggggggggggggggggggggggggggggggggggggggggggggggggggggggggggggggggggggggggggggggggggggggggggggggggggggggggggggggggggggggggggggggggggggggggggggggggggggggggggggggggggggggggggggggggggggggggggggggggggggggggg77777777777777777777o77o77ooooooooooooo.oooo.oo.oooo.iiiiiiiiissssddssssssssssssssssssssssssssssiiiiiii......................",
"................pOOOOppppOOOOpOOOOO0OOOOOOOOO0OOOpOppppOpOOO-X*=,,,,2%**&;+++poo.oooo.oooooooooooooo7o77o777777777777777777777gggggggggggggggggggggggggggggggggggggggggggggggggggggggggggggggggggggggggggggggggggggggggggggggggggggggggggggggggggggggggggggggggggggggggggggggggggggggggggggggggggggggggggggggggggggggggggggggggggggggggggggggggggggggggggggggggggggggggggggggggggggggggggggggggggggggggggggggggggggggggggggggggggggggggggggggggggggggggggggggggggggggggggggggggggggggggggggggggggggggggggggggggggggggggggggggggggg77777777777777777777o7777oooooooooooooooo.oo.oooo.oo.oiiiiiiiissssdddsssssssssssssssssssssssssssssiiiiiii.....................",
"................pOOOOppppOOOOpOOOOO0OOOOOOOOO0OOOOOOpppppOpOXX&$22<<21&&*;OO+p..oo..oo..ooooooooooooo7oo77oo7777777777777777777ggggggggggggggggggggggggggggggggggggggggggggggggggggggggggggggggggggggggggggggggggggggggggggggggggggggggggggggggggggggggggggggggggggggggggggggggggggggggggggggggggggggggggggggggggggggggggggggggggggggggggggggggggggggggggggggggggggggggggggggggggggggggggggggggggggggggggggggggggggggggggggggggggggggggggggggggggggggggggggggggggggggggggggggggggggggggggggggggggggggggggggggggggggggggggggggggggg7777777777777777777o77oo77oooooooooooo..oo..oo..oo..oiiiiiiiissssssdsssssssssssssssssssssdsssssssssiiiiiii....................",
"................pOOOOppppOOOOpOOOOO0OOOOOOOOO0OOOOOOppppOOOOXX&$,,,,21&&*;OO+p..oo..oo..oooooooooooooooo77oo77777777777777777777ggggggggggggggggggggggggggggggggggggggggggggggggggggggggggggggggggggggggggggggggggggggggggggggggggggggggggggggggggggggggggggggggggggggggggggggggggggggggggggggggggggggggggggggggggggggggggggggggggggggggggggggggggggggggggggggggggggggggggggggggggggggggggggggggggggggggggggggggggggggggggggggggggggggggggggggggggggggggggggggggggggggggggggggggggggggggggggggggggggggggggggggggggggggggggggggggg7777777777777777777oo77oo7ooooooooooooo..oo..oo..oo..iiiiiiiiisssssssssssssssssssssssssssssssssssssssiiiiiii...................",
"................pOOOOppppOOOOpOOOOO0OOOOOOOOO0OOOOOOOOOOOpOOXX&$,,,,2,**&;+++poo.oooo.oo.oooooooooooooo7o77777777777777777777777gggggggggggggggggggggggggggggggggggggggggggggggggggggggggggggggggggggggggggggggggggggggggggggggggggggggggggggggggggggggggggggggggggggggggggggggggggggggggggggggggggggggggggggggggggggggggggggggggggggggggggggggggggggggggggggggggggggggggggggggggggggggggggggggggggggggggggggggggggggggggggggggggggggggggggggggggggggggggggggggggggggggggggggggggggggggggggggggggggggggggggggggggggggggggggggggg7777777777777777777777o777oooooooooooo.oooo.oo.oooo.oiiiiiiiiissssssssssssssssssssssssssssssssssssssssiiiiiiii..................",
"................pOOOOppppOOOOpOOOOO0OOOOOOOOO0OOOOOOpOOOOOOOXX&$,,,,<,***#++Opooo.oo.oooo.oooooooooooooo7o77o77777777777777777777ggggggggggggggggggggggggggggggggggggggggggggggggggggggggggggggggggggggggggggggggggggggggggggggggggggggggggggggggggggggggggggggggggggggggggggggggggggggggggggggggggggggggggggggggggggggggggggggggggggggggggggggggggggggggggggggggggggggggggggggggggggggggggggggggggggggggggggggggggggggggggggggggggggggggggggggggggggggggggggggggggggggggggggggggggggggggggggggggggggggggggggggggggggggggggggggg77777777777777777777777o7oooooooooooooo.oo.oooo.oo.ooiiiiiiiiisssssssssssssssssssssssssssssssssssssssssiiiiiii..................",
"................pOOOOppppOOOOpOOOOO0OOOOOOOOO0OOOOOOOOOOOOOOXX&$,,,,21&&*;OO+p..oo..oo..oo.ooooooooooooo77oo7777777777777777777777ggggggggggggggggggggggggggggggggggggggggggggggggggggggggggggggggggggggggggggggggggggggggggggggggggggggggggggggggggggggggggggggggggggggggggggggggggggg77777777777777777777777777777777777777777777777777777777777777777777777777777777777ggggggggggggggggggggggggggggggggggggggggggggggggggggggggggggggggggggggggggggggggggggggggggggggggggggggggggggggggggggggggggggggggggggggggggggggggggggg777777777777777777777oo77oooooooooooooooo..oo..oo..ooiiiiiiiiisssssssssssssssssssssssssssssssssssssssssssiiiiiii.................",
"................pOOOOppppOOOOpOOOOO0OOOOOOOOO0OOOOOOOOOOOOOOXX&$<<<<21&&*;OO+p..oo..oo..oo..ooooooooooooo7oo7777777777777777777777ggggggggggggggggggggggggggggggggggggggggggggggggggggggggggggggggggggggggggggggggggggggggggggggggggggggggggggggggggggggggggggggggggggggggggggggggggg777777777777777777777777777777777777777777777777777777777777777777777777777777777777777ggggggggggggggggggggggggggggggggggggggggggggggggggggggggggggggggggggggggggggggggggggggggggggggggggggggggggggggggggggggggggggggggggggggggggggggggggg777777777777777777777oo77ooooooooooooo.oo..oo..oo..ooiiiiiiiisssssssssssssssssssssssssssssssssssssssfssssiiiiiii.................",
"................pOOOOppppOOOOpOOOOO0OOOOOOOOO0OOOOOOOOOOOOOOXX&$,,,,<1***#++Opooo.oo.oooo.oooooooooooooooo77o777777777777777777777ggggggggggggggggggggggggggggggggggggggggggggggggggggggggggggggggggggggggggggggggggggggggggggggggggggggggggggggggggggggggggggggg7777777777777777777777777777777777777777777777777777777777777777777777777777777777777777777777777777777777777777777777777777777gggggggggggggggggggggggggggggggggggggggggggggggggggggggggggggggggggggggggggggggggggggggggggggggggggggggggggggggggggggggggggggg77777777777777777777o7777oooooooooooooooo.oo.oooo.oo.iiiiiiiiissssssssssssssssssssssssssssssssssssssssssssiiiiiiii................",
"................pOOOOppppOOOOpOOOOO0OOOOOOOOO0OOOOOOOOOOOOOOXX&$,<,,2%**&;+++poo.oooo.oo.ooooooooooooooooo777o777777777777777777777ggggggggggggggggggggggggggggggggggggggggggggggggggggggggggggggggggggggggggggggggggggggggggggggggggggggggggggggggggggg7777777777777777777777777777777777777777777777777777777777777777777777777777777777777777777777777777777777777777777777777777777777777777777777777ggggggggggggggggggggggggggggggggggggggggggggggggggggggggggggggggggggggggggggggggggggggggggggggggggggggggggggggggggggg777777777777777777777o77oooooooooooooooo.oooo.oo.oooiiiiiiiiiisssssssssssssssssssssssssssssssssssssssssssssiiiiiii................",
"................pOOOOppppOOOOpOOOOO0OOOOOOOOO0OOOOOOOOOOOOOOXX&$,<<<<%&&*;OO+p..oo..oo..oo..oooooooooooooooo77oo7777777777777777777ggggggggggggggggggggggggggggggggggggggggggggggggggggggggggggggggggggggggggggggggggggggggggggggggggggggggggggggggg77777777777777777777777777777777777777777777777777777777777777777777777777777777777777777777777777777777777777777777777777777777777777777777777777777777gggggggggggggggggggggggggggggggggggggggggggggggggggggggggggggggggggggggggggggggggggggggggggggggggggggggggggggggggg7777777777777777777o77oooooooooooooooo..oo..oo..oo..iiiiiiiiissssssssssssssssssssssassassssssssssssssssssssiiiiiiii...............",
"................pOOOOppppOOOOpOOOOO0OOOOOOOOO0OOOOOOO,,,OOOOXX&$,,,,<%&&*;OO+p..oo..oo..oo..oooooooooooooooo77oo7777777777777777777ggggggggggggggggggggggggggggggggggggggggggggggggggggggggggggggggggggggggggggggggggggggggggggggggggggggggggggg7777777777777777777777oo77oo77oo77oo77oo77oo77oo77oo77oo77oo77oo77oo77oo77oo77oooo77oo77oo77oo77oo77oo77oo77oo77oo77oo77oo77oo77oo77oo77oo77777777777777777777777ggggggggggggggggggggggggggggggggggggggggggggggggggggggggggggggggggggggggggggggggggggggggggggggggggggggggggggg7777777777777777777o77oooooooooooooooo..oo..oo..oo..iiiiiiiiisssssssssssssssssssssssssssssssssssssssssssssssiiiiiii...............",
"................pOOOOppppOOOOpOOOOO0OOOOOOOOO0OOOOOOOOOOO,OOXX&$<<<<<%&&&;+++poo.oooo.oo.oooo.oooooooooooooo7o77o7777777777777777777gggggggggggggggggggggggggggggggggggggggggggggggggggggggggggggggggggggggggggggggggggggggggggggggggggggggggg77777777777777777777777o77o7777o77o7777o77o7777o77o7777o77o7777o77o7777o77o7777o77o77o77o7777o77o7777o77o7777o77o7777o77o7777o77o7777o77o7777o77o7777777777777777777ggggggggggggggggggggggggggggggggggggggggggggggggggggggggggggggggggggggggggggggggggggggggggggggggggggggggggg7777777777777777777777o7oooooooooooooo.oo.oooo.oo.ooiiiiiiiiiisssssssssssssssssssssssssssssssssssssssssssssssiiiiiiii..............",
"................pOOOOppppOOOOpOOOOO0OOOOOOOOO0OOOOOOppppOOOOXX&$<<<<<%&&&#++Opooo.oo.oooo.oo.oooooooooooooooo77777777777777777777777ggggggggggggggggggggggggggggggggggggggggggggggggggggggggggggggggggggggggggggggggggggggggggggggggggggggggg77777777777777777777o77o7777o77o7777o77o7777o77o7777o77o7777o77o7777o77o7777o77o77777o7777o77o7777o77o7777o77o7777o77o7777o77o7777o77o7777o77o7777o77o77777777777777777ggggggggggggggggggggggggggggggggggggggggggggggggggggggggggggggggggggggggggggggggggggggggggggggggggggggggg777777777777777777777o7oooooooooooooo.oooo.oo.oooo.oiiiiiiiiissssssssssssssssssssassassassassssssssssssssssssiiiiiiii..............",
"................pOOOOppppOOOOpppppp0OOOOOOOOO0OOOOOOpOOppO,OXX&$,,,,,,&&&#OO+p..oo..oo..ooO588558888888888888e+o77777777777777777777gggggggggggggggggggggggggggggggggggggggggggggggggggggggggggggggggggggggggggggggggggggggggggggggggggggg7777777777777777oo77oo77oo77oo77777777777777777777777777777777777777777777777777777777777777777777777777777777777777777777777777777777777777777o77oo77oo77oo77o7777777777777gggggggggggggggggggggggggggggggggggggggggggggggggggggggggggggggggggggggggggggggggggggggggggggggggggggg77777777777777777777oo77ooooooooooooo.oo..oo..oo..ooiiiiiiiiiissssssssssssssssssssssassssassssssssssssssssssssiiiiiiii..............",
"................pOOOOppppOOOOpppppp0OOOOOOOOO0OOO,OppOOOpOOOXX&$<,,,<%&&&#OO+p..oo..oo..ooO8888888888888888888+o77777777777777777777ggggggggggggggggggggggggggggggggggggggggggggggggggggggggggggggggggggggggggggggggggggggggggggggggggggg7777777777777oo77oo77oo77oo7777777777777777777777777777777777777777777777777777777777777777777777777777777777777777777777777777777777777777777777777o77oo77oo77oo77777777777777gggggggggggggggggggggggggggggggggggggggggggggggggggggggggggggggggggggggggggggggggggggggggggggggggggg77777777777777777777oo7oooooooooooooo.oo..oo..oo..ooiiiiiiiiiissssssssssssssssssssssssssssssssssssssssssssssssiiiiiiiii.............",
"................pOOOOppppOOOOpppppp0OOOOOOOOO0OOO,OpOOOOpOOOXX&$,<<<<%&&&#OOOpooo.oo.oooo.+8pppppppppp88888888977o77777777777777777777ggggggggggggggggggggggggggggggggggggggggggggggggggggggggggggggggggggggggggggggggggggggggggggggggg7777777777777o7777o77o777777ggggggggggggggggggggggggggggggggggggggggggggggggggggggggggggggggggggggggggggggggggggggggggggggggggggggggggggggggggggggggggg777777777o77o777777777777777ggggggggggggggggggggggggggggggggggggggggggggggggggggggggggggggggggggggggggggggggggggggggggggggggg77777777777777777777o77oooooooooooooooo.oooo.oo.oooo.iiiiiiiiiissssssssssssssssssssssssaassssssssssssssssssssssiiiiiiiii.............",
"................pOOOOppppOOOOpppppp0OOOOOOOOO0OOO,OOOOOOpOOOXX&$,,,,<%&&&#OOOpoo.oooo.oo.o+8pppppppppp88888888+7o777777777777777777777ggggggggggggggggggggggggggggggggggggggggggggggggggggggggggggggggggggggggggggggggggggggggggggggg7777777777777777o77o77777gggggggggggggggggggggggggggggggggggggggggggggggggggggggggggggggggggggggggggggggggggggggggggggggggggggggggggggggggggggggggggggggggggg7777o7777o77o7777777777777ggggggggggggggggggggggggggggggggggggggggggggggggggggggggggggggggggggggggggggggggggggggggggggggg7777777777777777777o777ooooooooooooooooo.oo.oooo.oo.oiiiiiiiiiisssssssfssssssssssssssssaassssssssssssssssssssssiiiiiiiii.............",
"................pOOOOppppOOOOpppppp0OOOOOOOOO0OOOOOOpOOpOOOOXX&$,,,,<%&&&#OOOp..oo..oo..ooO8pppppppppp88888888+o77oo77777777777777777777ggggggggggggggggggggggggggggggggggggggggggggggggggggggggggggggggggggggggggggggggggggggggggg777777777777777oo77oo777ggggggggggggggggggggggggggggggggggggggggggggggggggggggggggggggggggggggggggggggggggggggggggggggggggggggggggggggggggggggggggggggggggggggggggg777o77oo7777777777777777ggggggggggggggggggggggggggggggggggggggggggggggggggggggggggggggggggggggggggggggggggggggggggg77777777777777777777o77oooooooooooooooo..oo..oo..oo..oiiiiiiiiiiissssssssssssssssssssssssssssssssssssssssssssssssiiiiiiiiii............",
"................pOOOOppppOOOOpppppp0OOOOOOOOO0OOOO,OOppOOOOOXX&$,,<<<%&&&#OOOp..oo..oo..ooOppppppppppppppppppp+o77oo777777777777777777777gggggggggggggggggggggggggggggggggggggggggggggggggggggggggggggggggggggggggggggggggggggggg77777777777777o77oo777777ggggggggggggggggggggggggggggggggggggggggggggggggggggggggggggggggggggggggggggggggggggggggggggggggggggggggggggggggggggggggggggggggggggggggggggg77777oo77oo77777777777777gggggggggggggggggggggggggggggggggggggggggggggggggggggggggggggggggggggggggggggggggggggggg777777777777777777777o77oooooooooooooooo..oo..oo..oo..oiiiiiiiiiiissssssssssssssssssssssassssassssssssssssssssssssiiiiiiiiii............",
"................pOOOOppppOOOOpppppp0OOOOOOOOO0OOOOOO,OOOOOOOXX&$,,,,<%&&&#OOOp....ooo.oo.o+uuyuuyuuuuuuuuuuuuu+oo7777o77777777777777777777ggggggggggggggggggggggggggggggggggggggggggggggggggggggggggggggggggggggggggggggggggggg77777777777777777o7777777ggggggggggggggggggggggggggggggggggggggggggggggggggggggggggggggggggggggggggggggggggggggggggggggggggggggggggggggggggggggggggggggggggggggggggggggggg77777o7777777777777777777gggggggggggggggggggggggggggggggggggggggggggggggggggggggggggggggggggggggggggggggggggg777777777777777777777o77o7oooooooooooooo.oooo.oo.oooo.oo.iiiiidiiiiissssssssssssssssssssassassassassssssssssssssssssiiiiiiiiii............",
"................pOOOOppppOOOOpppppp0OOOOOOOOO0OOOOOOOOOOOOOOXX&$,,,,<%&&&#OOOp.....o.oooo.+8888888888888888888+ooo77o77777777777777777777777gggggggggggggggggggggggggggggggggggggggggggggggggggggggggggggggggggggggggggggggggg77777777777777o7777o77777ggggggggggggggggggggggggggggggggggggggggggggggggggggggggggggggggggggggggggggggggggggggggggggggggggggggggggggggggggggggggggggggggggggggggggggggggggg77777o77o7777777777777777gggggggggggggggggggggggggggggggggggggggggggggggggggggggggggggggggggggggggggggggggg777777777777777777777o7777oooooooooooooooo.oo.oooo.oo.ooo.iiiiidiiiiisssssssssssssssssssssassssssasssssssssssssssssssiiiiiiiiii............",
"................pOOOOppppOOOOpppppp0OOOOOOOOO0OOOOOOOOOOOOOOXX&$<<<<<%&&&#OOOp......oo..ooO888p88888888888pp88+ooooo77oo777777777777777777777gggggggggggggggggggggggggggggggggggggggggggggggggggggggggggggggggggggggggggggg777777777777777oo77oo77777ggggggggggggggggggggggggggggggggggggggggggggggggggggggggggggggggggggggggggggggggggggggggggggggggggggggggggggggggggggggggggggggggggggggggggggggggggggggg7777oo77oo7777777777777777gggggggggggggggggggggggggggggggggggggggggggggggggggggggggggggggggggggggggggggg77777777777777777777oo77oo7ooooooooooooooooo..oo..oo..oo...iiiiiiiiiiissdsssssssssssssssssssassssassssssssssssssssssssiiiiiiiiii............",
"................pOOOOppppOOOOpppppp0OOOOOOOOO0OOOOOOOOOOOOOOXX&$<<<<<%&&&#OOOp..........ooO8ppp8ppp8pppp8p88p8+ooooo77oo7777777777777777777777gggggggggggggggggggggggggggggggggggggggggggggggggggggggggggggggggggggggggggg7777777777777777oo77oo777ggggggggggggggggggggggggggggggggggggggggggggggggggggggggggggggggggggggggggggggggggggggggggggggggggggggggggggggggggggggggggggggggggggggggggggggggggggggggggg777o77oo77777777777777777gggggggggggggggggggggggggggggggggggggggggggggggggggggggggggggggggggggggggggg777777777777777777777oo77oo7oooooooooooooo.oo..oo..oo..o....iiiiiiiiiiissssssssssssssssssssssssaassssssssssssssssssssssiiiiiiiiii............",
"................pOOOOppppOOOOpppppp0OOOOOOOOO0OOOOOOOOOOOOOOXX&$,,,,,,&&&#OOOp.........oo.+8888888888888888888+oooo7o7777o777777777777777777777ggggggggggggggggggggggggggggggggggggggggggggggggggggggggggggggggggggggggg77777777777777777o77o777gggggggggggggggggggggggggggggggggggggggggggggggggggggggggggggggggggggggggggggggggggggggggggggggggggggggggggggggggggggggggggggggggggggggggggggggggggggggggggggggg7777777o77777777777777777ggggggggggggggggggggggggggggggggggggggggggggggggggggggggggggggggggggggggg777777777777777777777o77o777ooooooooooooooooo.oo.oooo.oo.....iiiiiiiiiiiisssssssssssssssssssssssssssssssssssssssssssssssiiiiiiiiii............",
"................pOOOOppppOOOOpppppp0OOOOOOOOO0OOOOOOOOOOOOOOXX&$<<<,<%&&&#OOOp...........o+++O++O++++++++++++++oooo77o77o77777777777777777777777gggggggggggggggggggggggggggggggggggggggggggggggggggggggggggggggggggggg777777777777777o77o777777ggggggggggggggggggggggggggggggggggggggggggggggggggggggggggggggggggggggggggggggggggggggggggggggggggggggggggggggggggggggggggggggggggggggggggggggggggggggggggggggggggg7777o7777o777777777777777ggggggggggggggggggggggggggggggggggggggggggggggggggggggggggggggggggggg7777777777777777777777o7777o77oooooooooooooooo.oooo.oo.oo......iiiiiiiiiiiissssssssssssssssssssssssssssssssssssssssssssssiiiiiiiiiii............",
"................pOOOOppppOOOOpppppp0OOOOOOOOO0OOOOOOOOOOOOOOXX&$,,,,,,&&&#OOOp...........oO8888888888888888888+ooooo77oo77oo77o7777777777777777777gggggggggggggggggggggggggggggggggggggggggggggggggggggggggggggggggg777777777777777o77oo77777ggggggggggggggggggggggggggggggggggggggggggggggggggggggggggggggggggggggggggggggggggggggggggggggggggggggggggggggggggggggggggggggggggggggggggggggggggggggggggggggggggggggg7777oo77oo777777777777777gggggggggggggggggggggggggggggggggggggggggggggggggggggggggggggggggg777777777777777777777oo77oo77oooooooooooooooo..oo..oo..oo.......iiiiiiiiiiiiisssssssssssssssssssssssssssssssssssssssssssssiiiiiiiiiii............",
"................pOOOOppppOOOOpppppp0OOOOOOOOO0OOOOOOOOOOOOOOXX&$<<<<<%&&&#OOOp............O88ppppppppppp888888+ooooo77oo77oo77oo7777777777777777777ggggggggggggggggggggggggggggggggggggggggggggggggggggggggggggggg7777777777777777oo77oo7777gggggggggggggggggggggggggggggggggggggggggggggggggggggggggggggggggggggggggggggggggggggggggggggggggggggggggggggggggggggggggggggggggggggggggggggggggggggggggggggggggggggggg7777oo77oo7777777777777777gggggggggggggggggggggggggggggggggggggggggggggggggggggggggggggggg777777777777777777oo77oo77oo77oooooooooooooooo..oo..oo..o........iiiiiiiiiiiiisssssssssssssssssssssssssssssssssssssssssssssiiiiiiiiiii............",
"................pOOOOppppOOOOpppppp0OOOOOOOOO0OOOOOOOOOOOOOOXX&$,,,<<,&&&#OOOp............O88ppppppppppp888888+ooooooo77o7777o77o7777777777777777777gggggggggggggggggggggggggggggggggggggggggggggggggggggggggggg7777777777777777o7777o7777ggggggggggggggggggggggggggggggggggggggggggggggggggggggggggggggggggggggggggggggggggggggggggggggggggggggggggggggggggggggggggggggggggggggggggggggggggggggggggggggggggggggggggggg7777o77o777777777777777777ggggggggggggggggggggggggggggggggggggggggggggggggggggggggggg77777777777777777777777o77o7777oooooooooooooooo.oo.oooo.oo.........iiidiiiiiiiiissssssssssssssssssssssssssssssssssssssssssssiiiiiiiiiiii............",
"................pOOOOppppOOOOpppppp0OOOOOOOOO0OOOOOOOOOOOOOOXX&$,<,,,,&&&#OOOp............O88ppppppppppp888888+ooooooo777o77o7777o7777777777777777777ggggggggggggggggggggggggggggggggggggggggggggggggggggggggg7777777777777777777o77o7777ggggggggggggggggggggggggggggggggggggggggggggggggggggggggggggggggggggggggggggggggggggggggggggggggggggggggggggggggggggggggggggggggggggggggggggggggggggggggggggggggggggggggggggggg77o7777o777777777777777777gggggggggggggggggggggggggggggggggggggggggggggggggggggggggg7777777777777777777o77o7777o77oooooooooooooooo.oooo.oo.oo..........iiiiiiiiiiiiissssssssssssssssssssssssssssssssssssssssdsssiiiiiiiiiiii............",
"................pOOOOppppOOOOpppppp0OOOOOOOOO0OOOOOOOOOOOOOOXX&$<<<<<%&&&#OOOp............Oppppppppppppppppppp+ooooooooo77oo77oo77oo77777777777777777777gggggggggggggggggggggggggggggggggggggggggggggggggggg777777777777777777oo77oo7777ggggggggggggggggggggggggggggggggggggggggggggggggggggggggggggggggggggggggggggggggggggggggggggggggggggggggggggggggggggggggggggggggggggggggggggggggggggggggggggggggggggggggggggggggg777oo77oo777777777777777777ggggggggggggggggggggggggggggggggggggggggggggggggggggg7777777777777777777oo77oo77oo77oo7oooooooooooooo.oo..oo..oo...........iiiiiiiiiiiiiisssssssssssssssssssssssssssssssssssssssdssiiiiiiiiiiiii............",
"................pOOOOppppOOOOpppppp0OOOOOOOOO0OOOOOOOOOOOOOOXX&$,,,,,,&&&#OOOp............O3333344334433444444+ooooooooo77oo77oo77oo7777777777777777777777777gggggggggggggggggggggggggggggggggggggggggggggg7777777777777777o77oo77oo777ggggggggggggggggggggggggggggggggggggggggggggggggggggggggggggggggggggggggggggggggggggggggggggggggggggggggggggggggggggggggggggggggggggggggggggggggggggggggggggggggggggggggggggggggggg77oo77oo77oo7777777777777777gggggggggggggggggggggggggggggggggggggggggggggg777777777777777777777777oo77oo77oo77ooooooooooooooooo.oo..oo..o.............iiiiiiiiiiiiiisssssssssssssssssssssssssssssssssssssssssiiiiiddiiiii.............",
"................pOOOOppppOOOOpppppp0OOOOOOOOO0OOOOOOOOOOOOOOXX&$,,,,,,&&&#OOOp............O888ppppppppp8888888+oooooooo77o77o7777o77o777777777777777777777777777777777gggggggggggggggggggggggggggggggggg77777777777777777o77o7777o7777ggggggggggggggggggggggggggggggggggggggggggggggggggggggggggggggggggggggggggggggggggggggggggggggggggggggggggggggggggggggggggggggggggggggggggggggggggggggggggggggggggggggggggggggggggggg7777o77o7777o7777777777777777ggggggggggggggggggggggggggggggggggg7777777777777777777777777777777o7777o77o7777o77oooooooooooooooo.oooo.oo..............iiiiiiiiiiiiiissssssssssssssssssssssssssssssssssssssssiiiiiiddiiiii.............",
"................pOOOOppppOOOOpppppp0OOOOOOOOO0OOOOOOOOOOOOOOXX&$<,,,,%&&&#OOOp............O8888888pppppp8pppp8+oooooooooo7777o77o7777o7777777777777777777777777777777777777gggggggggggggggggggggggggggg77777777777777777o7777o77o777777ggggggggggggggggggggggggggggggggggggggggggggggggggggggggggggggggggggggggggggggggggggggggggggggggggggggggggggggggggggggggggggggggggggggggggggggggggggggggggggggggggggggggggggggggggg7777o7777o77o7777777777777777777gggggggggggggggggggggggggggg7777777777777777777777777777777777777o77o7777o77o77oooooooooooooooooo.oo.oo...............iiiiiiiiiiiiiiissssssssssssssssssssssssssssssssssssssiiiiiiiddiiiii.............",
"................pOOOOppppOOOOpppppp0OOOOOOOOO0OOOOOOOOOOOOOOXX&$<<<<<%&&&#OOOp............O8pppppppppppp8p8p88+ooooooooo77oo77oo77oo77oo7777777777777777777777777777777777777777777ggggggggggggggggg777777777777777777oo77oo77o777oo77o77ggggggggggggggggggggggggggggggggggggggggggggggggggggggggggggggggggggggggggggggggggggggggggggggggggggggggggggggggggggggggggggggggggggggggggggggggggggggggggggggggggggggggggggggg7777oo777777oo77oo777777777777777777gggggggggggggggggg777777777777777777777777777777777777777777oo77oo77oo77oo77oooooooooooooooo..oo..oo................iiiiiiiiiiiiiiiissssssdsssssssssssssssssssssssssssssiiiiiiiiiiiiii..............",
"................pOOOOppppOOOOpppppp0OOOOOOOOO0OOOOOOOOOOOOOOXX&$,,,,,,&&&#OOOp............O888ppppppppp8888888+oooooooooo7oo77oo77oo77oo777777777777777777777777777777777777777777777777777777777777777777777777777777oo77oo7777777o77oo77gggggggggggggggggggggggggggggggggggggggggggggggggggggggggggggggggggggggggggggggggggggggggggggggggggggggggggggggggggggggggggggggggggggggggggggggggggggggggggggggggggggggggggg77oo77oo777777oo77oo777777777777777777777777777777777777777777777777777777777777777777777777777777oo77oo77oo77oo77oooooooooooooooo..oo..oo................iiiiiiiiiiiiiiiiissssssssssssssssssssssssssssfssssssiiiiiiiiiiiiii..............",
"................pOOOOppppOOOOpppppp0OOOOOOOOO0OOOOOOOOOOOOOOXX&$<<<<<%&&&#OOOp............OOOOOOOO+++O++O++++++ooooooooooo777o77o7777o77o7777777777777777777777777777777777777777777777777777777777777777777777777777o77o7777777ggg77777o7777ggggggggggggggggggggggggggggggggggggggggggggggggggggggggggggggggggggggggggggggggggggggggggggggggggggggggggggggggggggggggggggggggggggggggggggggggggggggggggggggggggggggg77o7777777ggg77777o7777o77777777777777777777777777777777777777777777777777777777777777777777777777o7777o77o7777o77oooooooooooooooo.oooo.oo...................iiiiiiiiiiiiiiiiissssssssssssssssssssssssssssssssiiiiiiiiiiiiiiii..............",
"................pOOOOppppOOOOpppppp0OOOOOOOOO0OOOOOOOOOOOOOOXX&$,,,,<%&&&#OOOp............Oyyyyyyyyuyuuuuyuuyu+oooooooooooo7o7777o77o7777o77777777777777777777777777777777777777777777777777777777777777777777777o77o7777o77777ggggg77777o77o77ggggggggggggggggggggggggggggggggggggggggggggggggggggggggggggggggggggggggggggggggggggggggggggggggggggggggggggggggggggggggggggggggggggggggggggggggggggggggggggggggggg77777o7777gggggg77777o77o7777o77777777777777777777777777777777777777777777777777777777777777777777777o77o7777o77o777ooooooooooooooooo.oo.ooo...................iiiiiiiiiiiiiiiiiisssssssddssssssssssssssssssssssiiiiiiiiiiiiiiii..............",
"................pOOOOppppOOOOpppppp0OOOOOOOOO0OOOOOOOOOOOOOOXX&$,,,,<%&&&#OOOp............O88888pp8pp8ppppppp8Oooooooooooooo77oo77oo77oo77oo7777777777777777777777777777777777777777777777777777777777777777777o77oo77oo77o777ggggggggg777oo77o77ggggggggggggggggggggggggggggggggggggggggggggggggggggggggggggggggggggggggggggggggggggggggggggggggggggggggggggggggggggggggggggggggggggggggggggggggggggggggggggggg7777oo7777ggggggggg77777oo77oo77oo777777777777777777777777777777777777777777777777777777777777777777oo77oo77oo77oo77oooooooooooooooo..oo..oo......................iiiiiiiifiiiiiiiiissssssddssssssssssssssssssssiiiiiiiiiiiiiiiii...............",
"................pOOOOppppOOOOpppppp0OOOOOOOOO0OOOOOOOOOOOOOOXX&$<,,,<%&&&#OOOp............O888ppp88pp888ppppp8O.ooooooooooooo7oo77oo77oo77oo777777777777777777777777777777777777777777777777777777777777777777oo77oo77oo77o777ggggggggggg77777oo7777gggggggggggggggggggggggggggggggggggggggggggggggggggggggggggggggggggggggggggggggggggggggggggggggggggggggggggggggggggggggggggggggggggggggggggggggggggggggg7777oo77.777ggggggggggg77777oo777o77oo777777777777777777777777777777777777777777777777777777777777777777oo77oo77oo77oo77ooooooooooooo.oo..oo..oo......................iiiiiiiifiiiiidiiiiissssddsssssssssssssssssssiiiiiiiiiiiiiiiiii...............",
"................pOOOOppppOOOOpppppp0OOOOOOOOO0OOOOOOOOOOOOOOXX&$<,,,<%&&&#OOOp............O88888pp8pp8ppppppp8+ooooooooooooooo777o77o7777o77o777777777777777777777777777777777777777777777777777777777777777o7777o77o7777o7777gggggggggggggg77777o7777ggggggggggggggggggggggggggggggggggggggggggggggggggggggggggggggggggggggggggggggggggggggggggggggggggggggggggggggggggggggggggggggggggggggggggggggggggggg7777o77777gggggggggggggg7777o77o7777o77o777777777777777777777777777777777777777777777777777777777777777o7777o77o7777o77oooooooooooooooo.oooo.oo.........................iiiiiiiiiiiiiiiiiiiiisssssssssssssssssssssiiiiiiiiiiiiiiiiiii................",
"................pOOOOppppOOOOpppppp0OOOOOOOOO0OOOOOOOOOOOOOOXX&$,<<<<%&&&#OOOp............O8888888888888888888+o.oooooooooooooo7o7777o77o7777o77o777777777777777777777777777777777777777777777777777777777777o77o7777o77o77777gggggggggggggggg77o7777o7ggggggggggggggggggggggggggggggggggggggggggggggggggggggggggggggggggggggggggggggggggggggggggggggggggggggggggggggggggggggggggggggggggggggggggggggggggg7o77o7777ggggggggggggggg7777o7777o77o7777o77o777777777777777777777777777777777777777777777777777777777777o77o7777o77o777ooooooooooooooooo.oo.ooo.........................iiiiiiiiiiiiiiiiiiiiiissssssssssssssssssiiiiiiiiiiiiiiiiiiiii................",
"................pOOOOppppOOOOpppppp0OOOOOOOOO0OOOOOOOOOOOOOOXX&$<<<,<%&&&#OOOp............O3333333333333443344O.oooooooooooooooo77oo77oo77oo77oo77oo77777777777777777777777777777777777777777777777777oo77oo77oo77oo777777oo7777gggggggggggggggg777 77oo77777ggggggggggggggggggggggggggggggggggggggggggggggggggggggggggggggggggggggggggggggggggggggggggggggggggggggggggggggggggggggggggggggggggggggg7777.o77o.777gggggggggggggggg777oo777777oo77oo77oo77oo77777777777777777777777777777777777777777777777777oo77oo77oo77oo77oo77oooooooooooooooo..oo..oo............................iiiiiiiiiiiiiiiiiiiiiiiiisssssssssssiiiiiiiiiiiiiiiiiiiiiii.................",
"................pOOOOppppOOOOpppppp0OOOOOOOOO0OOOOOOOOOOOOOOXX&$<,,,<%&&&#OOOp............O8888888888888888888O.ooooooooooooooooo7oo77oo77oo77oo77oo77oo7777777777777777777777777777777777777777777777oo77oo77oo77o7777777oo7777gggggggggggggggggg7777oo77oo77ggggggggggggggggggggggggggggggggggggggggggggggggggggggggggggggggggggggggggggggggggggggggggggggggggggggggggggggggggggggggggggggggggggg77777oo77777gggggggggggggggggg777oo7777777777oo77oo77oo7777777777777777777777777777777777777777777777oo77oo77oo77oo77oo77oo77oooooooooooooooo..oo..oo............................iiiiiiiiiiiiiiiiiiiiiiiiiiiiiiiiiiiiiiiiiiiiiiiiiiiiiiiiii..................",
"................pOOOOppppOOOOpppppp0OOOOOOOOO0OOOOOOOOOOOOOOXX&$,<,<<%&&&#OOOp............O888888888p88p88888p+o.ooooooooooooooooo777o77o7777o77o7777o77o7777o777777777777777777777777777777777777777o77o7777o77o777777777777o777gggggggggggggggggggg777o7777o7777777777o7777o7777777777777777777777777777777777ggggggggggggggggggggggggggggggggg7777777777777777777777777777777777o77o7777777o7777.77o77777gggggggggggggggggggg777o7777777777o7777o77o7777o777777777777777777777777777777777777777o77o7777o77o7777o77o7777o77oooooooooooooooo.oooo.oo...............................iiiiiiiiiiiiiiiiiiiiiiiiiiiiiiiiiiiiiiiiiiiiiiiiiiiiiiiii..................",
"................pOOOOppppOOOOpppppp0OOOOOOOOO0OOOOOOOOOOOOOOXX&$,,,,<%&&&#OOOp............O8888888888888888p88+oo.oo.oooooooooooooo7o7777o77o7777o77o7777o77o7777o7777777777777777777777777777777o77o7777o77o7777o77ggggg7777777777ggggggggggggggggggg777777o7777o77o7777o77o7777o77o7777o77o7777777o7777o77o777gggggggggggggggggggggggggggggggg7777777o77o7777777o7777o77o7777o77o7777o77o7777o77o7777777gggggggggggggggggggg7777o77777gggg777o77o7777o77o7777o7777777777777777777777777777777o77o7777o77o7777o77o7777o77o777ooooooooooooooooo.oo.oo......................iiiii......iiiiiiiiiiiiiiiiiiiiiiiiiiiiiiiiiiiiidiiiiiiiiiiiiiiiii...................",
"................pOOOOppppOOOOpppppp0OOOOOOOOO0OOOOOOOOOOOOOOXX&$,,,,,,&&&#OOOp............O888888p8888888p8888O.oo..oo..oooooooooooo77oo77oo77oo77oo77oo77oo77oo77oo77777777777777777777777777oo77oo77oo77oo77oo777gggggggg7777o7777ggggggggggggggggggggg77777oo77oo77oo77oo77oo77oo77oo77oo77oo77oo77oo77oo777777ggggggggggggggggggggggggggggg77777oo77oo77oo77oo77oo77oo77..77..77..77..77.o77oo77o777gggggggggggggggggggg7777oo7777gggggggg77oo77oo77oo77oo77oo77777777777777777777777777oo77oo77oo77oo77oo77oo77oo77oo77ooooooooooooo.oo..oo..oo.......................iiiii.......iiiiiiiiiiiiiiiiiiiiiiiiiiiiiiiiiiiidiiiiiiiiiiiiiiii....................",
"................pOOOOppppOOOOpppppp0OOOOOOOOO0OOOOOOOOOOOOOOXX&$,,,,,,&&&#OOOp............OpppppppppppppppppppO.oo..oo..oooooooooooooooo77oo77oo77oo77oo77oo77oo77oo77oo7777777777777777777777oo77oo77oo77oo77oo777gggggggggg77777oo77ggggggggggggggggggggg777oo77oo77oo77oo77oo77oo77oo77oo77oo77oo77oo77oo77o7777ggggggggggggggggggggggggggg777777oo77oo77..77..77..77..77..77..77..77oo77oo77oo7777gggggggggggggggggggg777o77o777gggggggggg77oo77oo77oo77oo77oo7777777777777777777777oo77oo77oo77oo77oo77oo77oo77oo77oo7ooooooooooooo..oo..oo..o........................iiiii........iiiiiiiiiiiiiiiiiiiiiiiiiiiiiiiiiiiiiiiiiiiiiiiiiii.....................",
"................pOOOOppppOOOOpppppp0OOOOOOOOO0OOOOOOOOOOOOOOXX&$,,<<<%&&&#OOOp............OyyyyyyyyyyyyyyyyyyyOoo.oo.oooo.oooooooooooooo7o77o7777o77o7777o77o7777o77o7777o77o777777777777777o7777o77o7777o77o777777gggggggggggg77777o777gggggggggggggggggggggg77777777777o77o7777o77o7777o77o7777o77o7777o77o77777777ggggggggggggggggggggggg777777o7777.77.7777.77.7777o77o7777o77o7777o77o77777777ggggggggggggggggggggg77o7777777gggggggggggg7777o7777o77o7777o77o777777777777777o7777o77o7777o77o7777o77o7777o77o7777o7oooooooooooooo.oo.oooo.oo.........................iiiii........iiiiiiiiiiiiiiiiiiiiiiiiiiiiiiiiiiiiiiiiiiiiiiiiii......................",
"................pOOOOppppOOOOpppppp0OOOOOOOOO0OOOOOOOOOOOOOOXX&$,,<<<%&&&#OOOp............O88pp888888888888888O..oooo.oo.ooooooooooooooooo777o77o7777o77o7777o77o7777o77o7777o77o777777777777o77o7777o77o7777o77777gggggggggggggg7777o7777ggggggggggggggggggggggg777777777777o77o7777o77o7777o77o7777o77o7777o77o77777ggggggggggggggggggggg777o7777.77.7777.77o7777o77o7777o77o7777o777777777777ggggggggggggggggggggggg7777o7777gggggggggggggg77777o77o7777o77o7777o77o777777777777o77o7777o77o7777o77o7777o77o7777o77oooooooooooooooo.oooo.oo.o...........................iiiii.........iiiiiiiiiiiiiiiiiiiiiiiiiiiiiiiiiiiiiiiiiiiiiiiii......................",
"................pOOOOppppOOOOpppppp0OOOOOOOOO0OOOOOOOOOOOOOOXX&$%%%%%%&&&#OOOp............O8ppp88p8p8pp888p8p8O.....oo..oo..oo.ooooooooooooooooo77oo77oo77oo77oo77oo77oo77oo77oo77oo77oo77oo77oo77oo77oo77oo77oo7777gggggggggggggggg77oo7777ggggggggggggggggggggggggggggggggggg7777777777777777o77oo77oo77oo77oo77oo7777ggggggggggggggggg777oo77..77.o77oo77oo77oo7777777777777777ggggggggggggggggggggggggggggggggggg777oo777ggggggggggggggg7777oo77oo77oo77oo77oo77oo77oo77oo77oo77oo77oo77oo77oo77oo77oo77oo77oo7ooooooooooooooooo..oo..oo........................iiii...iiiii...........iiiiiiiiiiiiiiiiiiiiiiiiiiiiiiiiiiiiiiiiiiiii........................",
"................pOOOOppppOOOOpppppp0OOOOOOOOO0OOOOOOOOOOOOOOXX&$%%%%%%&&&#OOOp............O888888pp888p88pp8p8O.....oo..oo..oo..oooooooooooooooooooo77oo77oo77oo77oo77oo77oo77oo77oo77oo77oo77oo77oo77oo77oo77oo77777gggggggggggggggg77777oo7ggggggggggggggggggggggggggggggggggggggggggg77777777777777oo77oo77oo77oo7777gggggggggggggggg7777oo77..77oo77oo77777777777777gggggggggggggggggggggggggggggggggggggggggggg7o77o777gggggggggggggggg7777oo77oo77oo77oo77oo77oo77oo77oo77oo77oo77oo77oo77oo77oo77oo77ooooooooooooooooooooo.oo..oo..oo........................iiii...iiiii............iiiiiiiiiiiiiiiiiiiiiiiiiiiiiiiiiiiiiiiiiii.........................",
"................pOOOOppppOOOOpppppp0OOOOOOOOO0OOOOOOOOOOOOOOXX&$%%%%%%&&&#OOOp............O8888888888888888888O.......oo.oooo.oo.ooooooooooooooooooooooooo777o77o7777o77o7777o77o7777o77o7777o77o7777o77o7777o77o77777gggggggggggggggggg77777ogggggggggggggggggggggggggggggggggggggggggggggggggggggggg7777777o77o7777o7777ggggggggggggg7777o77.7777o777777gggggggggggggggggggggggggggggggggggggggggggggggggggggggg7o77o77ggggggggggggggggg777777777o77o7777o77o7777o77o7777o77o7777o77o7777o77o7777o77oooooooooooooooooooooooo.oooo.oo.oooo.........................iiii...iiiii.............iiiiiiiiiiiiiiiiiiiiiiiiiiiiiiiiiiiiiiiii..........................",
"................pOOOOppppOOOOpppppp0OOOOO,,,,0OOOOOOOOOOOOOOXX&$$$$$$$&&&#OOOp............OOOOOOOOOOOOOOOOOOOOO........oo.oo.oooo.ooooooooooooooooooooooooooo7777o77o7777o77o7777o77o7777o77o7777o77o7777o77o7777o77777ggggggggggggggggggg77o777ggggggggggggggggggggggggggggggggggggggggggggggggggggggggggggg7777o77o777777ggggggggggg7777o7777o7777ggggggggggggggggggggggggggggggggggggggggggggggggggggggggggggg7o7777ggggggggggggggggggg77777o77o7777o77o7777o77o7777o77o7777o77o7777o77o7777o77o7ooooooooooooooooooooooooooo.oo.oooo.oo...................iiii...iiii...iiiii..............iiiiiiiiiiiiiiiiiiiiiiiiiiiiiiiiiiiiii............................",
"................pOOOOppppOOOOpppppp0OOOOOOOOO0OOOOOOOOOOOOOOXX&$$$$$$$&&&#OOOp............O8888888888888888888O..........o..oo..oo..oooooooooooooooooooooooooooooooo77oo77oo77oo77oo77oo77oo77oo77oo77oo77oo77oo77oo7777gggggggggggggggggggg77oo77777ggggggggggggggggggggggggggggggggggggggggggggggggggggggggggg77oo77oo77o77ggggggg7777oo77oo777ggggggggggggggggggggggggggggggggggggggggggggggggggggggggggg7777oo777ggggggggggggggggggg77777o77oo77oo77oo77oo77oo77oo77oo77oo77oo77oo77oo77oo7ooooooooooooooooooooooooooooo..oo..oo..oo.....................iiii...iiii...iiiii................iiiiiiiiiiiiii,,,,,,,,,,,,,,,iiiii..............................",
"................pOOOOppppOOOOpppppp0OOOOO,,,,0OOOOOOOOOOOOOOXX&$$$$$$$&&&#OOOp............O88ppp8pp8888888p888O.............oo..oo..oooooooooooooooooooooooooooooooo77oo77oo77oo77oo77oo77oo77oo77oo77oo77oo77oo77oo77777ggggggggggggggggggggg7o77oo777777gggggggggggggggggggggggggggggggggggggggggggggggggggggggg7o77oo77oo77ggggg77o77.o77oo7gggggggggggggggggggggggggggggggggggggggggggggggggggggggg77777oo77oo7ggggggggggggggggggggg7777oo77oo77oo77oo77oo77oo77oo77oo77oo77oo77oo77oo77oooooooooooooooooooooooooooooooo..oo..oo.........................iiii...iiii...iiiii..................ii,,,,ttttttttttttttttttttttttt@,,,,..........................",
"................pOOOOOOOOOOOOpppppp0OOOOO,,,,0OOOOOOOOOOOOOOXX############OOOp............O8pp888pp88888p8p8p8O..............oooo.oo.ooooooooooooooooooooooooooooooooooo7o77o7777o77o7777o77o7777o77o7777o77o7777o77o777777ggggggggggggggggggggg7777o7777o7777gggggggggggggggggggggggggggggggggggggggggggggggggggggg77777o77o77ggg77777o77o77gggggggggggggggggggggggggggggggggggggggggggggggggggggg7777o77o777777ggggggggggggggggggggg777777777o77o7777o77o7777o77o7777o77o7777o77o7777ooooooooooooooooooooooooooooooooooo.oooo.oo.o.........................iiii...iiii...iiiii.............,,@@@@@tttttttttttttttttttttttttt@@@@@@@@@@@@@@,,..................",
"................pOOOppppppOOOp000000OOOO000000OOOOOOOOOOOOOOXX############OOOp............O8ppp888888888888888O...............oo.oooo.oo.ooooooooooooooooooooooooooooooooooo7o77o7777o77o7777o77o7777o77o7777o77o7777o777777ggggggggggggggggggggggg77777o7777o77gggggggggggggggggggggggggggggggggggggggggggggggggggggg77o7777o77777o77o7777gggggggggggggggggggggggggggggggggggggggggggggggggggggg77o77o7777777ggggggggggggggggggggggg777777o77o7777o77o7777o77o7777o77o7777o77o7777o7oooooooooooooooooooooooooooooooooooooo.oo.oooo..................sssss...iiii...iiii...iiiii..........,@@@@@@@@@@@tttttttttttttttttttttt@@@@@@@@@@@@@@@@@@@,,...............",
"................pOOOOOOOOOOOOOOOOOOOOOOOOOOOOOOOOOOOOOOOOOOOXXXXXXXXXXXXXXOOOp............OpppppppppppppppppppO.................oo..oo..oooooooooooooooooooooooooooooooooooooooo77oo77oo77oo77oo77oo77oo77oo77oo77oo77o777777ggggggggggggggggggggggggggg777777oo7777gggggggggggggggggggggggggggggggggggggggggggggggggggg77oo77oooo77oo777gggggggggggggggggggggggggggggggggggggggggggggggggggg777oo77o777gggggggggggggggggggggggggggg77777777oo77oo77oo77oo77oo77oo77oo77oo77oo77oooooooooooooooooooooooooooooooooooooooo..oo..oo.....................sssss...ssss...iiii...iiiii......,@@@@@@@@@@@@@@@@@@@@ttttttttttttt@@@@@@@@@@@@@@@@@@@@@@@@@@@,............",
"................pOOOOOOOOOOOOOOOOOOOOOOOOOOOOOOOOOOOOOOOOOOOXXXXXXXXXXXXXXOOOp............OOOOOOOOOOOOOOOOOOOOO.....................oo..oo..oooooooooooooooooooooooooooooooooooooooo77oo77oo77oo77oo77oo77oo77oo77oo77oo777777gggggggggggggggggggggggggggggg77oo77oo7777ggggggggggggggggggggggggggggggggggggggggggggggggg77o77oooo77oo77ggggggggggggggggggggggggggggggggggggggggggggggggg777oo77oo777gggggggggggggggggggggggggggggg777777o77oo77oo77oo77oo77oo77oo77oo77oo77ooooooooooooooooooooooooooooooooooooooooo.oo..oo.........................sssss...ssss...iiii...iiiii....,@@@@@@@@@@@@@@@@@@@@@@@@@@@@@@@@@@@@@@@@@@@@@@@@@@@@@@@@@@@@@@@@,..........",
"................pOOOOOOOOOOOOOOOOOOOOOOOOOOOOOOOOOOOOOOOOOOOOOOOOOOOOOOOOOOOOp............OOOOOOOOOOOOOOOOOOOOO.......................oo.oooo.oooooooooooooooooooooooooooooooooooooooooooo777o77o7777o77o7777o77o7777o77o777777gggggggggggggggggggggggggggggggggg7777o77o7777ggggggggggggg777777777777777ggggggggggggggggggg77o7o7777ggggggggggggggggggg777777777777777ggggggggggggg77o7777o7777gggggggggggggggggggggggggggggggggg777777777o77o7777o77o7777o77o7777o77ooooooooooooooooooooooooooooooooooooooooooooo.oo.ooo...........................sssss...ssss...iiii...iiiii...@@,@,@,@,@,@,@,@,@,@,@,@,@,@@,@,@,,@,,@,@,@@,@,@,@,,,,@@,@,@@,,@,@@@,........",
"................pOOOOOOOOOOOOOOOOOOOOOOOOOOOOOOOOOOOOOOOOOOOOOOOOOOOOOOOOOOOOp............OOOOOOOOOOOOOOOOOOOOO.........................o.oo.oooooooooooooooooooooooooooooooooooooooooooooooo7777o77o7777o77o7777o77o7777o777777ggggggggggggggggggggggggggggggggggggg7777o77o7777o77gggg7o77o7777o77o7777oggggggggggggggggggggg777gggggggggggggggggggg7o77o7777o77o7777o7gggg77o77o7777o7777gggggggggggggggggggggggggggggggggggg7777777o77o7777o77o7777o77o7777o77o7oooooooooooooooooooooooooooooooooooooooooooooo.oooo.......................ssss...sssss...ssss...iiii...iiiii..@@@,@,@,@,@,,,@,@,@,@,@,@,@,@@,@@@,,@,,@,@,@@,@@@,,@,,@@@,@,@@,,,,@@@@........",
"............................................................................................................................................oo..oo.oooooooooooooooooooooooooooooooooooooooooooooooooooooooooooooooooo7oo77oo7777777777gggggggggggggggggggggggggggggggggggg7777oo77oo77oo77oo77777777777777oo7gggggggggggggggggggggggggggggggggggggggoo77o777777777777o77oo77oo77oo77o77gggggggggggggggggggggggggggggggggggg7777777777o77oo77oooooooooooooooooooooooooooooooooooooooooooooooooooooooooooooooooooo..oo..........................ssss...sssss...ssss...iiii...iiiii..@@@,@,@,,,@,,@@,@,@,,@@,@,,,@@@,,@,,,,,@,@,@@@,,@@,@@,,@@,@,,@,@,,@@@@,.......",
"............................................................................................................................................oo..oo..oooooooooooooooooooooooooooooooooooooooooooooooooooooooooooooooooooo77oo77777777777777ggggggggggggggggggggggggggggggggggg7777777777777gggggggggggggg77oo77oggggggggggggggggggggggggggggggggggg77oo777ggggggggggggg77777777777777ggggggggggggggggggggggggggggggggggg7777777777777oo77oooooooooooooooooooooooooooooooooooooooooooooooooooooooooooooooooooo..oo..oo..........................ssss...sssss...ssss...iiii...iiiii..@@@,@,@,,,@,,,@,@,@,,@@,@,,,@@@@,@,,,,,@,@,@@@@,@@,@@@,@@,@,@@,@,,@@@@,.......",
"...............................................................................................................................................oo.oo.ooooooooooooooooooooooooooooooooooooooooooooooooooooooooooooooooooooo77o7777o77777777777777ggggggggggggggggggggggggggggggggggggggggggggggggggggggggggg777777ogggggggggggggggggggggggggggggo77o777ggggggggggggggggggggggggggggggggggggggggggggggggggggggggggg77777777777777o77o7777ooooooooooooooooooooooooooooooooooooooooooooooooooooooooooooooooooo.oooo.oo............................wwww...wwwww...wwww...6666...66666...@@,,,@,@,@,@,@,,,@@,@,@@,@,@@,,,@,,,@,,,@,@@,,,@@,@,,,@@,@,,,,@,,@@@,........",
".................................................................................................................................................oooo.oo.oooooooooooooooooooooooooooooooooooooooooooooooooooooooooooooooooo77o77o777777777777777777gggggggggggggggggggggggggggggggggggggggggggggggggggggggggg777o77gggggggggggggggggggggggggggo77777gggggggggggggggggggggggggggggggggggggggggggggggggggggggggg7777777777777777o7777o77oooooooooooooooooooooooooooooooooooooooooooooooooooooooooooooooo.oooo.oo.o..............................wwww...wwwww...wwww...6666...66666....@@@@@@@@@@@@@@@@@@@@@@@@@@@@@@@@@@@@@@@@@@@@@@@@@@@@@@@@@@@@@@@@@@,.........",
"....................................................................................................................................................oo................oooooooooooooooooooooooooooooooooooooooooooooooooooooooooo77oo77o777777777777777777ggggggggggggggggggggggggggggggggggggggggggggggggggggggg77oo77oggggggggggggggggggg77oo777ggggggggggggggggggggggggggggggggggggggggggggggggggggggg77777777777777777777oo77oo7ooooooooooooooooooooooooooooooooooooooooooooooooooooooo.................o..o.......................................................................,@@@@@@@@@@@@@@@@@@@@@@@@@@@@@@@@@@@@@@@@@@@@@@@@@@@@@@@@@@@@,............",
"..............................................................................................................................................................................oooooooooooooooooooooooooooooooooooooooooooooooooo77oo77oo777777777777777777777ggggggggggggggggggggggggggggggggggggggggggggggggggggg7777oo777ggggggggggg77oo77o77ggggggggggggggggggggggggggggggggggggggggggggggggggggg77777777777777777777oo77oo77oooooooooooooooooooooooooooooooooooooooooooooooooo......................................................................................................,,@@@@@@@@@@@@@@@@@@@@@@@@@@@@@@@@@@@@@@@@@@@@@@@@@@@@@@@,..............",
"..........................................................................................................................................................................................oooooooooooooooooooooooooooooooooooooooo777o77o77777777777777777777777777ggggggggggggggggggg77777777777777777ggggggggggggg7777o7777o77777o77o77777gggggggggggggg7777777777777777gggggggggggggggggggg777777777777777777777777o7777o77ooooooooooooooooooooooooooooooooooooooooo......................................................................................................................,,@@@@@@@@@@@@@@@@@@@@@@@@@@@@@@@@@@@@@@@@@@@@@,,..................",
"..................................................................................................................................................................................................ooooooooooooooooooooooooooooooooooo7777o77o7777o77o7777o77o777777777gggggggggggggg777777777777777777777ggggggggggggg777o77o77777o7777o77gggggggggggggg77777777777777777777gggggggggggggg7777777777777o77o7777o77o7777o77o7ooooooooooooooooooooooooooooooooooo..................................................................................................................................,,,@@@@@@@@@@@@@@@@@@@@@@@@@@@@@@@@@@,,,.......................",
"..............................................................................................................................................................................................................oooooooooooooooooooooooooo77oo77oo77oo77oo77oo77oo777777777777777777777777777777oo77oo7777777ggggggggggggg77777777777777777ggggggggggggg777777oo77oo77o777777777777777777777777777oo77oo77oo77oo77oo77oo77ooooooooooooooooooooooooooo...........................................................................................................................................................,,,,,,,,,,,,,,,...................................",
"......................................................................................................................................................................................................................ooooooooooooooooooo7oo77oo77oo77oo77oo77oo77oo7777777777777777777o77oo77oo77oo77oo777777ggggggggggggggggggggggggggggggggggggg77777oo77oo77oo77oo77oo777777777777777777oo77oo77oo77oo77oo77oo77oo77ooooooooooooooooooo.....................................................................................................................................................................................................................",
"................................................................................................................................................................................................................................ooooooooooooo7777o77oooooooooooo7o77o7777o7777777o77o7777o77o7777o77o7777o777777777777777777777777777777777777777777777o77o7777o77o7777o77o7777o7777777o77o7777ooooooooooooo777o77o7oooooooooooo................................................................................................................................................................................................................................",
"....................................................................................................................................................................................................................................oooooooooo77ooooooooooooooooooo77o77o7777o77o77ooooooooooooooooooo77o7777o7777777777777777777777777777777777777o77o7777oooooooooooooooooooo7777o77o7777o77oooooooooooooooooo77ooooooooooo...................................................................................................................................................................................................................................",
".........................................................................................................................................................................................................................................ooooooooooooo.............ooooooooo77oooooo......................oooooo77oo77oo77oo77oooo77oo77oo77oo77ooooooo......................oooooo7oo7ooooooo.............ooooooooooooo........................................................................................................................................................................................................................................",
".............................................................................................................................................................................................................................................ooooooo.......................oooooo...................................ooooooooooooooooooooooooo...................................oooooo......................oooooooo............................................................................................................................................................................................................................................"
};
