/* XPM */
static const char *Helmet_anim10[] = {
/* columns rows colors chars-per-pixel */
"640 360 7 1 ",
"  c gray5",
". c #141E24",
"X c #2A373F",
"o c #9EA9AE",
"O c #BBC4C9",
"+ c #C5D6E0",
"@ c None",
/* pixels */
"@@@@@@@@@XX.. .. .... .. .... .. .... .. .... .. .... .. .... .. .... .. .... .. .... .. ...                                                                                                                                                                                                                                                                                                                                                                                                                                                                                                                                                . .. .... .. .... ..",
"@@@@@@@@@XX. .... .. .... .. .... .. .... .. .... .. .... .. .... .. .... .. .... .. .... ..                                                                                                                                                                                                                                                                                                                                                                                                                                                                                                                                                 .... .. .... .. ...",
"@@@@@@@@@XX ..  ..  ..  ..  ..  ..  ..  ..  ..  ..  ..  ..  ..  ..  ..  ..  ..  ..  ..  ..                                                                                                                                                                                                                                                                                                                                                                                                                                                                                                                                                  ..  ..  ..  ..  ..  ",
"@@@@@@@@@XX ..  ..  ..  ..  ..  ..  ..  ..  ..  ..  ..  ..  ..  ..  ..  ..  ..  ..  ..  ..                                                                                                                                                                                                                                                                                                                                                                                                                                                                                                                                                  ..  ..  ..  ..  ..  ",
"@@@@@@@@@XXX .... .. .... .. .... .. .... .. .... .. .... .. .... .. .... .. .... .. .... ..                                                                                                                                                                                                                                                                                                                                                                                                                                                                                                                                               . .... .. .... .. ...",
"@@@@@@@@@XXX. .. .... .. .... .. .... .. .... .. .... .. .... .. .... .. .... .. .... .. ....                                                                                                                                                                                                                                                                                                                                                                                                                                                                                                                                             ... .. .... .. .... ..",
"@@@@@@@@@XXX..  ..  ..  ..  ..  ..  ..  ..  ..  ..  ..  ..  ..  ..  ..  ..  ..  ..  ..  ..  .                                                                                                                                                                                                                                                                                                                                                                                                                                                                                                                                               ..  ..  ..  ..  ..  ",
"@@@@@@@@@XXX..  ..  ..  ..  ..  ..  ..  ..  ..  ..  ..  ..  ..  ..  ..  ..  ..  ..  ..  ..  .                                                                                                                                                                                                                                                                                                                                                                                                                                                                                                                                               ..  ..  ..  ..  ..  ",
"@@@@@@@@@XXX. .. .... .. .... .. .... .. .... .. .... .. .... .. .... .. .... .. .... .. ....                                                                                                                                                                                                                                                                                                                                                                                                                                                                                                                                             ... .. .... .. .... ..",
"@@@@@@@@@XXX .... .. .... .. .... .. .... .. .... .. .... .. .... .. .... .. .... .. .... .. .                                                                                                                                                                                                                                                                                                                                                                                                                                                                                                                                            .. .... .. .... .. ...",
"@@@@@@@@@XXX..  ..  ..  ..  ..  ..  ..  ..  ..  ..  ..  ..  ..  ..  ..  ..  ..  ..  ..  ..  ..                                                                                                                                                                                                                                                                                                                                                                                                                                                                                                                                           .  ..  ..  ..  ..  ..  ",
"@@@@@@@@@XXX..  ..  ..  ..  ..  ..  ..  ..  ..  ..  ..  ..  ..  ..  ..  ..  ..  ..  ..  ..  ..                                                                                                                                                                                                                                                                                                                                                                                                                                                                                                                                          ..  ..  ..  ..  ..  ..  ",
"@@@@@@@@@XXX .... .. .... .. .... .. .... .. .... .. .... .. .... .. .... .. .... .. .... ..                                                                                                                                                                                                                                                                                                                                                                                                                                                                                                                                            . .. .... .. .... .. ...",
"@@@@@@@@@XXX. .. .... .. .... .. .... .. .... .. .... .. .... .. .... .. .... .. .... .. ....                                                                                                                                                                                                                                                                                                                                                                                                                                                                                                                                            .... .. .... .. .... ..",
"@@@@@@@@@@XX..  ..  ..  ..  ..  ..  ..  ..  ..  ..  ..  ..  ..  ..  ..  ..  ..  ..  ..  ..  .                                                                                                                                                                                                                                                                                                                                                                                                                                                                                                                                           ..  ..  ..  ..  ..  ..  ",
"@@@@@@@@@@XX..  ..  ..  ..  ..  ..  ..  ..  ..  ..  ..  ..  ..  ..  ..  ..  ..  ..  ..  ..  .                                                                                                                                                                                                                                                                                                                                                                                                                                                                                                                                           ..  ..  ..  ..  ..  ..  ",
"@@@@@@@@@@XX. .. .... .. .... .. .... .. .... .. .... .. .... .. .... .. .... .. .... .. ....                                                                                                                                                                                                                                                                                                                                                                                                                                                                                                                                          . .... .. .... .. .... ..",
"@@@@@@@@@@XX .... .. .... .. .... .. .... .. .... .. .... .. .... .. .... .. .... .. .... ..                                                                                                                                                                                                                                                                                                                                                                                                                                                                                                                                          ... .. .... .. .... .. ...",
"@@@@@@@@@@XX..  ..  ..  ..  ..  ..  ..  ..  ..  ..  ..  ..  ..  ..  ..  ..  ..  ..  ..  ..  .                                                                                                                                                                                                                                                                                                                                                                                                                                                                                                                                           ..  ..  ..  ..  ..  ..  ",
"@@@@@@@@@@XX..  ..  ..  ..  ..  ..  ..  ..  ..  ..  ..  ..  ..  ..  ..  ..  ..  ..  ..  ..  .                                                                                                                                                                                                                                                                                                                                                                                                                                                                                                                                           ..  ..  ..  ..  ..  ..  ",
"@@@@@@@@@@XX .... .. .... .. .... .. .... .. .... .. .... .. .... .. .... .. .... .. .... ..                                                                                                                                                                                                                                                                                                                                                                                                                                                                                                                                         .... .. .... .. .... .. ...",
"@@@@@@@@@@XX. .. .... .. .... .. .... .. .... .. .... .. .... .. .... .. .... .. .... .. ...                                                                                                                                                                                                                                                                                                                                                                                                                                                                                                                                          .. .... .. .... .. .... ..",
"@@@@@@@@@@XX..  ..  ..  ..  ..  ..  ..  ..  ..  ..  ..  ..  ..  ..  ..  ..  ..  ..  ..  ..                                                                                                                                                                                                                                                                                                                                                                                                                                                                                                                                          ..  ..  ..  ..  ..  ..  ..  ",
"@@@@@@@@@@XX..  ..  ..  ..  ..  ..  ..  ..  ..  ..  ..  ..  ..  ..  ..  ..  ..  ..  ..  ..                                                                                                                                               .                                                                                                                                                                                                                                                                                                                                                                                          ..  ..  ..  ..  ..  ..  ..  ",
"@@@@@@@@@@XX. .. .... .. .... .. .... .. .... .. .... .. .... .. .... .. .... .. .... .. ...                                                                                                                                             .... ..                                                                                                                                                                                                                                                                                                                                                                                    . .. .... .. .... .. .... ..",
"@@@@@@@@@@XX .... .. .... .. .... .. .... .. .... .. .... .. .... .. .... .. .... .. .... ..                                                                                                                                            . .. ....                                                                                                                                                                                                                                                                                                                                                                                    .... .. .... .. .... .. ...",
"@@@@@@@@@@XX..  ..  ..  ..  ..  ..  ..  ..  ..  ..  ..  ..  ..  ..  ..  ..  ..  ..  ..  ..                                                                                                                                              ..  ..  ..  ..                                                                                                                                                                                                                                                                                                                                                                              ..  ..  ..  ..  ..  ..  ..  ",
"@@@@@@@@@@XX..  ..  ..  ..  ..  ..  ..  ..  ..  ..  ..  ..  ..  ..  ..  ..  ..  ..  ..  ..                                                                                                                                              ..  ..  ..  ..  .                                                                                                                                                                                                                                                                                                                                                                           ..  ..  ..  ..  ..  ..  ..  ",
"@@@@@@@@@@XX .... .. .... .. .... .. .... .. .... .. .... .. .... .. .... .. .... .. .... ..                                                                                                                                           .. .. .... .. .... ..                                                                                                                                                                                                                                                                                                                                                                      .. .... .. .... .. .... .. ...",
"@@@@@@@@@@XX. .. .... .. .... .. .... .. .... .. .... .. .... .. .... .. .... .. .... .. ...                                                                                                                                          .. .... .. .... .. .... ..                                                                                                                                                                                                                                                                                                                                                                  ... .. .... .. .... .. .... ..",
"@@@@@@@@@@XX..  ..  ..  ..  ..  ..  ..  ..  ..  ..  ..  ..  ..  ..  ..  ..  ..  ..  ..  ..                                                                                                                                              ..  ..  ..  ..  ..  ..  ..                                                                                                                                                                                                                                                                                                                                                                  ..  ..  ..  ..  ..  ..  ..  ",
"@@@@@@@@@@XX..  ..  ..  ..  ..  ..  ..  ..  ..  ..  ..  ..  ..  ..  ..  ..  ..  ..  ..  ..                                                                                                                                              ..  ..  ..  ..  ..  ..  ..  ..                                                                                                                                                                                                                                                                                                                                                              ..  ..  ..  ..  ..  ..  ..  ",
"@@@@@@@@@@XX. .. .... .. .... .. .... .. .... .. .... .. .... .. .... .. .... .. .... .. ..                                                                                                                                            . .... .. .... .. .... .. .... .. .                                                                                                                                                                                                                                                                                                                                                       .... .. .... .. .... .. .... ..",
"@@@@@@@@@@XX .... .. .... .. .... .. .... .. .... .. .... .. .... .. .... .. .... .. .... .                                                                                                                                            .. .. .... .. .... .. .... .. .... ..                                                                                                                                                                                                                                                                                                                                                      .. .... .. .... .. .... .. ...",
"@@@@@@@@@@XXX.  ..  ..  ..  ..  ..  ..  ..  ..  ..  ..  ..  ..  ..  ..  ..  ..  ..  ..  ..                                                                                                                                              ..  ..  ..  ..  ..  ..  ..  ..  ..  ..  ..                                                                                                                                                                                                                                                                                                                                              ..  ..  ..  ..  ..  ..  ..  ..  ",
"@@@@@@@@@@XXX.  ..  ..  ..  ..  ..  ..  ..  ..  ..  ..  ..  ..  ..  ..  ..  ..  ..  ..  ..                                                                                                                                              ..  ..  ..  ..  ..  ..  ..  ..  ..  ..  ..  .                                                                                                                                                                                                                                                                                                                                           ..  ..  ..  ..  ..  ..  ..  ..  ",
"@@@@@@@@@@XXX.... .. .... .. .... .. .... .. .... .. .... .. .... .. .... .. .... .. .... .                                                                                                                                             . .. .... .. .... .. .... .. .... .. .... .. ....                                                                                                                                                                                                                                                                                                                                       . .. .... .. .... .. .... .. ...",
"@@@@@@@@@@XXX .. .... .. .... .. .... .. .... .. .... .. .... .. .... .. .... .. .... .. ..                                                                                                                                              .... .. .... .. .... .. .... .. .... .. .... .. ...                                                                                                                                                                                                                                                                                                                                   . .... .. .... .. .... .. .... ..",
"@@@@@@@@@@XXX.  ..  ..  ..  ..  ..  ..  ..  ..  ..  ..  ..  ..  ..  ..  ..  ..  ..  ..  ..                                                                                                                                              ..  ..  ..  ..  ..  ..  ..  ..  ..  ..  ..  ..  ..  ..                                                                                               .                                                                                                                                                                                                                                  ..  ..  ..  ..  ..  ..  ..  ..  ",
"@@@@@@@@@@XXX.  ..  ..  ..  ..  ..  ..  ..  ..  ..  ..  ..  ..  ..  ..  ..  ..  ..  ..  ..                                                                                                                                              ..  ..  ..  ..  ..  ..  ..  ..  ..  ..  ..  ..  ..  ..  ..                                                                                          ..  .                                                                                                                                                                                                                               ..  ..  ..  ..  ..  ..  ..  ..  ",
"@@@@@@@@@@@XXX.. .... .. .... .. .... .. .... .. .... .. .... .. .... .. .... .. .... .. .                                                                                                                                               .... .. .... .. .... .. .... .. .... .. .... .. .... .. .... ..                                                                              .. .... .. ....                                                                                                                                                                                                                         .. .... .. .... .. .... .. .... ..",
"@@@@@@@@@@@XXX... .. .... .. .... .. .... .. .... .. .... .. .... .. .... .. .... .. ....                                                                                                                                                 .. .... .. .... .. .... .. .... .. .... .. .... .. .... .. .... .                                                                          .... .. .... .. ...                                                                                                                                                                                                                      ... .. .... .. .... .. .... .. ...",
"@@@@@@@@@@@@XX  ..  ..  ..  ..  ..  ..  ..  ..  ..  ..  ..  ..  ..  ..  ..  ..  ..  ..  ..                                                                                                                                               .  ..  ..  ..  ..  ..  ..  ..  ..  ..  ..  ..  ..  ..  ..  ..  ..  ..                                                                  ..  ..  ..  ..  ..  ..  ..  .                                                                                                                                                                                                                   ..  ..  ..  ..  ..  ..  ..  ..  ",
"@@@@@@@@@@@@XX  ..  ..  ..  ..  ..  ..  ..  ..  ..  ..  ..  ..  ..  ..  ..  ..  ..  ..  ..                                                                                                                                               .  ..  ..  ..  ..  ..  ..  ..  ..  ..  ..  ..  ..  ..  ..  ..  ..  ..  ..                                                              ..  ..  ..  ..  ..  ..  ..  ..                                                                                                                                                                                                               .  ..  ..  ..  ..  ..  ..  ..  ..  ",
"@@@@@@@@@@@@XXX.. .. .... .. .... .. .... .. .... .. .... .. .... .. .... .. .... .. ....                                                                                                                                                 .. .... .. .... .. .... .. .... .. .... .. .... .. .... .. .... .. .... .. .                                                    .. .... .. .... .. .... .. .... .. .... ..                                                                                                                                                                                                         .... .. .... .. .... .. .... .. ...",
"@@@@@@@@@@@@@XX. .... .. .... .. .... .. .... .. .... .. .... .. .... .. .... .. .... .. .                                                                                                                                                ... .. .... .. .... .. .... .. .... .. .... .. .... .. .... .. .... .. .... ..                                               . .... .. .... .. .... .. .... .. .... .. .... .                                                                                                                                                                                                     . .. .... .. .... .. .... .. .... ..",
"@@@@@@@@@@@@@XXX..  ..  ..  ..  ..  ..  ..  ..  ..  ..  ..  ..  ..  ..  ..  ..  ..  ..  ..                                                                                                                                                  ..  ..  ..  ..  ..  ..  ..  ..  ..  ..  ..  ..  ..  ..  ..  ..  ..  ..  ..  ..  ..  ..  ..  ..  ..  ..  ..  ..  ..  ..  ..  ..  ..  ..  ..  ..  ..  ..  ..  ..  ..  ..  ..  ..                                                                                                                                                                                                  ..  ..  ..  ..  ..  ..  ..  ..  .. X",
"@@@@@@@@@@@@@@XX..  ..  ..  ..  ..  ..  ..  ..  ..  ..  ..  ..  ..  ..  ..  ..  ..  ..  ..                                                                                                                                               .  ..  ..  ..  ..  ..  ..  ..  ..  ..  ..  ..  ..  ..  ..  ..  ..  ..  ..  ..  ..  ..  ..  ..  ..  ..  ..  ..  ..  ..  ..  ..  ..  ..  ..  ..  ..  ..  ..  ..  ..  ..  ..  ..  ..                                                                                                                                                                                                  ..  ..  ..  ..  ..  ..  ..  ..  .. X",
"@@@@@@@@@@@@@@XX .... .. .... .. .... .. .... .. .... .. .... .. .... .. .... .. .... .. .                                                                                                                                               .... .. .... .. .... .. .... .. .... .. .... .. .... .. .... .. .... .. .... .. .... .. .... .. .... .. .... .. .... .. .... .. .... .. .... .. .... .. .... .. .... .. .... .. ...                                                                                                                                                                                                . .. .... .. .... .. .... .. .... XX",
"@@@@@@@@@@@@@@XXX .. .... .. .... .. .... .. .... .. .... .. .... .. .... .. .... .. ....                                                                                                                                                 .. .... .. .... .. .... .. .... .. .... .. .... .. .... .. .... .. .... .. .... .. .... .. .... .. .... .. .... .. .... .. .... .. .... .. .... .. .... .. .... .. .... .. .... ..                                                                                                                                                                                               . .... .. .... .. .... .. .... .. .XX",
"@@@@@@@@@@@@@@@XX.  ..  ..  ..  ..  ..  ..  ..  ..  ..  ..  ..  ..  ..  ..  ..  ..  ..  .                                                                                                                                                .  ..  ..  ..  ..  ..  ..  ..  ..  ..  ..  ..  ..  ..  ..  ..  ..  ..  ..  ..  ..  ..  ..  ..  ..  ..  ..  ..  ..  ..  ..  ..  ..  ..  ..  ..  ..  ..  ..  ..  ..  ..  ..  ..  ..  ..                                                                                                                                                                                              ..  ..  ..  ..  ..  ..  ..  ..  ..XX",
"@@@@@@@@@@@@@@@XXX  ..  ..  ..  ..  ..  ..  ..  ..  ..  ..  ..  ..  ..  ..  ..  ..  ..  .                                                                                                                                                .  ..  ..  ..  ..  ..  ..  ..  ..  ..  ..  ..  ..  ..  ..  ..  ..  ..  ..  ..  ..  ..  ..  ..  ..  ..  ..  ..  ..  ..  ..  ..  ..  ..  ..  ..  ..  ..  ..  ..  ..  ..  ..  ..  ..  ..                                                                                                                                                                                              ..  ..  ..  ..  ..  ..  ..  ..  .XXX",
"@@@@@@@@@@@@@@@@XX.. .... .. .... .. .... .. .... .. .... .. .... .. .... .. .... .. ....                                                                                                                                                 .. .... .. .... .. .... .. .... .. .... .. .... .. .... .. .... .. .... .. .... .. .... .. .... .. .... .. .... .. .... .. .... .. .... .. .... .. .... .. .... .. .... .. .... .. ...                                                                                                                                                                                           . .... .. .... .. .... .. .... .. XXX",
"@@@@@@@@@@@@@@@@XX... .. .... .. .... .. .... .. .... .. .... .. .... .. .... .. .... ..                                                                                                                                                 .... .. .... .. .... .. .... .. .... .. .... .. .... .. .... .. .... .. .... .. .... .. .... .. .... .. .... .. .... .. .... .. .... .. .... .. .... .. .... .. .... .. .... .. .... ..                                                                                                                                                                                           .. .. .... .. .... .. .... .. ...XXX@",
"@@@@@@@@@@@@@@@@XXX ..  ..  ..  ..  ..  ..  ..  ..  ..  ..  ..  ..  ..  ..  ..  ..  ..  .                                                                                                                                               ..  ..  ..  ..  ..  ..  ..  ..  ..  ..  ..  ..  ..  ..  ..  ..  ..  ..  ..  ..  ..  ..  ..  ..  ..  ..  ..  ..  ..  ..  ..  ..  ..  ..  ..  ..  ..  ..  ..  ..  ..  ..  ..  ..  ..  ..  .                                                                                                                                                                                           ..  ..  ..  ..  ..  ..  ..  ..  XXX@",
"@@@@@@@@@@@@@@@@XXX ..  ..  ..  ..  ..  ..  ..  ..  ..  ..  ..  ..  ..  ..  ..  ..  ..  .                                                                                                                                               ..  ..  ..  ..  ..  ..  ..  ..  ..  ..  ..  ..  ..  ..  ..  ..  ..  ..  ..  ..  ..  ..  ..  ..  ..  ..  ..  ..  ..  ..  ..  ..  ..  ..  ..  ..  ..  ..  ..  ..  ..  ..  ..  ..  ..  ..  ..                                                                                                                                                                                          ..  ..  ..  ..  ..  ..  ..  ..  XX@@",
"@@@@@@@@@@@@@@@@@XXX. .. .... .. .... .. .... .. .... .. .... .. .... .. .... .. .... ..                                                                                                                                                 .... .. .... .. .... .. .... .. .... .. .... .. .... .. .... .. .... .. .... .. .... .. .... .. .... .. .... .. .... .. .... .. .... .. .... .. .... .. .... .. .... .. .... .. .... .. ..           .. ....                                                                                                                                                                     ... .. .... .. .... .. .... .. ..XXX@@",
"@@@@@@@@@@@@@@@@@XXX .... .. .... .. .... .. .... .. .... .. .... .. .... .. .... .. ....                                                                                                                                               . .. .... .. .... .. .... .. .... .. .... .. .... .. .... .. .... .. .... .. .... .. .... .. .... .. .... .. .... .. .... .. .... .. .... .. .... .. .... .. .... .. .... .. .... .. .... ..  ... .. .... .. .                                                                                                                                                                    .. .... .. .... .. .... .. .... .XXX@@",
"@@@@@@@@@@@@@@@@@@XX..  ..  ..  ..  ..  ..  ..  ..  ..  ..  ..  ..  ..  ..  ..  ..  ..                                                                                                                                                  ..  ..  ..  ..  ..  ..  ..  ..  ..  ..  ..  ..  ..  ..  ..  ..  ..  ..  ..  ..  ..  ..  ..  ..  ..  ..  ..  ..  ..  ..  ..  ..  ..  ..  ..  ..  ..  ..  ..  ..  ..  ..  ..  ..  ..  ..  ..  ..  ..  ..  ..  ..                                                                                                                                                                      ..  ..  ..  ..  ..  ..  ..  ..XXX@@@",
"@@@@@@@@@@@@@@@@@@XX..  ..  ..  ..  ..  ..  ..  ..  ..  ..  ..  ..  ..  ..  ..  ..  ..                                                                                                                                                  ..  ..  ..  ..  ..  ..  ..  ..  ..  ..  ..  ..  ..  ..  ..  ..  ..  ..  ..  ..  ..  ..  ..  ..  ..  ..  ..  ..  ..  ..  ..  ..  ..  ..  ..  ..  ..  ..  ..  ..  ..  ..  ..  ..  ..  ..  ..  ..  ..  ..  ..  ..                                                                                                                                                                      ..  ..  ..  ..  ..  ..  ..  ..XX@@@@",
"@@@@@@@@@@@@@@@@@@XXX.... .. .... .. .... .. .... .. .... .. .... .. .... .. .... .. ...                                                                                                                                               .. .. .... .. .... .. .... .. .... .. .... .. .... .. .... .. .... .. .... .. .... .. .... .. .... .. .... .. .... .. .... .. .... .. .... .. .... .. .... .. .... .. .... .. .... .. .... .. .... .. .... .. ....                                                                                                                                                                 .. .... .. .... .. .... .. .... XX@@@@",
"@@@@@@@@@@@@@@@@@@@XX .. .... .. .... .. .... .. .... .. .... .. .... .. .... .. .... ..                                                                 XX                                                                           .. .... .. .... .. .... .. .... .. .... .. .... .. .... .. .... .. .... .. .... .. .... .. .... .. .... .. .... .. .... .. .... .. .... .. .... .. .... .. .... .. .... .. .... .. .... .. .... .. .... .. .... .. .                                                                                                                                                                ... .. .... .. .... .. .... .. XXX@@@@",
"@@@@@@@@@@@@@@@@@@@XXX  ..  ..  ..  ..  ..  ..  ..  ..  ..  ..  ..  ..  ..  ..  ..  ..                                                          XXXXXXXXXXXX.                                                                        .  ..  ..  ..  ..  ..  ..  ..  ..  ..  ..  ..  ..  ..  ..  ..  ..  ..  ..  ..  ..  ..  ..  ..  ..  ..  ..  ..  ..  ..  ..  ..  ..  ..  ..  ..  ..  ..  ..  ..  ..  ..  ..  ..  ..  ..  ..  ..  ..  ..  ..  ..  ..  ..                                                                                                             X                                                    ..  ..  ..  ..  ..  ..  ..  .XX@@@@@",
"@@@@@@@@@@@@@@@@@@@@XX  ..  ..  ..  ..  ..  ..  ..  ..  ..  ..  ..  ..  ..  ..  ..  ..                                                     XXXXXXXXXXXXXXXX ..                                                                       .  ..  ..  ..  ..  ..  ..  ..  ..  ..  ..  ..  ..  ..  ..  ..  ..  ..  ..  ..  ..  ..  ..  ..  ..  ..  ..  ..  ..  ..  ..  ..  ..  ..  ..  ..  ..  ..  ..  ..  ..  ..  ..  ..  ..  ..  ..  ..  ..  ..  ..  ..  ..  ..                                                                                                            XXX                                                   ..  ..  ..  ..  ..  ..  ..  XXX@@@@@",
"@@@@@@@@@@@@@@@@@@@@XX.. .... .. .... .. .... .. .... .. .... .. .... .. .... .. .... ..                                          XXXXXXXXXXXXXXXXXX. .. ....                                                                       . .. .... .. .... .. .... .. .... .. .... .. .... .. .... .. .... .. .... .. .... .. .... .. .... .. .... .. .... .. .... .. .... .. .... .. .... .. .... .. .... .. .... .. .... .. .... .. .... .. .... .. .... .. ....                                                                                                          XXX                                                ... .. .... .. .... .. .... ..XX@@@@@@",
"@@@@@@@@@@@@@@@@@@@@XXX.. .. .... .. .... .. .... .. .... .. .... .. .... .. .... .. ...                                       XXXXXXXXXXXXXXX... .. .... .. .                                                                     . .... .. .... .. .... .. .... .. .... .. .... .. .... .. .... .. .... .. .... .. .... .. .... .. .... .. .... .. .... .. .... .. .... .. .... .. .... .. .... .. .... .. .... .. .... .. .... .. .... .. .... .. .... .. .                                                                                                          XXX                                               .. .... .. .... .. .... .. ...XX@@@@@@",
"@@@@@@@@@@@@@@@@@@@@@XX ..  ..  ..  ..  ..  ..  ..  ..  ..  ..  ..  ..  ..  ..  ..  ..                                      XXXXXXXXXX  ..  ..  ..  ..  ..  ..                                                                      ..  ..  ..  ..  ..  ..  ..  ..  ..  ..  ..  ..  ..  ..  ..  ..  ..  ..  ..  ..  ..  ..  ..  ..  ..  ..  ..  ..  ..  ..  ..  ..  ..  ..  ..  ..  ..  ..  ..  ..  ..  ..  ..  ..  ..  ..  ..  ..  ..  ..  ..  ..  ..  ..  XXXX                                                                                                          XXX                                               ..  ..  ..  ..  ..  ..  .. XXX@@@@@@",
"@@@@@@@@@@@@@@@@@@@@@XXX..  ..  ..  ..  ..  ..  ..  ..  ..  ..  ..  ..  ..  ..  ..  ..                                    XXXXXX..  ..  ..  ..  ..  ..  ..  ..                                                                      ..  ..  ..  ..  ..  ..  ..  ..  ..  ..  ..  ..  ..  ..  ..  ..  ..  ..  ..  ..  ..  ..  ..  ..  ..  ..  ..  ..  ..  ..  ..  ..  ..  ..  ..  ..  ..  ..  ..  ..  ..  ..  ..  ..  ..  ..  ..  ..  ..  ..  ..  ..  ..  .. XXXXX                                                                                                          XXXX                                              ..  ..  ..  ..  ..  ..  .. XX@@@@@@@",
"@@@@@@@@@@@@@@@@@@@@@XXX. .. .... .. .... .. .... .. .... .. .... .. .... .. .... .. ...                                XXXXX.... .. .... .. .... .. .... .. .                                                                  . .. .... .. .... .. .... .. .... .. .... .. .... .. .... .. .... .. .... .. .... .. .... .. .... .. .... .. .... .. .... .. .... .. .... .. .... .. .... .. .... .. .... .. .... .. .... .. .... .. .... .. .... .. ....XXXXXXX                                                                                                            XXX                                           .. .... .. .... .. .... .. .XXX@@@@@@@",
"@@@@@@@@@@@@@@@@@@@@@@XX .... .. .... .. .... .. .... .. .... .. .... .. .... .. .... ..                               XXXXX. .. .... .. .... .. .... .. ....                                                                    .... .. .... .. .... .. .... .. .... .. .... .. .... .. .... .. .... .. .... .. .... .. .... .. .... .. .... .. .... .. .... .. .... .. .... .. .... .. .... .. .... .. .... .. .... .. .... .. .... .. .... .. .... ..XXXX@XXX                                                                                                             XXX                                         .... .. .... .. .... .. .... XX@@@@@@@@",
"@@@@@@@@@@@@@@@@@@@@@@XXX.  ..  ..  ..  ..  ..  ..  ..  ..  ..  ..  ..  ..  ..  ..  ..                               XXXXX  ..  ..  ..  ..  ..  ..  ..  ..  ..                                                                  ..  ..  ..  ..  ..  ..  ..  ..  ..  ..  ..  ..  ..  ..  ..  ..  ..  ..  ..  ..  ..  ..  ..  ..  ..  ..  ..  ..  ..  ..  ..  ..  ..  ..  ..  ..  ..  ..  ..  ..  ..  ..  ..  ..  ..  ..  ..  ..  ..  ..  ..  ..  ..  ..XXXX@@@XXX                                                                                                              XXX                                        .  ..  ..  ..  ..  ..  ..  .XXX@@@@@@@@",
"@@@@@@@@@@@@@@@@@@@@@@XXX.  ..  ..  ..  ..  ..  ..  ..  ..  ..  ..  ..  ..  ..  ..  ..                              XXXX..  ..  ..  ..  ..  ..  ..  ..  ..  ..                                                                  ..  ..  ..  ..  ..  ..  ..  ..  ..  ..  ..  ..  ..  ..  ..  ..  ..  ..  ..  ..  ..  ..  ..  ..  ..  ..  ..  ..  ..  ..  ..  ..  ..  ..  ..  ..  ..  ..  ..  ..  ..  ..  ..  ..  ..  ..  ..  ..  ..  ..  ..  ..  ..  .XXXX@@@@XXX                                                                                                               XXX                                       .  ..  ..  ..  ..  ..  ..  .XXX@@@@@@@@",
"@@@@@@@@@@@@@@@@@@@@@@@XX.... .. .... .. .... .. .... .. .... .. .... .. .... .. .... .                           XXXX.. .... .. .... .. .... .. .... .. ....                                                                    .... .. .... .. .... .. .... .. .... .. .... .. .... .. .... .. .... .. .... .. .... .. .... .. .... .. .... .. .... .. .... .. .... .. .... .. .... .. .... .. .... .. .... .. .... .. .... .. .... .. .... .. ..XXXX@@@@@@XXX                                                                                                                XXXX                                     .... .. .... .. .... .. ...XXX@@@@@@@@@",
"@@@@@@@@@@@@@@@@@@@@@@@XXX.. .... .. .... .. .... .. .... .. .... .. .... .. .... .. .                          XXXXX.... .. .... .. .... .. .... .. .... .. .                                                                  . .. .... .. .... .. .... .. .... .. .... .. .... .. .... .. .... .. .... .. .... .. .... .. .... .. .... .. .... .. .... .. .... .. .... .. .... .. .... .. .... .. .... .. .... .. .... .. .... .. .... .. .... XXXX@@@@@@@XXX                                                                                                                 XXX                                      .. .... .. .... .. .... ..XXX@@@@@@@@@",
"@@@@@@@@@@@@@@@@@@@@@@@@XX  ..  ..  ..  ..  ..  ..  ..  ..  ..  ..  ..  ..  ..  ..  ..                        XXXXX ..  ..  ..  ..  ..  ..  ..  ..  ..  ..  ..                                                              XXXXX.  ..  ..  ..  ..  ..  ..  ..  ..  ..  ..  ..  ..  ..  ..  ..  ..  ..  ..  ..  ..  ..  ..  ..  ..  ..  ..  ..  ..  ..  ..  ..  ..  ..  ..  ..  ..  ..  ..  ..  ..  ..  ..  ..  ..  ..  ..  ..  ..  ..  ..  ..  XXXX@@@@@@@@@XX                                                                                                                    XXX                                   .  ..  ..  ..  ..  ..  ..  XX@@@@@@@@@@",
"@@@@@@@@@@@@@@@@@@@@@@@@XX  ..  ..  ..  ..  ..  ..  ..  ..  ..  ..  ..  ..  ..  ..  ..                       XXXX.  ..  ..  ..  ..  ..  ..  ..  ..  ..  ..  ..                                                              XXXXXX  ..  ..  ..  ..  ..  ..  ..  ..  ..  ..  ..  ..  ..  ..  ..  ..  ..  ..  ..  ..  ..  ..  ..  ..  ..  ..  ..  ..  ..  ..  ..  ..  ..  ..  ..  ..  ..  ..  ..  ..  ..  ..  ..  ..  ..  ..  ..  ..  ..  ..  .. XXXX@@@@@@@@@@XX                                                                                                                     XXX                                  .  ..  ..  ..  ..  ..  .. XXX@@@@@@@@@@",
"@@@@@@@@@@@@@@@@@@@@@@@@XXX. .... .. .... .. .... .. .... .. .... .. .... .. .... ..                       XXXX.. .. .... .. .... .. .... .. .... .. .... ..                                                                 XX@XX.. .... .. .... .. .... .. .... .. .... .. .... .. .... .. .... .. .... .. .... .. .... .. .... .. .... .. .... .. .... .. .... .. .... .. .... .. .... .. .... .. .... .. .... .. .... .. .... .. .... .. XXXX@@@@@@@@@@@@XX                                                                                                                      XXX                                  .. .... .. .... .. .... XXX@@@@@@@@@@@",
"@@@@@@@@@@@@@@@@@@@@@@@@@XX.. .. .... .. .... .. .... .. .... .. .... .. .... .. ....                     XXXX.. .... .. .... .. .... .. .... .. .... .. ....                                                                XX@XXX.. .. .... .. .... .. .... .. .... .. .... .. .... .. .... .. .... .. .... .. .... .. .... .. .... .. .... .. .... .. .... .. .... .. .... .. .... .. .... .. .... .. .... .. .... .. .... .. .... .. ..XXXXX@@@@@@@@@@@@@XX                                                                                                                       XXX                                 ... .. .... .. .... .. .XX@@@@@@@@@@@@",
"@@@@@@@@@@@@@@@@@@@@@@@@@XXX..  ..  ..  ..  ..  ..  ..  ..  ..  ..  ..  ..  ..  ..                     XXXXX..  ..  ..  ..  ..  ..  ..  ..  ..  ..  ..  ..  .                                                                XXX@@XX..  ..  ..  ..  ..  ..  ..  ..  ..  ..  ..  ..  ..  ..  ..  ..  ..  ..  ..  ..  ..  ..  ..  ..  ..  ..  ..  ..  ..  ..  ..  ..  ..  ..  ..  ..  ..  ..  ..  ..  ..  ..  ..  ..  ..  ..  ..  ..  ..  .XXXXX@@@@@@@@@@@@@@XXX                                                                                                                        XXX                                  ..  ..  ..  ..  ..  .XXX@@@@@@@@@@@@",
"@@@@@@@@@@@@@@@@@@@@@@@@@XXX..  ..  ..  ..  ..  ..  ..  ..  ..  ..  ..  ..  ..  ..                    XXXX  ..  ..  ..  ..  ..  ..  ..  ..  ..  ..  ..  ..  .                                                                XXX@@XXX.  ..  ..  ..  ..  ..  ..  ..  ..  ..  ..  ..  ..  ..  ..  ..  ..  ..  ..  ..  ..  ..  ..  ..  ..  ..  ..  ..  ..  ..  ..  ..  ..  ..  ..  ..  ..  ..  ..  ..  ..  ..  ..  ..  ..  ..  ..  ..  .. XXXXX@@@@@@@@@@@@@@@@XXX                                                                                                  .  ..                  XXXX                                ..  ..  ..  ..  ..  .XX@@@@@@@@@@@@@",
"@@@@@@@@@@@@@@@@@@@@@@@@@@XX. .. .... .. .... .. .... .. .... .. .... .. .... .. ...                XXXX .... .. .... .. .... .. .... .. .... .. .... .. ....                                                                 XX@@@@XX.. .... .. .... .. .... .. .... .. .... .. .... .. .... .. .... .. .... .. .... .. .... .. .... .. .... .. .... .. .... .. .... .. .... .. .... .. .... .. .... .. .... .. .... .. .... .. ....XXXXX@@@@@@@@@@@@@@@@XXXXX                                                                                                . .... .. ..               XXX                               . .. .... .. .... ..XXX@@@@@@@@@@@@@",
"@@@@@@@@@@@@@@@@@@@@@@@@@@XXX.... .. .... .. .... .. .... .. .... .. .... .. .... .               XXXXX.. .. .... .. .... .. .... .. .... .. .... .. .... ..                                                                  XX@@@@XXX.. .. .... .. .... .. .... .. .... .. .... .. .... .. .... .. .... .. .... .. .... .. .... .. .... .. .... .. .... .. .... .. .... .. .... .. .... .. .... .. .... .. .... .. .... .. .... .XXXXX@@@@@@@@@@@@@@@@@XXXXX                                                                                                ... .. .... .. .             XXX                               .... .. .... .. ...XX@@@@@@@@@@@@@@",
"@@@@@@@@@@@@@@@@@@@@@@@@@@@XX.  ..  ..  ..  ..  ..  ..  ..  ..  ..  ..  ..  ..  ..              XXXXX.  ..  ..  ..  ..  ..  ..  ..  ..  ..  ..  ..  ..  ..  .                                                                 XX@@@@@XXX..  ..  ..  ..  ..  ..  ..  ..  ..  ..  ..  ..  ..  ..  ..  ..  ..  ..  ..  ..  ..  ..  ..  ..  ..  ..  ..  ..  ..  ..  ..  ..  ..  ..  ..  ..  ..  ..  ..  ..  ..  ..  ..  ..  ..  ..  .XXXXX@@@@@@@@@@@@@@@@@@XXXX                                                                                                ..  ..  ..  ..  ..  ..            X                                 ..  ..  ..  .. XXX@@@@@@@@@@@@@@",
"@@@@@@@@@@@@@@@@@@@@@@@@@@@XXX  ..  ..  ..  ..  ..  ..  ..  ..  ..  ..  ..  ..  ..             XXXXX..  ..  ..  ..  ..  ..  ..  ..  ..  ..  ..  ..  ..  ..  .                                                                 XXX@@@@@XXX.  ..  ..  ..  ..  ..  ..  ..  ..  ..  ..  ..  ..  ..  ..  ..  ..  ..  ..  ..  ..  ..  ..  ..  ..  ..  ..  ..  ..  ..  ..  ..  ..  ..  ..  ..  ..  ..  ..  ..  ..  ..  ..  ..  ..  .. XXXXX@@@@@@@@@@@@@@@@@@XXXX                                                                                                  ..  ..  ..  ..  ..  ..  ..        XX                                ..  ..  ..  ..XXX@@@@@@@@@@@@@@@",
"@@@@@@@@@@@@@@@@@@@@@@@@@@@@XXX.. .. .... .. .... .. .... .. .... .. .... .. ....            XXXXX.. .... .. .... .. .... .. .... .. .... .. .... .. .... ..                                                                  XXX@@@@@@XXX.. .... .. .... .. .... .. .... .. .... .. .... .. .... .. .... .. .... .. .... .. .... .. .... .. .... .. .... .. .... .. .... .. .... .. .... .. .... .. .... .. .... .. .... .. XXXXX@@@@@@@@@@@@@@@@@@@XXX                                                                                                . .. .... .. .... .. .... .. .... ..  XXXX                             .. .. .... .. .XX@@@@@@@@@@@@@@@@",
"@@@@@@@@@@@@@@@@@@@@@@@@@@@@XXX. .... .. .... .. .... .. .... .. .... .. .... .. .          XXXX .... .. .... .. .... .. .... .. .... .. .... .. .... .. ....                                                                  XX@@@@@@@XX... .. .... .. .... .. .... .. .... .. .... .. .... .. .... .. .... .. .... .. .... .. .... .. .... .. .... .. .... .. .... .. .... .. .... .. .... .. .... .. .... .. .... .. ..XXXXX@@@@@@@@@@@@@@@@@@@@XXX                                                                                                . .... .. .... .. .... .. .... .. .... .XXX                               .... .. ....XXX@@@@@@@@@@@@@@@@",
"@@@@@@@@@@@@@@@@@@@@@@@@@@@@@XXX..  ..  ..  ..  ..  ..  ..  ..  ..  ..  ..  ..  .         XXXX  ..  ..  ..  ..  ..  ..  ..  ..  ..  ..  ..  ..  ..  ..  ..  .                                                                  XXX@@@@@@@XXXX.  ..  ..  ..  ..  ..  ..  ..  ..  ..  ..  ..  ..  ..  ..  ..  ..  ..  ..  ..  ..  ..  ..  ..  ..  ..  ..  ..  ..  ..  ..  ..  ..  ..  ..  ..  ..  ..  ..  ..  ..  ..  ..  .XXXXX@@@@@@@@@@@@@@@@@@@@XXXX                                                                                               .  ..  ..  ..  ..  ..  ..  ..  ..  ..  ..  .XXX                            ..  ..  ..  XXX@@@@@@@@@@@@@@@@@",
"@@@@@@@@@@@@@@@@@@@@@@@@@@@@@@XX..  ..  ..  ..  ..  ..  ..  ..  ..  ..  ..  ..  .       XXXXX.  ..  ..  ..  ..  ..  ..  ..  ..  ..  ..  ..  ..  ..  ..  ..  ..                                                                 XXX@@@@@@@@XXXXX ..  ..  ..  ..  ..  ..  ..  ..  ..  ..  ..  ..  ..  ..  ..  ..  ..  ..  ..  ..  ..  ..  ..  ..  ..  ..  ..  ..  ..  ..  ..  ..  ..  ..  ..  ..  ..  ..  ..  ..  ..  .. XXXXX@@@@@@@@@@@@@@@@@@@@@XXXX                                                                                               ..  ..  ..  ..  ..  ..  ..  ..  ..  ..  ..  ..XXX                            .  ..  ..  XXX@@@@@@@@@@@@@@@@@",
"@@@@@@@@@@@@@@@@@@@@@@@@@@@@@@@XX.... .. .... .. .... .. .... .. .... .. .... ..      XXXXX.. .. .... .. .... .. .... .. .... .. .... .. .... .. .... .. .... .                                                                 XX@@@@@@@@@@XXXXXX... .. .... .. .... .. .... .. .... .. .... .. .... .. .... .. .... .. .... .. .... .. .... .. .... .. .... .. .... .. .... .. .... .. .... .. .... .. .... .. ....XXXXX@@@@@@@@@@@@@@@@@@@@@@XXX                                                                                               ... .. .... .. .... .. .... .. .... .. .... .. ..XXX                            ... .. ..XXX@@@@@@@@@@@@@@@@@@",
"@@@@@@@@@@@@@@@@@@@@@@@@@@@@@@@XXX.. .... .. .... .. .... .. .... .. .... .. ...     XXXXX.. .... .. .... .. .... .. .... .. .... .. .... .. .... .. .... .. ...                                                                XX@@@@@@@@@@@@XXXXXX .... .. .... .. .... .. .... .. .... .. .... .. .... .. .... .. .... .. .... .. .... .. .... .. .... .. .... .. .... .. .... .. .... .. .... .. .... .. .... .XXXXX@@@@@@@@@@@@@@@@@@@@@@@XXX                                                                                                .. .... .. .... .. .... .. .... .. .... .. .... ..XXX                           .. .... .XXX@@@@@@@@@@@@@@@@@@",
"@@@@@@@@@@@@@@@@@@@@@@@@@@@@@@@@XXX ..  ..  ..  ..  ..  ..  ..  ..  ..  ..  ..     XXXXX..  ..  ..  ..  ..  ..  ..  ..  ..  ..  ..  ..  ..  ..  ..  ..  ..  ..                                                                  XX@@@@@@@@@@@@@@@XXXXXXX..  ..  ..  ..  ..  ..  ..  ..  ..  ..  ..  ..  ..  ..  ..  ..  ..  ..  ..  ..  ..  ..  ..  ..  ..  ..  ..  ..  ..  ..  ..  ..  ..  ..  ..  ..  ..  ..  XXXXXX@@@@@@@@@@@@@@@@@@@@@@@XXXX                                                                                                   ..  ..  ..  ..  ..  ..  ..  ..  ..  ..  ..  ..  .XXX                            ..  ..XXX@@@@@@@@@@@@@@@@@@@",
"@@@@@@@@@@@@@@@@@@@@@@@@@@@@@@@@XXX ..  ..  ..  ..  ..  ..  ..  ..  ..  ..  ..    XXXX  ..  ..  ..  ..  ..  ..  ..  ..  ..  ..  ..  ..  ..  ..  ..  ..  ..  ..  .                                                               XXX@@@@@@@@@@@@@@@@XXXXXXX  ..  ..  ..  ..  ..  ..  ..  ..  ..  ..  ..  ..  ..  ..  ..  ..  ..  ..  ..  ..  ..  ..  ..  ..  ..  ..  ..  ..  ..  ..  ..  ..  ..  ..  ..  ..  ..XXXXXX@@@@@@@@@@@@@@@@@@@@@@@@XXXX                                                                                                    ..  ..  ..  ..  ..  ..  ..  ..  ..  ..  ..  ..  ..XXX                           ..  ..XX@@@@@@@@@@@@@@@@@@@@",
"@@@@@@@@@@@@@@@@@@@@@@@@@@@@@@@@@XXX .... .. .... .. .... .. .... .. .... .. ... XXX .... .. .... .. .... .. .... .. .... .. .... .. .... .. .... .. .... .. ....                                                               XXX@@@@@@@@@@@@@@@@@@@XXXXXXX.... .. .... .. .... .. .... .. .... .. .... .. .... .. .... .. .... .. .... .. .... .. .... .. .... .. .... .. .... .. .... .. .... .. .... .XXXXXXX@@@@@@@@@@@@@@@@@@@@@@@@XXXX                                                                                                     . .... .. .... .. .... .. .... .. .... .. .... .. ...XXX                          ....XXX@@@@@@@@@@@@@@@@@@@@",
"@@@@@@@@@@@@@@@@@@@@@@@@@@@@@@@@@@XX. .. .... .. .... .. .... .. .... .. .... XXXXX.. .. .... .. .... .. .... .. .... .. .... .. .... .. .... .. .... .. .... .. .                                                               XX@@@@@@@@@@@@@@@@@@@@@XXXXXXX. .... .. .... .. .... .. .... .. .... .. .... .. .... .. .... .. .... .. .... .. .... .. .... .. .... .. .... .. .... .. .... .. .... .. XXXXXXX@@@@@@@@@@@@@@@@@@@@@@@@@@XXX                                                                                                      .. .. .... .. .... .. .... .. .... .. .... .. .... ..XXXX                          .. XX@@@@@@@@@@@@@@@@@@@@@",
"@@@@@@@@@@@@@@@@@@@@@@@@@@@@@@@@@@@XX.  ..  ..  ..  ..  ..  ..  ..  ..  ..  XXXX..  ..  ..  ..  ..  ..  ..  ..  ..  ..  ..  ..  ..  ..  ..  ..  ..  ..  ..  ..  ..                                                               XXX@@@@@@@@@@@@@@@@@@@@@@@XXXXXXX  ..  ..  ..  ..  ..  ..  ..  ..  ..  ..  ..  ..  ..  ..  ..  ..  ..  ..  ..  ..  ..  ..  ..  ..  ..  ..  ..  ..  ..  ..  ..  ..  ..XXXXXX@@@@@@@@@@@@@@@@@@@@@@@@@@@@XXXX                                                                                                        ..  ..  ..  ..  ..  ..  ..  ..  ..  ..  ..  ..  ..  ..XXX                           XX@@@@@@@@@@@@@@@@@@@@@@",
"@@@@@@@@@@@@@@@@@@@@@@@@@@@@@@@@@@@XXX  ..  ..  ..  ..  ..  ..  ..  ..  .. XXXX ..  ..  ..  ..  ..  ..  ..  ..  ..  ..  ..  ..  ..  ..  ..  ..  ..  ..  ..  ..  ..                                                                XXX@@@@@@@@@@@@@@@@@@@@@@@@@XXXXXX..  ..  ..  ..  ..  ..  ..  ..  ..  ..  ..  ..  ..  ..  ..  ..  ..  ..  ..  ..  ..  ..  ..  ..  ..  ..  ..  ..  ..  ..  ..  ..  XXXXXX@@@@@@@@@@@@@@@@@@@@@@@@@@@@@XXX                                                                                                          ..  ..  ..  ..  ..  ..  ..  ..  ..  ..  ..  ..  ..  .. XXX                          XX@@@@@@@@@@@@@@@@@@@@@@",
"@@@@@@@@@@@@@@@@@@@@@@@@@@@@@@@@@@@@XXX. .... .. .... .. .... .. .... .. XXXX .. .... .. .... .. .... .. .... .. .... .. .... .. .... .. .... .. .... .. .... .. ...                                                                XXX@@@@@@@@@@@@@@@@@@@@@@@@@XXXXXXX. .... .. .... .. .... .. .... .. .... .. .... .. .... .. .... .. .... .. .... .. .... .. .... .. .... .. .... .. .... ..XXXXXXX@@@@@@@@@@@@@@@@@@@@@@@@@@@@@@XXXX                                                                                                           . .. .... .. .... .. .... .. .... .. .... .. .... .. ...XXX                        XX@@@@@@@@@@@@@@@@@@@@@@@",
"@@@@@@@@@@@@@@@@@@@@@@@@@@@@@@@@@@@@XXX.. .. .... .. .... .. .... .. ..XXXXX .... .. .... .. .... .. .... .. .... .. .... .. .... .. .... .. .... .. .... .. .... ..                                                                XXXX@@@@@@@@@@@@@@@@@@@@@@@@@@@XXXXXX .. .... .. .... .. .... .. .... .. .... .. .... .. .... .. .... .. .... .. .... .. .... .. .... .. .... .. .... .. .XXXXXXX@@@@@@@@@@@@@@@@@@@@@@@@@@@@@@@XXXX                                                                                                             .... .. .... .. .... .. .... .. .... .. .... .. .... .. XXX                        X@@@@@@@@@@@@@@@@@@@@@@@",
"@@@@@@@@@@@@@@@@@@@@@@@@@@@@@@@@@@@@@XXX..  ..  ..  ..  ..  ..  ..  .XXXXX  ..  ..  ..  ..  ..  ..  ..  ..  ..  ..  ..  ..  ..  ..  ..  ..  ..  ..  ..  ..  ..  ..  ..                                                                XXX@@@@@@@@@@@@@@@@@@@@@@@@@@@@@XXXXXXX.  ..  ..  ..  ..  ..  ..  ..  ..  ..  ..  ..  ..  ..  ..  ..  ..  ..  ..  ..  ..  ..  ..  ..  ..  ..  ..  .. XXXXXXX@@@@@@@@@@@@@@@@@@@@@@@@@@@@@@@@@XXX                                                                                                               .  ..  ..  ..  ..  ..  ..  ..  ..  ..  ..  ..  ..  ..  ..XXXX                    XX@@@@@@@@@@@@@@@@@@@@@@@@",
"@@@@@@@@@@@@@@@@@@@@@@@@@@@@@@@@@@@@@@XX..  ..  ..  ..  ..  ..  ..  XXXX..  ..  ..  ..  ..  ..  ..  ..  ..  ..  ..  ..  ..  ..  ..  ..  ..  ..  ..  ..  ..  ..  ..  ..                                                                 XXX@@@@@@@@@@@@@@@@@@@@@@@@@@@@@@XXXXXXXX..  ..  ..  ..  ..  ..  ..  ..  ..  ..  ..  ..  ..  ..  ..  ..  ..  ..  ..  ..  ..  ..  ..  ..  ..  ..  .XXXXXXX@@@@@@@@@@@@@@@@@@@@@@@@@@@@@@@@@@XXX                                                                                                                .  ..  ..  ..  ..  ..  ..  ..  ..  ..  ..  ..  ..  ..  ..  XXX                  XXX@@@@@@@@@@@@@@@@@@@@@@@@",
"@@@@@@@@@@@@@@@@@@@@@@@@@@@@@@@@@@@@@@@XX .. .... .. .... .. .... XXXX... .. .... .. .... .. .... .. .... .. .... .. .... .. .... .. .... .. .... .. .... .. .... .. ..                                                                 XXXX@@@@@@@@@@@@@@@@@@@@@@@@@@@@@@@@XXXXXXXX .... .. .... .. .... .. .... .. .... .. .... .. .... .. .... .. .... .. .... .. .... .. .... .. .XXXXXX@@@@@@@@@@@@@@@@@@@@@@@@@@@@@@@@@@@@XXXX                                                                                                                  ... .. .... .. .... .. .... .. .... .. .... .. .... .. ....XXX                XXX@@@@@@@@@@@@@@@@@@@@@@@@@",
"@@@@@@@@@@@@@@@@@@@@@@@@@@@@@@@@@@@@@@@XXX... .. .... .. .... ..XXXXX .. .... .. .... .. .... .. .... .. .... .. .... .. .... .. .... .. .... .. .... .. .... .. .... ..                                                                 XXXX@@@@@@@@@@@@@@@@@@@@@@@@@@@@@@@@@XXXXXXXX.. .... .. .... .. .... .. .... .. .... .. .... .. .... .. .... .. .... .. .... .. .... .. ..XXXXXXX@@@@@@@@@@@@@@@@@@@@@@@@@@@@@@@@@@@@@XXXX                                                                                                                   .. .... .. .... .. .... .. .... .. .... .. .... .. .... .. .XXX               XX@@@@@@@@@@@@@@@@@@@@@@@@@@",
"@@@@@@@@@@@@@@@@@@@@@@@@@@@@@@@@@@@@@@@@XXX ..  ..  ..  ..  ..XXXXX ..  ..  ..  ..  ..  ..  ..  ..  ..  ..  ..  ..  ..  ..  ..  ..  ..  ..  ..  ..  ..  ..  ..  ..  ..                                                                     XXX@@@@@@@@@@@@@@@@@@@@@@@@@@@@@@@@@@@@XXXXXXXX  ..  ..  ..  ..  ..  ..  ..  ..  ..  ..  ..  ..  ..  ..  ..  ..  ..  ..  ..  ..  .. XXXXXXXX@@@@@@@@@@@@@@@@@@@@@@@@@@@@@@@@@@@@@@@XXX                                                                                                                       ..  ..  ..  ..  ..  ..  ..  ..  ..  ..  ..  ..  ..  ..  .. XXX             XXX@@@@@@@@@@@@@@@@@@@@@@@@@@",
"@@@@@@@@@@@@@@@@@@@@@@@@@@@@@@@@@@@@@@@@XXX ..  ..  ..  ..  .XXXXX  ..  ..  ..  ..  ..  ..  ..  ..  ..  ..  ..  ..  ..  ..  ..  ..  ..  ..  ..  ..  ..  ..  ..  ..  ..  .                                                                   XXX@@@@@@@@@@@@@@@@@@@@@@@@@@@@@@@@@@@@@@XXXXXXXX.  ..  ..  ..  ..  ..  ..  ..  ..  ..  ..  ..  ..  ..  ..  ..  ..  ..  ..  ..XXXXXXXXXXX@@@@@@@@@@@@@@@@@@@@@@@@@@@@@@@@@@@@@@@@@XX                                                                                                                        ..  ..  ..  ..  ..  ..  ..  ..  ..  ..  ..  ..  ..  ..  ..  XXX            XXX@@@@@@@@@@@@@@@@@@@@@@@@@@",
"@@@@@@@@@@@@@@@@@@@@@@@@@@@@@@@@@@@@@@@@@XXX. .. .... .. ..XXXXX .... .. .... .. .... .. .... .. .... .. .... .. .... .. .... .. .... .. .... .. .... .. .... .. .... .. .                                                                   XXXX@@@@@@@@@@@@@@@@@@@@@@@@@@@@@@@@@@@@@@@@XXXXXXXX.... .. .... .. .... .. .... .. .... .. .... .. .... .. .... .. XXXXXXXXXXXXXXXXX@@@@@@@@@@@@@@@@@@@@@@@@@@@@@@@@@@@@@@@@@@@XXX                                                                                                                       . .... .. .... .. .... .. .... .. .... .. .... .. .... .. .... XXX         XXX@@@@@@@@@@@@@@@@@@@@@@@@@@@",
"@@@@@@@@@@@@@@@@@@@@@@@@@@@@@@@@@@@@@@@@@@XX .... .. .... XXXX... .. .... .. .... .. .... .. .... .. .... .. .... .. .... .. .... .. .... .. .... .. .... .. .... .. ....                                                                     XXXX@@@@@@@@@@@@@@@@@@@@@@@@@@@@@@@@@@@@@@@@@@XXXXXXXXXXXX. .. .... .. .... .. .... .. .... .. .... .. .... ..XXXXXXXXXXXXXXXXX@@@@@@@@@@@@@@@@@@@@@@@@@@@@@@@@@@@@@@@@@@@@@@@XXX                                                                                                                        .. .. .... .. .... .. .... .. .... .. .... .. .... .. .... .. .XXXX        XX@@@@@@@@@@@@@@@@@@@@@@@@@@@@",
"@OOOO@@@@@@@@@@@@@@@@@@@@@@@@@@@@@@@@@@@@@@XX.  ..  ..  XXXX..  ..  ..  ..  ..  ..  ..  ..  ..  ..  ..  ..  ..  ..  ..  ..  ..  ..  ..  ..  ..  ..  ..  ..  ..  ..  ..  ..                                                                      XXX@@@@@@@@@@@@@@@@@@@@@@@@@@@@@@@@@@@@@@@@@@@@@XXXXXXXXXXXXXXXXXXXX..  ..  ..  ..  ..  ..  ..  .. XXXXXXXXXXXXXXXXX@@@@@@@@@@@@@@@@@@@@@@@@@@@@@@@@@@@@@@@@@@@@@@@@@@@@@@@@XX                                                                                                                          ..  ..  ..  ..  ..  ..  ..  ..  ..  ..  ..  ..  ..  ..  ..  ..  XXXX     XXX@@@@@@@@@@@@@@@@@@@@@@@@@@@@",
"OOOOOOOOOO@@@@@@@@@@@@@@@@@@@@@@@@@@@@@@@@@XXX  ..  ..XXXXX ..  ..  ..  ..  ..  ..  ..  ..  ..  ..  ..  ..  ..  ..  ..  ..  ..  ..  ..  ..  ..  ..  ..  ..  ..  ..  ..  ..                                                                       XXX@@@@@@@@@@@@@@@@@@@@@@@@@@@@@@@@@@@@@@@@@@@@@@@@XXXXXXXXXXXXXXXXXXXXXXXXX.  ..  ..  ..  ..XXXXXXXXXXXXXXXXX@@@@@@@@@@@@@@@@@@@@@@@@@@@@@@@@@@@@@@@@@@@@@@@@@@@@@@@@@@@@XXX                                                                                                                          ..  ..  ..  ..  ..  ..  ..  ..  ..  ..  ..  ..  ..  ..  ..  ..  ..XXXX  XXX@@@@@@@@@@@@@@@@@@@@@@@@@@@@@",
"ooOOOOOOOOOOOOOO@@@@@@@@@@@@@@@@@@@@@@@@@@@@XXX.. ..XXXXX .. .... .. .... .. .... .. .... .. .... .. .... .. .... .. .... .. .... .. .... .. .... .. .... .. .... .. .... ..                                                                      XXXX@@@@@@@@@@@@@@@@@@@@@@@@@@@@@@@@@@@@@@@@@@@@@@@@@@@@@@@@@@XXXXXXXXXXXXXXXXXXXXXXXXXXXXXXXXXXXXXX@@@@@@@@@@@@@@@@@@@@@@@@@@@@@@@@@@@@@@@@@@@@@@@@@@@@@@@@@@@@@@@@@@@@XXX                                                                                                                           . .. .... .. .... .. .... .. .... .. .... .. .... .. .... .. .... .XXXXXXX@@@@@@@@@@@@@@@@@@@@@@@@@@@@@@",
"oooooooOOOOOOOOOOOOO@@@@@@@@@@@@@@@@@@@@@@@@XXX. ..XXXX. .... .. .... .. .... .. .... .. .... .. .... .. .... .. .... .. .... .. .... .. .... .. .... .. .... .. .... .. ....                                                                      XXX@@@@@@@@@@@@@@@@@@@@@@@@@@@@@@@@@@@@@@@@@@@@@@@@@@@@@@@@@@@@@@@@@@XXXXXXXXXXXXXXXXXXXXXXXXX@@@@@@@@@@@@@@@@@@@@@@@@@@@@@@@@@@@@@@@@@@@@@@@@@@@@@@@@@@@@@@@@@@@@@@@@@XXX                                                                                                                            .... .. .... .. .... .. .... .. .... .. .... .. .... .. .... .. ....XXXXX@@@@@@@@@@@@@@@@@@@@@@@@@@@@@@",
"ooooooooooooooOOOOOOOOOOOOO@@@@@@@@@@@@@@@@@@XXX.XXXX.  ..  ..  ..  ..  ..  ..  ..  ..  ..  ..  ..  ..  ..  ..  ..  ..  ..  ..  ..  ..  ..  ..  ..  ..  ..  ..  ..  ..  ..  ..                                                                       XXX@@@@@@@@@@@@@@@@@@@@@@@@@@@@@@@@@@@@@@@@@@@@@@@@@@@@@@@@@@@@@@@@@@@@@@@@@@@@XXXX@@@@@@@@@@@@@@@@@@@@@@@@@@@@@@@@@@@@@@@@@@@@@@@@@@@@@@@@@@@@@@@@@@@@@@@@@@@@@@@@@XXX                                                                                                                             .  ..  ..  ..  ..  ..  ..  ..  ..  ..  ..  ..  ..  ..  ..  ..  ..  ..XXXXX@@@@@@@@@@@@@@@@@@@@@@@@@@@@@",
"ooooooooooooooooooOOOOOOOOOOO@@@@@@@@@@@@@@@@@XXXXXX..  ..  ..  ..  ..  ..  ..  ..  ..  ..  ..  ..  ..  ..  ..  ..  ..  ..  ..  ..  ..  ..  ..  ..  ..  ..  ..  ..  ..  ..  ..                                                                        XXX@@@@@@@@@@@@@@@@@@@@@@@@@@@@@@@@@@@@@@@@@@@@@@@@@@@@@@@@@@@@@@@@@@@@@@@@@@@@@@@@@@@@@@@@@@@@@@@@@@@@@@@@@@@@@@@@@@@@@@@@@@@@@@@@@@@@@@@@@@@@@@@@@@@@@@@@@@@@@@@@XXX                                                                                                                             .  ..  ..  ..  ..  ..  ..  ..  ..  ..  ..  ..  ..  ..  ..  ..  ..  ..  XXXX@@@@@@@@@@@@@@@@@@@@@@@@@@@@",
"ooooooooooooooooooooooooOOOOOOO@@@@@@@@@@@@@@@XXXX... .. .... .. .... .. .... .. .... .. .... .. .... .. .... .. .... .. .... .. .... .. .... .. .... .. .... .. .... .. .... .                                                                        XXX@@@@@@@@@@@@@@@@@@@@@@@@@@@@@@@@@@@@@@@@@@@@@@@@@@@@@@@@@@@@@@@@@@@@@@@@@@@@@@@@@@@@@@@@@@@@@@@@@@@@@@@@@@@@@@@@@@@@@@@@@@@@@@@@@@@@@@@@@@@@@@@@@@@@@@@@@@@@@@XXX                                                                                                                               ... .. .... .. .... .. .... .. .... .. .... .. .... .. .... .. .... .. .XXXX@@@@@@@@@@@@@@@@@@@@@@@@@@",
"ooooooooooooooooooooooooooooOOOO@@@@@@@@@@@@XXXX. .. .... .. .... .. .... .. .... .. .... .. .... .. .... .. .... .. .... .. .... .. .... .. .... .. .... .. .... .. .... .. ...                                                                        XXXX@@@@@@@@@@@@@@@@@@@@@@@@@@@@@@@@@@@@@@@@@@@@@@@@@@@@@@@@@@@@@@@@@@@@@@@@@@@@@@@@@@@@@@@@@@@@@@@@@@@@@@@@@@@@@@@@@@@@@@@@@@@@@@@@@@@@@@@@@@@@@@@@@@@@@@@@@@@@XX                                                                                                                                .. .... .. .... .. .... .. .... .. .... .. .... .. .... .. .... .. .... .XXXX@@@@@@@@@@@@@@@@@@@@@@@@@",
"ooooooooooooooooooooooooooooooOOOO@@@@@@@@XXXX  ..  ..  ..  ..  ..  ..  ..  ..  ..  ..  ..  ..  ..  ..  ..  ..  ..  ..  ..  ..  ..  ..  ..  ..  ..  ..  ..  ..  ..  ..  ..  ..  ..                                                                        XXX@@@@@@@@@@@@@@@@@@@@@@@@@@@@@@@@@@@@@@@@@@@@@@@@@@@@@@@@@@@@@@@@@@@@@@@@@@@@@@@@@@@@@@@@@@@@@@@@@@@@@@@@@@@@@@@@@@@@@@@@@@@@@@@@@@@@@@@@@@@@@@@@@@@@@@@@@@XXX                                                                                                                                  ..  ..  ..  ..  ..  ..  ..  ..  ..  ..  ..  ..  ..  ..  ..  ..  ..  ..  .XXXX@@@@@@@@@@@@@@@@@@@OOOO",
"oooooooooooooooooooooooooooooooOOOO@@@@@@XXXX.  ..  ..  ..  ..  ..  ..  ..  ..  ..  ..  ..  ..  ..  ..  ..  ..  ..  ..  ..  ..  ..  ..  ..  ..  ..  ..  ..  ..  ..  ..  ..  ..  ..                                                                        XXXX@@@@@@@@@@@@@@@@@@@@@@@@@@@@@@@@@@@@@@@@@@@@@@@@@@@@@@@@@@@@@@@@@@@@@@@@@@@@@@@@@@@@@@@@@@@@@@@@@@@@@@@@@@@@@@@@@@@@@@@@@@@@@@@@@@@@@@@@@@@@@@@@@@@@@@@@XXX                                                                                                                                   ..  ..  ..  ..  ..  ..  ..  ..  ..  ..  ..  ..  ..  ..  ..  ..  ..  ..  ..XXXX@@@@@@@@@@@@@@@@OOOOOO",
"oooooooooooooooooooooooooooooooooOOO@@@XXXX. .... .. .... .. .... .. .... .. .... .. .... .. .... .. .... .. .... .. .... .. .... .. .... .. .... .. .... .. .... .. .... .. .... ..                                                                        XXX@@@@@@@@@@@@@@@@@@@@@@@@@@@@@@@@@@@@@@@@@@@@@@@@@@@@@@@@@@@@@@@@@@@@@@@@@@@@@@@@@@@@@@@@@@@@@@@@@@@@@@@@@@@@@@@@@@@@@@@@@@@@@@@@@@@@@@@@@@@@@@@@@@@@@@@XX                                                                                                                                     .... .. .... .. .... .. .... .. .... .. .... .. .... .. .... .. .... .. ...XXXX@@@@@@@@@@OOOOOOOOOO",
"ooooooooooooooooooooooooooooooooooOO@XXXXX... .. .... .. .... .. .... .. .... .. .... .. .... .. .... .. .... .. .... .. .... .. .... .. .... .. .... .. .... .. .... .. .... .. ....                                                                        XXX@@@@@@@@@@@@@@@@@@@@@@@@@@@@@@@@@@@@@@@@@@@@@@@@@@@@@@@@@@@@@@@@@@@@@@@@@@@@@@@@@@@@@@@@@@@@@@@@@@@@@@@@@@@@@@@@@@@@@@@@@@@@@@@@@@@@@@@@@@@@@@@@@@@@@XXX                                                                                                                                      .. .... .. .... .. .... .. .... .. .... .. .... .. .... .. .... .. .... .. .XXXX@@@@@@OOOOOOOOOOOO",
"ooooooooooooooooooooooooooooooooooOOOOOOOO  ..  ..  ..  ..  ..  ..  ..  ..  ..  ..  ..  ..  ..  ..  ..  ..  ..  ..  ..  ..  ..  ..  ..  ..  ..  ..  ..  ..  ..  ..  ..  ..  ..  ..  ..                                                                        XXXX@@@@@@@@@@@@@@@@@@@@@@@@@@@@@@@@@@@@@@@@@@@@@@@@@@@@@@@@@@@@@@@@@@@@@@@@@@@@@@@@@@@@@@@@@@@@@@@@@@@@@@@@@@@@@@@@@@@@@@@@@@@@@@@@@@@@@@@@@@@@@@@@@@XXX                                                                                                                                         ..  ..  ..  ..  ..  ..  ..  ..  ..  ..  ..  ..  ..  ..  ..  ..  ..  ..  .. XXXXX@@OOOOOOO@@@@@@@",
"oooooooooooooooooooooooooooooOOOOOOOOOOOOOOOO.  ..  ..  ..  ..  ..  ..  ..  ..  ..  ..  ..  ..  ..  ..  ..  ..  ..  ..  ..  ..  ..  ..  ..  ..  ..  ..  ..  ..  ..  ..  ..  ..  ..  ..  ..                                                                      XXX@@@@@@@@@@@@@@@@@@@@@@@@@@@@@@@@@@@@@@@@@@@@@@@@@@@@@@@@@@@@@@@@@@@@@@@@@@@@@@@@@@@@@@@@@@@@@@@@@@@@@@@@@@@@@@@@@@@@@@@@@@@@@@@@@@@@@@@@@@@@@@@@@XX                                                                                                                                           .  ..  ..  ..  ..  ..  ..  ..  ..  ..  ..  ..  ..  ..  ..  ..  ..  ..  ..  .XXXXOOOOO@@@@@@@@@@",
"ooooooooooooooooooooooOOOOOOOOOOOOOOOOooOOOOOOOOOO... .. .... .. .... .. .... .. .... .. .... .. .... .. .... .. .... .. .... .. .... .. .... .. .... .. .... .. .... .. .... .. .... .. ...                                                                     XXX@@@@@@@@@@@@@@@@@@@@@@@@@@@@@@@@@@@@@@@@@@@@@@@@@@@@@@@@@@@@@@@@@@@@@@@@@@@@@@@@@@@@@@@@@@@@@@@@@@@@@@@@@@@@@@@@@@@@@@@@@@@@@@@@@@@@@@@@@@@@@@@XXX                                                                                                                                            ... .. .... .. .... .. .... .. .... .. .... .. .... .. .... .. .... .. .... XXXXX@@@@@@@@@@@@@",
"oooooooooooooooooooooOOOOOOOOOOOooXooooooooOOOOOOOOOO.... .. .... .. .... .. .... .. .... .. .... .. .... .. .... .. .... .. .... .. .... .. .... .. .... .. .... .. .... .. .... .. .... ..                                                                      XXX@@@@@@@@@@@@@@@@@@@@@@@@@@@@@@@@@@@@@@@@@@@@@@@@@@@@@@@@@@@@@@@@@@@@@@@@@@@@@@@@@@@@@@@@@@@@@@@@@@@@@@@@@@@@@@@@@@@@@@@@@@@@@@@@@@@@@@@@@@@@@@XX                                                                                                                                                .... .. .... .. .... .. .... .. .... .. .... .. .... .. .... .. .... .. ...XXXX@@@@@@@@@@@@",
"ooooooooooooooooooooOOOOooooooooooooooooooooooooOOOOOOOOOO  ..  ..  ..  ..  ..  ..  ..  ..  ..  ..  ..  ..  ..  ..  ..  ..  ..  ..  ..  ..  ..  ..  ..  ..  ..  ..  ..  ..  ..  ..  ..  ..  ..                                                                     XXXX@@@@@@@@@@@@@@@@@@@@@@@@@@@@@@@@@@@@@@@@@@@@@@@@@@@@@@@@@@@@@@@@@@@@@@@@@@@@@@@@@@@@@@@@@@@@@@@@@@@@@@@@@@@@@@@@@@@@@@@@@@@@@@@@@@@@@@@@@@@XX                                                                                                                                                 .  ..  ..  ..  ..  ..  ..  ..  ..  ..  ..  ..  ..  ..  ..  ..  ..  ..  ..  ..XXXX@@@@@@@@@@",
"oooooooooooooooooooOOOoooooooooooooooooooooooooooooOOOOOOOOOOO  ..  ..  ..  ..  ..  ..  ..  ..  ..  ..  ..  ..  ..  ..  ..  ..  ..  ..  ..  ..  ..  ..  ..  ..  ..  ..  ..  ..  ..  ..  ..  ..                                                                      XXXX@@@@@@@@@@@@@@@@@@@@@@@@@@@@@@@@@@@@@@@@@@@@@@@@@@@@@@@@@@@@@@@@@@@@@@@@@@@@@@@@@@@@@@@@@@@@@@@@@@@@@@@@@@@@@@@@@@@@@@@@@@@@@@@@@@@@@@@@@@XX                                                                                                                                                    ..  ..  ..  ..  ..  ..  ..  ..  ..  ..  ..  ..  ..  ..  ..  ..  ..  ..  .. XXXX@@@@@@@@@",
"ooooooooooooooooooOOOoooooooooooooooooooooooooooooooooooOOOOOOOOO .. .... .. .... .. .... .. .... .. .... .. .... .. .... .. .... .. .... .. .... .. .... .. .... .. .... .. .... .. .... .. ...                                                                      XXX@@@@@@@@@@@@@@@@@@@@@@@@@@@@@@@@@@@@@@@@@@@@@@@@@@@@@@@@@@@@@@@@@@@@@@@@@@@@@@@@@@@@@@@@@@@@@@@@@@@@@@@@@@@@@@@@@@@@@@@@@@@@@@@@@@@@@@@@XXX                                                 .                                                                                                  . .. .... .. .... .. .... .. .... .. .... .. .... .. .... .. .... .. .... .. XXXX@@@@@@@",
"ooooooooooooooooooOOooooooooooooooooooooooooooooooooooooooooOOOOOO... .. .... .. .... .. .... .. .... .. .... .. .... .. .... .. .... .. .... .. .... .. .... .. .... .. .... .. .... .. .... ..                                                                       XXX@@@@@@@@@@@@@@@@@@@@@@@@@@@@@@@@@@@@@@@@@@@@@@@@@@@@@@@@@@@@@@@@@@@@@@@@@@@@@@@@@@@@@@@@@@@@@@@@@@@@@@@@@@@@@@@@@@@@@@@@@@@@@@@@@@@@@@@XXX                                          .. .... ..                                                                                                 .... .. .... .. .... .. .... .. .... .. .... .. .... .. .... .. .... .. .... XXXX@@@@@@",
"ooooooooooooooooOOOoooooooooooooooooooooooooooooooooooooooooooooOO  ..  ..  ..  ..  ..  ..  ..  ..  ..  ..  ..  ..  ..  ..  ..  ..  ..  ..  ..  ..  ..  ..  ..  ..  ..  ..  ..  ..  ..  ..  ..                                                                          XXXX@@@@@@@@@@@@@@@@@@@@@@@@@@@@@@@@@@@@@@@@@@@@@@@@@@@@@@@@@@@@@@@@@@@@@@@@@@@@@@@@@@@@@@@@@@@@@@@@@@@@@@@@@@@@@@@@@@@@@@@@@@@@@@@@@@@@@XXX                                ..  ..  ..  ..  ..  ..                                                                                                  ..  ..  ..  ..  ..  ..  ..  ..  ..  ..  ..  ..  ..  ..  ..  ..  ..  ..  ..  XXXX@@@@",
"ooooooooooooooooOOooooooooooooooooooooooooooooooooooooooooooooooOOO ..  ..  ..  ..  ..  ..  ..  ..  ..  ..  ..  ..  ..  ..  ..  ..  ..  ..  ..  ..  ..  ..  ..  ..  ..  ..  ..  ..  ..  ..  .XX                                                                          XXXX@@@@@@@@@@@@@@@@@@@@@@@@@@@@@@@@@@@@@@@@@@@@@@@@@@@@@@@@@@@@@@@@@@@@@@@@@@@@@@@@@@@@@@@@@@@@@@@@@@@@@@@@@@@@@@@@@@@@@@@@@@@@@@@@@@@@XXX                        ..  ..  ..  ..  ..  ..  ..  ..  ..                                                                                              ..  ..  ..  ..  ..  ..  ..  ..  ..  ..  ..  ..  ..  ..  ..  ..  ..  ..  ..  ..XXXX@@",
"oooooooooooooooOOOooooooooooooooooooooooooooooooooooooooooooooooooOO. .. .... .. .... .. .... .. .... .. .... .. .... .. .... .. .... .. .... .. .... .. .... .. .... .. .... .. .... .. ...XX@                                                                            XXX@@@@@@@@@@@@@@@@@@@@@@@@@@@@@@@@@@@@@@@@@@@@@@@@@@@@@@@@@@@@@@@@@@@@@@@@@@@@@@@@@@@@@@@@@@@@@@@@@@@@@@@@@@@@@@@@@@@@@@@@@@@@@@@@@@@XXX              ... .. .... .. .... .. .... .. .... .. .... .. .                                                                                            .. .... .. .... .. .... .. .... .. .... .. .... .. .... .. .... .. .... .. ..XXXXX",
"ooooooooooooooOOOoooooooooooooooooooooooooooooooooooooooooooooooooOOO.... .. .... .. .... .. .... .. .... .. .... .. .... .. .... .. .... .. .... .. .... .. .... .. .... .. .... .. .... .XXX                                                                              XXX@@@@@@@@@@@@@@@@@@@@@@@@@@@@@@@@@@@@@@@@@@@@@@@@@@@@@@@@@@@@@@@@@@@@@@@@@@@@@@@@@@@@@@@@@@@@@@@@@@@@@@@@@@@@@@@@@@@@@@@@@@@@@@@@@@XXX              .. .... .. .... .. .... .. .... .. .... .. .... ..                    XX                                                                    ... .. .... .. .... .. .... .. .... .. .... .. .... .. .... .. .... .. .... .. XXX",
"oooooooooooooOOOoooooooooooooooooooooooooooooooooooooooooooooooooooOOO  ..  ..  ..  ..  ..  ..  ..  ..  ..  ..  ..  ..  ..  ..  ..  ..  ..  ..  ..  ..  ..  ..  ..  ..  ..  ..  ..  ..  ..XXX                                                                                XXX@@@@@@@@@@@@@@@@@@@@@@@@@@@@@@@@@@@@@@@@@@@@@@@@@@@@@@@@@@@@@@@@@@@@@@@@@@@@@@@@@@@@@@@@@@@@@@@@@@@@@@@@@@@@@@@@@@@@@@@@@@@@@@@@@XXX            ..  ..  ..  ..  ..  ..  ..  ..  ..  ..  ..  ..  ..  ..                  XXX                                                                     ..  ..  ..  ..  ..  ..  ..  ..  ..  ..  ..  ..  ..  ..  ..  ..  ..  ..  ..  ..XX",
"ooooooooooooOOOoooooooooooooooooooooooooooooooooooooooooooooooooooooOOO ..  ..  ..  ..  ..  ..  ..  ..  ..  ..  ..  ..  ..  ..  ..  ..  ..  ..  ..  ..  ..  ..  ..  ..  ..  ..  ..  ..  .XXX                                                                                  XXX@@@@@@@@@@@@@@@@@@@@@@@@@@@@@@@@@@@@@@@@@@@@@@@@@@@@@@@@@@@@@@@@@@@@@@@@@@@@@@@@@@@@@@@@@@@@@@@@@@@@@@@@@@@@@@@@@@@@@@@@@@@@@@@@XXX            ..  ..  ..  ..  ..  ..  ..  ..  ..  ..  ..  ..  ..  ..  ..               XXX                                                                    ..  ..  ..  ..  ..  ..  ..  ..  ..  ..  ..  ..  ..  ..  ..  ..  ..  ..  ..  ..  ",
"ooooooooooooOOoooooooooooooooooooooooooooooooooooooooooooooooooooooooOOO. .. .... .. .... .. .... .. .... .. .... .. .... .. .... .. .... .. .... .. .... .. .... .. .... .. .... .. ...XXX                                                                                   XXX@@@@@@@@@@@@@@@@@@@@@@@@@@@@@@@@@@@@@@@@@@@@@@@@@@@@@@@@@@@@@@@@@@@@@@@@@@@@@@@@@@@@@@@@@@@@@@@@@@@@@@@@@@@@@@@@@@@@@@@@@@@@@@@@XXX           .. .. .... .. .... .. .... .. .... .. .... .. .... .. .... ..              XXX                                                                     .. .... .. .... .. .... .. .... .. .... .. .... .. .... .. .... .. .... .. ...",
"oooooooooooOOOooooooooooooooooooooooooooooooooooooooooooooooooooooooooOO .... .. .... .. .... .. .... .. .... .. .... .. .... .. .... .. .... .. .... .. .... .. .... .. .... .. .... ..XX                                                                                     XX@@@@@@@@@@@@@@@@@@@@@@@@@@@@@@@@@@@@@@@@@@@@@@@@@@@@@@@@@@@@@@@@@@@@@@@@@@@@@@@@@@@@@@@@@@@@@@@@@@@@@@@@@@@@@@@@@@@@@@@@@@@@@@@@XXX          .. .... .. .... .. .... .. .... .. .... .. .... .. .... .. ....              XXX                                                                     .. .. .... .. .... .. .... .. .... .. .... .. .... .. .... .. .... .. .... ..",
"ooooooooooOOOooooooooooooooooooooooooooooooooooooooooooooooooooooooooooOO.  ..  ..  ..  ..  ..  ..  ..  ..  ..  ..  ..  ..  ..  ..  ..  ..  ..  ..  ..  ..  ..  ..  ..  ..  ..  ..  ..XXX                           ..                                                         XX@@@@@@@@@@@@@@@@@@@@@@@@@@@@@@@@@@@@@@@@@@@@@@@@@@@@@@@@@@@@@@@@@@@@@@@@@@@@@@@@@@@@@@@@@@@@@@@@@@@@@@@@@@@@@@@@@@@@@@@@@@@@@@@@XXX         .  ..  ..  ..  ..  ..  ..  ..  ..  ..  ..  ..  ..  ..  ..  ..  ..              XXX                                                                     ..  ..  ..  ..  ..  ..  ..  ..  ..  ..  ..  ..  ..  ..  ..  ..  ..  ..  ..  ",
"oooooooooOOOoooooooooooooooooooooooooooooooooooooooooooooooooooooooooooOOO  ..  ..  ..  ..  ..  ..  ..  ..  ..  ..  ..  ..  ..  ..  ..  ..  ..  ..  ..  ..  ..  ..  ..  ..  ..  ..  ..XX                        ..  ..  ..                                                     XX@@@@@@@@@@@@@@@@@@@@@@@@@@@@@@@@@@@@@@@@@@@@@@@@@@@@@@@@@@@@@@@@@@@@@@@@@@@@@@@@@@@@@@@@@@@@@@@@@@@@@@@@@@@@@@@@@@@@@@@@@@@@@@@@XXX         .  ..  ..  ..  ..  ..  ..  ..  ..  ..  ..  ..  ..  ..  ..  ..  ..               XXX                                                                        ..  ..  ..  ..  ..  ..  ..  ..  ..  ..  ..  ..  ..  ..  ..  ..  ..  ..  ",
"ooooooooOOOoooooooooooooooooooooooooooooooooooooooooooooooooooooooooooooOOO.. .. .... .. .... .. .... .. .... .. .... .. .... .. .... .. .... .. .... .. .... .. .... .. .... .. ...XXX                       .. .... .. .... ..                                               XXX@@@@@@@@@@@@@@@@@@@@@@@@@@@@@@@@@@@@@@@@@@@@@@@@@@@@@@@@@@@@@@@@@@@@@@@@@@@@@@@@@@@@@@@@@@@@@@@@@@@@@@@@@@@@@@@@@@@@@@@@@@@@@@@XXX        . .. .... .. .... .. .... .. .... .. .... .. .... .. .... .. .... .. .            XXX                                                                      . .... .. .... .. .... .. .... .. .... .. .... .. .... .. .... .. .... ..",
"ooooooooOOoooooooooooooooooooooooooooooooooooooooooooooooooooooooooooooooOOO .... .. .... .. .... .. .... .. .... .. .... .. .... .. .... .. .... .. .... .. .... .. .... .. .... ..XXX                      .... .. .... .. .... ..                                           XXX@@@@@@@@@@@@@@@@@@@@@@@@@@@@@@@@@@@@@@@@@@@@@@@@@@@@@@@@@@@@@@@@@@@@@@@@@@@@@@@@@@@@@@@@@@@@@@@@@@@@@@@@@@@@@@@@@@@@@@@@@@@@@@@XXX       . .... .. .... .. .... .. .... .. .... .. .... .. .... .. .... .. .... .            XXX                                                                      . .. .... .. .... .. .... .. .... .. .... .. .... .. .... .. .... .. ...",
"oooooooOOoooooooooooooooooooooooooooooooooooooooooooooooooooooooooooooooooOOO.  ..  ..  ..  ..  ..  ..  ..  ..  ..  ..  ..  ..  ..  ..  ..  ..  ..  ..  ..  ..  ..  ..  ..  ..  .. XXX                      ..  ..  ..  ..  ..  ..  ..  .                                      XXX@@@@@@@@@@@@@@@@@@@@@@@@@@@@@@@@@@@@@@@@@@@@@@@@@@@@@@@@@@@@@@@@@@@@@@@@@@@@@@@@@@@@@@@@@@@@@@@@@@@@@@@@@@@@@@@@@@@@@@@@@@@@@@@XXX        ..  ..  ..  ..  ..  ..  ..  ..  ..  ..  ..  ..  ..  ..  ..  ..  ..  ..              XXX                 ..                                                      ..  ..  ..  ..  ..  ..  ..  ..  ..  ..  ..  ..  ..  ..  ..  ..  ..  ",
"ooooooOOOooooooooooooooooooooooooooooooooooooooooooooooooooooooooooooooooooOOO  ..  ..  ..  ..  ..  ..  ..  ..  ..  ..  ..  ..  ..  ..  ..  ..  ..  ..  ..  ..  ..  ..  ..  ..  ..XXX                   ..  ..  ..  ..  ..  ..  ..  ..  ..                                     XXX@@@@@@@@@@@@@@@@@@@@@@@@@@@@@@@@@@@@@@@@@@@@@@@@@@@@@@@@@@@@@@@@@@@@@@@@@@@@@@@@@@@@@@@@@@@@@@@@@@@@@@@@@@@@@@@@@@@@@@@@@@@@@@@XXX        ..  ..  ..  ..  ..  ..  ..  ..  ..  ..  ..  ..  ..  ..  ..  ..  ..  ..  ..           XXX                ..                                                      ..  ..  ..  ..  ..  ..  ..  ..  ..  ..  ..  ..  ..  ..  ..  ..  ..  ",
"oooooOOOooooooooooooooooooooooooooooooooooooooooooooooooooooooooooooooooooooOO... .. .... .. .... .. .... .. .... .. .... .. .... .. .... .. .... .. .... .. .... .. .... .. ....XXX                  ... .. .... .. .... .. .... .. .... .. ....                               XX@@@@@@@@@@@@@@@@@@@@@@@@@@@@@@@@@@@@@@@@@@@@@@@@@@@@@@@@@@@@@@@@@@@@@@@@@@@@@@@@@@@@@@@@@@@@@@@@@@@@@@@@@@@@@@@@@@@@@@@@@@@@@@@XXX      .. .... .. .... .. .... .. .... .. .... .. .... .. .... .. .... .. .... .. ..           XX                 ....                                                    .... .. .... .. .... .. .... .. .... .. .... .. .... .. .... .. ...",
"ooooOOOoooooooooooooooooooooooooooooooooooooooooooooooooooooooooooooooooooooOOO. .... .. .... .. .... .. .... .. .... .. .... .. .... .. .... .. .... .. .... .. .... .. .... ..XXX                 . .. .... .. .... .. .... .. .... .. .... .. ....                           XX@@@@@@@@@@@@@@@@@@@@@@@@@@@@@@@@@@@@@@@@@@@@@@@@@@@@@@@@@@@@@@@@@@@@@@@@@@@@@@@@@@@@@@@@@@@@@@@@@@@@@@@@@@@@@@@@@@@@@@@@@@@@@@@XXX     .... .. .... .. .... .. .... .. .... .. .... .. .... .. .... .. .... .. .... ..          XXX                 .. ...                                                  .. .... .. .... .. .... .. .... .. .... .. .... .. .... .. .... ..",
"ooooOOooooooooooooooooooooooooooooooooooooooooooooooooooooooooooooooooooooooooOO..  ..  ..  ..  ..  ..  ..  ..  ..  ..  ..  ..  ..  ..  ..  ..  ..  ..  ..  ..  ..  ..  ..  .. XXX                  ..  ..  ..  ..  ..  ..  ..  ..  ..  ..  ..  ..  ..  ..                      XX@@@@@@@@@@@@@@@@@@@@@@@@@@@@@@@@@@@@@@@@@@@@@@@@@@@@@@@@@@@@@@@@@@@@@@@@@@@@@@@@@@@@@@@@@@@@@@@@@@@@@@@@@@@@@@@@@@@@@@@@@@@@@@@@XX    ..  ..  ..  ..  ..  ..  ..  ..  ..  ..  ..  ..  ..  ..  ..  ..  ..  ..  ..  ..  ..          XX               .  ..  ..                                                  ..  ..  ..  ..  ..  ..  ..  ..  ..  ..  ..  ..  ..  ..  ..  ..  ",
"ooooOOooooooooooooooooooooooooooooooooooooooooooooooooooooooooooooooooooooooooOOO.  ..  ..  ..  ..  ..  ..  ..  ..  ..  ..  ..  ..  ..  ..  ..  ..  ..  ..  ..  ..  ..  ..  ..XXX               ..  ..  ..  ..  ..  ..  ..  ..  ..  ..  ..  ..  ..  ..  ..  ..                  XX@@@@@@@@@@@@@@@@@@@@@@@@@@@@@@@@@@@@@@@@@@@@@@@@@@@@@@@@@@@@@@@@@@@@@@@@@@@@@@@@@@@@@@@@@@@@@@@@@@@@@@@@@@@@@@@@@@@@@@@@@@@@@@@@XX    ..  ..  ..  ..  ..  ..  ..  ..  ..  ..  ..  ..  ..  ..  ..  ..  ..  ..  ..  ..  ..          XXX              .  ..  ..                                                  ..  ..  ..  ..  ..  ..  ..  ..  ..  ..  ..  ..  ..  ..  ..  ..  ",
"oooOOOoooooooooooooooooooooooooooooooooooooooooooooooooooooooooooooooooooooooooOOO... .. .... .. .... .. .... .. .... .. .... .. .... .. .... .. .... .. .... .. .... .. .... XX              .. .... .. .... .. .... .. .... .. .... .. .... .. .... .. .... .. ..             XX@@@@@@@@@@@@@@@@@@@@@@@@@@@@@@@@@@@@@@@@@@@@@@@@@@@@@@@@@@@@@@@@@@@@@@@@@@@@@@@@@@@@@@@@@@@@@@@@@@@@@@@@@@@@@@@@@@@@@@@@@@@@@@@@XXX .. .... .. .... .. .... .. .... .. .... .. .... .. .... .. .... .. .... .. .... .. ...          XX              .. .... .. .                                                ... .. .... .. .... .. .... .. .... .. .... .. .... .. .... ..",
"oooOOoooooooooooooooooooooooooooooooooooooooooooooooooooooooooooooooooooooooooooOO.. .... .. .... .. .... .. .... .. .... .. .... .. .... .. .... .. .... .. .... .. .... .. XXX             .... .. .... .. .... .. .... .. .... .. .... .. .... .. .... .. .... .. .          XX@@@@@@@@@@@@@@@@@@@@@@@@@@@@@@@@@@@@@@@@@@@@@@@@@@@@@@@@@@@@@@@@@@@@@@@@@@@@@@@@@@@@@@@@@@@@@@@@@@@@@@@@@@@@@@@@@@@@@@@@@@@@@@@@@XX.... .. .... .. .... .. .... .. .... .. .... .. .... .. .... .. .... .. .... .. .... ..          XXX             ... .. .... ..                                              .. .... .. .... .. .... .. .... .. .... .. .... .. .... .. ...",
"ooOOOooooooooooooooooooooooooooooooooooooooooooooooooooooooooooooooooooooooooooooOOO..  ..  ..  ..  ..  ..  ..  ..  ..  ..  ..  ..  ..  ..  ..  ..  ..  ..  ..  ..  ..  ..  XX           .  ..  ..  ..  ..  ..  ..  ..  ..  ..  ..  ..  ..  ..  ..  ..  ..  ..  ..  ..  ..      XXX@@@@@@@@@@@@@@@@@@@@@@@@@@@@@@@@@@@@@@@@@@@@@@@@@@@@@@@@@@@@@@@@@@@@@@@@@@@@@@@@@@@@@@@@@@@@@@@@@@@@@@@@@@@@@@@@@@@@@@@@@@@@@@@@XXX  ..  ..  ..  ..  ..  ..  ..  ..  ..  ..  ..  ..  ..  ..  ..  ..  ..  ..  ..  ..  ..  ..          XX              ..  ..  ..  ..                                              ..  ..  ..  ..  ..  ..  ..  ..  ..  ..  ..  ..  ..  ..  ..  ",
"ooOOOoooooooooooooooooooooooooooooooooooooooooooooooooooooooooooooooooooooooooooooOO..  ..  ..  ..  ..  ..  ..  ..  ..  ..  ..  ..  ..  ..  ..  ..  ..  ..  ..  ..  ..  .. XXX          ..  ..  ..  ..  ..  ..  ..  ..  ..  ..  ..  ..  ..  ..  ..  ..  ..  ..  ..  ..  ..      XXX@@@@@@@@@@@@@@@@@@@@@@@@@@@@@@@@@@@@@@@@@@@@@@@@@@@@@@@@@@@@@@@@@@@@@@@@@@@@@@@@@@@@@@@@@@@@@@@@@@@@@@@@@@@@@@@@@@@@@@@@@@@@@@@@@XX  ..  ..  ..  ..  ..  ..  ..  ..  ..  ..  ..  ..  ..  ..  ..  ..  ..  ..  ..  ..  ..  ..          XXX             ..  ..  ..  ..                                               .  ..  ..  ..  ..  ..  ..  ..  ..  ..  ..  ..  ..  ..  ..  ",
"ooOOooooooooooooooooooooooooooooooooooooooooooooooooooooooooooooooooooooooooooooooOOO.... .. .... .. .... .. .... .. .... .. .... .. .... .. .... .. .... .. .... .. .... XXX        .... .. .... .. .... .. .... .. .... .. .... .. .... .. .... .. .... .. .... .. .... ..    XXX@@@@@@@@@@@@@@@@@@@@@@@@@@@@@@@@@@@@@@@@@@@@@@@@@@@@@@@@@@@@@@@@@@@@@@@@@@@@@@@@@@@@@@@@@@@@@@@@@@@@@@@@@@@@@@@@@@@@@@@@@@@@@@@@@XX... .. .... .. .... .. .... .. .... .. .... .. .... .. .... .. .... .. .... .. .... .. ....        XXX           .. .. .... .. .... .                                          .... .. .... .. .... .. .... .. .... .. .... .. .... .. ...",
"ooOOoooooooooooooooooooooooooooooooooooooooooooooooooooooooooooooooooooooooooooooooOOO.. .... .. .... .. .... .. .... .. .... .. .... .. .... .. .... .. .... .. .... .. XXX        . .. .... .. .... .. .... .. .... .. .... .. .... .. .... .. .... .. .... .. .... .. ...    XXX@@@@@@@@@@@@@@@@@@@@@@@@@@@@@@@@@@@@@@@@@@@@@@@@@@@@@@@@@@@@@@@@@@@@@@@@@@@@@@@@@@@@@@@@@@@@@@@@@@@@@@@@@@@@@@@@@@@@@@@@@@@@@@@@@XXX. .... .. .... .. .... .. .... .. .... .. .... .. .... .. .... .. .... .. .... .. .... .. .        XXX          . .... .. .... .. ....                                  . .... .. .... .. .... .. .... .. .... .. .... .. .... .. .... ..",
"oOOOooooooooooooooooooooooooooooooooooooooooooooooooooooooooooooooooooooooooooooooooOO  ..  ..  ..  ..  ..  ..  ..  ..  ..  ..  ..  ..  ..  ..  ..  ..  ..  ..  ..  ..  XXX      .  ..  ..  ..  ..  ..  ..  ..  ..  ..  ..  ..  ..  ..  ..  ..  ..  ..  ..  ..  ..  ..  ..  .    XX@@@@@@@@@@@@@@@@@@@@@@@@@@@@@@@@@@@@@@@@@@@@@@@@@@@@@@@@@@@@@@@@@@@@@@@@@@@@@@@@@@@@@@@@@@@@@@@@@@@@@@@@@@@@@@@@@@@@@@@@@@@@@@@@@@XX ..  ..  ..  ..  ..  ..  ..  ..  ..  ..  ..  ..  ..  ..  ..  ..  ..  ..  ..  ..  ..  ..  ..         XXX          ..  ..  ..  ..  ..  ..                       .  ..  ..  ..  ..  ..  ..  ..  ..  ..  ..  ..  ..  ..  ..  ..  ..  ..OOOOOO",
"oOOoooooooooooooooooooooooooooooooooooooooooooooooooooooooooooooooooooooooooooooooooOO  ..  ..  ..  ..  ..  ..  ..  ..  ..  ..  ..  ..  ..  ..  ..  ..  ..  ..  ..  .. XXX      ..  ..  ..  ..  ..  ..  ..  ..  ..  ..  ..  ..  ..  ..  ..  ..  ..  ..  ..  ..  ..  ..  ..  ..   XX@@@@@@@@@@@@@@@@@@@@@@@@@@@@@@@@@@@@@@@@@@@@@@@@@@@@@@@@@@@@@@@@@@@@@@@@@@@@@@@@@@@@@@@@@@@@@@@@@@@@@@@@@@@@@@@@@@@@@@@@@@@@@@@@@@XXX..  ..  ..  ..  ..  ..  ..  ..  ..  ..  ..  ..  ..  ..  ..  ..  ..  ..  ..  ..  ..  ..  ..  .       XXX         ..  ..  ..  ..  ..  ..  .                .  ..  ..  ..  ..  ..  ..  ..  ..  ..  ..  ..  ..  ..  ..  ..  ..  ..  .OOOOOOO",
"OOOoooooooooooooooooooooooooooooooooooooooooooooooooooooooooooooooooooooooooooooooooOOO. .... .. .... .. .... .. .... .. .... .. .... .. .... .. .... .. .... .. .... XX      .. .... .. .... .. .... .. .... .. .... .. .... .. .... .. .... .. .... .. .... .. .... .. ....    XX@@@@@@@@@@@@@@@@@@@@@@@@@@@@@@@@@@@@@@@@@@@@@@@@@@@@@@@@@@@@@@@@@@@@@@@@@@@@@@@@@@@@@@@@@@@@@@@@@@@@@@@@@@@@@@@@@@@@@@@@@@@@@@@@@@@XX .... .. .... .. .... .. .... .. .... .. .... .. .... .. .... .. .... .. .... .. .... .. ....        XXX         .... .. .... .. .... .. ...       .. .. .... .. .... .. .... .. .... .. .... .. .... .. .... .. .... .. .... ..OOOOoooo",
"OOOooooooooooooooooooooooooooooooooooooooooooooooooooooooooooooooooooooooooooooooooooOO.. .. .... .. .... .. .... .. .... .. .... .. .... .. .... .. .... .. .... .. .X      .... .. .... .. .... .. .... .. .... .. .... .. .... .. .... .. .... .. .... .. .... .. .... .. .. XXX@@@@@@@@@@@@@@@@@@@@@@@@@@@@@@@@@@@@@@@@@@@@@@@@@@@@@@@@@@@@@@@@@@@@@@@@@@@@@@@@@@@@@@@@@@@@@@@@@@@@@@@@@@@@@@@@@@@@@@@@@@@@@@@@@@@XX. .. .... .. .... .. .... .. .... .. .... .. .... .. .... .. .... .. .... .. .... .. .... .. ..       XX        . .. .... .. .... .. .... ..   .. .. .... .. .... .. .... .. .... .. .... .. .... .. .... .. .... .. .... .. ..OOOoooooo",
"OOoooooooooooooooooooooooooooooooooooooooooooooooooooooooooooooooooooooooooooooooooooOOO..  ..  ..  ..  ..  ..  ..  ..  ..  ..  ..  ..  ..  ..  ..  ..  ..  ..  ..  XXX  .  ..  ..  ..  ..  ..  ..  ..  ..  ..  ..  ..  ..  ..  ..  ..  ..  ..  ..  ..  ..  ..  ..  ..  ..  ..  XX@@@@@@@@@@@@@@@@@@@@@@@@@@@@@@@@@@@@@@@@@@@@@@@@@@@@@@@@@@@@@@@@@@@@@@@@@@@@@@@@@@@@@@@@@@@@@@@@@@@@@@@@@@@@@@@@@@@@@@@@@@@@@@@@@@@@XXX.  ..  ..  ..  ..  ..  ..  ..  ..  ..  ..  ..  ..  ..  ..  ..  ..  ..  ..  ..  ..  ..  ..  ..  .      XXX      ..  ..  ..  ..  ..  ..  ..  ..  ..  ..  ..  ..  ..  ..  ..  ..  ..  ..  ..  ..  ..  ..  ..  ..  ..  ..  ..  ..OOoooooooo",
"OOooooooooooooooooooooooooooooooooooooooooooooooooooooooooooooooooooooooooooooooooooooOO..  ..  ..  ..  ..  ..  ..  ..  ..  ..  ..  ..  ..  ..  ..  ..  ..  ..  ..  XX  ..  ..  ..  ..  ..  ..  ..  ..  ..  ..  ..  ..  ..  ..  ..  ..  ..  ..  ..  ..  ..  ..  ..  ..  ..  ..  XX@@@@@@@@@@@@@@@@@@@@@@@@@@@@@@@@@@@@@@@@@@@@@@@@@@@@@@@@@@@@@@@@@@@@@@@@@@@@@@@@@@@@@@@@@@@@@@@@@@@@@@@@@@@@@@@@@@@@@@@@@@@@@@@@@@@@XXX.  ..  ..  ..  ..  ..  ..  ..  ..  ..  ..  ..  ..  ..  ..  ..  ..  ..  ..  ..  ..  ..  ..  ..  ..      XX      ..  ..  ..  ..  ..  ..  ..  ..  ..  ..  ..  ..  ..  ..  ..  ..  ..  ..  ..  ..  ..  ..  ..  ..  ..  ..  ..  .OOOoooooooo",
"OOooooooooooooooooooooooooooooooooooooooooooooooooooooooooooooooooooooooooooooooooooooOOO .. .... .. .... .. .... .. .... .. .... .. .... .. .... .. .... .. .... .XXX... .. .... .. .... .. .... .. .... .. .... .. .... .. .... .. .... .. .... .. .... .. .... .. .... .. ...XX@@@@@@@@@@@@@@@@@@@@@@@@@@@@@@@@@@@@@@@@@@@@@@@@@@@@@@@@@@@@@@@@@@@@@@@@@@@@@@@@@@@@@@@@@@@@@@@@@@@@@@@@@@@@@@@@@@@@@@@@@@@@@@@@@@@@@XXX.. .... .. .... .. .... .. .... .. .... .. .... .. .... .. .... .. .... .. .... .. .... .. .... ..     XXX      .. .... .. .... .. .... .. .... .. .... .. .... .. .... .. .... .. .... .. .... .. .... .. .... .. .... ..OOoooooooooo",
"OoooooooooooooooooooooooooooooooooooooooooooooooooooooooooooooooooooooooooooooooooooooOOO.... .. .... .. .... .. .... .. .... .. .... .. .... .. .... .. .... .. .XXX .. .... .. .... .. .... .. .... .. .... .. .... .. .... .. .... .. .... .. .... .. .... .. .... .. .... .XXX@@@@@@@@@@@@@@@@@@@@@@@@@@@@@@@@@@@@@@@@@@@@@@@@@@@@@@@@@@@@@@@@@@@@@@@@@@@@@@@@@@@@@@@@@@@@@@@@@@@@@@@@@@@@@@@@@@@@@@@@@@@@@@@@@@@@@XXXX.. .. .... .. .... .. .... .. .... .. .... .. .... .. .... .. .... .. .... .. .... .. .... .. ...      XX     .... .. .... .. .... .. .... .. .... .. .... .. .... .. .... .. .... .. .... .. .... .. .... .. .... .. ..OOOoooooooooo",
"OooooooooooooooooooooooooooooooooooooooooooooooooooooooooooooooooooooooooooooooooooooooOOO  ..  ..  ..  ..  ..  ..  ..  ..  ..  ..  ..  ..  ..  ..  ..  ..  ..  .XXX..  ..  ..  ..  ..  ..  ..  ..  ..  ..  ..  ..  ..  ..  ..  ..  ..  ..  ..  ..  ..  ..  ..  ..  ..  ..  .. XX@@@@@@@@@@@@@@@@@@@@@@@@@@@@@@@@@@@@@@@@@@@@@@@@@@@@@@@@@@@@@@@@@@@@@@@@@@@@@@@@@@@@@@@@@@@@@@@@@@@@@@@@@@@@@@@@@@@@@@@@@@@@@@@@@@@@@XXXX  ..  ..  ..  ..  ..  ..  ..  ..  ..  ..  ..  ..  ..  ..  ..  ..  ..  ..  ..  ..  ..  ..  ..  ..  ..     XXX   .  ..  ..  ..  ..  ..  ..  ..  ..  ..  ..  ..  ..  ..  ..  ..  ..  ..  ..  ..  ..  ..  ..  ..  ..  ..  ..OOoooooooooooo",
"OooooooooooooooooooooooooooooooooooooooooooooooooooooooooooooooooooooooooooooooooooooooOOO  ..  ..  ..  ..  ..  ..  ..  ..  ..  ..  ..  ..  ..  ..  ..  ..  ..  XXX ..  ..  ..  ..  ..  ..  ..  ..  ..  ..  ..  ..  ..  ..  ..  ..  ..  ..  ..  ..  ..  ..  ..  ..  ..  ..  .. XX@@@@@@@@@@@@@@@@@@@@@@@@@@@@@@@@@@@@@@@@@@@@@@@@@@@@@@@@@@@@@@@@@@@@@@@@@@@@@@@@@@@@@@@@@@@@@@@@@@@@@@@@@@@@@@@@@@@@@@@@@@@@@@@@@@@@@XXXXX ..  ..  ..  ..  ..  ..  ..  ..  ..  ..  ..  ..  ..  ..  ..  ..  ..  ..  ..  ..  ..  ..  ..  ..  ..      XX   .  ..  ..  ..  ..  ..  ..  ..  ..  ..  ..  ..  ..  ..  ..  ..  ..  ..  ..  ..  ..  ..  ..  ..  ..  ..  .OOOoooooooooooo",
"ooooooooooooooooooooooooooooooooooooooooooooooooooooooooooooooooooooooooooooooooooooooooOO... .. .... .. .... .. .... .. .... .. .... .. .... .. .... .. .... .XXX... .. .... .. .... .. .... .. .... .. .... .. .... .. .... .. .... .. .... .. .... .. .... .. .... .. .... XXX@@@@@@@@@@@@@@@@@@@@@@@@@@@@@@@@@@@@@@@@@@@@@@@@@@@@@@@@@@@@@@@@@@@@@@@@@@@@@@@@@@@@@@@@@@@@@@@@@@@@@@@@@@@@@@@@@@@@@@@@@@@@@@@@@@@XXX   ... .. .... .. .... .. .... .. .... .. .... .. .... .. .... .. .... .. .... .. .... .. .... .. .... ..    XX   .... .. .... .. .... .. .... .. .... .. .... .. .... .. .... .. .... .. .... .. .... .. .... .. .... ..OOoooooooooooooo",
"ooooooooooooooooooooooooooooooooooooooooooooooooooooooooooooooooooooooooooooooooooooooooOO.. .... .. .... .. .... .. .... .. .... .. .... .. .... .. .... .. .XXX .. .... .. .... .. .... .. .... .. .... .. .... .. .... .. .... .. .... .. .... .. .... .. .... .. .... .. .XXX@@@@@@@@@@@@@@@@@@@@@@@@@@@@@@@@@@@@@@@@@@@@@@@@@@@@@@@@@@@@@@@@@@@@@@@@@@@@@@@@@@@@@@@@@@@@@@@@@@@@@@@@@@@@@@@@@@@@@@@@@@@@@@@@@@XXX    .. .... .. .... .. .... .. .... .. .... .. .... .. .... .. .... .. .... .. .... .. .... .. .... .. ....    XX . .. .... .. .... .. .... .. .... .. .... .. .... .. .... .. .... .. .... .. .... .. .... .. .... .. ..OOOoooooooooooooo",
"ooooooooooooooooooooooooooooooooooooooooooooooooooooooooooooooooooooooooooooooooooooooooOOO ..  ..  ..  ..  ..  ..  ..  ..  ..  ..  ..  ..  ..  ..  ..  ..  ..XX..  ..  ..  ..  ..  ..  ..  ..  ..  ..  ..  ..  ..  ..  ..  ..  ..  ..  ..  ..  ..  ..  ..  ..  ..  ..  ..  ..XX@@@@@@@@@@@@@@@@@@@@@@@@@@@@@@@@@@@@@@@@@@@@@@@@@@@@@@@@@@@@@@@@@@@@@@@@@@@@@@@@@@@@@@@@@@@@@@@@@@@@@@@@@@@@@@@@@@@@@@@@@@@@@@@@@XXXX       ..  ..  ..  ..  ..  ..  ..  ..  ..  ..  ..  ..  ..  ..  ..  ..  ..  ..  ..  ..  ..  ..  ..  ..  ..  ..  ..XXX.  ..  ..  ..  ..  ..  ..  ..  ..  ..  ..  ..  ..  ..  ..  ..  ..  ..  ..  ..  ..  ..  ..  ..  ..  ..OOoooooooooooooooo",
"oooooooooooooooooooooooooooooooooooooooooooooooooooooooooooooooooooooooooooooooooooooooooOO ..  ..  ..  ..  ..  ..  ..  ..  ..  ..  ..  ..  ..  ..  ..  ..  .XXX..  ..  ..  ..  ..  ..  ..  ..  ..  ..  ..  ..  ..  ..  ..  ..  ..  ..  ..  ..  ..  ..  ..  ..  ..  ..  ..  ..XX@@@@@@@@@@@@@@@@@@@@@@@@@@@@@@@@@@@@@@@@@@@@@@@@@@@@@@@@@@@@@@@@@@@@@@@@@@@@@@@@@@@@@@@@@@@@@@@@@@@@@@@@@@@@@@@@@@@@@@@@@@@@@@@@XXXX        ..  ..  ..  ..  ..  ..  ..  ..  ..  ..  ..  ..  ..  ..  ..  ..  ..  ..  ..  ..  ..  ..  ..  ..  ..  ..  .. XXX  ..  ..  ..  ..  ..  ..  ..  ..  ..  ..  ..  ..  ..  ..  ..  ..  ..  ..  ..  ..  ..  ..  ..  ..  .OOOoooooooooooooooo",
"oooooooooooooooooooooooooooooooooooooooooooooooooooooooooooooooooooooooooooooooooooooooooOOO .... .. .... .. .... .. .... .. .... .. .... .. .... .. .... ..XX... .. .... .. .... .. .... .. .... .. .... .. .... .. .... .. .... .. .... .. .... .. .... .. .... .. .... .. XXX@@@@@@@@@@@@@@@@@@@@@@@@@@@@@@@@@@@@@@@@@@@@@@@@@@@@@@@@@@@@@@@@@@@@@@@@@@@@@@@@@@@@@@@@@@@@@@@@@@@@@@@@@@@@@@@@@@@@@@@@@@@@@@@XXX         . .... .. .... .. .... .. .... .. .... .. .... .. .... .. .... .. .... .. .... .. .... .. .... .. .... .. ...XXX. .... .. .... .. .... .. .... .. .... .. .... .. .... .. .... .. .... .. .... .. .... .. .... ..OOOooooooooooooooooo",
"ooooooooooooooooooooooooooooooooooooooooooooooooooooooooooooooooooooooooooooooooooooooooooOO. .. .... .. .... .. .... .. .... .. .... .. .... .. .... .. ..XXX.. .... .. .... .. .... .. .... .. .... .. .... .. .... .. .... .. .... .. .... .. .... .. .... .. .... .. ....XXX@@@@@@@@@@@@@@@@@@@@@@@@@@@@@@@@@@@@@@@@@@@@@@@@@@@@@@@@@@@@@@@@@@@@@@@@@@@@@@@@@@@@@@@@@@@@@@@@@@@@@@@@@@@@@@@@@@@@@@@@@@@@@@XXX           . .. .... .. .... .. .... .. .... .. .... .. .... .. .... .. .... .. .... .. .... .. .... .. .... .. .... .. XXX. .. .... .. .... .. .... .. .... .. .... .. .... .. .... .. .... .. .... .. .... .. .... .. ...OOoooooooooooooooooo",
"ooooooooooooooooooooooooooooooooooooooooooooooooooooooooooooooooooooooooooooooooooooooooooOOO.  ..  ..  ..  ..  ..  ..  ..  ..  ..  ..  ..  ..  ..  ..  ..XXX.  ..  ..  ..  ..  ..  ..  ..  ..  ..  ..  ..  ..  ..  ..  ..  ..  ..  ..  ..  ..  ..  ..  ..  ..  ..  ..  ..  .XX@@@@@@@@@@@@@@@@@@@@@@@@@@@@@@@@@@@@@@@@@@@@@@@@@@@@@@@@@@@@@@@@@@@@@@@@@@@@@@@@@@@@@@@@@@@@@@@@@@@@@@@@@@@@@@@@@@@@@@@@@@@@@XXXX            ..  ..  ..  ..  ..  ..  ..  ..  ..  ..  ..  ..  ..  ..  ..  ..  ..  ..  ..  ..  ..  ..  ..  ..  ..  ..  ..  ..XXX.  ..  ..  ..  ..  ..  ..  ..  ..  ..  ..  ..  ..  ..  ..  ..  ..  ..  ..  ..  ..  ..  ..  .. OOOoooooooooooooooooo",
"ooooooooooooooooooooooooooooooooooooooooooooooooooooooooooooooooooooooooooooooooooooooooooOOO.  ..  ..  ..  ..  ..  ..  ..  ..  ..  ..  ..  ..  ..  ..  ..XX..  ..  ..  ..  ..  ..  ..  ..  ..  ..  ..  ..  ..  .. ...............  ..  ..  ..  ..  ..  ..  ..  ..  ..  ..  XXX@@@@@@@@@@@@@@@@@@@@@@@@@@@@@@@@@@@@@@@@@@@@@@@@@@@@@@@@@@@@@@@@@@@@@@@@@@@@@@@@@@@@@@@@@@@@@@@@@@@@@@@@@@@@@@@@@@@@@@@@@@@@XXX              ..  ..  ..  ..  ..  ..  ..  ..  ..  ..  ..  ..  ..  ..  ..  ..  ..  ..  ..  ..  ..  ..  ..  ..  ..  ..  ..  .. XXX  ..  ..  ..  ..  ..  ..  ..  ..  ..  ..  ..  ..  ..  ..  ..  ..  ..  ..  ..  ..  ..  ..  ..OOOooooooooooooooooooo",
"ooooooooooooooooooooooooooooooooooooooooooooooooooooooooooooooooooooooooooooooooooooooooooOO. .. .... .. .... .. .... .. .... .. .... .. .... .. .... ..XXX.. .. .... .. .... .. .... .. .... .. .... .. ............................... .... .. .... .. .... .. .... .. ...XXX@@@@@@@@@@@@@@@@@@@@@@@@@@@@@@@@@@@@@@@@@@@@@@@@@@@@@@@@@@@@@@@@@@@@@@@@@@@@@@@@@@@@@@@@@@@@@@@@@@@@@@@@@@@@@@@@@@@@@@@@@@XXXX                 .. .... .. .... .. .... .. .... .. .... .. .... .. .... .. .... .. .... .. .... .. .... .. .... .. .... .. ...XXX. .... .. .... .. .... .. .... .. .... .. .... .. .... .. .... .. .... .. .... .. .... .. .OOoooooooooooooooooooo",
"ooooooooooooooooooooooooooooooooooooooooooooooooooooooooooooooooooooooooooooooooooooooooooOO .... .. .... .. .... .. .... .. .... .. .... .. .... .. ...XXX. .... .. .... .. .... .. .... .. .... .. .... .................................. .... .. .... .. .... .. .... ..XXX@@@@@@@@@@@@@@@@@@@@@@@@@@@@@@@@@@@@@@@@@@@@@@@@@@@@@@@@@@@@@@@@@@@@@@@@@@@@@@@@@@@@@@@@@@@@@@@@@@@@@@@@@@@@@@@@@@@@@@@@@XXXX                  ... .. .... .. .... .. .... .. .... .. .... .. .... .. .... .. .... .. .... .. .... .. .... .. .... .. .... .. XXX. .. .... .. .... .. .... .. .... .. .... .. .... .. .... .. .... .. .... .. .... .. ....OOOoooooooooooooooooooo",
"ooooooooooooooooooooooooooooooooooooooooooooooooooooooooooooooooooooooooooooooooooooooooooOO..  ..  ..  ..  ..  ..  ..  ..  ..  ..  ..  ..  ..  ..  .. XXX  ..  ..  ..  ..  ..  ..  ..  ..  ..  ..  ..  ......................................  ..  ..  ..  ..  ..  ..  ..    XXXX@@@@@@@@@@@@@@@@@@@@@@@@@@@@@@@@@@@@@@@@@@@@@@@@@@@@@@@@@@@@@@@@@@@@@@@@@@@@@@@@@@@@@@@@@@@@@@@@@@@@@@@@@@@@@@@@@@@@@XXX                      ..  ..  ..  ..  ..  ..  ..  ..  ..  ..  ..  ..  ..  ..  ..  ..  ..  ..  ..  ..  ..  ..  ..  ..  ..  ..  ..  ..XXX.  ..  ..  ..  ..  ..  ..  ..  ..  ..  ..  ..  ..  ..  ..  ..  ..  ..  ..  ..  ..  ..  OOOooooooooooooooooooooo",
"ooooooooooooooooooooooooooooooooooooooooooooooooooooooooooooooooooooooooooooooooooooooooooOO..  ..  ..  ..  ..  ..  ..  ..  ..  ..  ..  ..  ..  ..  ..XXX.  ..  ..  ..  ..  ..  ..  ..  ..  ..  ..  ..............................................  ..  ..  ..  ..  ..  ..    XXXXX@@@@@@@@@@@@@@@@@@@@@@@@@@@@@@@@@@@@@@@@@@@@@@@@@@@@@@@@@@@@@@@@@@@@@@@@@@@@@@@@@@@@@@@@@@@@@@@@@@@@@@@@@@@@@@@@@@@XXX                       ..  ..  ..  ..  ..  ..  ..  ..  ..  ..  ..  ..  ..  ..  ..  ..  ..  ..  ..  ..  ..  ..  ..  ..  ..  ..  ..  .. XXX  ..  ..  ..  ..  ..  ..  ..  ..  ..  ..  ..  ..  ..  ..  ..  ..  ..  ..  ..  ..  ..  OOoooooooooooooooooooooo",
"ooooooooooooooooooooooooooooooooooooooooooooooooooooooooooooooooooooooooooooooooooooooooooOO .... .. .... .. .... .. .... .. .... .. .... .. .... .. XXX. .. .... .. .... .. .... .. .... .. .... .................................................. .... .. .... .. .... .     XXXXX@@@@@@@@@@@@@@@@@@@@@@@@@@@@@@@@@@@@@@@@@@@@@@@@@@@@@@@@@@@@@@@@@@@@@@@@@@@@@@@@@@@@@@@@@@@@@@@@@@@@@@@@@@@@@@@XXXX                        . .. .... .. .... .. .... .. .... .. .... .. .... .. .... .. .... .. .... .. .... .. .... .. .... .. .... .. ...XXX. .... .. .... .. .... .. .... .. .... .. .... .. .... .. .... .. .... .. .... .. ..OOOoooooooooooooooooooooo",
"ooooooooooooooooooooooooooooooooooooooooooooooooooooooooooooooooooooooooooooooooooooooooooOO. .. .... .. .... .. .... .. .... .. .... .. .... .. ....XX. .... .. .... .. .... .. .... .. .... .. ....................................................... .... .. .... .. ...      XXXXX@@@@@@@@@@@@@@@@@@@@@@@@@@@@@@@@@@@@@@@@@@@@@@@@@@@@@@@@@@@@@@@@@@@@@@@@@@@@@@@@@@@@@@@@@@@@@@@@@@@@@@@@@@@@XXX                           .... .. .... .. .... .. .... .. .... .. .... .. .... .. .... .. .... .. .... .. .... .. .... .. .... .. .... ..XXX.. .. .... .. .... .. .... .. .... .. .... .. .... .. .... .. .... .. .... .. .... OOOooooooooooooooooooooooo",
"ooooooooooooooooooooooooooooooooooooooooooooooooooooooooooooooooooooooooooooooooooooooooooOO..  ..  ..  ..  ..  ..  ..  ..  ..  ..  ..  ..  ..  ..  XX  ..  ..  ..  ..  ..  ..  ..  ..  ..  ..  ..........................................................  ..  ..  ..  ..          XXXXX@@@@@@@@@@@@@@@@@@@@@@@@@@@@@@@@@@@@@@@@@@@@@@@@@@@@@@@@@@@@@@@@@@@@@@@@@@@@@@@@@@@@@@@@@@@@@@@@@@@@@@@@@XXX                            .  ..  ..  ..  ..  ..  ..  ..  ..  ..  ..  ..  ..  ..  ..  ..  ..  ..  ..  ..  ..  ..  ..  ..  ..  ..  ..  ..  ..XX..  ..  ..  ..  ..  ..  ..  ..  ..  ..  ..  ..  ..  ..  ..  ..  ..  ..  ..  ..  ..OOoooooooooooooooooooooooo",
"ooooooooooooooooooooooooooooooooooooooooooooooooooooooooooooooooooooooooooooooooooooooooooOO..  ..  ..  ..  ..  ..  ..  ..  ..  ..  ..  ..  ..  .. XXX  ..  ..  ..  ..  ..  ..  ..  ..  ..  .. ............................................................ ..  ..  ..  ..            XXXX@@@@@@@@@@@@@@@@@@@@@@@@@@@@@@@@@@@@@@@@@@@@@@@@@@@@@@@@@@@@@@@@@@@@@@@@@@@@@@@@@@@@@@@@@@@@@@@@@@@@@@XXXX                             .  ..  ..  ..  ..  ..  ..  ..  ..  ..  ..  ..  ..  ..  ..  ..  ..  ..  ..  ..  ..  ..  ..  ..  ..  ..  ..  ..  ..XXX.  ..  ..  ..  ..  ..  ..  ..  ..  ..  ..  ..  ..  ..  ..  ..  ..  ..  ..  ..  .OOOoooooooooooooooooooooooo",
"ooooooooooooooooooooooooooooooooooooooooooooooooooooooooooooooooooooooooooooooooooooooooooOO. .. .... .. .... .. .... .. .... .. .... .. .... .. .XXX .. .... .. .... .. .... .. .... .. .... ............................................................... .. .... .. ...            XXXXX@@@@@@@@@@@@@@@@@@@@@@@@@@@@@@@@@@@@@@@@@@@@@@@@@@@@@@@@@@@@@@@@@@@@@@@@@@@@@@@@@@@@@@@@@@@@@@@@@@XXX                                ... .. .... .. .... .. .... .. .... .. .... .. .... .. .... .. .... .. .... .. .... .. .... .. .... .. .... .. ...XX.. .... .. .... .. .... .. .... .. .... .. .... .. .... .. .... .. .... .. ...OOOooooooooooooooooooooooooo",
"ooooooooooooooooooooooooooooooooooooooooooooooooooooooooooooooooooooooooooooooooooooooooooOO .... .. .... .. .... .. .... .. .... .. .... .. ....XXX .... .. .... .. .... .. .... .. .... .. .................................................................... .. .... ..             XXXXX@@@@@@@@@@@@@@@@@@@@@@@@@@@@@@@@@@@@@@@@@@@@@@@@@@@@@@@@@@@@@@@@@@@@@@@@@@@@@@@@@@@@@@@@@@@@@@@@XXX                                 .. .... .. .... .. .... .. .... .. .... .. .... .. .... .. .... .. .... .. .... .. .... .. .... .. .... .. .... ..XXX.. .. .... .. .... .. .... .. .... .. .... .. .... .. .... .. .... .. .... ..OOOooooooooooooooooooooooooo",
"oooooooooooooooooooooooooooooooooooooooooooooooooooooooooooooooooooooooooooooooooooooooooOOO..  ..  ..  ..  ..  ..  ..  ..  ..  ..  ..  ..  ..  XXX ..  ..  ..  ..  ..  ..  ..  ..  ..  .. .......................................................................  ..  ..                  XXXX@@@@@@@@@@@@@@@@@@@@@@@@@@@@@@@@@@@@@@@@@@@@@@@@@@@@@@@@@@@@@@@@@@@@@@@@@@@@@@@@@@@@@@@@@@@@XXXX                                    ..  ..  ..  ..  ..  ..  ..  ..  ..  ..  ..  ..  ..  ..  ..  ..  ..  ..  ..  ..  ..  ..  ..  ..  ..  ..  ..  ..  ..XX..  ..  ..  ..  ..  ..  ..  ..  ..  ..  ..  ..  ..  ..  ..  ..  ..  ..  ..  OOoooooooooooooooooooooooooo",
"oooooooooooooooooooooooooooooooooooooooooooooooooooooooooooooooooooooooooooooooooooooooooOOO..  ..  ..  ..  ..  ..  ..  ..  ..  ..  ..  ..  ..  XX  ..  ..  ..  ..  ..  ..  ..  ..  ..  ..........................................................................  ..  ..                   XXXXX@@@@@@@@@@@@@@@@@@@@@@@@@@@@@@@@@@@@@@@@@@@@@@@@@@@@@@@@@@@@@@@@@@@@@@@@@@@@@@@@@@@@@@@@XXXXX                                     ..  ..  ..  ..  ..  ..  ..  .. .......................  ..  ..  ..  ..  ..  ..  ..  ..  ..  ..  ..  ..  ..  ..  ..XXX.  ..  ..  ..  ..  ..  ..  ..  ..  ..  ..  ..  ..  ..  ..  ..  ..  ..  ..  OOoooooooooooooooooooooooooo",
"oooooooooooooooooooooooooooooooooooooooooooooooooooooooooooooooooooooooooooooooooooooooooOOO .... .. .... .. .... .. .... .. .... .. .... .. ..XXX.. .... .. .... .. .... .. .... .. ............................................................................... .... ..                   XXXXX@@@@@@@@@@@@@@@@@@@@@@@@@@@@@@@@@@@@@@@@@@@@@@@@@@@@@@@@@@@@@@@@@@@@@@@@@@@@@@@@XXXXXXXXX                                        .... .. .... .. .... .. ....................................... .... .. .... .. .... .. .... .. .... .. .... .. ..XXX.. .... .. .... .. .... .. .... .. .... .. .... .. .... .. .... .. .... ..OOoooooooooooooooooooooooooo",
"oooooooooooooooooooooooooooooooooooooooooooooooooooooooooooooooooooooooooooooooooooooooooOOO. .. .... .. .... .. .... .. .... .. .... .. .... XXX.... .. .... .. .... .. .... .. .... ............................................................................... .. ...                     XXXXX@@@@@@@@@@@@@@@@@@@@@@@@@@@@@@@@@@@@@@@@@@@@@@@@@@@@@@@@@@@@@@@@@@@@@@@@@@XXXXXXXXXXXX                                          .. .... .. .... .. .................................................... .. .... .. .... .. .... .. .... .. .... ..XXX.. .. .... .. .... .. .... .. .... .. .... .. .... .. .... .. .... .. ...OOoooooooooooooooooooooooooo",
"oooooooooooooooooooooooooooooooooooooooooooooooooooooooooooooooooooooooooooooooooooooooooOO ..  ..  ..  ..  ..  ..  ..  ..  ..  ..  ..  ..  .XXX..  ..  ..  ..  ..  ..  ..  ..  ..  ..................................................................................  ..                         XXXXX@@@@@@@@@@@@@@@@@@@@@@@@@@@@@@@@@@@@@@@@@@@@@@@@@@@@@@@@@@@@@@@@@@XXXXXXXXXXXXX                                                 ..  ..  ..  ..  ......................................................  ..  ..  ..  ..  ..  ..  ..  ..  ..  ..  .XXX..  ..  ..  ..  ..  ..  ..  ..  ..  ..  ..  ..  ..  ..  ..  ..  ..  ..  OOoooooooooooooooooooooooooo",
"oooooooooooooooooooooooooooooooooooooooooooooooooooooooooooooooooooooooooooooooooooooooooOO ..  ..  ..  ..  ..  ..  ..  ..  ..  ..  ..  ..  XXX ..  ..  ..  ..  ..  ..  ..  ..  ..  ..................................................................................  ..                           XXXXX@@@@@@@@@@@@@@@@@@@@@@@@@@@@@@@@@@@@@@@@@@@@@@@@@@@@@@@@@@@@XXXXXXXXXXXXX                                                     ..  ..  ..  ..  ....................................................... ..  ..  ..  ..  ..  ..  ..  ..  ..  ..  ..XXX.  ..  ..  ..  ..  ..  ..  ..  ..  ..  ..  ..  ..  ..  ..  ..  ..  .. OOOoooooooooooooooooooooooooo",
"oooooooooooooooooooooooooooooooooooooooooooooooooooooooooooooooooooooooooooooooooooooooooOO.. .. .... .. .... .. .... .. .... .. .... .. ..XXX.. .... .. .... .. .... .. .... .. ....................................................................................... ...                           XXXXX@@@@@@@@@@@@@@@@@@@@@@@@@@@@@@@@@@@@@@@@@@@@@@@@@@@@XXXXXXXXXXXXX                                                          . .... .. .... ............................................................... .. .... .. .... .. .... .. .... .. ..XXX.. .... .. .... .. .... .. .... .. .... .. .... .. .... .. .... .. ..OOOoooooooooooooooooooooooooo",
"oooooooooooooooooooooooooooooooooooooooooooooooooooooooooooooooooooooooooooooooooooooooooOO. .... .. .... .. .... .. .... .. .... .. .... .XXX... .. .... .. .... .. .... .. .... ....................................................................................... ..                            XXXXX@@@@@@@@@@@@@@@@@@@@@@@@@@@@@@@@@@@@@@@@@@@@@@@XXXXXXXXXXXXX                                                               . .. .... .. .................................................................... .. .... .. .... .. .... .. .... ..XXX.. .. .... .. .... .. .... .. .... .. .... .. .... .. .... .. .... .OOOoooooooooooooooooooooooooo",
"oooooooooooooooooooooooooooooooooooooooooooooooooooooooooooooooooooooooooooooooooooooooooOO ..  ..  ..  ..  ..  ..  ..  ..  ..  ..  ..  ..XX..  ..  ..  ..  ..  ..  ..  ..  ..  ....................................................................................... ..                                 XXXXX@@@@@@@@@@@@@@@@@@@@@@@@@@@@@@@@@XXXXXXXXXXXXXXXXXX                                                                      .  ..  ..  ......................................................................  ..  ..  ..  ..  ..  ..  ..  ..  .XXX..  ..  ..  ..  ..  ..  ..  ..  ..  ..  ..  ..  ..  ..  ..  ..  .. OOooooooooooooooooooooooooooo",
"ooooooooooooooooooooooooooooooooooooooooooooooooooooooooooooooooooooooooooooooooooooooooOOO ..  ..  ..  ..  ..  ..  ..  ..  ..  ..  ..  .XXX..  ..  ..  ..  ..  ..  ..  ..  ..  ....................................................................................... ..  .                               XXXXX@@@@@@XXXXXXXXXXXXXXXXXXXXXXXXXXXXXXXXXXXXXXXX                                                                          .  ..  ..........................................................................  ..  ..  ..  ..  ..  ..  ..  ..  ..XX..  ..  ..  ..  ..  ..  ..  ..  ..  ..  ..  ..  ..  ..  ..  ..  .. OOooooooooooooooooooooooooooo",
"ooooooooooooooooooooooooooooooooooooooooooooooooooooooooooooooooooooooooooooooooooooooooOOO. .... .. .... .. .... .. .... .. .... .. ...XXX. .... .. .... .. .... .. .... .. ............................................................................................ ..                                  XXXXXXXXXXXXXXXXXXXXXXXXXXXXXXXXXXXXXXXXXXX                                                                                 .. .... ............................................................................... .. .... .. .... .. .... .. ..XXX.. .... .. .... .. .... .. .... .. .... .. .... .. .... .. .... .OOooooooooooooooooooooooooooo",
"ooooooooooooooooooooooooooooooooooooooooooooooooooooooooooooooooooooooooooooooooooooooooOOO.. .. .... .. .... .. .... .. .... .. .... ..XX... .. .... .. .... .. .... .. .... .......................................................................................... ....                                   XXXXXXXXXXXXXXXXXXXX                                                                                                       .. .. ............................................................................... .... .. .... .. .... .. .... ..XX... .. .... .. .... .. .... .. .... .. .... .. .... .. .... .. .OOOooooooooooooooooooooooooooo",
"ooooooooooooooooooooooooooooooooooooooooooooooooooooooooooooooooooooooooooooooooooooooooOOO ..  ..  ..  ..  ..  ..  ..  ..  ..  ..  ..XXX.  ..  ..  ..  ..  ..  ..  ..  ..  .. ...........................................................................................                                                                                                                                                                  .. ...................................................................................  ..  ..  ..  ..  ..  ..  ..  .XXX..  ..  ..  ..  ..  ..  ..  ..  ..  ..  ..  ..  ..  ..  ..  ..OOOooooooooooooooooooooooooooo",
"ooooooooooooooooooooooooooooooooooooooooooooooooooooooooooooooooooooooooooooooooooooooooOOO ..  ..  ..  ..  ..  ..  ..  ..  ..  ..  ..XX..  ..  ..  ..  ..  ..  ..  ..  ..  ..............................................................................................                                                                                                                                                                  ......................................................................................  ..  ..  ..  ..  ..  ..  ..  .XXX..  ..  ..  ..  ..  ..  ..  ..  ..  ..  ..  ..  ..  ..  ..  ..OOOooooooooooooooooooooooooooo",
"ooooooooooooooooooooooooooooooooooooooooooooooooooooooooooooooooooooooooooooooooooooooooOO... .. .... .. .... .. .... .. .... .. ....XXX .... .. .... .. .... .. .... .. ...................................................................................................                                                                                                                                                                 ........................................................................................ .. .... .. .... .. .... ..XXoXXX.. .... .. .... .. .... .. .... .. .... .. .... .. .... .. .OOoooooooooooooooooooooooooooo",
"ooooooooooooooooooooooooooooooooooooooooooooooooooooooooooooooooooooooooooooooooooooooooOO.. .... .. .... .. .... .. .... .. .... ..XXX.. .. .... .. .... .. .... .. .... .. ...............................................................................................                                                                                                                                                                  ...................................................................................... .... .. .... .. .... .. ..XXXoXXX... .. .... .. .... .. .... .. .... .. .... .. .... .. .... OOoooooooooooooooooooooooooooo",
"ooooooooooooooooooooooooooooooooooooooooooooooooooooooooooooooooooooooooooooooooooooooooOO  ..  ..  ..  ..  ..  ..  ..  ..  ..  .. XXX  ..  ..  ..  ..  ..  ..  ..  ..  ..  ..............................................................................................                                                                                                                                                                    ........................................................................................  ..  ..  ..  ..  ..  ..XXooooXXX ..  ..  ..  ..  ..  ..  ..  ..  ..  ..  ..  ..  ..  ..  ..OOoooooooooooooooooooooooooooo",
"ooooooooooooooooooooooooooooooooooooooooooooooooooooooooooooooooooooooooooooooooooooooooOO  ..  ..  ..  ..  ..  ..  ..  ..  ..  ..XXX.  ..  ..  ..  ..  ..  ..  ..  ..  ..  ...............................................................................................                                                                                                                                                                    .......................................................................................  ..  ..  ..  ..  ..  .XXXoooooXXX..  ..  ..  ..  ..  ..  ..  ..  ..  ..  ..  ..  ..  ..  ..OOoooooooooooooooooooooooooooo",
"ooooooooooooooooooooooooooooooooooooooooooooooooooooooooooooooooooooooooooooooooooooooooOO.. .... .. .... .. .... .. .... .. .... XX .... .. .... .. .... .. .... .. .... .................................................................................................                                                                                                                                                                     ......................................................................................... .. .... .. .... ..XXXoooooooXXX .. .... .. .... .. .... .. .... .. .... .. .... .. .... OOoooooooooooooooooooooooooooo",
"ooooooooooooooooooooooooooooooooooooooooooooooooooooooooooooooooooooooooooooooooooooooooOO... .. .... .. .... .. .... .. .... .. XXXX .. .... .. .... .. .... .. .... .. ..................................................................................................                                                                                                                                                                     ........................................................................................ .... .. .... .. ..XXXoooooooooXXX... .. .... .. .... .. .... .. .... .. .... .. .... .. OOOoooooooooooooooooooooooooooo",
"ooooooooooooooooooooooooooooooooooooooooooooooooooooooooooooooooooooooooooooooooooooooooOO  ..  ..  ..  ..  ..  ..  ..  ..  ..  XXXXXX  ..  ..  ..  ..  ..  ..  ..  ..  ...................................................................................................                                                                                                                                                                       ..................................................................................... ..  ..  ..  ..  ..XXXoooooooooooXXXX..  ..  ..  ..  ..  ..  ..  ..  ..  ..  ..  ..  ..  .OOOoooooooooooooooooooooooooooo",
"ooooooooooooooooooooooooooooooooooooooooooooooooooooooooooooooooooooooooooooooooooooooooOO  ..  ..  ..  ..  ..  ..  ..  ..  .. XXX@@XX  ..  ..  ..  ..  ..  ..  ..  ..  ..................................................................................................                                                                                                                                                                        ..................................................................................... ..  ..  ..  ..  .XXXooooooooooooooXX..  ..  ..  ..  ..  ..  ..  ..  ..  ..  ..  ..  ..  .OOOoooooooooooooooooooooooooooo",
"ooooooooooooooooooooooooooooooooooooooooooooooooooooooooooooooooooooooooooooooooooooooooOO... .. .... .. .... .. .... .. .... XXX@@@XXX. .... .. .... .. .... .. .... .. .................................................................................................                                                                                                                                                                         ..................................................................................... .... .. .... ..XXXooooooooooooooooXXX.. .... .. .... .. .... .. .... .. .... .. .... .. OOOoooooooooooooooooooooooooooo",
"oooooooooooooooooooooooooooooooooooooooooooooooooooooooooooooooooooooooooooooooooooooooOOO.. .... .. .... .. .... .. .... .. .XX@@@@@XXX. .. .... .. .... .. .... .. .....................................................................................................                                                                                                                                                                          ..................................................................................... .. .... .. ..XXXooooooooooooooooooXXX.. .. .... .. .... .. .... .. .... .. .... .. ....OOOOooooooooooooooooooooooooooo",
"oooooooooooooooooooooooooooooooooooooooooooooooooooooooooooooooooooooooooooooooooooooooOOO  ..  ..  ..  ..  ..  ..  ..  ..  XXX@@@@@@@XXX.  ..  ..  ..  ..  ..  ..  ..  ..................................................................................................                                                                                                                                                                          ................................................................................... ..  ..  ..  ..XXXOOooooooooooooooooooXXX..  ..  ..  ..  ..  ..  ..  ..  ..  ..  ..  ..  .. OOooooooooooooooooooooooooooo",
"oooooooooooooooooooooooooooooooooooooooooooooooooooooooooooooooooooooooooooooooooooooooOOO  ..  ..  ..  ..  ..  ..  ..  ..  XXXO@@@@@@@XXX  ..  ..  ..  ..  ..  ..  ..  ..................................................................................................                                                                                                                                                                           .....................................................................................  ..  ..  ..XX@OOoooooooooooooooooooXXX.  ..  ..  ..  ..  ..  ..  ..  ..  ..  ..  ..  .. OOOoooooooooooooooooooooooooo",
"oooooooooooooooooooooooooooooooooooooooooooooooooooooooooooooooooooooooooooooooooooooooOOO.. .... .. .... .. .... .. .... .XXXoOO@@@@@@@XX.. .... .. .... .. .... .. ....................................................................................................                                                                                                                                                                             ................................................................................... .. .... ..XXX@OOOooooooooooooooooooooXXX.. .... .. .... .. .... .. .... .. .... .. .... ..OOoooooooooooooooooooooooooo",
"oooooooooooooooooooooooooooooooooooooooooooooooooooooooooooooooooooooooooooooooooooooooOOO... .. .... .. .... .. .... .. .XXXooOOO@@@@@@XXX.. .. .... .. .... .. .... ...................................................................................................                                                                                                                                                                             .................................................................................. .... .. ...XX@@OOoooooooooooooooooooooOXXX.. .. .... .. .... .. .... .. .... .. .... .. ...OOOooooooooooooooooooooooooo",
"oooooooooooooooooooooooooooooooooooooooooooooooooooooooooooooooooooooooooooooooooooooooOO.  ..  ..  ..  ..  ..  ..  ..  .XXXooooOOO@@@@@@XXX..  ..  ..  ..  ..  ..  ..  .................................................................................................                                                                                                                                                                              ...................................................................................  ..  ..XXX@@OOOooooooooooooooooooooOOOoXX..  ..  ..  ..  ..  ..  ..  ..  ..  ..  ..  ..  .OOooooooooooooooooooooooooo",
"oooooooooooooooooooooooooooooooooooooooooooooooooooooooooooooooooooooooooooooooooooooooOO.  ..  ..  ..  ..  ..  ..  ..  .XXooooooOOO@@@@@@XXX.  ..  ..  ..  ..  ..  ..  ................................................................................................                                                                                                                                                                                ..................................................................................  ..  ..XX@@@OOooooooooooooooooooooOOOooXXXX  ..  ..  ..  ..  ..  ..  ..  ..  ..  ..  ..  .OOOoooooooooooooooooooooooo",
"ooooooooooooooooooooooooooooooooooooooooooooooooooooooooooooooooooooooooooooooooooooooOOO.... .. .... .. .... .. .... ..XXooooooooOOO@@@@@@XXX.. .... .. .... .. .... ..................................................................................................                                                                                                                                                                                 ............................................................................... .... ..XXX@@@OOOoooooooooooooooooooOOOoooooXXX. .... .. .... .. .... .. .... .. .... .. .... OOoooooooooooooooooooooooo",
"ooooooooooooooooooooooooooooooooooooooooooooooooooooooooooooooooooooooooooooooooooooooOOO .. .... .. .... .. .... .. ..XXXooooooooOOO@@@@@@@XX... .. .... .. .... .. ...................................................................................................                                                                                                                                                                                 ................................................................................ .. ...XX@@@@OOoooooooooooooooooooOOOooooooXXXX. .. .... .. .... .. .... .. .... .. .... .. .OOoooooooooooooooooooooooo",
"ooooooooooooooooooooooooooooooooooooooooooooooooooooooooooooooooooooooooooooooooooooooOO..  ..  ..  ..  ..  ..  ..  ..XXXoooooooooooOO@@@@@@XXX ..  ..  ..  ..  ..  .. .................................................................................................                                                                                                                                                                                  ................................................................................  .. XXX@@@OOOoooooooooooooooooOOOooooooooooXXX.  ..  ..  ..  ..  ..  ..  ..  ..  ..  ..  ..OOOooooooooooooooooooooooo",
"oooooooooooooooooooooooooooooooooooooooooooooooooooooooooooooooooooooooooooooooooooooOOO..  ..  ..  ..  ..  ..  ..  .XXXoooOOoooooooOOO@@@@@@XXX..  ..  ..  ..  ..  .. .................................................................................................                                                                                                                                                                                   ...............................................................................  ..XXX@@@@OOoooooooooooooooooOOOOoooooooooooXXX  ..  ..  ..  ..  ..  ..  ..  ..  ..  ..  .. OOOoooooooooooooooooooooo",
"oooooooooooooooooooooooooooooooooooooooooooooooooooooooooooooooooooooooooooooooooooooOO.. .. .... .. .... .. .... ..XXXooooOOOoooooooOOO@@@@@@XXX .. .... .. .... .. ...................................................................................................                                                                                                                                                                                    ............................................................................. .. XXX@@@@OOOooooooooooooooooOOOooooooooooooooXXX. .... .. .... .. .... .. .... .. .... .. ...OOoooooooooooooooooooooo",
"ooooooooooooooooooooooooooooooooooooooooooooooooooooooooooooooooooooooooooooooooooooOOO. .... .. .... .. .... .. ...XXooooooOOooooooooOOO@@@@@@XX.... .. .... .. .... .................................................................................................                                                                                                                                                                                     ................................................................................XXX@@@@@OOoooooooooooooooooOOooooooooooooooooXXX. .. .... .. .... .. .... .. .... .. .... ..OOoooooooooooooooooooooo",
"ooooooooooooooooooooooooooooooooooooooooooooooooooooooooooooooooooooooooooooooooooooOO  ..  ..  ..  ..  ..  ..  .. XXXooooooOOOooooooooOOO@@@@@@XX  ..  ..  ..  ..  .. ................................................................................................                                                                                                                                                                                      ............................................................................. XXX@@@@@@OOooooooooooooooooOOooooooooooooooooooXXXX  ..  ..  ..  ..  ..  ..  ..  ..  ..  ..  OOOooooooooooooooooooooo",
"ooooooooooooooooooooooooooooooooooooooooooooooooooooooooooooooooooooooooooooooooooooOO  ..  ..  ..  ..  ..  ..  ..XXXooooooooOOOooooooooOO@@@@@@XXX ..  ..  ..  ..  .. ................................................................................................                                                                                                                                                                                       ............................................................................ XX@@@@@@@OOooooooooooooooooOOoooooooooooooooooooXXX  ..  ..  ..  ..  ..  ..  ..  ..  ..  ..  .OOooooooooooooooooooooo",
"oooooooooooooooooooooooooooooooooooooooooooooooooooooooooooooooooooooooooooooooooooOOO.. .... .. .... .. .... .. .XXooooooooooOOoooooooooOOO@@@@@XXX. .. .... .. .... ................................................................................................                                                                                                                                                                                        ...........................................................................XXX@@@@@@@OOOooooooooooooooooOOoooooooooooooooooooooXXX .... .. .... .. .... .. .... .. .... .. OOOoooooooooooooooooooo",
"oooooooooooooooooooooooooooooooooooooooooooooooooooooooooooooooooooooooooooooooooooOOO... .. .... .. .... .. ....XXXooooooooooOOooooooooooOO@@@@@@XX .... .. .... .. .................................................................................................                                                                                                                                                                                         .........................................................................X X@@@@@@@@OOOoooooooooooooooOOOooooooooooooooooooooooXXX .. .... .. .... .. .... .. .... .. .... OOoooooooooooooooooooo",
"ooooooooooooooooooooooooooooooooooooooooooooooooooooooooooooooooooooooooooooooooooOOO.  ..  ..  ..  ..  ..  ..  XXXoooooooooooOOOoooooooooOOO@@@@@@XXX  ..  ..  ..  .. .............................................................................................                                                                                                                                                                                            .......................................................................XXX @@@@@@@@OOooooooooooooooooOOooooooooooooooooooooooooXXX  ..  ..  ..  ..  ..  ..  ..  ..  ..  ..OOOooooooooooooooooooo",
"ooooooooooooooooooooooooooooooooooooooooooooooooooooooooooooooooooooooooooooooooooOO..  ..  ..  ..  ..  ..  ..  XXoooooooooooooOOOoooooooooOOO@@@@@@XX  ..  ..  ..  .. ............................................................................................                                                                                                                                                                                             ......................................................................XXXX@@@@@@@@ooOoooooooooooooooOOOoooooooooooooooooooooooooXXX ..  ..  ..  ..  ..  ..  ..  ..  ..  .XXOOooooooooooooooooooo",
"ooooooooooooooooooooooooooooooooooooooooooooooooooooooooooooooooooooooooooooooooooOO .... .. .... .. .... .. ..XXXooooooooooooooOOooooooooooOOO@@@@@XXX.. .. .... .. .............................................................................................                                                                                                                                                                                               ...........................................      ....................XXX@@@@@@@@@OOooooooooooooooooOOoooooooooooooooooooooooooooXXX .... .. .... .. .... .. .... .. ....XXOOOoooooooooooooooooo",
"oooooooooooooooooooooooooooooooooooooooooooooooooooooooooooooooooooooooooooooooooOOO. .. .... .. .... .. .... .XXXooooooooooooooOOOooooooooooOOO@@@@@XXX .... .. .... ..........................................................................................                                                                                                                                                                                                  .....................................           ...................XXX@@@@@@@@@@OOooooooooooooooooOOooooooooooooooooooooooooooooXXX .. .... .. .... .. .... .. .... .. .XXOOoooooooooooooooooo",
"oooooooooooooooooooooooooooooooooooooooooooooooooooooooooooooooooooooooooooooooooOO ..  ..  ..  ..  ..  ..  ..XXXooooooooooooooooOOOooooooooooOOO@@@@@XXX.  ..  ..  .. ........................................................................................                                                                                                                                                                                                    ...........................                   ..................XXX@@@@@@@@@@@@OOOooooooooooooooOOOoooooooooooooooooooooooooooooXXX  ..  ..  ..  ..  ..  ..  ..  ..  ..XXOOOooooooooooooooooo",
"ooooooooooooooooooooooooooooooooooooooooooooooooooooooooooooooooooooooooooooooooOOO ..  ..  ..  ..  ..  ..  ..XXoooooooooooooooooOOOoooooooooooOOO@@@@XXX.  ..  ..  .. .......................................................................................                                                                                                                                                                                                     .....................                        ..................XXXX@@@@@@@@@@@@@OOOoooooooooooooOOoooooooooooooooooooooooooooooooXXX ..  ..  ..  ..  ..  ..  ..  ..  ..XXOOOooooooooooooooooo",
"ooooooooooooooooooooooooooooooooooooooooooooooooooooooooooooooooooooooooooooooooOO... .. .... .. .... .. ....XXXooooooooooooooooooOOooooooooooooOO@@@@@@XX... .. .... ......................................................................................                                                                                                                                                                                                        ...........                               ...................XXX@@@@@@@@@@@@@@@@OOooooooooooooOOOooooooooooooooooooooooooooooooooXXX .... .. .... .. .... .. .... .. ..XXOOOoooooooooooooooo",
"ooooooooooooooooooooooooooooooooooooooooooooooooooooooooooooooooooooooooooooooooOO.. .... .. .... .. .... ..XXXoooooooooooooooooooOOOoooooooooooOOO@@@@@XXX. .... .. ......................................................................................                                                                                                                                                                                                          ....                                  . ...................XXX@@@@@@@@@@@@@@@@@OOOoooooooooooOOooooooooooooooooooooooooooooooooooXX. .. .... .. .... .. .... .. .... .XXXOOoooooooooooooooo",
"oooooooooooooooooooooooooooooooooooooooooooooooooooooooooooooooooooooooooooooooOOO  ..  ..  ..  ..  ..  ..  XXoooooooooooooooooooooOOOooooooooooooOO@@@@@XXX..  ..  .. ...................................................................................                                                                                                                                                                                                                                               .  ...................XXX@@@@@@@@@@@@@@@@@@@OOOooooooooooOOooooooooooooooooooooooooooooooooooXXX.  ..  ..  ..  ..  ..  ..  ..  ..  XXOOOooooooooooooooo",
"oooooooooooooooooooooooooooooooooooooooooooooooooooooooooooooooooooooooooooooooOO.  ..  ..  ..  ..  ..  ..  XXooooooooooooooooooooooOOooooooooooooOOO@@@@@XXXX  ..  .. .................................................................................                                                                                                                                                                                                                                               ... ...................XXX@@@@@@@@@@@@@@@@@@@@OOOooooooooooOOoooooooooooooooooooooooooooooooooooXXX  ..  ..  ..  ..  ..  ..  ..  ..  XXOOOooooooooooooooo",
"ooooooooooooooooooooooooooooooooooooooooooooooooooooooooooooooooooooooooooooooOOO .. .... .. .... .. .... .XXoooooooooooooooooooooooOOOooooooooooooOOO@@@@@@XXX.. .. ..................................................................................                                                                                                                                                                                                                                              .... ...................XXX@@@@@@@@@@@@@@@@@@@@@@OOOoooooooooOOooooooooooooooooooooooooooooooooooooXX.. .... .. .... .. .... .. .... ..XXXOOOoooooooooooooo",
"ooooooooooooooooooooooooooooooooooooooooooooooooooooooooooooooooooooooooooooooOO .... .. .... .. .... .. .XXXoooooooooooooooooooooooOOOoooooooooooooOOO@@@@@@XXX .... ................................................................................                                                                                                                                                                                                                                             .. ......................XXX@@@@@@@@@@@@@@@@@@@@@@@OOOoooooooooOOooooooooooooooooooooooooooooooooooooXXX.. .. .... .. .... .. .... .. ....XXOOOoooooooooooooo",
"ooooooooooooooooooooooooooooooooooooooooooooooooooooooooooooooooooooooooooooooOO..  ..  ..  ..  ..  ..  ..XXoooooooooooooooooooooooooOOOoooooooooooooOOO@@@@@@XXXX  ..  ............................................................................                                                                                                                                                                                                                                             .  .. ...................XXXX@@@@@@@@@@@@@@@@@@@@@@@@@OOOooooooooOOoooooooooooooooooooooooooooooooooooooXXX..  ..  ..  ..  ..  ..  ..  ..  .XXXOOoooooooooooooo",
"oooooooooooooooooooooooooooooooooooooooooooooooooooooooooooooooooooooooooooooOOO..  ..  ..  ..  ..  ..  .XXXooooooooooooooooooooooooooOOooooooooooooooOO@@@@@@@XXXX ..  ...........................................................................                                                                                                                                                                                                                                             ..  ......................XXX@@@@@@@@@@@@@@@@@@@@@@@@@@@OOooooooooOOoooooooooooooooooooooooooooooooooooooXXX..  ..  ..  ..  ..  ..  ..  ..  ..XXOOOooooooooooooo",
"ooooooooooooooooooooooooooooooooooooooooooooooooooooooooooooooooooooooooooooOOO. .... .. .... .. .... ..XXXoooooooooooooooooooooooooooOOOooooooooooooooOOO@@@@@@@XXX. ............................................................................                                                                                                                                                                                                                                          . .. .......................XXX@@@@@@@@@@@@@@@@@@@@@@@@@@@@@OOOoooooooOOooooooooooooooooooooooooooooooooooooooXXX .. .... .. .... .. .... .. .... XXXOOOoooooooooooo",
"ooooooooooooooooooooooooooooooooooooooooooooooooooooooooooooooooooooooooooooOOO.. .. .... .. .... .. ...XXXooooooooooooooooooooooooooooOOOoooooooooooooOOO@@@@@@@@XXXX...........................................................................                                                                                                                                                                                                                                          . .... .....................XXX@@@@@@@@@@@@@@@@@@@@@@@@@@@@@@@OOOooooooOOooooooooooooooooooooooooooooooooooooooXXX.... .. .... .. .... .. .... .. .XXXOOOoooooooooooo",
"ooooooooooooooooooooooooooooooooooooooooooooooooooooooooooooooooooooooooooooOO  ..  ..  ..  ..  ..  .. XXXooooooooooooooooooooooooooooooOOooooooooooooooOOO@@@@@@@@@XXX ...................  ..................................................                                                                                                                                                                                                                                         ..  ..  ......................XXX@@@@@@@@@@@@@@@@@@@@@@@@@@@@@@@@@OOooooooOOoooooooooooooooooooooooooooooooooooooooXXX  ..  ..  ..  ..  ..  ..  ..  .. XXXOOooooooooooOO",
"ooooooooooooooooooooooooooooooooooooooooooooooooooooooooooooooooooooooooooooOO  ..  ..  ..  ..  ..  .. XXXooooooooooooooooooooooooooooooOOoooooooooooooooOOO@@@@@@@@@XXX..................          ..........................................                                                                                                                                                                                                                                          ..  ..  .....................XXX@@@@@@@@@@@@@@@@@@@@@@@@@@@@@@@@@@OOOoooooOOooooooooooooooooooooooooooooooooooooooooXX  ..  ..  ..  ..  ..  ..  ..  .. XXXOOOoooooooOOOO",
"oooooooooooooooooooooooooooooooooooooooooooooooooooooooooooooooooooooooooooOOO... .. .... .. .... .. .XXXoooooooooooooooooooooooooooooooOOOoooooooooooooooOOO@@@@@@@@@XXXX.................                  ................................                                                                                                                                                                                                                                        .... .. .......................XXX@@@@@@@@@@@@@@@@@@@@@@@@@@@@@@@@@@@@OOOooooOOooooooooooooooooooooooooooooooooooooooooXXX.. .. .... .. .... .. .... .. ...XX@OOoooooOOOOoo",
"oooooooooooooooooooooooooooooooooooooooooooooooooooooooooooooooooooooooooooOO .. .... .. .... .. .... XXoooooooooooooooooooooooooooooooooOOOoooooooooooooooOOO@@@@@@@@@XXXX.................                        ........................                                                                                                                                                                                                                                       .. .. ..........................XXX@@@@@@@@@@@@@@@@@@@@@@@@@@@@@@@@@@@@@@OOooooOOoooooooooooooooooooooooooooooooooooooooooXXX .... .. .... .. .... .. .... ..XXXOOOoooOOOOooo",
"ooooooooooooooooooooooooooooooooooooooooooooooooooooooooooooooooooooooooooOOO.  ..  ..  ..  ..  ..  .XXXooooooooooooooooooooooooooooooooooOOooooooooooooooooOOO@@@@@@@@@@XXX..................                               .............                                                                                                                                                                                                                                      ..  ..  .. .......................XX@@@@@@@@@@@@@@@@@@@@@@@@@@@@@@@@@@@@@@@@OOOoooOOooooooooooooooooooooooooooooooooooooooooooXX..  ..  ..  ..  ..  ..  ..  ..  .XX+OOooOOOooooo",
"ooooooooooooooooooooooooooooooooooooooooooooooooooooooooooooooooooooooooooOO..  ..  ..  ..  ..  ..  .XXoooooooooooooooooooooooooooooooooooOOOoooooooooooooooOOO@@@@@@@@@@@XXXX...................                                   .....                                                                                                                                                                                                                                       ..  ..  ........................XXXX@@@@@@@@@@@@@@@@@@@@@@@@@@@@@@@@@@@@@@@@@OOOooOOooooooooooooooooooooooooooooooooooooooooooXXX.  ..  ..  ..  ..  ..  ..  ..  .XXXOOOoOOoooooo",
"oooooooooooooooooooooooooooooooooooooooooooooooooooooooooooooooooooooooooOOO. .. .... .. .... .. ...XXoooooooooooooooooooooooooooooooooooooOOOooooooooooooooooOO@@@@@@@@@@@@XXX.....................                                                                                                                                                                                                                                                                        . .. .... .........................XXX@@@@@@@@@@@@@@@@@@@@@@@@@@@@@@@@@@@@@@@@@@OOOOOOOOoooooooooooooooooooooooooooooooooooooooooooOO.... .. .... .. .... .. .... .. .XX+OOOOOoooooo",
"oooooooooooooooooooooooooooooooooooooooooooooooooooooooooooooooooooooooooOOO .... .. .... .. .... ..XXoooooooooooooooooooooooooooooooooooooOOOooooooooooooooooOOO@@@@@@@@@@@XXXX.................... .                                                                                                                                                                                                                                                                    .. .... .. .........................XXX@@@@@@@@@@@@@@@@@@@@@@@@@@@@@@@@@@@@@@@@@@@@OOOOOOOoooooooooooooooooooooooooooooooooooooooooooOOO.. .... .. .... .. .... .. .... XX+OOOOooooooo",
"ooooooooooooooooooooooooooooooooooooooooooooooooooooooooooooooooooooooooOOO ..  ..  ..  ..  ..  .. XXXooooooooooooooooooooooooooooooooooooooOOoooooooooooooooooOOO@@@@@@@@@@@@XXXX....................  ..                                                                                                                                                                                                                                                              ..  ..  ..  .........................XXX@@@@@@@@@@@@@@@@@@@@@@@@@@@@@@@@@@@@@@@@@@@@@@@@OOOOOOOOoooooooooooooooooooooooooooooooooooooooOOO  ..  ..  ..  ..  ..  ..  ..  ..XXX+OOoooooooo",
"ooooooooooooooooooooooooooooooooooooooooooooooooooooooooooooooooooooooooOOO ..  ..  ..  ..  ..  ..XXXoooooooooooooooooooooooooooooooooooooooOOOoooooooooooooooooOOO@@@@@@@@@@@@XXXX.................... ..                                                                                                                                                                                                                                                              ..  ..  ..  ........................XXX@@@@@@@@@@@@@@@@@@@@@@@@@@@@@@@@@@@@@@@@@@@@@@@@@@@OOOOOOOOooooooooooooooooooooooooooooooooooooooOO  ..  ..  ..  ..  ..  ..  ..  .. XXOOOoooooooo",
"ooooooooooooooooooooooooooooooooooooooooooooooooooooooooooooooooooooooooOO.. .... .. .... .. .... XXoooooooooooooooooooooooooooooooooooooooooOOOoooooooooooooooooOOO@@@@@@@@@@@@@XXX..................... .. ...                                                                                                                                                                                                                                                     .... .. .... .........................XXX@@@@@@@@@@@@@@@@@@@@@@@@@@@@@@@@@@@@@@@@@@@@@@@@@@@@OOooOOOOOOOOooooooooooooooooooooooooooooooooooOO.. .... .. .... .. .... .. .... .XXXoooooooooo",
"oooooooooooooooooooooooooooooooooooooooooooooooooooooooooooooooooooooooOOO... .. .... .. .... .. XXXooooooooooooooooooooooooooooooooooooooooooOOooooooooooooooooooOO@@@@@@@@@@@@@@XXXX....................... .. .                                                                                                                                                                                                                                                ... .. .... .. .........................XXX@@@@@@@@@@@@@@@@@@@@@@@@@@@@@@@@@@@@@@@@@@@@@@@@@@@@@OOoooooOOOOOOOooooooooooooooooooooooooooooooooOOO.. .. .... .. .... .. .... .. ...XXoooooooooo",
"oooooooooooooooooooooooooooooooooooooooooooooooooooooooooooooooooooooooOO.  ..  ..  ..  ..  ..  XXXoooooooooooooooooooooooooooooooooooooooooooOOOooooooooooooooooooOOO@@@@@@@@@@@@@@XXX.......................  ..  ..                                                                                                                                                                                                                                          ..  ..  ..  ..  ........................XXXX@@@@@@@@@@@@@@@@@@@@@@@@@@@@@@@@@@@@@@@@@@@@@@@@@@@@@@OOooooooooOOOOOOOOooooooooooooooooooooooooooooOOO ..  ..  ..  ..  ..  ..  ..  ..  XXoooooooooo",
"ooooooooooooooooooooooooooooooooooooooooooooooooooooooooooooooooooooooOOO.  ..  ..  ..  ..  ..  XXXoooooooooooooooooooooooooooooooooooooooooooOOOoooooooooooooooooooOO@@@@@@@@@@@@@@XXXX......................  ..  ..                                                                                                                                                                                                                                          ..  ..  ..  .. .........................XXX@@@@@@@@@@@@@@@@@@@@@@@@@@@@@@@@@@@@@@@@@@@@@@@@@@@@@@@OOoooooooooooOOOOOOOoooooooooooooooooooooooooooOO ..  ..  ..  ..  ..  ..  ..  ..  XXXooooooooo",
"ooooooooooooooooooooooooooooooooooooooooooooooooooooooooooooooooooooooOO .... .. .... .. .... ..XXoooooooooooooooooooooooooooooooooooooooooooooOOOooooooooooooooooooOOO@@@@@@@@@@@@@@@XXXX...................... .... .. ..                                                                                                                                                                                                                                 . .. .... .. .............................XXX@@@@@@@@@@@@@@@@@@@@@@@@@@@@@@@@@@@@@@@@@@@@@@@@@@@@@@@@@OOooooooooooooooOOOOOOOOooooooooooooooooooooooOOOO. .. .... .. .... .. .... .. ....XXooooooooo",
"ooooooooooooooooooooooooooooooooooooooooooooooooooooooooooooooooooooooOO. .. .... .. .... .. ..XXXooooooooooooooooooooooooooooooooooooooooooooooOOoooooooooooooooooooOOO@@@@@@@@@@@@@@@XXXX......................... .... .. .                                                                                                                                                                                                                            .. .... .. .... ...........................XXX@@@@@@@@@@@@@@@@@@@@@@@@@@@@@@@@@@@@@@@@@@@@@@@@@@@@@@@@@@OOOooooooooooooooooOOOOOOOoooooooooooooooooOOOOOO. .... .. .... .. .... .. .... .. XXXoooooooo",
"oooooooooooooooooooooooooooooooooooooooooooooooooooooooooooooooooooooOOO..  ..  ..  ..  ..  ..XXXoooooooooooooooooooooooooooooooooooooooooooooooOOOoooooooooooooooooooOOO@@@@@@@@@@@@@@@@XXX..........................  ..  ..  .                                                                                                                                                                                                                       ..  ..  ..  ..  ............................XXX@@@@@@@@@@@@@@@@@@@@@@@@@@@@@@@@@@@@@@@@@@@@@@@@@@@@@@@@@@@OOOoooooooooooooooooooOOOOOOOOooooooooooOOOOOOO.  ..  ..  ..  ..  ..  ..  ..  ..  ..XXoooooooo",
"oooooooooooooooooooooooooooooooooooooooooooooooooooooooooooooooooooooOOO..  ..  ..  ..  ..  ..XXoooooooooooooooooooooooooooooooooooooooooooooooooOOOoooooooooooooooooooOOO@@@@@@@@@@@@@@@@XXXX........................  ..  ..  ..                                                                                                                                                                                                                  ..  ..  ..  ..  ..  ...........................XXX@@@@@@@@@@@@@@@@@@@@@@@@@@@@@@@@@@@@@@@@@@@@@@@@@@@@@@@@@@@@OOOooooooooooooooooooo.. OOOOOOOooooooOOOOOOO ..  ..  ..  ..  ..  ..  ..  ..  ..  ..XXoooooooo",
"ooooooooooooooooooooooooooooooooooooooooooooooooooooooooooooooooooooOOO.. .. .... .. .... .. XXXooooooooooooooooooooooooooooooooooooooooooooooooooOOooooooooooooooooooooOOO@@@@@@@@@@@@@@@@@XXX.......................... .. .... .. ..                                                                                                                                                                                                        .. .. .... .. .... .. .............................XXX@@@@@@@@@@@@@@@@@@@@@@@@@@@@@@@@@@@@@@@@@@@@@@@@@@@@@@@@@@@@@@OOooooooooooooooooooo. .. .OOOOOOOOOOOOOO .... .. .... .. .... .. .... .. .... .. .XXXooooooo",
"ooooooooooooooooooooooooooooooooooooooooooooooooooooooooooooooooooooOO.. .... .. .... .. ....XXoooooooooooooooooooooooooooooooooooooooooooooooooooOOoooooooooooooooooooooOOO@@@@@@@@@@@@@@@@XXXX............................. .. .... ..                                                                                                                                                                                                    . .. .... .. .... .. .... ...........................XXX@@@@@@@@@@@@@@@@@@@@@@@@@@@@@@@@@@@@@@@@@@@@@@@@@@@@@@@@@@@@@@@OOooooooooooooooooooo .... .. OOOOOOOO.... .. .... .. .... .. .... .. .... .. .... .XXooooooo",
"ooooooooooooooooooooooooooooooooooooooooooooooooooooooooooooooooooooOO  ..  ..  ..  ..  ..  XXXoooooooooooooooooooooooooooooooooooooooooooooooooooOOOoooooooooooooooooooooOO@@@@@@@@@@@@@@@@@@XXXX............................  ..  ..  ..  .                                                                                                                                                                                           ..  ..  ..  ..  ..  ..  ..  ............................XX@@@@@@@@@@@@@@@@@@@@@@@@@@@@@@@@@@@@@@@@@@@@@@@@@@@@@@@@@@@@@@@@@OOOoooooooooooooooooo..  ..  ..  OO  ..  ..  ..  ..  ..  ..  ..  ..  ..  ..  ..  .. XXXoooooo",
"oooooooooooooooooooooooooooooooooooooooooooooooooooooooooooooooooooOOO  ..  ..  ..  ..  ..  XXoooooooooooooooooooooooooooooooooooooooooooooooooooooOOOooooooooooooooooooooOOO@@@@@@@@@@@@@@@@@@XXXX...........................  ..  ..  ..  ..                                                                                                                                                                                      ..  ..  ..  ..  ..  ..  ..  ..  ..........................XXXX@@@@@@@@@@@@@@@@@@@@@@@@@@@@@@@@@@@@@@@@@@@@@@@@@@@@@@@@@@@@@@@@@OOOoooooooooooooooooXXX  ..  ..  ..  ..  ..  ..  ..  ..  ..  ..  ..  ..  ..  ..  ..  XXoooooo",
"oooooooooooooooooooooooooooooooooooooooooooooooooooooooooooooooooooOO .. .... .. .... .. ..XXXooooooooooooooooooooooooooooooooooooooooooooooooooooooOOooooooooooooooooooooooOO@@@@@@@@@@@@@@@@@@@XXX............................ .... .. .... .. ..                                                                                                                                                                            . .... .. .... .. .... .. .... .. ............................XXX@@@@@@@@@@@@@@@@@@@@@@@@@@@@@@@@@@@@@@@@@@@@@@@@@@@@@@@@@@@@@@@@@@@OOOoooooooooooooooooXXX... .. .... .. .... .. .... .. .... .. .... .. .... .. .... ..XXXooooo",
"ooooooooooooooooooooooooooooooooooooooooooooooooooooooooooooooooooOOO.... .. .... .. .... XXXoooooooooooooooooooooooooooooooooooooooooooooooooooooooOOOoooooooooooooooooooooOOO@@@@@@@@@@@@@@@@@@@XXX............................ .. .... .. .... ..                                                                                                                                                                         .... .. .... .. .... .. .... .. ...............................XXXX@@@@@@@@@@@@@@@@@@@@@@@@@@@@@@@@@@@@@@@@@@@@@@@@@@@@@@@@@@@@@@@@@@@OOOoooooooooooooooooXXX.. .... .. .... .. .... .. .... .. .... .. .... .. .... .. ...XXXooooo",
"ooooooooooooooooooooooooooooooooooooooooooooooooooooooooooooooooooOO..  ..  ..  ..  ..  ..XX@@oOoooooooooooooooooooooooooooooooooooooooooooooooooooooOOOoooooooooooooooooooooOOO@@@@@@@@@@@@@@@@@@@XXXX............................ ..  ..  ..  ..  ..                                                                                                                                                                  ..  ..  ..  ..  ..  ..  ..  ..  ..  .. ............................XXX@@@@@@@@@@@@@@@@@@@@@@@@@@@@@@@@@@@@@@@@@@@@@@@@@@@@@@@@@@@@@@@@@@@@@@OOoooooooooooooooooXXX  ..  ..  ..  ..  ..  ..  ..  ..  ..  ..  ..  ..  ..  ..  ..  XXXooooo",
"ooooooooooooooooooooooooooooooooooooooooooooooooooooooooooooooooooOO..  ..  ..  ..  ..  .XXX@@OOoooooooooooooooooooooooooooooooooooooooooooooooooooooOOOooooooooooooooooooooooOOO@@@@@@@@@@@@@@@@@@@XXXX..............................  ..  ..  ..  ..  ..                                                                                                                                                          ..  ..  ..  ..  ..  ..  ..  ..  ..  ..  ..............................XXX@@@@@@@@@@@@@@@@@@@@@@@@@@@@@@@@@@@@@@@@@@@@@@@@@@@@@@@@@@@@@@@@@@@@@@@OOoooooooooooooooooXXX  ..  ..  ..  ..  ..  ..  ..  ..  ..  ..  ..  ..  ..  ..  ..  OOoooooo",
"oooooooooooooooooooooooooooooooooooooooooooooooooooooooooooooooooOOO .... .. .... .. ....XX@@@OOOoooooooooooooooooooooooooooooooooooooooooooooooooooooOOoooooooooooooooooooooooOOO@@@@@@@@@@@@@@@@@@@@XXXX............................... .. .... .. .... .. .                                                                                                                                                 .. .. .... .. .... .. .... .. .... .. .... ...............................XXX@@@@@@@@@@@@@@@@@@@@@@@@@@@@@@@@@@@@@@@@@@@@@@@@@@@@@@@@@@@@@@@@@@@@@@@@OOoooooooooooooooooXXX.. .... .. .... .. .... .. .... .. .... .. .... .. .... .. .XXOOoooooo",
"oooooooooooooooooooooooooooooooooooooooooooooooooooooooooooooooooOO.. .. .... .. .... ..XXX@@@@OOOooooooooooooooooooooooooooooooooooooooooooooooooooooOOOoooooooooooooooooooooooOO@@@@@@@@@@@@@@@@@@@@@XXXX............................. .... .. .... .. .... ..                                                                                                                                            . .. .... .. .... .. .... .. .... .. .... .. ...............................XXX@@@@@@@@@@@@@@@@@@@@@@@@@@@@@@@@@@@@@@@@@@@@@@@@@@@@@@@@@@@@@@@@@@@@@@@@@OOoooooooooooooooooXX.... .. .... .. .... .. .... .. .... .. .... .. .... .. .... XOOOoooooo",
"ooooooooooooooooooooooooooooooooooooooooooooooooooooooooooooooooOOO ..  ..  ..  ..  ..  XX@@@@@@OOoooooooooooooooooooooooooooooooooooooooooooooooooooooOOOoooooooooooooooooooooooOO@@@@@@@@@@@@@@@@@@@@@@XXX..............................  ..  ..  ..  ..  ..  ..                                                                                                                                      ..  ..  ..  ..  ..  ..  ..  ..  ..  ..  ..  ..  ..............................XXXX@@@@@@@@@@@@@@@@@@@@@@@@@@@@@@@@@@@@@@@@@@@@@@@@@@@@@@@@@@@@@@@@@@@@@@@@@@OOoooooooooooooooooXX.  ..  ..  ..  ..  ..  ..  ..  ..  ..  ..  ..  ..  ..  ..  .XOOoooooooo",
"ooooooooooooooooooooooooooooooooooooooooooooooooooooooooooooooooOO  ..  ..  ..  ..  .. XXX@@@@@@OOOoooooooooooooooooooooooooooooooooooooooooooooooooooooOOoooooooooooooooooooooooOOO@@@@@@@@@@@@@@@@@@@@@@XXX.................................  ..  ..  ..  ..  ..  ..                                                                                                                              ..  ..  ..  ..  ..  ..  ..  ..  ..  ..  ..  ..  ..  ..............................XXX@@@@@@@@@@@@@@@@@@@@@@@@@@@@@@@@@@@@@@@@@@@@@@@@@@@@@@@@@@@@@@@@@@@@@@@@@@@OOOooooooooooooooooXX.  ..  ..  ..  ..  ..  ..  ..  ..  ..  ..  ..  ..  ..  ..  XOOOoooooooo",
"ooooooooooooooooooooooooooooooooooooooooooooooooooooooooooooooooOO... .. .... .. .... XXX@@@@@@@@OOOooooooooooooooooooooooooooooooooooooooooooooooooooooOOOoooooooooooooooooooooooOOO@@@@@@@@@@@@@@@@@@@@@@XXXX................................. .... .. .... .. .... .. .... ..                                                                                                                 .... .. .... .. .... .. .... .. .... .. .... .. .... ..............................XXX@@@@@@@@@@@@@@@@@@@@@@@@@@@@@@@@@@@@@@@@@@@@@@@@@@@@@@@@@@@@@@@@@@@@@@@@@@@@@OOOooooooooooooooooXX.... .. .... .. .... .. .... .. .... .. .... .. .... .. ..XOOOooooooooo",
"oooooooooooooooooooooooooooooooooooooooooooooooooooooooooooooooOOO.. .... .. .... .. .XX@@@@@@@@@@OOooooooooooooooooooooooooooooooooooooooooooooooooooooOOOooooooooooooooooooooooooOOO@@@@@@@@@@@@@@@@@@@@@@XXXX................................. .. .... .. .... .. .... .. .... .. .                                                                                                       .... .. .... .. .... .. .... .. .... .. .... .. .... .. ..............................XXX@@@@@@@@@@@@@@@@@@@@@@@@@@@@@@@@@@@@@@@@@@@@@@@@@@@@@@@@@@@@@@@@@@@@@@@@@@@@@@OOOooooooooooooooooXX .. .... .. .... .. .... .. .... .. .... .. .... .. .... XXOOoooooooooo",
"ooooooooooooooooooooooooooooooooooooooooooooooooooooooooooooooOOO.  ..  ..  ..  ..  .XXX@@@@@@@@@@OOOooooooooooooooooooooooooooooooooooooooooooooooooooooOOoooooooooooooooooooooooooOOO@@@@@@@@@@@@@@@@@@@@@@@XXXX................................  ..  ..  ..  ..  ..  ..  ..  ..  ..  ..  ..                                                                                          ..  ..  ..  ..  ..  ..  ..  ..  ..  ..  ..  ..  ..  ..  ..  ..............................XXX@@@@@@@@@@@@@@@@@@@@@@@@@@@@@@@@@@@@@@@@@@@@@@@@@@@@@@@@@@@@@@@@@@@@@@@@@@@@@@@OOOooooooooooooooooXX.  ..  ..  ..  ..  ..  ..  ..  ..  ..  ..  ..  ..  ..  .XOOOooooooooooo",
"ooooooooooooooooooooooooooooooooooooooooooooooooooooooooooooooOOO.  ..  ..  ..  ..  .XXX@@@@@@@@@@@OOoooooooooooooooooooooooooooooooooooooooooooooooooooOOOooooooooooooooooooooooooooOOO@@@@@@@@@@@@@@@@@@@@@@@XXXX................................ ..  ..  ..  ..  ..  ..  ..  ..  ..  ..  ..  ..                                                                                  ..  ..  ..  ..  ..  ..  ..  ..  ..  ..  ..  ..  ..  ..  ..  .. ..............................XXX@@@@@@@@@@@@@@@@@@@@@@@@@@@@@@@@@@@@@@@@@@@@@@@@@@@@@@@@@@@@@@@@@@@@@@@@@@@@@@@@@OOooooooooooooooooXX.  ..  ..  ..  ..  ..  ..  ..  ..  ..  ..  ..  ..  ..  XXOOoooooooooooo",
"ooooooooooooooooooooooooooooooooooooooooooooooooooooooooooooooOO. .. .... .. .... ..XXX@@@@@@@@@@@@OOOooooooooooooooooooooooooooooooooooooooooooooooooooOOOoooooooooooooooooooooooooooOO@@@@@@@@@@@@@@@@@@@@@@@@@XXXXX................................... .. .... .. .... .. .... .. .... .. .... .. .... .. .... .. .... .. .... .. .... .                                     . .. .... .. .... .. .... .. .... .. .... .. .... .. .... .. .... .............................XXXX@@@@@@@@@@@@@@@@@@@@@@@@@@@@@@@@@@@@@@@@@@@@@@@@@@@@@@@@@@@@@@@@@@@@@@@@@@@@@@@@@@OOooooooooooooooooXX .. .... .. .... .. .... .. .... .. .... .. .... .. ..XXOOOoooooooooooo",
"oooooooooooooooooooooooooooooooooooooooooooooooooooooooooooooOOO .... .. .... .. ...XX@@@@@@@@@@@@@@OOooooooooooooooooooooooooooooooooooooooooooooooooooOOOoooooooooooooooooooooooooooOOO@@@@@@@@@@@@@@@@@@@@@@@@@XXXXX................................. .... .. .... .. .... .. .... .. .... .. .... .. .... .. .... .. .... .. .... .. .... .. .... .. .... .. .... .. .... .. .... .. .... .. .... .. .... .. .... .. .... .. .... .. .... .. .............................XXXX@@@@@@@@@@@@@@@@@@@@@@@@@@@@@@@@@@@@@@@@@@@@@@@@@@@@@@@@@@@@@@@@@@@@@@@@@@@@@@@@@@OOOooooooooooooooooXX.... .. .... .. .... .. .... .. .... .. .... .. .... .XOOOooooooooooooo",
"oooooooooooooooooooooooooooooooooooooooooooooooooooooooooooooOO ..  ..  ..  ..  .. XXX@@@@@@@@@@@@@@OOOoooooooooooooooooooooooooooooooooooooooooooooooooOOooooooooooooooooooooooooooooooOO@@@@@@@@@@@@@@@@@@@@@@@@@@XXXXX.................................  ..  ..  ..  ..  ..  ..  ..  ..  ..  ..  ..  ..  ..  ..  ..  ..  ..  ..  ..  ..  ..  ..  ..  ..  ..  ..  ..  ..  ..  ..  ..  ..  ..  ..  ..  ..  ..  ..  ..  ..  ..  ..  ..  ..  ................................XXXX@@@@@@@@@@@@@@@@@@@@@@@@@@@@@@@@@@@@@@@@@@@@@@@@@@@@@@@@@@@@@@@@@@@@@@@@@@@@@@@@@@@@OOOooooooooooooooooXX.  ..  ..  ..  ..  ..  ..  ..  ..  ..  ..  ..  ..  ..XOOOoooooooooooooo",
"ooooooooooooooooooooooooooooooooooooooooooooooooooooooooooooOOO ..  ..  ..  ..  ..XXX@@@@@@@@@@@@@@@@OOOooooooooooooooooooooooooooooooooooooooooooooooooOOooooooooooooooooooooooooooooooOOO@@@@@@@@@@@@@@@@@@@@@@@@@@@XXXX................................  ..  ..  ..  ..  ..  ..  ..  ..  ..  ..  ..  ..  ..  ..  ..  ..  ..  ..  ..  ..  ..  ..  ..  ..  ..  ..  ..  ..  ..  ..  ..  ..  ..  ..  ..  ..  ..  ..  ..  ..  ..  ..  ..  ..  ...............................XXXX@@@@@@@@@@@@@@@@@@@@@@@@@@@@@@@@@@@@@@@@@@@@@@@@@@@@@@@@@@@@@@@@@@@@@@@@@@@@@@@@@@@@@OOOooooooooooooooooXX.  ..  ..  ..  ..  ..  ..  ..  ..  ..  ..  ..  ..  .XOOOooooooooooooooo",
"ooooooooooooooooooooooooooooooooooooooooooooooooooooooooooooOO.. .... .. .... .. .XX@@@@@@@@@@@@@@@@@@OOooooooooooooooooooooooooooooooooooooooooooooooooOOoooooooooooooooooooooooooooooooOOO@@@@@@@@@@@@@@@@@@@@@@@@@@@@XXXX................................. .. .... .. .... .. .... .. .... .. .... .. .... .. .... .. .... .. .... .. .... .. .... .. .... .. .... .. .... .. .... .. .... .. .... .. .... .. .... .. .... .. .... .. ................................XXXX@@@@@@@@@@@@@@@@@@@@@@@@@@@@@@@@@@@@@@@@@@@@@@@@@@@@@@@@@@@@@@@@@@@@@@@@@@@@@@@@@@@@@@@OOooooooooooooooooXXX.... .. .... .. .... .. .... .. .... .. .... .. ...XXOOoooooooooooooooo",
"oooooooooooooooooooooooooooooooooooooooooooooooooooooooooooOOO... .. .... .. .... XX@@@@@@@@@@@@@@@@@@OOOoooooooooooooooooooooooooooooooooooooooooooooooOOooooooooooooooooooooooooooooooooOOO@@@@@@@@@@@@@@@@@@@@@@@@@@@@XXXXX................................... .. .... .. .... .. .... .. .... .. .... .. .... .. .... .. .... .. .... .. .... .. .... .. .... .. .... .. .... .. .... .. .... .. .... .. .... .. .... .. .... .. ...................................XXXX@@@@@@@@@@@@@@@@@@@@@@@@@@@@@@@@@@@@@@@@@@@@@@@@@@@@@@@@@@@@@@@@@@@@@@@@@@@@@@@@@@@@@@@@OOooooooooooooooooXXX .. .... .. .... .. .... .. .... .. .... .. .... .XXOOOoooooooooooooooo",
"oooooooooooooooooooooooooooooooooooooooooooooooooooooooooooOO.  ..  ..  ..  ..  .XXo@@@@@@@@@@@@@@@@@@@OOOoooooooooooooooooooooooooooooooooooooooooooooOOOoooooooooooooooooooooooooooooooooOOO@@@@@@@@@@@@@@@@@@@@@@@@@@@@@XXXXX................................... ..  ..  ..  ..  ..  ..  ..  ..  ..  ..  ..  ..  ..  ..  ..  ..  ..  ..  ..  ..  ..  ..  ..  ..  ..  ..  ..  ..  ..  ..  ..  ..  ..  ..  ..  ..  ..  ..  ..  ..  ..................................XXXX@@@@@@@@@@@@@@@@@@@@@@@@@@@@@@@@@@@@@@@@@@@@@@@@@@@@@@@@@@@@@@@@@@@@@@@@@@@@@@@@@@@@@@@@@@OOooooooooooooooooXXX.  ..  ..  ..  ..XXXXXXX.  ..  ..  ..  ..  ..  ..XXOOoooooooooooooooooo",
"ooooooooooooooooooooooooooooooooooooooooooooooooooooooooooOOO.  ..  ..  ..  ..  XXXooO@@@@@@@@@@@@@@@@@@OOoooooooooooooooooooooooooooooooooooooooooooooOOOooooooooooooooooooooooooooooooooooOO@@@@@@@@@@@@@@@@@@@@@@@@@@@@@@@XXXXX....................................  ..  ..  ..  ..  ..  ..  ..  ..  ..  ..  ..  ..  ..  ..  ..  ..  ..  ..  ..  ..  ..  ..  ..  ..  ..  ..  ..  ..  ..  ..  ..  ..  ..  ..  ..  ..  ..  ..  .....................................XXXX@@@@@@@@@@@@@@@@@@@@@@@@@@@@@@@@@@@@@@@@@@@@@@@@@@@@@@@@@@@@@@@@@@@@@@@@@@@@@@@@@@@@@@@@@@@OOooooooooooooooooXXX.  ..  XXXXXXXXXXXXXXXXXXXXXXXXXXXXXXX ..  ..  ..XOOOoooooooooooooooooo",
"ooooooooooooooooooooooooooooooooooooooooooooooooooooooooooOO .... .. .... .. ...XXooOOO@@@@@@@@@@@@@@@@@OOOooooooooooooooooooooooooooooooooooooooooooooOOOoooooooooooooooooooooooooooooooooOOO@@@@@@@@@@@@@@@@@@@@@@@@@@@@@@@@@XXXXX........................................ .... .. .... .. .... .. .... .. .... .. .... .. .... .. .... .. .... .. .... .. .... .. .... .. .... .. .... .. .... .. .... .. .... .. .... .. ......................................XXXX@@@@@@@@@@@@@@@@@@@@@@@@@@@@@@@@@@@@@@@@@@@@@@@@@@@@@@@@@@@@@@@@@@@@@@@@@@@@@@@@@@@@@@@@@@@@@OOooooooooooooooooXXXXXXXXXXXXXXXXXXXXXXXXXXXXXXXXXXXXXXXXXXXXXXXXXXXXOOOooooooooooooooooooo",
"oooooooooooooooooooooooooooooooooooooooooooooooooooooooooOOO. .. .... .. .... .XXXoooOOO@@@@@@@@@@@@@@@@@OOooooooooooooooooooooooooooooooooooooooooooooOOOoooooooooooooooooooooooooooooooooOO@@@@@@@@@@@@@@@@@@@@@@@@@@@@@@@@@@@XXXXX........................................ .. .... .. .... .. .... .. .... .. .... .. .... .. .... .. .... .. .... .. .... .. .... .. .... .. .... .. .... .. .... .. .... .. .... .. .........................................XXXX@@@@@@@@@@@@@@@@@@@@@@@@@@@@@@@@@@@@@@@@@@@@@@@@@@@@@@@@@@@@@@@@@@@@@@@@@@@@@@@@@@@@@@@@@@@@@OOOooooooooooooooooXXXXXXXXXXXXXXXoooooooooooooooooooXXXXXXXXXXXXXXXXXXOOoooooooooooooooooooo",
"oooooooooooooooooooooooooooooooooooooooooooooooooooooooooOO ..  ..  ..  ..  ..XXXoooooOOO@@@@@@@@@@@@@@@@@OOoooooooooooooooooooooooooooooooooooooooooooOOoooooooooooooooooooooooooooooooooOOO@@@@@@@@@@@@@@@@@@@@@@@@@@@@@@@@@@@@@XXXXX...........................................  ..  ..  ..  ..  ..  ..  ..  ..  ..  ..  ..  ..  ..  ..  ..  ..  ..  ..  ..  ..  ..  ..  ..  ..  ..  ..  ..  ..  ..  ..  ..  ..  ..  ........................................XXXX@@@@@@@@@@@@@@@@@@@@@@@@@@@@@@@@@@@@@@@@@@@@@@@@@@@@@@@@@@@@@@@@@@@@@@@@@@@@@@@@@@@@@@@@@@@@@@@OOOooooooooooooooooooooooooooooooooooooooooooooooooooooooooooooooooooOOOooooooooooooooooooooo",
"ooooooooooooooooooooooooooooooooooooooooooooooooooooooooOOO ..  ..  ..  ..  ..XXXooooooOOO@@@@@@@@@@@@@@@@OOoooooooooooooooooooooooooooooooooooooooooooOOoooooooooooooooooooooooooooooooooOOO@@@@@@@@@@@@@@@@@@@@@@@@@@@@@@@@@@@@@@@XXXX..............................................  ..  ..  ..  ..  ..  ..  ..  ..  ..  ..  ..  ..  ..  ..  ..  ..  ..  ..  ..  ..  ..  ..  ..  ..  ..  ..  ..  ..  ..  ..  ..  ..  .......................................XXXX@@@@@@@@@@@@@@@@@@@@@@@@@@@@@@@@@@@@@@@@@@@@@@@@@@@@@@@@@@@@@@@@@@@@@@@@@@@@@@@@@@@@@@@@@@@@@@@@OOOooooooooooooooooooooooooooooooooooooooooooooooooooooooooooooooooooOOoooooooooooooooooooooo",
"ooooooooooooooooooooooooooooooooooooooooooooooooooooooooOO... .. .... .. ....XXXooooooooOOO@@@@@@@@@@@@@@@@OOoooooooooooooooooooooooooooooooooooooooooOOOoooooooooooooooooooooooooooooooooOO@@@@@@@@@@@@@@@@@@@@@@@@@@@@@@@@@@@@@@@@@@XXXX.............................................. .... .. .... .. .... .. .... .. .... .. .... .. .... .. .... .. .... .. .... .. .... .. .... .. .... .. .... .. .... .. ............................................XXXX@@@@@@@@@@@@@@@@@@@@@@@@@@@@@@@@@@@@@@@@@@@@@@@@@@@@@@@@@@@@@@@@@@@@@@@@@@@@@@@@@@@@@@@@@@@@@@@@@@OOooooooooooooooooooooooooooooooooooooooooooooooooooooooooooooooooooOOOoooooooooooooooooooooo",
"oooooooooooooooooooooooooooooooooooooooooooooooooooooooOOO.. .... .. .... .. XXXoooooooooOOO@@@@@@@@@@@@@@@OOOooooooooooooooooooooooooooooooooooooooooOOOoooooooooooooooooooooooooooooooooOO@@@@@@@@@@@@@@@@@@@@@@@@@@@@@@@@@@@@@@@@@@@XXXXX................................................ .... .. .... .. .... .. .... .. .... .. .... .. .... .. .... .. .... .. .... .. .... .. .... .. .... .. .... .. .... ..........................................XXXX@@@@@@@@@@@@@@@@@@@@@@@@@@@@@@@@@@@@@@@@@@@@@@@@@@@@@@@@@@@@@@@@@@@@@@@@@@@@@@@@@@@@@@@@@@@@@@@@@@@OOoooooooooooooooooooooooooooooooooooooooooooooooooooooooooooooooooOOOooooooooooooooooooooooo",
"oooooooooooooooooooooooooooooooooooooooooooooooooooooooOO.  ..  ..  ..  ..  XXXoooooooooooOOO@@@@@@@@@@@@@@@OOoooooooooooooooooooooooooooooooooooooooOOOOooooooooooooooooooooooooooooooooOOO@@@@@@@@@@@@@@@@@@@@@@@@@@@@@@@@@@@@@@@@@@@@@@XXXX................................................. ..  ..  ..  ..  ..  ..  ..  ..  ..  ..  ..  ..  ..  ..  ..  ..  ..  ..  ..  ..  ..  ..  ..  ..  ..  ..  ..  ..  ..........................................XXXX@@@@@@@@@@@@@@@@@@@@@@@@@@@@@@@@@@@@@@@@@@@@@@@@@@@@@@@@@@@@@@@@@@@@@@@@@@@@@@@@@@@@@@@@@@@@@@@@@@@@OOOooooooooooooooooooooooooooooooooooooooooooooooooooooooooooooooooOOOoooooooooooooooooooooooo",
"ooooooooooooooooooooooooooooooooooooooooooooooooooooooOOO.  ..  ..  ..  ..  XXoooooooooooooOOO@@@@@@@@@@@@@@OOOoooooooooooooooooooooooooooooooooooooOOOOoooooooooooooooooooooooooooooooooOOO@@@@@@@@@@@@@@@@@@@@@@@@@@@@@@@@@@@@@@@@@@@@@@@XXXXX..................................................  ..  ..  ..  ..  ..  ..  ..  ..  ..  ..  ..  ..  ..  ..  ..  ..  ..  ..  ..  ..  ..  ..  ..  ..  ..  ..  .............................................XXXX@@@@@@@@@@@@@@@@@@@@@@@@@@@@@@@@@@@@@@@@@@@@@@@@@@@@@@@@@@@@@@@@@@@@@@@@@@@@@@@@@@@@@@@@@@@@@@@@@@@@@OOOoooooooooooooooooooooooooooooooooooooooooooooooooooooooooooooooOOOooooooooooooooooooooooooo",
"ooooooooooooooooooooooooooooooooooooooooooooooooooooooOO. .. .... .. .... .XXXooooooooooooooOO@@@@@@@@@@@@@@@OOOooooooooooooooooooooooooooooooooooOOOO@@OOOOoooooooooooooooooooooooooooooOO@@@@@@@@@@@@@@@@@@@@@@@@@@@@@@@@@@@@@@@@@@@@@@@@@@XXXXX....................................................... .. .... .. .... .. .... .. .... .. .... .. .... .. .... .. .... .. .... .. .... .. .... .. .... .............................................XXXX@@@@@@@@@@@@@@@@@@@@@@@@@@@@@@@@@@@@@@@@@@@@@@@@@@@@@@@@@@@@@@@@@@@@@@@@@@@@@@@@@@@@@@@@@@@@@@@@@@@@@@@OOOoooooooooooooooooooooooooooooooooooooooooooooooooooooooooooooooOOoooooooooooooooooooooooooo",
"oooooooooooooooooooooooooooooooooooooooooooooooooooooOOO .... .. .... .. ..XXoooooooooooooooOOO@@@@@@@@@@@@@@@OOoooooooooooooooooooooooooooooooooOOOO@@@OOOOOOooooooooooooooooooooooooOOOOO@@@@@@@@@@@@@@@@@@@@@@@@@@@@@@@@@@@@@@@@@@@@@@@@@@@XXXXX.......................................................... .. .... .. .... .. .... .. .... .. .... .. .... .. .... .. .... .. .... .. .... .. .... .. .............................................XXXX@@@@@@@@@@@@@@@@@@@@@@@@@@@@@@@@@@@@@@@@@@@@@@@@@@@@@@@@@@@@@@@@@@@@@@@@@@@@@@@@@@@@@@@@@@@@@@@@@@@@@@@@OOoooooooooooooooooooooooooooooooooooooooooooooooooooooooooooooooOOOoooooooooooooooooooooooooo",
"oooooooooooooooooooooooooooooooooooooooooooooooooooooOO ..  ..  ..  ..  ..XXXoooooooooooooooooOO@@@@@@@@@@@@@@OOOOooooooooooooooooooooooooooooooOOOO@@@@@@OOOOOOOOooooooooooooooOOOOOOOOOOO@@@@@@@@@@@@@@@@@@@@@@@@@@@@@@@@@@@@@@@@@@@@@@@@@@@@@XXXXX.........................................................  ..  ..  ..  ..  ..  ..  ..  ..  ..  ..  ..  ..  ..  ..  ..  ..  ..  ..  ..  ..  ..  ................................................XXXX@@@@@@@@@@@@@@@@@@@@@@@@@@@@@@@@@@@@@@@@@@@@@@@@@@@@@@@@@@@@@@@@@@@@@@@@@@@@@@@@@@@@@@@@@@@@@@@@@@@@@@@@@@OOooooooooooooooooooooooooooooooooooooooooooooooooooooooooooooooOOOooooooooooooooooooooooooooo",
"ooooooooooooooooooooooooooooooooooooooooooooooooooooOOO ..  ..  ..  ..  ..XXooooooooooooooooooOOO@@@@@@@@@@@@@@OOOOOooooooooooooooooooooooooooOOOO@@@@@@@@@@@OOOOOOOooooooooOOOOOOOOOOOOOO@@@@@@@@@@@@@@@@@@@@@@@@@@@@@@@@@@@@@@@@@@@@@@@@@@@@@@@@XXXX............................................................  ..  ..  ..  ..  ..  ..  ..  ..  ..  ..  ..  ..  ..  ..  ..  ..  ..  ..  ..  ..  ...............................................XXXX@@@@@@@@@@@@@@@@@@@@@@@@@@@@@@@@@@@@@@@@@@@@@@@@@@@@@@@@@@@@@@@@@@@@@@@@@@@@@@@@@@@@@@@@@@@@@@@@@@@@@@@@@@@OOoooooooooooooooooooooooooooooooooooooooooooooooooooooooooooooOOOoooooooooooooooooooooooooooo",
"ooooooooooooooooooooooooooooooooooooooooooooooooooooOO.. .... .. .... .. XXXooooooooooooooooooooOO@@@@@@@@@@@@@@OOOOOOoooooooooooooooooooooooOOO@@@@@@@@@@@@@@@@OOOOOOOOOOOOOOOOOO@@@@@@@@@@@@@@@@@@@@@@@@@@@@@@@@@@@@@@@@@@@@@@@@@@@@@@@@@@@@@@@@@@XXXX............................................................. .. .... .. .... .. .... .. .... .. .... .. .... .. .... .. .... .. .... ...................................................XXXX@@@@@@@@@@@@@@@@@@@@@@@@@@@@@@@@@@@@@@@@@@@@@@@@@@@@@@@@@@@@@@@@@@@@@@@@@@@@@@@@@@@@@@@@@@@@@@@@@@@@@@@@@@@@@OOooooooooooooooooooooooooooooooooooooooooooooooooooooooooooooOOOooooooooooooooooooooooooooooo",
"oooooooooooooooooooooooooooooooooooooooooooooooooooOOO... .. .... .. ...XXXoooooooooooooooooooooOOO@@@@@@@@@@@@@@@OOOOOOooooooooooooooooooooOOO@@@@@@@@@@@@@@@@@@@@OOOOOOOOOOO@@@@@@@@@@@@@@@@@@@@@@@@@@@@@@@@@@@@@@@@@@@@@@@@@@@@@@@@@@@@@@@@@@@@@@@XXXXX.......................................................................... .... .. .... .. .... .. .... .. .... .. .... .. .... .. ...................................................XXXX@@@@@@@@@@@@@@@@@@@@@@@@@@@@@@@@@@@@@@@@@@@@@@@@@@@@@@@@@@@@@@@@@@@@@@@@@@@@@@@@@@@@@@@@@@@@@@@@@@@@@@@@@@@@@OOOooooooooooooooooooooooooooooooooooooooooooooooooooooooooooooOOoooooooooooooooooooooooooooooo",
"oooooooooooooooooooooooooooooooooooooooooooooooooooOO.  ..  ..  ..  ..  XXoooooooooooooooooooooooOOO@@@@@@@@@@@@@@@@@OOOOOOoooooooooooooooOOOO@@@@@@@@@@@@@@@@@@@@@@@@OO@@@@@@@@@@@@@@@@@@@@@@@@@@@@@@@@@@@@@@@@@@@@@@@@@@@@@@@@@@@@@@@@@@@@@@@@@@@@@@@@XXXX..................................................................................................................................................................................XXXX@@@@@@@@@@@@@@@@@@@@@@@@@@@@@@@@@@@@@@@@@@@@@@@@@@@@@@@@@@@@@@@@@@@@@@@@@@@@@@@@@@@@@@@@@@@@@@@@@@@@@@@@@@@@@@@OOOoooooooooooooooooooooooooooooooooooooooooooooooooooooooooooOOooooooooooooooooooooooooooooooo",
"ooooooooooooooooooooooooooooooooooooooooooooooooooOOO.  ..  ..  ..  .. XXXooooooooooooooooooooooooOOO@@@@@@@@@@@@@@@@@@OOOOOOoooooooooooOOOO@@@@@@@@@@@@@@@@@@@@@@@@@@@@@@@@@@@@@@@@@@@@@@@@@@@@@@@@@@@@@@@@@@@@@@@@@@@@@@@@@@@@@@@@@@@@@@@@@@@@@@@@@@@@@XXXXX...............................................................................................................................................................................XXXX@@@@@@@@@@@@@@@@@@@@@@@@@@@@@@@@@@@@@@@@@@@@@@@@@@@@@@@@@@@@@@@@@@@@@@@@@@@@@@@@@@@@@@@@@@@@@@@@@@@@@@@@@@@@@@@@OOOooooooooooooooooooooooooooooooooooooooooooooooooooooooooooOOOooooooooooooooooooooooooooooooo",
"oooooooooooooooooooooooooooooooooooooooooooooooooXOOX.... .. .... .. ..XXooooooooooooooooooooooooooOOO@@@@@@@@@@@@@@@@@@@@OOOOOOoooooooOOOO@@@@@@@@@@@@@@@@@@@@@@@@@@@@@@@@@@@@@@@@@@@@@@@@@@@@@@@@@@@@@@@@@@@@@@@@@@@@@@@@@@@@@@@@@@@@@@@@@@@@@@@@@@@@@@@@XXXXX...........................................................................................................................................................................XXXX@@@@@@@@@@@@@@@@@@@@@@@@@@@@@@@@@@@@@@@@@@@@@@@@@@@@@@@@@@@@@@@@@@@@@@@@@@@@@@@@@@@@@@@@@@@@@@@@@@@@@@@@@@@@@@@@@@OOoooooooooooooooooooooooooooooooooooooooooooooooooooooooooooOOoooooooooooooooooooooooooooooooo",
"oooooooooooooooooooooooooooooooooooooooooooooooooOOOXXX. .... .. .... XXXoooooooooooooooooooooooooooOO@@@@@@@@@@@@@@@@@@@@@@OOOOOOooooOOOO@@@@@@@@@@@@@@@@@@@@@@@@@@@@@@@@@@@@@@@@@@@@@@@@@@@@@@@@@@@@@@@@@@@@@@@@@@@@@@@@@@@@@@@@@@@@@@@@@@@@@@@@@@@@@@@@@@XXXXX.........................................................................................................................................................................XXXX@@@@@@@@@@@@@@@@@@@@@@@@@@@@@@@@@@@@@@@@@@@@@@@@@@@@@@@@@@@@@@@@@@@@@@@@@@@@@@@@@@@@@@@@@@@@@@@@@@@@@@@@@@@@@@@@@@@OOooooooooooooooooooooooooooooooooooooooooooooooooooooooooooOOOoooooooooooooooooooooooooooooooo",
"oooooooooooooooooooooooooooooooooooooooooooooooooOOoXXXX..  ..  ..  ..XXooooooooooooooooooooooooooooOOO@@@@@@@@@@@@@@@@@@@@@@@@OOOOOOOOO@@@@@@@@@@@@@@@@@@@@@@@@@@@@@@@@@@@@@@@@@@@@@@@@@@@@@@@@@@@@@@@@@@@@@@@@@@@@@@@@@@@@@@@@@@@@@@@@@@@@@@@@@@@@@@@@@@@@@@XXXXX.....................................................................................................................................................................XXXX@@@@@@@@@@@@@@@@@@@@@@@@@@@@@@@@@@@@@@@@@@@@@@@@@@@@@@@@@@@@@@@@@@@@@@@@@@@@@@@@@@@@@@@@@@@@@@@@@@@@@@@@@@@@@@@@@@@@OOOooooooooooooooooooooooooooooooooooooooooooooooooooooooooooOOooooooooooooooooooooooooooooooooo",
"ooooooooooooooooooooooooooooooooooooooooooooooooOOOoooXXX.  ..  ..  .XXXooooooooooooooooooooooooooooOOO@@@@@@@@@@@@@@@@@@@@@@@@@@OOOOOO@@@@@@@@@@@@@@@@@@@@@@@@@@@@@@@@@@@@@@@@@@@@@@@@@@@@@@@@@@@@@@@@@@@@@@@@@@@@@@@@@@@@@@@@@@@@@@@@@@@@@@@@@@@@@@@@@@@@@@@@@XXXX...................................................................................................................................................................XXXX@@@@@@@@@@@@@@@@@@@@@@@@@@@@@@@@@@@@@@@@@@@@@@@@@@@@@@@@@@@@@@@@@@@@@@@@@@@@@@@@@@@@@@@@@@@@@@@@@@@@@@@@@@@@@@@@@@@@@OOOoooooooooooooooooooooooooooooooooooooooooooooooooooooooooOOOooooooooooooooooooooooooooooooooo",
"ooooooooooooooooooooooooooooooooooooooooooooooooOOoooooXXX... .. ...XXXooooooooooooooooooooooooooooooOO@@@@@@@@@@@@@@@@@@@@@@@@@@@@@O@@@@@@@@@@@@@@@@@@@@@@@@@@@@@@@@@@@@@@@@@@@@@@@@@@@@@@@@@@@@@@@@@@@@@@@@@@@@@@@@@@@@@@@@@@@@@@@@@@@@@@@@@@@@@@@@@@@@@@@@@@@@@XXXXX..............................................................................................................................................................XXXX@@@@@@@@@@@@@@@@@@@@@@@@@@@@@@@@@@@@@@@@@@@@@@@@@@@@@@@@@@@@@@@@@@@@@@@@@@@@@@@@@@@@@@@@@@@@@@@@@@@@@@@@@@@@@@@@@@@@@@@OOOoooooooooooooooooooooooooooooooooooooooooooooooooooooooooOOoooooooooooooooooooooooooooooooooo",
"oooooooooooooooooooooooooooooooooooooooooooooooOOOooooooXXXXX.... ..XXoooooooooooooooooooooooooooooooOO@@@@@@@@@@@@@@@@@@@@@@@@@@@@@@@@@@@@@@@@@@@@@@@@@@@@@@@@@@@@@@@@@@@@@@@@@@@@@@@@@@@@@@@@@@@@@@@@@@@@@@@@@@@@@@@@@@@@@@@@@@@@@@@@@@@@@@@@@@@@@@@@@@@@@@@@@@@@@XXXX............................................................................................................................................................XXXX@@@@@@@@@@@@@@@@@@@@@@@@@@@@@@@@@@@@@@@@@@@@@@@@@@@@@@@@@@@@@@@@@@@@@@@@@@@@@@@@@@@@@@@@@@@@@@@@@@@@@@@@@@@@@@@@@@@@@@@@OOooooooooooooooooooooooooooooooooooooooooooooooooooooooooooOOoooooooooooooooooooooooooooooooooo",
"oooooooooooooooooooooooooooooooooooooooooooooooOOOoooooooXXXXX  .. XXXoooooooooooooooooooooooooooooooOOO@@@@@@@@@@@@@@@@@@@@@@@@@@@@@@@@@@@@@@@@@@@@@@@@@@@@@@@@@@@@@@@@@@@@@@@@@@@@@@@@@@@@@@@@@@@@@@@@@@@@@@@@@@@@@@@@@@@@@@@@@@@@@@@@@@@@@@@@@@@@@@@@@@@@@@@@@@@@@@XXXX........................................................................................................................................................XXXX@@@@@@@@@@@@@@@@@@@@@@@@@@@@@@@@@@@@@@@@@@@@@@@@@@@@@@@@@@@@@@@@@@@@@@@@@@@@@@@@@@@@@@@@@@@@@@@@@@@@@@@@@@@@@@@@@@@@@@@@@@OOoooooooooooooooooooooooooooooooooooooooooooooooooooooooooOOOoooooooooooooooooooooooooooooooooo",
"oooooooooooooooooooooooooooooooooooooooooooooooOOoooooooooXXXXXXXX XXXoooooooooooooooooooooooooooooooOOO@@@@@@@@@@@@@@@@@@@@@@@@@@@@@@@@@@@@@@@@@@@@@@@@@@@@@@@@@@@@@@@@@@@@@@@@@@@@@@@@@@@@@@@@@@@@@@@@@@@@@@@@@@@@@@@@@@@@@@@@@@@@@@@@@@@@@@@@@@@@@@@@@@@@@@@@@@@@@@@XXXXX.....................................................................................................................................................XXXX@@@@@@@@@@@@@@@@@@@@@@@@@@@@@@@@@@@@@@@@@@@@@@@@@@@@@@@@@@@@@@@@@@@@@@@@@@@@@@@@@@@@@@@@@@@@@@@@@@@@@@@@@@@@@@@@@@@@@@@@@@@OOoooooooooooooooooooooooooooooooooooooooooooooooooooooooooOOooooooooooooooooooooooooooooooooooo",
"ooooooooooooooooooooooooooooooooooooooooooooooOOOooooooooooooXXXXXXXXooooooooooooooooooooooooooooooooOOO@@@@@@@@@@@@@@@@@@@@@@@@@@@@@@@@@@@@@@@@@@@@@@@@@@@@@@@@@@@@@@@@@@@@@@@@@@@@@@@@@@@@@@@@@@@@@@@@@@@@@@@@@@@@@@@@@@@@@@@@@@@@@@@@@@@@@@@@@@@@@@@@@@@@@@@@@@@@@@@@@XXXXX.................................................................................................................................................XXXX@@@@@@@@@@@@@@@@@@@@@@@@@@@@@@@@@@@@@@@@@@@@@@@@@@@@@@@@@@@@@@@@@@@@@@@@@@@@@@@@@@@@@@@@@@@@@@@@@@@@@@@@@@@@@@@@@@@@@@@@@@@@@OOooooooooooooooooooooooooooooooooooooooooooooooooooooooooOOOooooooooooooooooooooooooooooooooooo",
"ooooooooooooooooooooooooooooooooooooooooooooooOOOoooooooooooooXXXXXXooooooooooooooooooooooooooooooooooOO@@@@@@@@@@@@@@@@@@@@@@@@@@@@@@@@@@@@@@@@@@@@@@@@@@@@@@@@@@@@@@@@@@@@@@@@@@@@@@@@@@@@@@@@@@@@@@@@@@@@@@@@@@@@@@@@@@@@@@@@@@@@@@@@@@@@@@@@@@@@@@@@@@@@@@@@@@@@@@@@@@XXXXX...............................................................................................................................................XXXX@@@@@@@@@@@@@@@@@@@@@@@@@@@@@@@@@@@@@@@@@@@@@@@@@@@@@@@@@@@@@@@@@@@@@@@@@@@@@@@@@@@@@@@@@@@@@@@@@@@@@@@@@@@@@@@@@@@@@@@@@@@@@@OOooooooooooooooooooooooooooooooooooooooooooooooooooooooooOOoooooooooooooooooooooooooooooooooooo",
"ooooooooooooooooooooooooooooooooooooooooooooooOOoooooooooooooooooXXXooooooooooooooooooooooooooooooooooOO@@@@@@@@@@@@@@@@@@@@@@@@@@@@@@@@@@@@@@@@@@@@@@@@@@@@@@@@@@@@@@@@@@@@@@@@@@@@@@@@@@@@@@@@@@@@@@@@@@@@@@@@@@@@@@@@@@@@@@@@@@@@@@@@@@@@@@@@@@@@@@@@@@@@@@@@@@@@@@@@@@@@XXXXX...........................................................................................................................................XXXX@@@@@@@@@@@@@@@@@@@@@@@@@@@@@@@@@@@@@@@@@@@@@@@@@@@@@@@@@@@@@@@@@@@@@@@@@@@@@@@@@@@@@@@@@@@@@@@@@@@@@@@@@@@@@@@@@@@@@@@@@@@@@@@OOOooooooooooooooooooooooooooooooooooooooooooooooooooooooooOOoooooooooooooooooooooooooooooooooooo",
"ooooooooooooooooooooooooooooooooooooooooooooooOOooooooooooooooooooXoooooooooooooooooooooooooooooooooooOO@@@@@@@@@@@@@@@@@@@@@@@@@@@@@@@@@@@@@@@@@@@@@@@@@@@@@@@@@@@@@@@@@@@@@@@@@@@@@@@@@@@@@@@@@@@@@@@@@@@@@@@@@@@@@@@@@@@@@@@@@@@@@@@@@@@@@@@@@@@@@@@@@@@@@@@@@@@@@@@@@@@@@@XXXX.........................................................................................................................................XXXX@@@@@@@@@@@@@@@@@@@@@@@@@@@@@@@@@@@@@@@@@@@@@@@@@@@@@@@@@@@@@@@@@@@@@@@@@@@@@@@@@@@@@@@@@@@@@@@@@@@@@@@@@@@@@@@@@@@@@@@@@@@@@@@@OOOooooooooooooooooooooooooooooooooooooooooooooooooooooooooOOoooooooooooooooooooooooooooooooooooo",
"oooooooooooooooooooooooooooooooooooooooooooooOOOooooooooooooooooooooooooooooooooooooooooooooooooooooooOO@@@@@@@@@@@@@@@@@@@@@@@@@@@@@@@@@@@@@@@@@@@@@@@@@@@@@@@@@@@@@@@@@@@@@@@@@@@@@@@@@@@@@@@@@@@@@@@@@@@@@@@@@@@@@@@@@@@@@@@@@@@@@@@@@@@@@@@@@@@@@@@@@@@@@@@@@@@@@@@@@@@@@@@@XXXXX....................................................................................................................................XXXX@@@@@@@@@@@@@@@@@@@@@@@@@@@@@@@@@@@@@@@@@@@@@@@@@@@@@@@@@@@@@@@@@@@@@@@@@@@@@@@@@@@@@@@@@@@@@@@@@@@@@@@@@@@@@@@@@@@@@@@@@@@@@@@@@@OOOoooooooooooooooooooooooooooooooooooooooooooooooooooooooOOooooooooooooooooooooooooooooooooooooo",
"oooooooooooooooooooooooooooooooooooooooooooooOOOooooooooooooooooooooooooooooooooooooooooooooooooooooooOOO@@@@@@@@@@@@@@@@@@@@@@@@@@@@@@@@@@@@@@@@@@@@@@@@@@@@@@@@@@@@@@@@@@@@@@@@@@@@@@@@@@@@@@@@@@@@@@@@@@@@@@@@@@@@@@@@@@@@@@@@@@@@@@@@@@@@@@@@@@@@@@@@@@@@@@@@@@@@@@@@@@@@@@@@@XXXX..................................................................................................................................XXXX@@@@@@@@@@@@@@@@@@@@@@@@@@@@@@@@@@@@@@@@@@@@@@@@@@@@@@@@@@@@@@@@@@@@@@@@@@@@@@@@@@@@@@@@@@@@@@@@@@@@@@@@@@@@@@@@@@@@@@@@@@@@@@@@@@@OOooooooooooooooooooooooooooooooooooooooooooooooooooooooooOOooooooooooooooooooooooooooooooooooooo",
"oooooooooooooooooooooooooooooooooooooooooooooOOoooooooooooooooooooooooooooooooooooooooooooooooooooooooOOO@@@@@@@@@@@@@@@@@@@@@@@@@@@@@@@@@@@@@@@@@@@@@@@@@@@@@@@@@@@@@@@@@@@@@@@@@@@@@@@@@@@@@@@@@@@@@@@@@@@@@@@@@@@@@@@@@@@@@@@@@@@@@@@@@@@@@@@@@@@@@@@@@@@@@@@@@@@@@@@@@@@@@@@@@@@XXXX..............................................................................................................................XXXX@@@@@@@@@@@@@@@@@@@@@@@@@@@@@@@@@@@@@@@@@@@@@@@@@@@@@@@@@@@@@@@@@@@@@@@@@@@@@@@@@@@@@@@@@@@@@@@@@@@@@@@@@@@@@@@@@@@@@@@@@@@@@@@@@@@@@OOoooooooooooooooooooooooooooooooooooooooooooooooooooooooOOoooooooooooooooooooooooooooooooooooooo",
"ooooooooooooooooooooooooooooooooooooooooooooOOOooooooooooooooooooooooooooooooooooooooooooooooooooooooooOO@@@@@@@@@@@@@@@@@@@@@@@@@@@@@@@@@@@@@@@@@@@@@@@@@@@@@@@@@@@@@@@@@@@@@@@@@@@@@@@@@@@@@@@@@@@@@@@@@@@@@@@@@@@@@@@@@@@@@@@@@@@@@@@@@@@@@@@@@@@@@@@@@@@@@@@@@@@@@@@@@@@@@@@@@@@@XXXXX...........................................................................................................................XXXX@@@@@@@@@@@@@@@@@@@@@@@@@@@@@@@@@@@@@@@@@@@@@@@@@@@@@@@@@@@@@@@@@@@@@@@@@@@@@@@@@@@@@@@@@@@@@@@@@@@@@@@@@@@@@@@@@@@@@@@@@@@@@@@@@@@@@OOOoooooooooooooooooooooooooooooooooooooooooooooooooooooooOOoooooooooooooooooooooooooooooooooooooo",
"ooooooooooooooooooooooooooooooooooooooooooooOOoooooooooooooooooooooooooooooooooooooooooooooooooooooooooOO@@@@@@@@@@@@@@@@@@@@@@@@@@@@@@@@@@@@@@@@@@@@@@@@@@@@@@@@@@@@@@@@@@@@@@@@@@@@@@@@@@@@@@@@@@@@@@@@@@@@@@@@@@@@@@@@@@@@@@@@@@@@@@@@@@@@@@@@@@@@@@@@@@@@@@@@@@@@@@@@@@@@@@@@@@@@@@XXXXX.......................................................................................................................XXXX@@@@@@@@@@@@@@@@@@@@@@@@@@@@@@@@@@@@@@@@@@@@@@@@@@@@@@@@@@@@@@@@@@@@@@@@@@@@@@@@@@@@@@@@@@@@@@@@@@@@@@@@@@@@@@@@@@@@@@@@@@@@@@@@@@@@@@@OOOoooooooooooooooooooooooooooooooooooooooooooooooooooooooOOoooooooooooooooooooooooooooooooooooooo",
"ooooooooooooooooooooooooooooooooooooooooooooOOoooooooooooooooooooooooooooooooooooooooooooooooooooooooooOOO@@@@@@@@@@@@@@@@@@@@@@@@@@@@@@@@@@@@@@@@@@@@@@@@@@@@@@@@@@@@@@@@@@@@@@@@@@@@@@@@@@@@@@@@@@@@@@@@@@@@@@@@@@@@@@@@@@@@@@@@@@@@@@@@@@@@@@@@@@@@@@@@@@@@@@@@@@@@@@@@@@@@@@@@@@@@@@XXXXX.....................................................................................................................XXXX@@@@@@@@@@@@@@@@@@@@@@@@@@@@@@@@@@@@@@@@@@@@@@@@@@@@@@@@@@@@@@@@@@@@@@@@@@@@@@@@@@@@@@@@@@@@@@@@@@@@@@@@@@@@@@@@@@@@@@@@@@@@@@@@@@@@@@@@OOOooooooooooooooooooooooooooooooooooooooooooooooooooooooOOOoooooooooooooooooooooooooooooooooooooo",
"ooooooooooooooooooooooooooooooooooooooooooooOOoooooooooooooooooooooooooooooooooooooooooooooooooooooooooOOO@@@@@@@@@@@@@@@@@@@@@@@@@@@@@@@@@@@@@@@@@@@@@@@@@@@@@@@@@@@@@@@@@@@@@@@@@@@@@@@@@@@@@@@@@@@@@@@@@@@@@@@@@@@@@@@@@@@@@@@@@@@@@@@@@@@@@@@@@@@@@@@@@@@@@@@@@@@@@@@@@@@@@@@@@@@@@@@@XXXXX.................................................................................................................XXXX@@@@@@@@@@@@@@@@@@@@@@@@@@@@@@@@@@@@@@@@@@@@@@@@@@@@@@@@@@@@@@@@@@@@@@@@@@@@@@@@@@@@@@@@@@@@@@@@@@@@@@@@@@@@@@@@@@@@@@@@@@@@@@@@@@@@@@@@@@OOoooooooooooooooooooooooooooooooooooooooooooooooooooooooOOooooooooooooooooooooooooooooooooooooooo",
"oooooooooooooooooooooooooooooooooooooooooooOOOooooooooooooooooooooooooooooooooooooooooooooooooooooooooooOO@@@@@@@@@@@@@@@@@@@@@@@@@@@@@@@@@@@@@@@@@@@@@@@@@@@@@@@@@@@@@@@@@@@@@@@@@@@@@@@@@@@@@@@@@@@@@@@@@@@@@@@@@@@@@@@@@@@@@@@@@@@@@@@@@@@@@@@@@@@@@@@@@@@@@@@@@@@@@@@@@@@@@@@@@@@@@@@@@@XXXXX..............................................................................................................XXXX@@@@@@@@@@@@@@@@@@@@@@@@@@@@@@@@@@@@@@@@@@@@@@@@@@@@@@@@@@@@@@@@@@@@@@@@@@@@@@@@@@@@@@@@@@@@@@@@@@@@@@@@@@@@@@@@@@@@@@@@@@@@@@@@@@@@@@@@@@@OOooooooooooooooooooooooooooooooooooooooooooooooooooooooOOOooooooooooooooooooooooooooooooooooooooo",
"oooooooooooooooooooooooooooooooooooooooooooOOoooooooooooooooooooooooooooooooooooooooooooooooooooooooooooOO@@@@@@@@@@@@@@@@@@@@@@@@@@@@@@@@@@@@@@@@@@@@@@@@@@@@@@@@@@@@@@@@@@@@@@@@@@@@@@@@@@@@@@@@@@@@@@@@@@@@@@@@@@@@@@@@@@@@@@@@@@@@@@@@@@@@@@@@@@@@@@@@@@@@@@@@@@@@@@@@@@@@@@@@@@@@@@@@@@@@XXXXX..........................................................................................................XXXX@@@@@@@@@@@@@@@@@@@@@@@@@@@@@@@@@@@@@@@@@@@@@@@@@@@@@@@@@@@@@@@@@@@@@@@@@@@@@@@@@@@@@@@@@@@@@@@@@@@@@@@@@@@@@@@@@@@@@@@@@@@@@@@@@@@@@@@@@@@@@OOooooooooooooooooooooooooooooooooooooooooooooooooooooooOOoooooooooooooooooooooooooooooooooooooooo",
"oooooooooooooooooooooooooooooooooooooooooooOOoooooooooooooooooooooooooooooooooooooooooooooooooooooooooooOO@@@@@@@@@@@@@@@@@@@@@@@@@@@@@@@@@@@@@@@@@@@@@@@@@@@@@@@@@@@@@@@@@@@@@@@@@@@@@@@@@@@@@@@@@@@@@@@@@@@@@@@@@@@@@@@@@@@@@@@@@@@@@@@@@@@@@@@@@@@@@@@@@@@@@@@@@@@@@@@@@@@@@@@@@@@@@@@@@@@@@@XXXX......................................................................................................XXXXXX@@@@@@@@@@@@@@@@@@@@@@@@@@@@@@@@@@@@@@@@@@@@@@@@@@@@@@@@@@@@@@@@@@@@@@@@@@@@@@@@@@@@@@@@@@@@@@@@@@@@@@@@@@@@@@@@@@@@@@@@@@@@@@@@@@@@@@@@@@@@@@OOooooooooooooooooooooooooooooooooooooooooooooooooooooooOOoooooooooooooooooooooooooooooooooooooooo",
"ooooooooooooooooooooooooooooooooooooooooooOOOoooooooooooooooooooooooooooooooooooooooooooooooooooooooooooOO@@@@@@@@@@@@@@@@@@@@@@@@@@@@@@@@@@@@@@@@@@@@@@@@@@@@@@@@@@@@@@@@@@@@@@@@@@@@@@@@@@@@@@@@@@@@@@@@@@@@@@@@@@@@@@@@@@@@@@@@@@@@@@@@@@@@@@@@@@@@@@@@@@@@@@@@@@@@@@@@@@@@@@@@@@@@@@@@@@@@@@@@XXXX................................................................................................XXXXXXXX@@@@@@@@@@@@@@@@@@@@@@@@@@@@@@@@@@@@@@@@@@@@@@@@@@@@@@@@@@@@@@@@@@@@@@@@@@@@@@@@@@@@@@@@@@@@@@@@@@@@@@@@@@@@@@@@@@@@@@@@@@@@@@@@@@@@@@@@@@@@@@@@OOoooooooooooooooooooooooooooooooooooooooooooooooooooooOOOoooooooooooooooooooooooooooooooooooooooo",
"ooooooooooooooooooooooooooooooooooooooooooOOooooooooooooooooooooooooooooooooooooooooooooooooooooooooooooOOO@@@@@@@@@@@@@@@@@@@@@@@@@@@@@@@@@@@@@@@@@@@@@@@@@@@@@@@@@@@@@@@@@@@@@@@@@@@@@@@@@@@@@@@@@@@@@@@@@@@@@@@@@@@@@@@@@@@@@@@@@@@@@@@@@@@@@@@@@@@@@@@@@@@@@@@@@@@@@@@@@@@@@@@@@@@@@@@@@@@@@@@@XXXXX...........................................................................................XXXXXXXXX@@@@@@@@@@@@@@@@@@@@@@@@@@@@@@@@@@@@@@@@@@@@@@@@@@@@@@@@@@@@@@@@@@@@@@@@@@@@@@@@@@@@@@@@@@@@@@@@@@@@@@@@@@@@@@@@@@@@@@@@@@@@@@@@@@@@@@@@@@@@@@@@@@OOoooooooooooooooooooooooooooooooooooooooooooooooooooooOOooooooooooooooooooooooooooooooooooooooooo",
"ooooooooooooooooooooooooooooooooooooooooooOOooooooooooooooooooooooooooooooooooooooooooooooooooooooooooooOOO@@@@@@@@@@@@@@@@@@@@@@@@@@@@@@@@@@@@@@@@@@@@@@@@@@@@@@@@@@@@@@@@@@@@@@@@@@@@@@@@@@@@@@@@@@@@@@@@@@@@@@@@@@@@@@@@@@@@@@@@@@@@@@@@@@@@@@@@@@@@@@@@@@@@@@@@@@@@@@@@@@@@@@@@@@@@@@@@@@@@@@@@@@XXXXX.....................................................................................XXXXXXXXX@@@@@@@@@@@@@@@@@@@@@@@@@@@@@@@@@@@@@@@@@@@@@@@@@@@@@@@@@@@@@@@@@@@@@@@@@@@@@@@@@@@@@@@@@@@@@@@@@@@@@@@@@@@@@@@@@@@@@@@@@@@@@@@@@@@@@@@@@@@@@@@@@@@@@@OOooooooooooooooooooooooooooooooooooooooooooooooooooooOOOooooooooooooooooooooooooooooooooooooooooo",
"ooooooooooooooooooooooooooooooooooooooooooOOooooooooooooooooooooooooooooooooooooooooooooooooooooooooooooOOO@@@@@@@@@@@@@@@@@@@@@@@@@@@@@@@@@@@@@@@@@@@@@@@@@@@@@@@@@@@@@@@@@@@@@@@@@@@@@@@@@@@@@@@@@@@@@@@@@@@@@@@@@@@@@@@@@@@@@@@@@@@@@@@@@@@@@@@@@@@@@@@@@@@@@@@@@@@@@@@@@@@@@@@@@@@@@@@@@@@@@@@@@@@XXXXX..................................................................................XXXXXXXX@@@@@@@@@@@@@@@@@@@@@@@@@@@@@@@@@@@@@@@@@@@@@@@@@@@@@@@@@@@@@@@@@@@@@@@@@@@@@@@@@@@@@@@@@@@@@@@@@@@@@@@@@@@@@@@@@@@@@@@@@@@@@@@@@@@@@@@@@@@@@@@@@@@@@@@@@OOOoooooooooooooooooooooooooooooooooooooooooooooooooooOOoooooooooooooooooooooooooooooooooooooooooo",
"oooooooooooooooooooooooooooooooooooooooooOOOoooooooooooooooooooooooooooooooooooooooooooooooooooooooooooooOO@@@@@@@@@@@@@@@@@@@@@@@@@@@@@@@@@@@@@@@@@@@@@@@@@@@@@@@@@@@@@@@@@@@@@@@@@@@@@@@@@@@@@@@@@@@@@@@@@@@@@@@@@@@@@@@@@@@@@@@@@@@@@@@@@@@@@@@@@@@@@@@@@@@@@@@@@@@@@@@@@@@@@@@@@@@@@@@@@@@@@@@@@@@@@@XXXX............................................................................XXXXXXXX@@@@@@@@@@@@@@@@@@@@@@@@@@@@@@@@@@@@@@@@@@@@@@@@@@@@@@@@@@@@@@@@@@@@@@@@@@@@@@@@@@@@@@@@@@@@@@@@@@@@@@@@@@@@@@@@@@@@@@@@@@@@@@@@@@@@@@@@@@@@@@@@@@@@@@@@@@@@@OOOooooooooooooooooooooooooooooooooooooooooooooooooooooooooooooooooooooooooooooooooooooooooooooooo",
"oooooooooooooooooooooooooooooooooooooooooOOOoooooooooooooooooooooooooooooooooooooooooooooooooooooooooooooOO@@@@@@@@@@@@@@@@@@@@@@@@@@@@@@@@@@@@@@@@@@@@@@@@@@@@@@@@@@@@@@@@@@@@@@@@@@@@@@@@@@@@@@@@@@@@@@@@@@@@@@@@@@@@@@@@@@@@@@@@@@@@@@@@@@@@@@@@@@@@@@@@@@@@@@@@@@@@@@@@@@@@@@@@@@@@@@@@@@@@@@@@@@@@@@@XXXXX.......................................................................XXXXXXXX@@@@@@@@@@@@@@@@@@@@@@@@@@@@@@@@@@@@@@@@@@@@@@@@@@@@@@@@@@@@@@@@@@@@@@@@@@@@@@@@@@@@@@@@@@@@@@@@@@@@@@@@@@@@@@@@@@@@@@@@@@@@@@@@@@@@@@@@@@@@@@@@@@@@@@@@@@@@@@@@OOOooooooooooooooooooooooooooooooooooooooooooooooooooooooooooooooooooooooooooooooooooooooooooooooo",
"ooooooooooooooooooooooooooooooooooooooooOOOooooooooooooooooooooooooooooooooooooooooooooooooooooooooooooooOOO@@@@@@@@@@@@@@@@@@@@@@@@@@@@@@@@@@@@@@@@@@@@@@@@@@@@@@@@@@@@@@@@@@@@@@@@@@@@@@@@@@@@@@@@@@@@@@@@@@@@@@@@@@@@@@@@@@@@@@@@@@@@@@@@@@@@@@@@@@@@@@@@@@@@@@@@@@@@@@@@@@@@@@@@@@@@@@@@@@@@@@@@@@@@@@@@XXXXXXXXXX............................................................XXXXXXXX@@@@@@@@@@@@@@@@@@@@@@@@@@@@@@@@@@@@@@@@@@@@@@@@@@@@@@@@@@@@@@@@@@@@@@@@@@@@@@@@@@@@@@@@@@@@@@@@@@@@@@@@@@@@@@@@@@@@@@@@@@@@@@@@@@@@@@@@@@@@@@@@@@@@@@@@@@@@@@@@@@@@@OOooooooooooooooooooooooooooooooooooooooooooooooooooooooooooooooooooooooooooooooooooooooooooooooo",
"ooooooooooooooooooooooooooooooooooooooooOOOooooooooooooooooooooooooooooooooooooooooooooooooooooooooooooooOOO@@@@@@@@@@@@@@@@@@@@@@@@@@@@@@@@@@@@@@@@@@@@@@@@@@@@@@@@@@@@@@@@@@@@@@@@@@@@@@@@@@@@@@@@@@@@@@@@@@@@@@@@@@@@@@@@@@@@@@@@@@@@@@@@@@@@@@@@@@@@@@@@@@@@@@@@@@@@@@@@@@@@@@@@@@@@@@@@@@@@@@@@@@@@@@@@@@XXXXXXXXXXXXX....................................................XXXXXXXXX@@@@@@@@@@@@@@@@@@@@@@@@@@@@@@@@@@@@@@@@@@@@@@@@@@@@@@@@@@@@@@@@@@@@@@@@@@@@@@@@@@@@@@@@@@@@@@@@@@@@@@@@@@@@@@@@@@@@@@@@@@@@@@@@@@@@@@@@@@@@@@@@@@@@@@@@@@@@@@@@@@@@@@@OOooooooooooooooooooooooooooooooooooooooooooooooooooooooooooooooooooooooooooooooooooooooooooooooo",
"ooooooooooooooooooooooooooooooooooooooooOOooooooooooooooooooooooooooooooooooooooooooooooooooooooooooooooooOO@@@@@@@@@@@@@@@@@@@@@@@@@@@@@@@@@@@@@@@@@@@@@@@@@@@@@@@@@@@@@@@@@@@@@@@@@@@@@@@@@@@@@@@@@@@@@@@@@@@@@@@@@@@@@@@@@@@@@@@@@@@@@@@@@@@@@@@@@@@@@@@@@@@@@@@@@@@@@@@@@@@@@@@@@@@@@@@@@@@@@@@@@@@@@@@@@@@@@@XXXXXXXXXXXXXXXX.........................................XXXXXXXXX@@@@@@@@@@@@@@@@@@@@@@@@@@@@@@@@@@@@@@@@@@@@@@@@@@@@@@@@@@@@@@@@@@@@@@@@@@@@@@@@@@@@@@@@@@@@@@@@@@@@@@@@@@@@@@@@@@@@@@@@@@@@@@@@@@@@@@@@@@@@@@@@@@@@@@@@@@@@@@@@@@@@@@@@@@@OOOoooooooooooooooooooooooooooooooooooooooooooooooooooooooooooooooooooooooooooooooooooooooooooooo",
"ooooooooooooooooooooooooooooooooooooooooOOooooooooooooooooooooooooooooooooooooooooooooooooooooooooooooooooOO@@@@@@@@@@@@@@@@@@@@@@@@@@@@@@@@@@@@@@@@@@@@@@@@@@@@@@@@@@@@@@@@@@@@@@@@@@@@@@@@@@@@@@@@@@@@@@@@@@@@@@@@@@@@@@@@@@@@@@@@@@@@@@@@@@@@@@@@@@@@@@@@@@@@@@@@@@@@@@@@@@@@@@@@@@@@@@@@@@@@@@@@@@@@@@@@@@@@@@@@@@@@XXXXXXXXXXXXXXXX.................................XXXXXXXX@@@@@@@@@@@@@@@@@@@@@@@@@@@@@@@@@@@@@@@@@@@@@@@@@@@@@@@@@@@@@@@@@@@@@@@@@@@@@@@@@@@@@@@@@@@@@@@@@@@@@@@@@@@@@@@@@@@@@@@@@@@@@@@@@@@@@@@@@@@@@@@@@@@@@@@@@@@@@@@@@@@@@@@@@@@@@@OOOoooooooooooooooooooooooooooooooooooooooooooooooooooooooooooooooooooooooooooooooooooooooooooooo",
"oooooooooooooooooooooooooooooooooooooooOOOooooooooooooooooooooooooooooooooooooooooooooooooooooooooooooooooOO@@@@@@@@@@@@@@@@@@@@@@@@@@@@@@@@@@@@@@@@@@@@@@@@@@@@@@@@@@@@@@@@@@@@@@@@@@@@@@@@@@@@@@@@@@@@@@@@@@@@@@@@@@@@@@@@@@@@@@@@@@@@@@@@@@@@@@@@@@@@@@@@@@@@@@@@@@@@@@@@@@@@@@@@@@@@@@@@@@@@@@@@@@@@@@@@@@@@@@@@@@@@@@@@@@@@XXXXXXXXXXXXXXXX.....................XXXXXXXX@@@@@@@@@@@@@@@@@@@@@@@@@@@@@@@@@@@@@@@@@@@@@@@@@@@@@@@@@@@@@@@@@@@@@@@@@@@@@@@@@@@@@@@@@@@@@@@@@@@@@@@@@@@@@@@@@@@@@@@@@@@@@@@@@@@@@@@@@@@@@@@@@@@@@@@@@@@@@@@@@@@@@@@@@@@@@@@@@@@OOoooooooooooooooooooooooooooooooooooooooooooooooooooooooooooooooooooooooooooooooooooooooooooooo",
"oooooooooooooooooooooooooooooooooooooooOOOooooooooooooooooooooooooooooooooooooooooooooooooooooooooooooooooOO@@@@@@@@@@@@@@@@@@@@@@@@@@@@@@@@@@@@@@@@@@@@@@@@@@@@@@@@@@@@@@@@@@@@@@@@@@@@@@@@@@@@@@@@@@@@@@@@@@@@@@@@@@@@@@@@@@@@@@@@@@@@@@@@@@@@@@@@@@@@@@@@@@@@@@@@@@@@@@@@@@@@@@@@@@@@@@@@@@@@@@@@@@@@@@@@@@@@@@@@@@@@@@@@@@@@@@@@@XXXXXXXXXXXXXXXX.............XXXXXXXX@@@@@@@@@@@@@@@@@@@@@@@@@@@@@@@@@@@@@@@@@@@@@@@@@@@@@@@@@@@@@@@@@@@@@@@@@@@@@@@@@@@@@@@@@@@@@@@@@@@@@@@@@@@@@@@@@@@@@@@@@@@@@@@@@@@@@@@@@@@@@@@@@@@@@@@@@@@@@@@@@@@@@@@@@@@@@@@@@@@@@@OOoooooooooooooooooooooooooooooooooooooooooooooooooooooooooooooooooooooooooooooooooooooooooooooo",
"oooooooooooooooooooooooooooooooooooooooOOOooooooooooooooooooooooooooooooooooooooooooooooooooooooooooooooooOOO@@@@@@@@@@@@@@@@@@@@@@@@@@@@@@@@@@@@@@@@@@@@@@@@@@@@@@@@@@@@@@@@@@@@@@@@@@@@@@@@@@@@@@@@@@@@@@@@@@@@@@@@@@@@@@@@@@@@@@@@@@@@@@@@@@@@@@@@@@@@@@@@@@@@@@@@@@@@@@@@@@@@@@@@@@@@@@@@@@@@@@@@@@@@@@@@@@@@@@@@@@@@@@@@@@@@@@@@@@@@@@@XXXXXXXXXXXXXXXX..XXXXXXXX@@@@@@@@@@@@@@@@@@@@@@@@@@@@@@@@@@@@@@@@@@@@@@@@@@@@@@@@@@@@@@@@@@@@@@@@@@@@@@@@@@@@@@@@@@@@@@@@@@@@@@@@@@@@@@@@@@@@@@@@@@@@@@@@@@@@@@@@@@@@@@@@@@@@@@@@@@@@@@@@@@@@@@@@@@@@@@@@@@@@@@@@@@OOoooooooooooooooooooooooooooooooooooooooooooooooooooooooooooooooooooooooooooooooooooooooooooooo",
"oooooooooooooooooooooooooooooooooooooOOOOOooooooooooooooooooooooooooooooooooooooooooooooooooooooooooooooooOOO@@@@@@@@@@@@@@@@@@@@@@@@@@@@@@@@@@@@@@@@@@@@@@@@@@@@@@@@@@@@@@@@@@@@@@@@@@@@@@@@@@@@@@@@@@@@@@@@@@@@@@@@@@@@@@@@@@@@@@@@@@@@@@@@@@@@@@@@@@@@@@@@@@@@@@@@@@@@@@@@@@@@@@@@@@@@@@@@@@@@@@@@@@@@@@@@@@@@@@@@@@@@@@@@@@@@@@@@@@@@@@@@@@@@@XXXXXXXXXXXXXXXXXX@@@@@@@@@@@@@@@@@@@@@@@@@@@@@@@@@@@@@@@@@@@@@@@@@@@@@@@@@@@@@@@@@@@@@@@@@@@@@@@@@@@@@@@@@@@@@@@@@@@@@@@@@@@@@@@@@@@@@@@@@@@@@@@@@@@@@@@@@@@@@@@@@@@@@@@@@@@@@@@@@@@@@@@@@@@@@@@@@@@@@@@@@@@@OOoooooooooooooooooooooooooooooooooooooooooooooooooooooooooooooooooooooooooooooooooooooooooooooo",
"oooooooooooooooooooooooooooooooooooOOOOOOooooooooooooooooooooooooooooooooooooooooooooooooooooooooooooooooooOO@@@@@@@@@@@@@@@@@@@@@@@@@@@@@@@@@@@@@@@@@@@@@@@@@@@@@@@@@@@@@@@@@@@@@@@@@@@@@@@@@@@@@@@@@@@@@@@@@@@@@@@@@@@@@@@@@@@@@@@@@@@@@@@@@@@@@@@@@@@@@@@@@@@@@@@@@@@@@@@@@@@@@@@@@@@@@@@@@@@@@@@@@@@@@@@@@@@@@@@@@@@@@@@@@@@@@@@@@@@@@@@@@@@@@@@@@@@@@XXXXXX@@@@@@@@@@@@@@@@@@@@@@@@@@@@@@@@@@@@@@@@@@@@@@@@@@@@@@@@@@@@@@@@@@@@@@@@@@@@@@@@@@@@@@@@@@@@@@@@@@@@@@@@@@@@@@@@@@@@@@@@@@@@@@@@@@@@@@@@@@@@@@@@@@@@@@@@@@@@@@@@@@@@@@@@@@@@@@@@@@@@@@@@@@@@@@@@OOoooooooooooooooooooooooooooooooooooooooooooooooooooooooooooooooooooooooooooooooooooooooooooooo",
"ooooooooooooooooooooooooooooooooooOOOOoOOOoooooooooooooooooooooooooooooooooooooooooooooooooooooooooooooooooOO@@@@@@@@@@@@@@@@@@@@@@@@@@@@@@@@@@@@@@@@@@@@@@@@@@@@@@@@@@@@@@@@@@@@@@@@@@@@@@@@@@@@@@@@@@@@@@@@@@@@@@@@@@@@@@@@@@@@@@@@@@@@@@@@@@@@@@@@@@@@@@@@@@@@@@@@@@@@@@@@@@@@@@@@@@@@@@@@@@@@@@@@@@@@@@@@@@@@@@@@@@@@@@@@@@@@@@@@@@@@@@@@@@@@@@@@@@@@@@@@@@@@@@@@@@@@@@@@@@@@@@@@@@@@@@@@@@@@@@@@@@@@@@@@@@@@@@@@@@@@@@@@@@@@@@@@@@@@@@@@@@@@@@@@@@@@@@@@@@@@@@@@@@@@@@@@@@@@@@@@@@@@@@@@@@@@@@@@@@@@@@@@@@@@@@@@@@@@@@@@@@@@@@@@@@@@@@@@@@@@@@@@@@@@@@@@@@@OOOooooooooooooooooooooooooooooooooooooooooooooooooooooooooooooooooooooooooooooooooooooooooooooo",
"oooooooooooooooooooooooooooooooooOOOoooOOOoooooooooooooooooooooooooooooooooooooooooooooooooooooooooooooooooOOO@@@@@@@@@@@@@@@@@@@@@@@@@@@@@@@@@@@@@@@@@@@@@@@@@@@@@@@@@@@@@@@@@@@@@@@@@@@@@@@@@@@@@@@@@@@@@@@@@@@@@@@@@@@@@@@@@@@@@@@@@@@@@@@@@@@@@@@@@@@@@@@@@@@@@@@@@@@@@@@@@@@@@@@@@@@@@@@@@@@@@@@@@@@@@@@@@@@@@@@@@@@@@@@@@@@@@@@@@@@@@@@@@@@@@@@@@@@@@@@@@@@@@@@@@@@@@@@@@@@@@@@@@@@@@@@@@@@@@@@@@@@@@@@@@@@@@@@@@@@@@@@@@@@@@@@@@@@@@@@@@@@@@@@@@@@@@@@@@@@@@@@@@@@@@@@@@@@@@@@@@@@@@@@@@@@@@@@@@@@@@@@@@@@@@@@@@@@@@@@@@@@@@@@@@@@@@@@@@@@@@@@@@@@@@@@@@@OOOooooooooooooooooooooooooooooooooooooooooooooooooooooooooooooooooooooooooooooooooooooooooooooo",
"ooooooooooooooooooooooooooooooooOOOooooOOOoooooooooooooooooooooooooooooooooooooooooooooooooooooooooooooooooOOO@@@@@@@@@@@@@@@@@@@@@@@@@@@@@@@@@@@@@@@@@@@@@@@@@@@@@@@@@@@@@@@@@@@@@@@@@@@@@@@@@@@@@@@@@@@@@@@@@@@@@@@@@@@@@@@@@@@@@@@@@@@@@@@@@@@@@@@@@@@@@@@@@@@@@@@@@@@@@@@@@@@@@@@@@@@@@@@@@@@@@@@@@@@@@@@@@@@@@@@@@@@@@@@@@@@@@@@@@@@@@@@@@@@@@@@@@@@@@@@@@@@@@@@@@@@@@@@@@@@@@@@@@@@@@@@@@@@@@@@@@@@@@@@@@@@@@@@@@@@@@@@@@@@@@@@@@@@@@@@@@@@@@@@@@@@@@@@@@@@@@@@@@@@@@@@@@@@@@@@@@@@@@@@@@@@@@@@@@@@@@@@@@@@@@@@@@@@@@@@@@@@@@@@@@@@@@@@@@@@@@@@@@@@@@@@@@@OOOooooooooooooooooooooooooooooooooooooooooooooooooooooooooooooooooooooooooooooooooooooooooooooo",
"ooooooooooooooooooooooooooooooOOOOoooooOOOooooooooooooooooooooooooooooooooooooooooooooooooooooooooooooooooooOO@@@@@@@@@@@@@@@@@@@@@@@@@@@@@@@@@@@@@@@@@@@@@@@@@@@@@@@@@@@@@@@@@@@@@@@@@@@@@@@@@@@@@@@@@@@@@@@@@@@@@@@@@@@@@@@@@@@@@@@@@@@@@@@@@@@@@@@@@@@@@@@@@@@@@@@@@@@@@@@@@@@@@@@@@@@@@@@@@@@@@@@@@@@@@@@@@@@@@@@@@@@@@@@@@@@@@@@@@@@@@@@@@@@@@@@@@@@@@@@@@@@@@@@@@@@@@@@@@@@@@@@@@@@@@@@@@@@@@@@@@@@@@@@@@@@@@@@@@@@@@@@@@@@@@@@@@@@@@@@@@@@@@@@@@@@@@@@@@@@@@@@@@@@@@@@@@@@@@@@@@@@@@@@@@@@@@@@@@@@@@@@@@@@@@@@@@@@@@@@@@@@@@@@@@@@@@@@@@@@@@@@@@@@@@@@@@@@OOooooooooooooooooooooooooooooooooooooooooooooooooooooooooooooooooooooooooooooooooooooooooooooo",
"oooooooooooooooooooooooooooooOOOoooooooOOOooooooooooooooooooooooooooooooooooooooooooooooooooooooooooooooooooOO@@@@@@@@@@@@@@@@@@@@@@@@@@@@@@@@@@@@@@@@@@@@@@@@@@@@@@@@@@@@@@@@@@@@@@@@@@@@@@@@@@@@@@@@@@@@@@@@@@@@@@@@@@@@@@@@@@@@@@@@@@@@@@@@@@@@@@@@@@@@@@@@@@@@@@@@@@@@@@@@@@@@@@@@@@@@@@@@@@@@@@@@@@@@@@@@@@@@@@@@@@@@@@@@@@@@@@@@@@@@@@@@@@@@@@@@@@@@@@@@@@@@@@@@@@@@@@@@@@@@@@@@@@@@@@@@@@@@@@@@@@@@@@@@@@@@@@@@@@@@@@@@@@@@@@@@@@@@@@@@@@@@@@@@@@@@@@@@@@@@@@@@@@@@@@@@@@@@@@@@@@@@@@@@@@@@@@@@@@@@@@@@@@@@@@@@@@@@@@@@@@@@@@@@@@@@@@@@@@@@@@@@@@@@@@@@@@@OOooooooooooooooooooooooooooooooooooooooooooooooooooooooooooooooooooooooooooooooooooooooooooooo",
"ooooooooooooooooooooooooooooOOOoooooooooOOooooooooooooooooooooooooooooooooooooooooooooooooooooooooooooooooooOO@@@@@@@@@@@@@@@@@@@@@@@@@@@@@@@@@@@@@@@@@@@@@@@@@@@@@@@@@@@@@@@@@@@@@@@@@@@@@@@@@@@@@@@@@@@@@@@@@@@@@@@@@@@@@@@@@@@@@@@@@@@@@@@@@@@@@@@@@@@@@@@@@@@@@@@@@@@@@@@@@@@@@@@@@@@@@@@@@@@@@@@@@@@@@@@@@@@@@@@@@@@@@@@@@@@@@@@@@@@@@@@@@@@@@@@@@@@@@@@@@@@@@@@@@@@@@@@@@@@@@@@@@@@@@@@@@@@@@@@@@@@@@@@@@@@@@@@@@@@@@@@@@@@@@@@@@@@@@@@@@@@@@@@@@@@@@@@@@@@@@@@@@@@@@@@@@@@@@@@@@@@@@@@@@@@@@@@@@@@@@@@@@@@@@@@@@@@@@@@@@@@@@@@@@@@@@@@@@@@@@@@@@@@@@@@@@@@OOOoooooooooooooooooooooooooooooooooooooooooooooooooooooooooooooooooooooooooooooooooooooooooooo",
"oooooooooooooooooooooooooooOOOooooooooooOOooooooooooooooooooooooooooooooooooooooooooooooooooooooooooooooooooOO@@@@@@@@@@@@@@@@@@@@@@@@@@@@@@@@@@@@@@@@@@@@@@@@@@@@@@@@@@@@@@@@@@@@@@@@@@@@@@@@@@@@@@@@@@@@@@@@@@@@@@@@@@@@@@@@@@@@@@@@@@@@@@@@@@@@@@@@@@@@@@@@@@@@@@@@@@@@@@@@@@@@@@@@@@@@@@@@@@@@@@@@@@@@@@@@@@@@@@@@@@@@@@@@@@@@@@@@@@@@@@@@@@@@@@@@@@@@@@@@@@@@@@@@@@@@@@@@@@@@@@@@@@@@@@@@@@@@@@@@@@@@@@@@@@@@@@@@@@@@@@@@@@@@@@@@@@@@@@@@@@@@@@@@@@@@@@@@@@@@@@@@@@@@@@@@@@@@@@@@@@@@@@@@@@@@@@@@@@@@@@@@@@@@@@@@@@@@@@@@@@@@@@@@@@@@@@@@@@@@@@@@@@@@@@@@@@@OOOoooooooooooooooooooooooooooooooooooooooooooooooooooooooooooooooooooooooooooooooooooooooooooo",
"oooooooooooooooooooooooooOOOOoooooooooooOOooooooooooooooooooooooooooooooooooooooooooooooooooooooooooooooooooOOO@@@@@@@@@@@@@@@@@@@@@@@@@@@@@@@@@@@@@@@@@@@@@@@@@@@@@@@@@@@@@@@@@@@@@@@@@@@@@@@@@@@@@@@@@@@@@@@@@@@@@@@@@@@@@@@@@@@@@@@@@@@@@@@@@@@@@@@@@@@@@@@@@@@@@@@@@@@@@@@@@@@@@@@@@@@@@@@@@@@@@@@@@@@@@@@@@@@@@@@@@@@@@@@@@@@@@@@@@@@@@@@@@@@@@@@@@@@@@@@@@@@@@@@@@@@@@@@@@@@@@@@@@@@@@@@@@@@@@@@@@@@@@@@@@@@@@@@@@@@@@@@@@@@@@@@@@@@@@@@@@@@@@@@@@@@@@@@@@@@@@@@@@@@@@@@@@@@@@@@@@@@@@@@@@@@@@@@@@@@@@@@@@@@@@@@@@@@@@@@@@@@@@@@@@@@@@@@@@@@@@@@@@@@@@@@@@@@OOoooooooooooooooooooooooooooooooooooooooooooooooooooooooooooooooooooooooooooooooooooooooooooo",
"ooooooooooooooooooooooooOOOOooooooooooooOOooooooooooooooooooooooooooooooooooooooooooooooooooooooooooooooooooOOO@@@@@@@@@@@@@@@@@@@@@@@@@@@@@@@@@@@@@@@@@@@@@@@@@@@@@@@@@@@@@@@@@@@@@@@@@@@@@@@@@@@@@@@@@@@@@@@@@@@@@@@@@@@@@@@@@@@@@@@@@@@@@@@@@@@@@@@@@@@@@@@@@@@@@@@@@@@@@@@@@@@@@@@@@@@@@@@@@@@@@@@@@@@@@@@@@@@@@@@@@@@@@@@@@@@@@@@@@@@@@@@@@@@@@@@@@@@@@@@@@@@@@@@@@@@@@@@@@@@@@@@@@@@@@@@@@@@@@@@@@@@@@@@@@@@@@@@@@@@@@@@@@@@@@@@@@@@@@@@@@@@@@@@@@@@@@@@@@@@@@@@@@@@@@@@@@@@@@@@@@@@@@@@@@@@@@@@@@@@@@@@@@@@@@@@@@@@@@@@@@@@@@@@@@@@@@@@@@@@@@@@@@@@@@@@@@@@OOoooooooooooooooooooooooooooooooooooooooooooooooooooooooooooooooooooooooooooooooooooooooooooo",
"ooooooooooooooooooooOOOOOOooooooooooooooOOooooooooooooooooooooooooooooooooooooooooooooooooooooooooooooooooooOOO@@@@@@@@@@@@@@@@@@@@@@@@@@@@@@@@@@@@@@@@@@@@@@@@@@@@@@@@@@@@@@@@@@@@@@@@@@@@@@@@@@@@@@@@@@@@@@@@@@@@@@@@@@@@@@@@@@@@@@@@@@@@@@@@@@@@@@@@@@@@@@@@@@@@@@@@@@@@@@@@@@@@@@@@@@@@@@@@@@@@@@@@@@@@@@@@@@@@@@@@@@@@@@@@@@@@@@@@@@@@@@@@@@@@@@@@@@@@@@@@@@@@@@@@@@@@@@@@@@@@@@@@@@@@@@@@@@@@@@@@@@@@@@@@@@@@@@@@@@@@@@@@@@@@@@@@@@@@@@@@@@@@@@@@@@@@@@@@@@@@@@@@@@@@@@@@@@@@@@@@@@@@@@@@@@@@@@@@@@@@@@@@@@@@@@@@@@@@@@@@@@@@@@@@@@@@@@@@@@@@@@@@@@@@@@@@@@@OOoooooooooooooooooooooooooooooooooooooooooooooooooooooooooooooooooooooooooooooooooooooooooooo",
"oooooooooooooooooooOOOOOOoooooooooooooooOOooooooooooooooooooooooooooooooooooooooooooooooooooooooooooooooooooOOO@@@@@@@@@@@@@@@@@@@@@@@@@@@@@@@@@@@@@@@@@@@@@@@@@@@@@@@@@@@@@@@@@@@@@@@@@@@@@@@@@@@@@@@@@@@@@@@@@@@@@@@@@@@@@@@@@@@@@@@@@@@@@@@@@@@@@@@@@@@@@@@@@@@@@@@@@@@@@@@@@@@@@@@@@@@@@@@@@@@@@@@@@@@@@@@@@@@@@@@@@@@@@@@@@@@@@@@@@@@@@@@@@@@@@@@@@@@@@@@@@@@@@@@@@@@@@@@@@@@@@@@@@@@@@@@@@@@@@@@@@@@@@@@@@@@@@@@@@@@@@@@@@@@@@@@@@@@@@@@@@@@@@@@@@@@@@@@@@@@@@@@@@@@@@@@@@@@@@@@@@@@@@@@@@@@@@@@@@@@@@@@@@@@@@@@@@@@@@@@@@@@@@@@@@@@@@@@@@@@@@@@@@@@@@@@@@@@OOoooooooooooooooooooooooooooooooooooooooooooooooooooooooooooooooooooooooooooooooooooooooooooo",
"oooooooooooooooooOOOOoooooooooooooooooooOOooooooooooooooooooooooooooooooooooooooooooooooooooooooooooooooooooOOO@@@@@@@@@@@@@@@@@@@@@@@@@@@@@@@@@@@@@@@@@@@@@@@@@@@@@@@@@@@@@@@@@@@@@@@@@@@@@@@@@@@@@@@@@@@@@@@@@@@@@@@@@@@@@@@@@@@@@@@@@@@@@@@@@@@@@@@@@@@@@@@@@@@@@@@@@@@@@@@@@@@@@@@@@@@@@@@@@@@@@@@@@@@@@@@@@@@@@@@@@@@@@@@@@@@@@@@@@@@@@@@@@@@@@@@@@@@@@@@@@@@@@@@@@@@@@@@@@@@@@@@@@@@@@@@@@@@@@@@@@@@@@@@@@@@@@@@@@@@@@@@@@@@@@@@@@@@@@@@@@@@@@@@@@@@@@@@@@@@@@@@@@@@@@@@@@@@@@@@@@@@@@@@@@@@@@@@@@@@@@@@@@@@@@@@@@@@@@@@@@@@@@@@@@@@@@@@@@@@@@@@@@@@@@@@@@@@OOoooooooooooooooooooooooooooooooooooooooooooooooooooooooooooooooooooooooooooooooooooooooooooo",
"oooooooooooooooOOOOOooooooooooooooooooooOOooooooooooooooooooooooooooooooooooooooooooooooooooooooooooooooooooOOO@@@@@@@@@@@@@@@@@@@@@@@@@@@@@@@@@@@@@@@@@@@@@@@@@@@@@@@@@@@@@@@@@@@@@@@@@@@@@@@@@@@@@@@@@@@@@@@@@@@@@@@@@@@@@@@@@@@@@@@@@@@@@@@@@@@@@@@@@@@@@@@@@@@@@@@@@@@@@@@@@@@@@@@@@@@@@@@@@@@@@@@@@@@@@@@@@@@@@@@@@@@@@@@@@@@@@@@@@@@@@@@@@@@@@@@@@@@@@@@@@@@@@@@@@@@@@@@@@@@@@@@@@@@@@@@@@@@@@@@@@@@@@@@@@@@@@@@@@@@@@@@@@@@@@@@@@@@@@@@@@@@@@@@@@@@@@@@@@@@@@@@@@@@@@@@@@@@@@@@@@@@@@@@@@@@@@@@@@@@@@@@@@@@@@@@@@@@@@@@@@@@@@@@@@@@@@@@@@@@@@@@@@@@@@@@@@@OOOOooooooooooooooooooooooooooooooooooooooooooooooooooooooooooooooooooooooooooooooooooooooooooo",
"oooooooooooooOOOOOooooooooooooooooooooooOOooooooooooooooooooooooooooooooooooooooooooooooooooooooooooooooooooOOO@@@@@@@@@@@@@@@@@@@@@@@@@@@@@@@@@@@@@@@@@@@@@@@@@@@@@@@@@@@@@@@@@@@@@@@@@@@@@@@@@@@@@@@@@@@@@@@@@@@@@@@@@@@@@@@@@@@@@@@@@@@@@@@@@@@@@@@@@@@@@@@@@@@@@@@@@@@@@@@@@@@@@@@@@@@@@@@@@@@@@@@@@@@@@@@@@@@@@@@@@@@@@@@@@@@@@@@@@@@@@@@@@@@@@@@@@@@@@@@@@@@@@@@@@@@@@@@@@@@@@@@@@@@@@@@@@@@@@@@@@@@@@@@@@@@@@@@@@@@@@@@@@@@@@@@@@@@@@@@@@@@@@@@@@@@@@@@@@@@@@@@@@@@@@@@@@@@@@@@@@@@@@@@@@@@@@@@@@@@@@@@@@@@@@@@@@@@@@@@@@@@@@@@@@@@@@@@@@@@@@@@@@@@@@@@@@@OOOOOoooooooooooooooooooooooooooooooooooooooooooooooooooooooooooooooooooooooooooooooooooooooooo",
"oooooooooooOOOOOooooooooooooooooooooooooOOoooooooooooooooooooooooooooooooooooooooooooooooooooooooooooooooooooOO@@@@@@@@@@@@@@@@@@@@@@@@@@@@@@@@@@@@@@@@@@@@@@@@@@@@@@@@@@@@@@@@@@@@@@@@@@@@@@@@@@@@@@@@@@@@@@@@@@@@@@@@@@@@@@@@@@@@@@@@@@@@@@@@@@@@@@@@@@@@@@@@@@@@@@@@@@@@@@@@@@@@@@@@@@@@@@@@@@@@@@@@@@@@@@@@@@@@@@@@@@@@@@@@@@@@@@@@@@@@@@@@@@@@@@@@@@@@@@@@@@@@@@@@@@@@@@@@@@@@@@@@@@@@@@@@@@@@@@@@@@@@@@@@@@@@@@@@@@@@@@@@@@@@@@@@@@@@@@@@@@@@@@@@@@@@@@@@@@@@@@@@@@@@@@@@@@@@@@@@@@@@@@@@@@@@@@@@@@@@@@@@@@@@@@@@@@@@@@@@@@@@@@@@@@@@@@@@@@@@@@@@@@@@@@@@@@OOOOOoooooooooooooooooooooooooooooooooooooooooooooooooooooooooooooooooooooooooooooooooooooooooo",
"oooooooOOOOOOOooooooooooooooooooooooooooOOOooooooooooooooooooooooooooooooooooooooooooooooooooooooooooooooooooOO@@@@@@@@@@@@@@@@@@@@@@@@@@@@@@@@@@@@@@@@@@@@@@@@@@@@@@@@@@@@@@@@@@@@@@@@@@@@@@@@@@@@@@@@@@@@@@@@@@@@@@@@@@@@@@@@@@@@@@@@@@@@@@@@@@@@@@@@@@@@@@@@@@@@@@@@@@@@@@@@@@@@@@@@@@@@@@@@@@@@@@@@@@@@@@@@@@@@@@@@@@@@@@@@@@@@@@@@@@@@@@@@@@@@@@@@@@@@@@@@@@@@@@@@@@@@@@@@@@@@@@@@@@@@@@@@@@@@@@@@@@@@@@@@@@@@@@@@@@@@@@@@@@@@@@@@@@@@@@@@@@@@@@@@@@@@@@@@@@@@@@@@@@@@@@@@@@@@@@@@@@@@@@@@@@@@@@@@@@@@@@@@@@@@@@@@@@@@@@@@@@@@@@@@@@@@@@@@@@@@@@@@@@@@@@@@@OOO OOOOoooooooooooooooooooooooooooooooooooooooooooooooooooooooooooooooooooooooooooooooooooooooo",
"ooooOOOOOOOOooooooooooooooooooooooooooooOOOooooooooooooooooooooooooooooooooooooooooooooooooooooooooooooooooooOO@@@@@@@@@@@@@@@@@@@@@@@@@@@@@@@@@@@@@@@@@@@@@@@@@@@@@@@@@@@@@@@@@@@@@@@@@@@@@@@@@@@@@@@@@@@@@@@@@@@@@@@@@@@@@@@@@@@@@@@@@@@@@@@@@@@@@@@@@@@@@@@@@@@@@@@@@@@@@@@@@@@@@@@@@@@@@@@@@@@@@@@@@@@@@@@@@@@@@@@@@@@@@@@@@@@@@@@@@@@@@@@@@@@@@@@@@@@@@@@@@@@@@@@@@@@@@@@@@@@@@@@@@@@@@@@@@@@@@@@@@@@@@@@@@@@@@@@@@@@@@@@@@@@@@@@@@@@@@@@@@@@@@@@@@@@@@@@@@@@@@@@@@@@@@@@@@@@@@@@@@@@@@@@@@@@@@@@@@@@@@@@@@@@@@@@@@@@@@@@@@@@@@@@@@@@@@@@@@@@@@@@@@@@@@@@@@OOO   OOOooooooooooooooooooooooooooooooooooooooooooooooooooooooooooooooooooooooooooooooooooooooo",
"OOOOOOOOooooooooooooooooooooooooooooooooOOOooooooooooooooooooooooooooooooooooooooooooooooooooooooooooooooooooOO@@@@@@@@@@@@@@@@@@@@@@@@@@@@@@@@@@@@@@@@@@@@@@@@@@@@@@@@@@@@@@@@@@@@@@@@@@@@@@@@@@@@@@@@@@@@@@@@@@@@@@@@@@@@@@@@@@@@@@@@@@@@@@@@@@@@@@@@@@@@@@@@@@@@@@@@@@@@@@@@@@@@@@@@@@@@@@@@@@@@@@@@@@@@@@@@@@@@@@@@@@@@@@@@@@@@@@@@@@@@@@@@@@@@@@@@@@@@@@@@@@@@@@@@@@@@@@@@@@@@@@@@@@@@@@@@@@@@@@@@@@@@@@@@@@@@@@@@@@@@@@@@@@@@@@@@@@@@@@@@@@@@@@@@@@@@@@@@@@@@@@@@@@@@@@@@@@@@@@@@@@@@@@@@@@@@@@@@@@@@@@@@@@@@@@@@@@@@@@@@@@@@@@@@@@@@@@@@@@@@@@@@@@@@@@@@@OOO    OOOoooooooooooooooooooooooooooooooooooooooooooooooooooooooooooooooooooooooooooooooooooooo",
"OOOOooooooooooooooooooooooooooooooooooooOOOooooooooooooooooooooooooooooooooooooooooooooooooooooooooooooooooooOO@@@@@@@@@@@@@@@@@@@@@@@@@@@@@@@@@@@@@@@@@@@@@@@@@@@@@@@@@@@@@@@@@@@@@@@@@@@@@@@@@@@@@@@@@@@@@@@@@@@@@@@@@@@@@@@@@@@@@@@@@@@@@@@@@@@@@@@@@@@@@@@@@@@@@@@@@@@@@@@@@@@@@@@@@@@@@@@@@@@@@@@@@@@@@@@@@@@@@@@@@@@@@@@@@@@@@@@@@@@@@@@@@@@@@@@@@@@@@@@@@@@@@@@@@@@@@@@@@@@@@@@@@@@@@@@@@@@@@@@@@@@@@@@@@@@@@@@@@@@@@@@@@@@@@@@@@@@@@@@@@@@@@@@@@@@@@@@@@@@@@@@@@@@@@@@@@@@@@@@@@@@@@@@@@@@@@@@@@@@@@@@@@@@@@@@@@@@@@@@@@@@@@@@@@@@@@@@@@@@@@@@@@@@@@@@@@OO      OOOooooooooooooooooooooooooooooooooooooooooooooooooooooooooooooooooooooooooooooooooooooo",
"ooooooooooooooooooooooooooooooooooooooooOOOooooooooooooooooooooooooooooooooooooooooooooooooooooooooooooooooooOOO@@@@@@@@@@@@@@@@@@@@@@@@@@@@@@@@@@@@@@@@@@@@@@@@@@@@@@@@@@@@@@@@@@@@@@@@@@@@@@@@@@@@@@@@@@@@@@@@@@@@@@@@@@@@@@@@@@@@@@@@@@@@@@@@@@@@@@@@@@@@@@@@@@@@@@@@@@@@@@@@@@@@@@@@@@@@@@@@@@@@@@@@@@@@@@@@@@@@@@@@@@@@@@@@@@@@@@@@@@@@@@@@@@@@@@@@@@@@@@@@@@@@@@@@@@@@@@@@@@@@@@@@@@@@@@@@@@@@@@@@@@@@@@@@@@@@@@@@@@@@@@@@@@@@@@@@@@@@@@@@@@@@@@@@@@@@@@@@@@@@@@@@@@@@@@@@@@@@@@@@@@@@@@@@@@@@@@@@@@@@@@@@@@@@@@@@@@@@@@@@@@@@@@@@@@@@@@@@@@@@@@@@@@@@@@@@OO       OOOoooooooooooooooooooooooooooooooooooooooooooooooooooooooooooooooooooooooooooooooooooo",
"ooooooooooooooooooooooooooooooooooooooooOOOooooooooooooooooooooooooooooooooooooooooooooooooooooooooooooooooooOOO@@@@@@@@@@@@@@@@@@@@@@@@@@@@@@@@@@@@@@@@@@@@@@@@@@@@@@@@@@@@@@@@@@@@@@@@@@@@@@@@@@@@@@@@@@@@@@@@@@@@@@@@@@@@@@@@@@@@@@@@@@@@@@@@@@@@@@@@@@@@@@@@@@@@@@@@@@@@@@@@@@@@@@@@@@@@@@@@@@@@@@@@@@@@@@@@@@@@@@@@@@@@@@@@@@@@@@@@@@@@@@@@@@@@@@@@@@@@@@@@@@@@@@@@@@@@@@@@@@@@@@@@@@@@@@@@@@@@@@@@@@@@@@@@@@@@@@@@@@@@@@@@@@@@@@@@@@@@@@@@@@@@@@@@@@@@@@@@@@@@@@@@@@@@@@@@@@@@@@@@@@@@@@@@@@@@@@@@@@@@@@@@@@@@@@@@@@@@@@@@@@@@@@@@@@@@@@@@@@@@@@@@@@@@@@@@OO        OOOooooooooooooooooooooooooooooooooooooooooooooooooooooooooooooooooooooooooooooooooooo",
"oooooooooooooooooooooooooooooooooooooooooOOooooooooooooooooooooooooooooooooooooooooooooooooooooooooooooooooooOOO@@@@@@@@@@@@@@@@@@@@@@@@@@@@@@@@@@@@@@@@@@@@@@@@@@@@@@@@@@@@@@@@@@@@@@@@@@@@@@@@@@@@@@@@@@@@@@@@@@@@@@@@@@@@@@@@@@@@@@@@@@@@@@@@@@@@@@@@@@@@@@@@@@@@@@@@@@@@@@@@@@@@@@@@@@@@@@@@@@@@@@@@@@@@@@@@@@@@@@@@@@@@@@@@@@@@@@@@@@@@@@@@@@@@@@@@@@@@@@@@@@@@@@@@@@@@@@@@@@@@@@@@@@@@@@@@@@@@@@@@@@@@@@@@@@@@@@@@@@@@@@@@@@@@@@@@@@@@@@@@@@@@@@@@@@@@@@@@@@@@@@@@@@@@@@@@@@@@@@@@@@@@@@@@@@@@@@@@@@@@@@@@@@@@@@@@@@@@@@@@@@@@@@@@@@@@@@@@@@@@@@@@@@@@@@@@OO          OOOooooooooooooooooooooooooooooooooooooooooooooooooooooooooooooooooooooooooooooooooo",
"oooooooooooooooooooooooooooooooooooooooooOOooooooooooooooooooooooooooooooooooooooooooooooooooooooooooooooooooOOO@@@@@@@@@@@@@@@@@@@@@@@@@@@@@@@@@@@@@@@@@@@@@@@@@@@@@@@@@@@@@@@@@@@@@@@@@@@@@@@@@@@@@@@@@@@@@@@@@@@@@@@@@@@@@@@@@@@@@@@@@@@@@@@@@@@@@@@@@@@@@@@@@@@@@@@@@@@@@@@@@@@@@@@@@@@@@@@@@@@@@@@@@@@@@@@@@@@@@@@@@@@@@@@@@@@@@@@@@@@@@@@@@@@@@@@@@@@@@@@@@@@@@@@@@@@@@@@@@@@@@@@@@@@@@@@@@@@@@@@@@@@@@@@@@@@@@@@@@@@@@@@@@@@@@@@@@@@@@@@@@@@@@@@@@@@@@@@@@@@@@@@@@@@@@@@@@@@@@@@@@@@@@@@@@@@@@@@@@@@@@@@@@@@@@@@@@@@@@@@@@@@@@@@@@@@@@@@@@@@@@@@@@@@@@@@OOO          OOOOoooooooooooooooooooooooooooooooooooooooooooooooooooooooooooooooooooooooooooooooo",
"oooooooooooooooooooooooooooooooooooooooooOOooooooooooooooooooooooooooooooooooooooooooooooooooooooooooooooooooOOO@@@@@@@@@@@@@@@@@@@@@@@@@@@@@@@@@@@@@@@@@@@@@@@@@@@@@@@@@@@@@@@@@@@@@@@@@@@@@@@@@@@@@@@@@@@@@@@@@@@@@@@@@@@@@@@@@@@@@@@@@@@@@@@@@@@@@@@@@@@@@@@@@@@@@@@@@@@@@@@@@@@@@@@@@@@@@@@@@@@@@@@@@@@@@@@@@@@@@@@@@@@@@@@@@@@@@@@@@@@@@@@@@@@@@@@@@@@@@@@@@@@@@@@@@@@@@@@@@@@@@@@@@@@@@@@@@@@@@@@@@@@@@@@@@@@@@@@@@@@@@@@@@@@@@@@@@@@@@@@@@@@@@@@@@@@@@@@@@@@@@@@@@@@@@@@@@@@@@@@@@@@@@@@@@@@@@@@@@@@@@@@@@@@@@@@@@@@@@@@@@@@@@@@@@@@@@@@@@@@@@@@@@@@@@@@OOO            OOOooooooooooooooooooooooooooooooooooooooooooooooooooooooooooooooooooooooooooooooo",
"oooooooooooooooooooooooooooooooooooooooooOOooooooooooooooooooooooooooooooooooooooooooooooooooooooooooooooooooOOO@@@@@@@@@@@@@@@@@@@@@@@@@@@@@@@@@@@@@@@@@@@@@@@@@@@@@@@@@@@@@@@@@@@@@@@@@@@@@@@@@@@@@@@@@@@@@@@@@@@@@@@@@@@@@@@@@@@@@@@@@@@@@@@@@@@@@@@@@@@@@@@@@@@@@@@@@@@@@@@@@@@@@@@@@@@@@@@@@@@@@@@@@@@@@@@@@@@@@@@@@@@@@@@@@@@@@@@@@@@@@@@@@@@@@@@@@@@@@@@@@@@@@@@@@@@@@@@@@@@@@@@@@@@@@@@@@@@@@@@@@@@@@@@@@@@@@@@@@@@@@@@@@@@@@@@@@@@@@@@@@@@@@@@@@@@@@@@@@@@@@@@@@@@@@@@@@@@@@@@@@@@@@@@@@@@@@@@@@@@@@@@@@@@@@@@@@@@@@@@@@@@@@@@@@@@@@@@@@@@@@@@@@@@@@@@OO              OOOoooooooooooooooooooooooooooooooooooooooooooooooooooooooooooooooooooooooooooooo",
"oooooooooooooooooooooooooooooooooooooooooOOOooooooooooooooooooooooooooooooooooooooooooooooooooooooooooooooooooOO@@@@@@@@@@@@@@@@@@@@@@@@@@@@@@@@@@@@@@@@@@@@@@@@@@@@@@@@@@@@@@@@@@@@@@@@@@@@@@@@@@@@@@@@@@@@@@@@@@@@@@@@@@@@@@@@@@@@@@@@@@@@@@@@@@@@@@@@@@@@@@@@@@@@@@@@@@@@@@@@@@@@@@@@@@@@@@@@@@@@@@@@@@@@@@@@@@@@@@@@@@@@@@@@@@@@@@@@@@@@@@@@@@@@@@@@@@@@@@@@@@@@@@@@@@@@@@@@@@@@@@@@@@@@@@@@@@@@@@@@@@@@@@@@@@@@@@@@@@@@@@@@@@@@@@@@@@@@@@@@@@@@@@@@@@@@@@@@@@@@@@@@@@@@@@@@@@@@@@@@@@@@@@@@@@@@@@@@@@@@@@@@@@@@@@@@@@@@@@@@@@@@@@@@@@@@@@@@@@@@@@@@@@@@@@@OO               OOOooooooooooooooooooooooooooooooooooooooooooooooooooooooooooooooooooooooooooooo",
"oooooooooooooooooooooooooooooooooooooooooOOOooooooooooooooooooooooooooooooooooooooooooooooooooooooooooooooooooOO@@@@@@@@@@@@@@@@@@@@@@@@@@@@@@@@@@@@@@@@@@@@@@@@@@@@@@@@@@@@@@@@@@@@@@@@@@@@@@@@@@@@@@@@@@@@@@@@@@@@@@@@@@@@@@@@@@@@@@@@@@@@@@@@@@@@@@@@@@@@@@@@@@@@@@@@@@@@@@@@@@@@@@@@@@@@@@@@@@@@@@@@@@@@@@@@@@@@@@@@@@@@@@@@@@@@@@@@@@@@@@@@@@@@@@@@@@@@@@@@@@@@@@@@@@@@@@@@@@@@@@@@@@@@@@@@@@@@@@@@@@@@@@@@@@@@@@@@@@@@@@@@@@@@@@@@@@@@@@@@@@@@@@@@@@@@@@@@@@@@@@@@@@@@@@@@@@@@@@@@@@@@@@@@@@@@@@@@@@@@@@@@@@@@@@@@@@@@@@@@@@@@@@@@@@@@@@@@@@@@@@@@@@@@@@OOO                OOOoooooooooooooooooooooooooooooooooooooooooooooooooooooooooooooooooooooooooooo",
"oooooooooooooooooooooooooooooooooooooooooOOOooooooooooooooooooooooooooooooooooooooooooooooooooooooooooooooooooOO@@@@@@@@@@@@@@@@@@@@@@@@@@@@@@@@@@@@@@@@@@@@@@@@@@@@@@@@@@@@@@@@@@@@@@@@@@@@@@@@@@@@@@@@@@@@@@@@@@@@@@@@@@@@@@@@@@@@@@@@@@@@@@@@@@@@@@@@@@@@@@@@@@@@@@@@@@@@@@@@@@@@@@@@@@@@@@@@@@@@@@@@@@@@@@@@@@@@@@@@@@@@@@@@@@@@@@@@@@@@@@@@@@@@@@@@@@@@@@@@@@@@@@@@@@@@@@@@@@@@@@@@@@@@@@@@@@@@@@@@@@@@@@@@@@@@@@@@@@@@@@@@@@@@@@@@@@@@@@@@@@@@@@@@@@@@@@@@@@@@@@@@@@@@@@@@@@@@@@@@@@@@@@@@@@@@@@@@@@@@@@@@@@@@@@@@@@@@@@@@@@@@@@@@@@@@@@@@@@@@@@@@@@@@@@OOO                 OOOOoooooooooooooooooooooooooooooooooooooooooooooooooooooooooooooooooooooooooo",
"ooooooooooooooooooooooooooooooooooooooooooOoooooooooooooooooooooooooooooooooooooooooooooooooooooooooooooooooooOO@@@@@@@@@@@@@@@@@@@@@@@@@@@@@@@@@@@@@@@@@@@@@@@@@@@@@@@@@@@@@@@@@@@@@@@@@@@@@@@@@@@@@@@@@@@@@@@@@@@@@@@@@@@@@@@@@@@@@@@@@@@@@@@@@@@@@@@@@@@@@@@@@@@@@@@@@@@@@@@@@@@@@@@@@@@@@@@@@@@@@@@@@@@@@@@@@@@@@@@@@@@@@@@@@@@@@@@@@@@@@@@@@@@@@@@@@@@@@@@@@@@@@@@@@@@@@@@@@@@@@@@@@@@@@@@@@@@@@@@@@@@@@@@@@@@@@@@@@@@@@@@@@@@@@@@@@@@@@@@@@@@@@@@@@@@@@@@@@@@@@@@@@@@@@@@@@@@@@@@@@@@@@@@@@@@@@@@@@@@@@@@@@@@@@@@@@@@@@@@@@@@@@@@@@@@@@@@@@@@@@@@@@@@@@@OOO                  OOOoooooooooooooooooooooooooooooooooooooooooooooooooooooooooooooooooooooooooo",
"ooooooooooooooooooooooooooooooooooooooooooooooooooooooooooooooooooooooooooooooooooooooooooooooooooooooooooooooOO@@@@@@@@@@@@@@@@@@@@@@@@@@@@@@@@@@@@@@@@@@@@@@@@@@@@@@@@@@@@@@@@@@@@@@@@@@@@@@@@@@@@@@@@@@@@@@@@@@@@@@@@@@@@@@@@@@@@@@@@@@@@@@@@@@@@@@@@@@@@@@@@@@@@@@@@@@@@@@@@@@@@@@@@@@@@@@@@@@@@@@@@@@@@@@@@@@@@@@@@@@@@@@@@@@@@@@@@@@@@@@@@@@@@@@@@@@@@@@@@@@@@@@@@@@@@@@@@@@@@@@@@@@@@@@@@@@@@@@@@@@@@@@@@@@@@@@@@@@@@@@@@@@@@@@@@@@@@@@@@@@@@@@@@@@@@@@@@@@@@@@@@@@@@@@@@@@@@@@@@@@@@@@@@@@@@@@@@@@@@@@@@@@@@@@@@@@@@@@@@@@@@@@@@@@@@@@@@@@@@@@@@@@@@@@OO                     OOOoooooooooooooooooooooooooooooooooooooooooooooooooooooooooooooooooooooooo",
"ooooooooooooooooooooooooooooooooooooooooooooooooooooooooooooooooooooooooooooooooooooooooooooooooooooooooooooooOO@@@@@@@@@@@@@@@@@@@@@@@@@@@@@@@@@@@@@@@@@@@@@@@@@@@@@@@@@@@@@@@@@@@@@@@@@@@@@@@@@@@@@@@@@@@@@@@@@@@@@@@@@@@@@@@@@@@@@@@@@@@@@@@@@@@@@@@@@@@@@@@@@@@@@@@@@@@@@@@@@@@@@@@@@@@@@@@@@@@@@@@@@@@@@@@@@@@@@@@@@@@@@@@@@@@@@@@@@@@@@@@@@@@@@@@@@@@@@@@@@@@@@@@@@@@@@@@@@@@@@@@@@@@@@@@@@@@@@@@@@@@@@@@@@@@@@@@@@@@@@@@@@@@@@@@@@@@@@@@@@@@@@@@@@@@@@@@@@@@@@@@@@@@@@@@@@@@@@@@@@@@@@@@@@@@@@@@@@@@@@@@@@@@@@@@@@@@@@@@@@@@@@@@@@@@@@@@@@@@@@@@@@@@@@@OO                      OOOooooooooooooooooooooooooooooooooooooooooooooooooooooooooooooooooooooooo"
};
