/* XPM */
static char *dummy[]={
"256 256 6807 3",
".gO c #108dfc",
".gK c #108dfd",
".gM c #108dfe",
".gI c #108efa",
".gL c #108efb",
".gJ c #108efc",
".gN c #108efd",
".gF c #118cf7",
".gy c #118df7",
".gH c #118efa",
".gt c #118ff8",
".gu c #118ff9",
".gv c #118ffa",
".gw c #118ffb",
".gx c #118ffe",
".hd c #1289f1",
".gG c #128dfa",
".g7 c #138af3",
".hn c #138af6",
".gs c #138ff6",
".hm c #158afa",
".hj c #158bf6",
".hf c #158bf7",
".hg c #158bf8",
".hh c #158bf9",
".hk c #158bfa",
".hi c #158cf6",
".hl c #158cf7",
".he c #168bf7",
".fW c #178ceb",
".fY c #178eeb",
".fZ c #178eec",
".f0 c #178eed",
".f1 c #178eee",
".g2 c #178ef7",
".gz c #1793f9",
".fV c #188bec",
".f4 c #188deb",
".fX c #188eea",
".f2 c #188eeb",
".g4 c #188ef8",
".g6 c #188ef9",
".g5 c #188efa",
".ga c #188fed",
".gb c #188fee",
".gc c #188fef",
".g3 c #188ff7",
".g# c #1890ec",
".gd c #1890ed",
".gE c #1895f8",
".fS c #198bec",
".f5 c #198ce9",
".fT c #198cec",
".fU c #198ced",
".f6 c #198de8",
".gg c #198deb",
".ge c #198eea",
".f3 c #198eec",
".gf c #198fe8",
".f8 c #198fe9",
".f9 c #198feb",
".g. c #198fec",
".fI c #1a8fe8",
".f7 c #1a8fe9",
".fJ c #1b8dea",
".fL c #1c8cec",
".fK c #1c8deb",
".fM c #1d8cec",
".g1 c #1d94f6",
".fO c #1e8ceb",
".fN c #1e8cec",
".fR c #1e8de8",
".fQ c #1e8de9",
".fP c #1e8dea",
".gr c #1e99fb",
".gQ c #1e9cf8",
".gR c #1f9bfa",
".hc c #2097f5",
".go c #209afd",
".gS c #209bfa",
".gq c #209bfc",
".gp c #209bfd",
".gA c #209dfc",
".gP c #209efa",
".ho c #2199f7",
".gB c #219bfc",
".gD c #219cfa",
".gC c #219cfb",
".gh c #229cfc",
".gm c #239afd",
".gn c #239bfc",
".gi c #239cfc",
".g8 c #249afc",
".gk c #249afd",
".gj c #249bfc",
".gl c #2599fd",
".hM c #2aa0fa",
".hI c #2ba0fb",
".lN c #2ba7f5",
".mX c #2ba7f9",
".m4 c #2ba9f5",
".hH c #2ca1fa",
".hD c #2ca2fa",
".hN c #2ca2fc",
".n0 c #2cacfd",
".qr c #2cadfa",
".hF c #2da1fb",
".hE c #2da2fa",
".hG c #2da2fb",
".hJ c #2da2fc",
".lg c #2da4f9",
".zs c #2da6f4",
".zb c #2da6f8",
".o1 c #2da8f7",
".l0 c #2da8f9",
".o0 c #2daaff",
".l6 c #2dabfe",
".qs c #2dabff",
".hC c #2ea4fb",
".pT c #2ea6f7",
".qC c #2ea6fa",
".pP c #2ea7f5",
".zI c #2ea7f6",
".zy c #2ea7f8",
".zt c #2ea8f5",
".zF c #2ea8f7",
".lS c #2ea8fa",
".oY c #2ea8fd",
".oX c #2ea8ff",
".sd c #2ea9fa",
".nu c #2ea9fd",
".jN c #2ea9fe",
".k2 c #2eaafb",
".l7 c #2eabfd",
".n1 c #2eacf7",
".nj c #2eacfb",
".ni c #2eadf7",
".rS c #2eadfa",
".zf c #2fa3f2",
".oK c #2fa4fa",
".nv c #2fa5f7",
".l4 c #2fa6ee",
".tH c #2fa6f2",
".zu c #2fa6f6",
".oi c #2fa6fa",
".zY c #2fa7f0",
".zv c #2fa7f6",
".zH c #2fa7f7",
".za c #2fa7f8",
".oV c #2fa7ff",
".zX c #2fa8f0",
".zW c #2fa8f2",
".z# c #2fa8f6",
".oZ c #2fa8fc",
".oD c #2fa8fd",
".jM c #2fa8fe",
".zr c #2fa9f6",
".tA c #2fa9f8",
".jQ c #2fa9fa",
".je c #2fa9fb",
".se c #2fa9fc",
".jt c #2fa9fe",
".j6 c #2faaf5",
".jJ c #2faafa",
".iz c #2faafb",
".jI c #2faafe",
".jH c #2faaff",
".l8 c #2fabf8",
".jR c #2fabfa",
".o8 c #2fabfc",
".nr c #2fabfe",
".rT c #2facfc",
".mg c #2facfe",
".zO c #30a4ee",
".zx c #30a4f7",
".o4 c #30a4fa",
".lW c #30a4fd",
".pg c #30a5fa",
".mp c #30a5fb",
".ny c #30a6f4",
".zw c #30a6f7",
".j2 c #30a6fa",
".ja c #30a6fb",
".hO c #30a6fe",
".p0 c #30a7ee",
".tR c #30a7f5",
".qB c #30a7fa",
".jV c #30a7ff",
".tF c #30a8f5",
".z. c #30a8f6",
".zG c #30a8f7",
".jP c #30a8fb",
".j# c #30a8fc",
".jG c #30a8fd",
".oR c #30a8ff",
".zV c #30a9f3",
".zz c #30a9f5",
".jf c #30a9fa",
".qw c #30a9fb",
".sa c #30a9fc",
".nU c #30a9fd",
".nk c #30a9fe",
".oW c #30a9ff",
".sf c #30aaf7",
".tC c #30aaf8",
".tB c #30aafa",
".kY c #30aafb",
".i2 c #30aafc",
".js c #30aafd",
".iY c #30aafe",
".k3 c #30aaff",
".kh c #30abfa",
".iV c #30abfd",
".sc c #30acf9",
".rL c #31a5fc",
".tV c #31a6f6",
".kd c #31a6fb",
".hL c #31a6fd",
".zA c #31a7f1",
".zZ c #31a7f5",
".tW c #31a7f7",
".ts c #31a7f9",
".k. c #31a7fb",
".rN c #31a7fc",
".hZ c #31a7ff",
".z2 c #31a8f6",
".tX c #31a8f8",
".nN c #31a8f9",
".lF c #31a8fa",
".jj c #31a8fb",
".jw c #31a8fc",
".o7 c #31a8fd",
".jA c #31a8ff",
".tS c #31a9f3",
".z3 c #31a9f4",
".tE c #31a9f5",
".tG c #31a9f6",
".tv c #31a9f8",
".ob c #31a9fb",
".jr c #31a9fc",
".ic c #31a9fd",
".ju c #31a9fe",
".iM c #31a9ff",
".zp c #31aaf7",
".zq c #31aaf8",
".rX c #31aaf9",
".h0 c #31aafa",
".h9 c #31aafc",
".h8 c #31aafd",
".k4 c #31aafe",
".qx c #31aaff",
".tD c #31abf6",
".in c #31abfb",
".hp c #31abff",
".mm c #31acf5",
".hq c #31acfc",
".hz c #31acfd",
".hT c #31acff",
".rY c #31adfd",
".iy c #32a0f7",
".h5 c #32a3f8",
".h6 c #32a4f8",
".rK c #32a4fa",
".z5 c #32a5ee",
".nw c #32a5f8",
".m8 c #32a5f9",
".jZ c #32a5fa",
".l5 c #32a6f1",
".l1 c #32a6fe",
".q# c #32a7f3",
".tU c #32a7f7",
".zE c #32a7f8",
".h7 c #32a7fa",
".jn c #32a7fc",
".jF c #32a7fd",
".i# c #32a7fe",
".id c #32a7ff",
".zJ c #32a8f3",
".zN c #32a8f4",
".tO c #32a8f5",
".tY c #32a8f6",
".jq c #32a8f8",
".tt c #32a8fa",
".td c #32a8fb",
".s# c #32a8fc",
".ia c #32a8fd",
".i. c #32a8fe",
".hP c #32a8ff",
".tf c #32a9f3",
".jd c #32a9f4",
".tw c #32a9f6",
".nX c #32a9f7",
".zo c #32a9f8",
".tu c #32a9f9",
".tc c #32a9fa",
".jp c #32a9fb",
".i1 c #32a9fc",
".jW c #32a9fd",
".ir c #32a9fe",
".ie c #32a9ff",
".te c #32aaf4",
".z1 c #32aaf6",
".z4 c #32aaf7",
".iW c #32aafa",
".io c #32aafb",
".k6 c #32aafc",
".iq c #32aafd",
".g0 c #32aafe",
".pd c #32aaff",
".zU c #32abf4",
".kM c #32abf9",
".kT c #32abfa",
".pc c #32abfc",
".hr c #32abfd",
".hy c #32abfe",
".hS c #32abff",
".k# c #32acf8",
".th c #32acf9",
".h3 c #33a3f9",
".nI c #33a4f7",
".h4 c #33a4f9",
".zP c #33a5ef",
".j. c #33a5fc",
".tK c #33a6f5",
".na c #33a6fd",
".zK c #33a7f2",
".zB c #33a7f3",
".rU c #33a7f4",
".zD c #33a7f6",
".tT c #33a7f7",
".jY c #33a7fb",
".qA c #33a7fc",
".qm c #33a7fd",
".ib c #33a7fe",
".qy c #33a7ff",
".n2 c #33a8ea",
".zC c #33a8f4",
".nR c #33a8f5",
".tN c #33a8f6",
".p8 c #33a8f7",
".p7 c #33a8f8",
".p6 c #33a8f9",
".nE c #33a8fa",
".nn c #33a8fb",
".nh c #33a8fc",
".jv c #33a8fd",
".hX c #33a8fe",
".hV c #33a8ff",
".p1 c #33a9f3",
".nZ c #33a9f4",
".pL c #33a9f7",
".j5 c #33a9f8",
".no c #33a9f9",
".iD c #33a9fa",
".i3 c #33a9fb",
".iI c #33a9fc",
".hU c #33a9fd",
".hB c #33a9fe",
".hY c #33a9ff",
".z0 c #33aaf5",
".ld c #33aaf7",
".og c #33aaf8",
".i0 c #33aafc",
".mc c #33aafd",
".hW c #33aafe",
".jo c #33aaff",
".k9 c #33abfb",
".hs c #33abfd",
".rZ c #33abff",
".tg c #33acf7",
".ma c #33acfd",
".gX c #33acff",
".h2 c #34a2f9",
".h1 c #34a3f8",
".nt c #34a4f6",
".jz c #34a5ff",
".y9 c #34a6f5",
".qt c #34a6f6",
".im c #34a6fa",
".oU c #34a6fd",
".j1 c #34a6ff",
".zS c #34a7ef",
".zm c #34a7f0",
".tL c #34a7f6",
".p4 c #34a7f9",
".jE c #34a7fa",
".jL c #34a7fc",
".jy c #34a7fd",
".i6 c #34a7ff",
".zM c #34a8f4",
".nM c #34a8f5",
".tZ c #34a8f7",
".jK c #34a8fa",
".np c #34a8fb",
".ng c #34a8fc",
".jx c #34a8fd",
".iN c #34a8fe",
".ip c #34a8ff",
".nY c #34a9f6",
".nJ c #34a9f7",
".q. c #34a9f9",
".nT c #34a9fa",
".iU c #34a9fb",
".iJ c #34a9fc",
".iO c #34a9fd",
".iA c #34a9fe",
".hK c #34a9ff",
".zQ c #34aaf2",
".l9 c #34aaf7",
".k1 c #34aaf8",
".la c #34aafc",
".hA c #34aafd",
".hR c #34aafe",
".hv c #34aaff",
".lM c #34abfa",
".ti c #34abfb",
".tj c #34abfc",
".gY c #34abfd",
".gZ c #34abfe",
".kl c #34acf9",
".rO c #34acfe",
".gT c #34acff",
".pB c #34adf4",
".pH c #34adfb",
".tz c #34aff6",
".nC c #35a4f4",
".n3 c #35a5eb",
".j0 c #35a5f9",
".t1 c #35a5fa",
".xc c #35a6f8",
".jC c #35a6fb",
".tM c #35a7f6",
".p3 c #35a7f9",
".iB c #35a7fa",
".iZ c #35a7fe",
".iP c #35a7ff",
".zl c #35a8f3",
".nK c #35a8f4",
".p9 c #35a8f6",
".nS c #35a8f7",
".iF c #35a8fa",
".iX c #35a8fb",
".iK c #35a8fc",
".iQ c #35a8fd",
".iL c #35a8fe",
".qz c #35a8ff",
".qq c #35a9f3",
".pZ c #35a9f6",
".jX c #35a9f7",
".p5 c #35a9fa",
".m# c #35a9fc",
".o6 c #35a9fd",
".mh c #35a9fe",
".hu c #35a9ff",
".nP c #35aaf8",
".mW c #35aaf9",
".kX c #35aafb",
".ml c #35aafd",
".ht c #35aafe",
".gW c #35aaff",
".hw c #35abf9",
".mb c #35abfb",
".nm c #35abfd",
".pe c #35abfe",
".gU c #35abff",
".oC c #35acfa",
".oH c #35acfd",
".pf c #35acfe",
".ha c #35acff",
".h# c #35adff",
".h. c #35aeff",
".g9 c #35afff",
".jO c #36a4ff",
".iG c #36a5f9",
".jB c #36a5ff",
".xd c #36a7f6",
".t0 c #36a7fa",
".jS c #36a7fc",
".iR c #36a7fd",
".iS c #36a7ff",
".zR c #36a8f0",
".zT c #36a8f1",
".o9 c #36a8f7",
".p2 c #36a8f9",
".iT c #36a8fa",
".oa c #36a8fc",
".nW c #36a9f3",
".nq c #36a9f5",
".jD c #36a9f8",
".kQ c #36a9fa",
".o5 c #36a9fc",
".mk c #36a9fe",
".hQ c #36a9ff",
".nO c #36aaf5",
".ks c #36aaf7",
".jk c #36aaf9",
".kg c #36aafa",
".ky c #36aafb",
".kw c #36aafc",
".n8 c #36aafe",
".gV c #36aaff",
".nV c #36abf1",
".ka c #36abf5",
".pF c #36abfa",
".pG c #36acfa",
".hb c #36adff",
".iE c #37a4f6",
".iC c #37a5f4",
".jT c #37a5fd",
".jU c #37a5fe",
".qp c #37a6f3",
".iH c #37a6f8",
".nx c #37a6fc",
".nL c #37a7f1",
".i5 c #37a7fe",
".nD c #37a8f4",
".m. c #37a8fb",
".mi c #37a8fe",
".zL c #37a9f4",
".kZ c #37a9f6",
".CY c #37a9f8",
".pY c #37a9fb",
".ns c #37a9fc",
".mj c #37a9ff",
".CX c #37aaf5",
".pC c #37aaf9",
".oQ c #37aafa",
".n9 c #37aafb",
".pD c #37abfa",
".kj c #37acf9",
".qK c #37adf9",
".qL c #37aff8",
".qG c #37b0f8",
".nB c #38a5fd",
".zn c #38a6f2",
".i4 c #38a6fe",
".oc c #38a7e9",
".nQ c #38a8f2",
".qn c #38a8f9",
".kV c #38a8fc",
".n5 c #38a8fe",
".o# c #38a9f7",
".zc c #38aaf3",
".pE c #38aafa",
".pX c #38aafc",
".kE c #38aafd",
".oh c #38abf6",
".ke c #38abf9",
".qJ c #38acf8",
".kH c #38acf9",
".qD c #38adfc",
".qI c #38aef9",
".kS c #38aefb",
".qH c #38aff9",
".qF c #38b0f8",
".sb c #38b1fb",
".n4 c #39a5f7",
".kG c #39a8fb",
".n7 c #39a8fc",
".hx c #39a8ff",
".mJ c #39aaf0",
".kp c #39aafd",
".qN c #39aefc",
".qO c #39aff5",
".qM c #39aff8",
".qE c #39aff9",
".n6 c #3aa8fb",
".kq c #3aa9fc",
".k8 c #3aabf7",
".mA c #3aacf0",
".km c #3aacf9",
".kD c #3aaef8",
".jg c #3aaef9",
".mE c #3ab0ef",
".s9 c #3ab0fc",
".qo c #3ba7f2",
".o. c #3ba9f6",
".pb c #3baafb",
".kz c #3babfd",
".tx c #3baef8",
".kR c #3baffa",
".s4 c #3bb0fa",
".m1 c #3ca8f2",
".nA c #3ca8fa",
".oE c #3cabf7",
".kK c #3cabfa",
".kN c #3cacf8",
".ki c #3caefb",
".kA c #3caff9",
".s3 c #3cb0f8",
".r7 c #3cb0fa",
".r0 c #3cb1fb",
".r1 c #3cb1fc",
".r5 c #3cb2fc",
".oj c #3cb4fc",
".tQ c #3cb6f4",
".qc c #3da6ec",
".nz c #3da8f7",
".ql c #3dabf6",
".k5 c #3dabf9",
".kv c #3dadf8",
".kU c #3daef9",
".kk c #3db2f5",
".pW c #3db2f7",
".r3 c #3db2fc",
".t. c #3db5fb",
".lm c #3ea9f0",
".mv c #3eabed",
".l# c #3eacf6",
".kL c #3eaff6",
".nl c #3eaff7",
".m5 c #3eb0f3",
".pM c #3eb0f9",
".r2 c #3eb0fc",
".y8 c #3eb1f5",
".r6 c #3eb1fc",
".r4 c #3eb2fc",
".lQ c #3fa8f2",
".qk c #3faaf3",
".qj c #3fabf5",
".pa c #3fadf3",
".kW c #3faef7",
".lT c #3faff3",
".nF c #3faff4",
".kn c #3faff9",
".j7 c #3fb0f5",
".DQ c #3fb1fb",
".DP c #3fb2fa",
".qi c #40aaf5",
".lz c #40abee",
".l. c #40acf2",
".mq c #40aef5",
".pI c #40aff6",
".kx c #40aff7",
".nb c #40b0f6",
".oN c #40b1fd",
".mf c #40b3f5",
".lu c #40b4f2",
".uO c #40b7fc",
".CK c #40b9fa",
".qd c #41a8ee",
".qe c #41a8f0",
".qh c #41a8f4",
".kr c #41adfa",
".lr c #41aef1",
".kI c #41b0f0",
".oT c #41b0f2",
".uP c #41b7fd",
".uQ c #41b8fc",
".sg c #41bbfc",
".yz c #41bbfe",
".yH c #41bcfe",
".yG c #41bcff",
".qf c #42a8f2",
".qg c #42a8f3",
".kt c #42acf7",
".mN c #42adf4",
".kB c #42adfb",
".k7 c #42aef5",
".n# c #42aef8",
".k0 c #42aff6",
".zg c #42b0f0",
".y. c #42b4fb",
".ya c #42b5f9",
".y# c #42b5fa",
".yi c #42b7f7",
".uF c #42b8fb",
".uH c #42b9fa",
".yU c #42b9fc",
".yy c #42b9fd",
".uI c #42baf9",
".yT c #42bafc",
".om c #42bbfe",
".yM c #42bbff",
".ol c #42bcfd",
".kP c #43acf7",
".kJ c #43aff6",
".kf c #43b0f4",
".l2 c #43b0f7",
".tr c #43b4fd",
".x9 c #43b5fc",
".t2 c #43b6fa",
".yr c #43b7fa",
".uw c #43b7fd",
".ug c #43b8fb",
".ut c #43b8fc",
".uW c #43b8fd",
".uG c #43b9fa",
".yW c #43b9fb",
".yV c #43b9fc",
".ph c #43b9fd",
".u3 c #43b9fe",
".yQ c #43bafb",
".yX c #43bafe",
".uN c #43bbfc",
".yI c #43bbfd",
".on c #43bbfe",
".tI c #43bcf9",
".yA c #43bcfc",
".ok c #43bcfd",
".yF c #43bdfe",
".lD c #44aff3",
".kC c #44aff8",
".md c #44b3f9",
".uK c #44b6fd",
".yb c #44b7fa",
".uV c #44b7fd",
".uJ c #44b8fa",
".up c #44b8fb",
".uu c #44b8fc",
".uv c #44b8fd",
".uq c #44b9fb",
".u0 c #44b9fc",
".us c #44b9fd",
".u4 c #44b9fe",
".yt c #44bafb",
".yu c #44bafc",
".oA c #44bafd",
".u2 c #44bafe",
".os c #44bbfd",
".oo c #44bbfe",
".DF c #44bcfc",
".yS c #44bcfd",
".ko c #45abf7",
".kF c #45acfb",
".ms c #45b4f5",
".oG c #45b5f6",
".u1 c #45b8fd",
".uZ c #45b9fb",
".uR c #45b9fc",
".or c #45b9fd",
".oq c #45b9fe",
".ye c #45b9ff",
".yo c #45baf6",
".AI c #45bafb",
".ys c #45bafc",
".ot c #45bafd",
".op c #45bafe",
".yx c #45baff",
".yn c #45bbfb",
".yD c #45bbfc",
".yE c #45bbfd",
".oB c #45bbfe",
".yJ c #45bbff",
".yB c #45bcfb",
".yC c #45bcfc",
".AB c #45bdfd",
".AR c #45befd",
".Ay c #45beff",
".kO c #46aff3",
".lZ c #46b0f5",
".lh c #46b2f6",
".r8 c #46b4f5",
".yR c #46b8fa",
".uL c #46b9f9",
".oy c #46b9fc",
".yL c #46b9fd",
".ou c #46b9fe",
".AC c #46bafc",
".uS c #46bafd",
".yv c #46bafe",
".yP c #46bbfc",
".AE c #46bbfd",
".yw c #46bbfe",
".AD c #46bcfc",
".AH c #46bdfc",
".AA c #46bdfd",
".AT c #46befc",
".AO c #46befd",
".Az c #46befe",
".Ax c #46bffe",
".sn c #46c0fd",
".si c #46c1fd",
".ku c #47aef4",
".oL c #47b0f6",
".lj c #47b3f1",
".oJ c #47b4f5",
".pS c #47b8f8",
".ox c #47b9fb",
".oz c #47b9fc",
".ow c #47b9fd",
".ov c #47b9fe",
".CZ c #47baf9",
".AJ c #47bafc",
".ur c #47bcfe",
".uY c #47bdf9",
".tJ c #47bdfb",
".AG c #47bdfc",
".B# c #47bdfd",
".AS c #47befc",
".B. c #47befd",
".sm c #47c1ff",
".sh c #47c2fe",
".lc c #48b4f4",
".lb c #48b5fa",
".yO c #48b8fa",
".A6 c #48bcf9",
".AX c #48bcfa",
".yd c #48bcfb",
".AF c #48bcfc",
".A8 c #48bdfc",
".Aq c #48bdfd",
".Ar c #48bdfe",
".yK c #48bdff",
".AZ c #48befc",
".Ba c #48befd",
".As c #48befe",
".Af c #48bffd",
".Aw c #48bfff",
".sj c #48c1fe",
".sl c #48c2fe",
".mP c #49b2f7",
".yN c #49bbfc",
".DR c #49bcfc",
".xb c #49bcfe",
".AY c #49bdfa",
".AN c #49bdfd",
".u5 c #49befd",
".uT c #49bffc",
".ss c #49bffd",
".A9 c #49c0fd",
".sk c #49c2fe",
".qV c #49c3fd",
".vj c #49c8ff",
".z6 c #4abaf9",
".yf c #4abbfc",
".AQ c #4abbfd",
".AM c #4abcfc",
".Ad c #4abcfe",
".Aj c #4abdfd",
".Au c #4abdff",
".A7 c #4abefc",
".Ae c #4abefd",
".At c #4abefe",
".Av c #4abfff",
".qP c #4ac0f9",
".st c #4ac0fd",
".sq c #4ac1ff",
".tP c #4ac2fe",
".q4 c #4ac3fe",
".qW c #4ac3ff",
".q3 c #4ac4fe",
".mG c #4bb0f0",
".l3 c #4bb1e7",
".CJ c #4bb3f0",
".s. c #4bb4f3",
".A0 c #4bbdfa",
".Ac c #4bbefb",
".AL c #4bbefc",
".rP c #4bbfff",
".sw c #4bc0fc",
".su c #4bc0fd",
".uE c #4bc0fe",
".r. c #4bc1fe",
".sr c #4bc1ff",
".sv c #4bc2fd",
".q2 c #4bc4ff",
".sp c #4bc6fc",
".G9 c #4bc7f9",
"Qte c #4bd6fe",
".mQ c #4cb8f2",
".AP c #4cbbfc",
".rf c #4cc1fe",
".rn c #4cc2fe",
".qX c #4cc2ff",
".q5 c #4cc3fe",
".ty c #4cc4ff",
".Gq c #4cc6fe",
".pl c #4cc7fe",
".CR c #4cc8fe",
".BR c #4cc9ff",
".CQ c #4ccafa",
"Qtb c #4cd5fe",
".m9 c #4db2f9",
".lE c #4db4f5",
".lX c #4db5f9",
".yj c #4dbef7",
".AK c #4dbffc",
".wv c #4dbffe",
".sx c #4dc0fd",
".rm c #4dc0fe",
".so c #4dc1fd",
".uU c #4dc1fe",
".DO c #4dc3fe",
".q1 c #4dc4ff",
".HO c #4dc5fd",
".q6 c #4dc5ff",
".pm c #4dc6fe",
".Fk c #4dc7fe",
".pk c #4dc8fe",
".FY c #4dcaf8",
"Qtc c #4dd4fe",
"Qtd c #4dd5fe",
"Qtk c #4dd6ff",
"Qta c #4dd7ff",
".my c #4ebaf4",
".rl c #4ebfff",
".Ag c #4ec0fb",
".rj c #4ec0ff",
".rM c #4ec1fa",
".ry c #4ec1fe",
".zk c #4ec2fb",
".Bb c #4ec2fd",
".ro c #4ec2fe",
".rz c #4ec3fe",
".wS c #4ec4f7",
".q0 c #4ec4ff",
".KI c #4ec5f9",
".wL c #4ec5fa",
".Cx c #4ec5fb",
".uX c #4ec5ff",
".Ks c #4ec6fc",
".Cj c #4ec6fd",
".By c #4ec7fd",
".xB c #4ec8fc",
".pj c #4ec8fe",
".FX c #4ecafd",
"Qtf c #4ed4fe",
"Qtj c #4ed5ff",
"Qt# c #4ed6ff",
"Qts c #4ed7fd",
"Qtp c #4ed7fe",
"Qti c #4ed8ff",
".mT c #4fb0f5",
".m7 c #4fb5f7",
".pK c #4fbef1",
".A3 c #4fbffa",
".Ak c #4fbffc",
".rR c #4fbffd",
".rv c #4fc0fe",
".rw c #4fc1fe",
".wu c #4fc2ff",
".C# c #4fc3fd",
".qY c #4fc3ff",
".HN c #4fc4fb",
".Ap c #4fc4fd",
".BZ c #4fc4fe",
".w8 c #4fc5fb",
".tn c #4fc5fc",
".BY c #4fc5fe",
".r# c #4fc6ff",
".sA c #4fc7fc",
".pn c #4fc7fe",
".pi c #4fc7ff",
".EV c #4fc8fe",
".An c #4fc9f9",
".CO c #4fc9fa",
".qU c #4fc9ff",
".Jb c #4fcaff",
"Qtl c #4fd5ff",
"Qtq c #4fd6fd",
"Qto c #4fd6fe",
"Qt. c #4fd6ff",
"Qtr c #4fd7fd",
"Qth c #4fd7ff",
"Qtu c #4fd8fd",
"Qtn c #4fd8fe",
".ji c #50b8fa",
".rQ c #50bfff",
".yY c #50c1fd",
".rk c #50c1ff",
".rp c #50c2fe",
".E5 c #50c3fb",
".qZ c #50c3ff",
".v6 c #50c5fa",
".w9 c #50c5fb",
".B2 c #50c5fd",
".B0 c #50c5fe",
".yc c #50c5ff",
".B7 c #50c6f9",
".EX c #50c6fb",
".Fe c #50c6fc",
".Fd c #50c6fd",
".vd c #50c6fe",
".uM c #50c6ff",
".FT c #50c7f4",
".C5 c #50c7fa",
".KE c #50c7fb",
".vr c #50c7fc",
".vl c #50c7fd",
".x2 c #50c7fe",
".xC c #50c7ff",
".Ex c #50c8f1",
".E0 c #50c8fb",
".BU c #50c8fd",
".Dp c #50c8fe",
".pA c #50c8ff",
".DK c #50c9fe",
".EW c #50c9ff",
"Qtt c #50d7fd",
"Qtm c #50d7fe",
"Qtg c #50d7ff",
"Qtv c #50d8fc",
".oO c #51b5fd",
".rs c #51bffe",
".rr c #51c0fe",
".rx c #51c2fe",
".um c #51c4f8",
".uf c #51c4f9",
".un c #51c4fa",
".DV c #51c4fb",
".xj c #51c4fc",
".ri c #51c4fd",
".q7 c #51c4fe",
".ww c #51c4ff",
".re c #51c5fa",
".vV c #51c5fc",
".ym c #51c5fd",
".vW c #51c5fe",
".CW c #51c5ff",
".Cf c #51c6f9",
".sK c #51c6fa",
".KG c #51c6fb",
".u7 c #51c6fd",
".po c #51c6fe",
".vt c #51c6ff",
".Ab c #51c7fa",
".u8 c #51c7fc",
".vb c #51c7fd",
".t8 c #51c7fe",
".uj c #51c7ff",
".x1 c #51c8f8",
".Db c #51c8f9",
".wC c #51c8fc",
".uA c #51c8fd",
".qR c #51c8fe",
".Eh c #51c8ff",
".Ec c #51c9fd",
".uz c #51c9ff",
".FW c #51caf6",
".Fl c #51cafe",
".qT c #51caff",
"Qtw c #51d8fc",
".i9 c #52b3ef",
".r9 c #52b6f2",
".pQ c #52baf1",
".HK c #52c1fd",
".rt c #52c1fe",
".Kv c #52c2f6",
".Be c #52c2fa",
".Fc c #52c2fb",
".rq c #52c2fe",
".Ku c #52c3f3",
".x. c #52c3fc",
".GF c #52c3fe",
".KC c #52c4f5",
".Ea c #52c4f6",
".DS c #52c4f9",
".DU c #52c4fa",
".D9 c #52c4fb",
".sD c #52c4fc",
".GE c #52c4fd",
".sy c #52c4fe",
".I. c #52c5f5",
".vs c #52c5f6",
".ER c #52c5f7",
".sE c #52c5fa",
".E6 c #52c5fb",
".Ev c #52c5fc",
".vf c #52c5fd",
".pr c #52c5fe",
".ps c #52c5ff",
".F9 c #52c6ef",
".sJ c #52c6f9",
".ul c #52c6fa",
".KF c #52c6fb",
".DJ c #52c6fc",
".sB c #52c6fd",
".pp c #52c6fe",
".t4 c #52c6ff",
".v. c #52c7f9",
".u9 c #52c7fa",
".Ff c #52c7fb",
".sL c #52c7fc",
".ue c #52c7fd",
".u6 c #52c7fe",
".sY c #52c7ff",
".zj c #52c8f7",
".vu c #52c8fc",
".t# c #52c8fe",
".tk c #52c8ff",
".FU c #52c9f7",
".CU c #52c9fc",
".qQ c #52c9fd",
".tm c #52c9ff",
".pz c #52caff",
"Qtx c #52d9fb",
"Qty c #52d9fc",
"Qtz c #52d9fd",
".lw c #53b7f2",
".Cp c #53c2fb",
".ru c #53c2fe",
".x# c #53c3fb",
".GY c #53c3fc",
".EN c #53c3fd",
".FK c #53c4f0",
".Gu c #53c4f4",
".DT c #53c4fa",
".xa c #53c4fb",
".Fm c #53c4fc",
".EU c #53c4fd",
".Gc c #53c4fe",
".v1 c #53c4ff",
".Mt c #53c5f0",
".Gr c #53c5f5",
".D0 c #53c5f6",
".Jl c #53c5f8",
".sW c #53c5fa",
".x3 c #53c5fb",
".sI c #53c5fc",
".xk c #53c5fd",
".pt c #53c5fe",
".vm c #53c5ff",
".KH c #53c6f6",
".FF c #53c6f7",
".q9 c #53c6fa",
".sX c #53c6fb",
".ve c #53c6fc",
".sC c #53c6fd",
".pq c #53c6fe",
".ub c #53c6ff",
".G. c #53c7f2",
".GO c #53c7f9",
".wb c #53c7fa",
".wF c #53c7fb",
".yZ c #53c7fc",
".vp c #53c7fd",
".ux c #53c7fe",
".sT c #53c7ff",
".FG c #53c8f4",
".FS c #53c8f5",
".vH c #53c8f7",
".FI c #53c8f8",
".KD c #53c8fa",
".uk c #53c8fb",
".DL c #53c8fc",
".BK c #53c8fd",
".vX c #53c8fe",
".t3 c #53c8ff",
".v# c #53c9f7",
".FV c #53c9f8",
".E7 c #53c9fd",
".qS c #53c9ff",
".FH c #53caf5",
"QtC c #53d8fb",
"QtB c #53d8fc",
"QtA c #53d8fd",
"QtD c #53dafc",
"QtF c #53dafd",
"QtG c #53dafe",
".il c #54b3f0",
".lG c #54bdf7",
".mo c #54bff8",
".Kr c #54c2f7",
".xg c #54c2fb",
".rc c #54c3f7",
".I0 c #54c3f9",
".Bi c #54c3fa",
".wa c #54c3fb",
".Kt c #54c4f6",
".E# c #54c4f7",
".D3 c #54c4f9",
".GW c #54c4fb",
".Bu c #54c4fc",
".E4 c #54c4fd",
".ET c #54c4fe",
".v0 c #54c4ff",
".Mu c #54c5ee",
".Gh c #54c5f4",
".D8 c #54c5f9",
".wH c #54c5fb",
".sR c #54c5fc",
".y0 c #54c5fd",
".vZ c #54c5fe",
".ua c #54c5ff",
".EY c #54c6f9",
".EL c #54c6fa",
".t5 c #54c6fb",
".pu c #54c6fc",
".sS c #54c6fd",
".va c #54c6fe",
".t9 c #54c6ff",
".Ew c #54c7f2",
".Gi c #54c7f5",
".Gj c #54c7f6",
".vY c #54c7f9",
".EQ c #54c7fa",
".Jc c #54c7fb",
".Ep c #54c7fc",
".vq c #54c7fe",
".u. c #54c7ff",
".Fz c #54c8f6",
".Ef c #54c8f9",
".s6 c #54c8fa",
".EH c #54c8fb",
".BL c #54c8fc",
".vk c #54c8fd",
".uy c #54c8fe",
".py c #54c8ff",
".F8 c #54c9f3",
".sz c #54c9fe",
".px c #54c9ff",
"QtH c #54d9fe",
"QtE c #54dafc",
"QtI c #54dbfb",
"QtJ c #54dbfc",
"QtM c #54dbfd",
"QtS c #54dcfb",
".lJ c #55b3f6",
".rg c #55bff8",
".m3 c #55c1f7",
".DZ c #55c2fb",
".Eu c #55c3f4",
".vF c #55c3fc",
".G8 c #55c3fd",
".Ee c #55c4f2",
".El c #55c4f5",
".Eg c #55c4f7",
".ta c #55c4fa",
".vc c #55c4fb",
".Hq c #55c4fc",
".GX c #55c4fd",
".wy c #55c4fe",
".vT c #55c4ff",
".Em c #55c5f2",
".Kx c #55c5f6",
".Kq c #55c5f8",
".EC c #55c5fa",
".w7 c #55c5fb",
".sO c #55c5fc",
".sN c #55c5fd",
".vU c #55c5fe",
".uc c #55c5ff",
".D6 c #55c6f5",
".FM c #55c6f7",
".Ej c #55c6f8",
".s5 c #55c6fa",
".xh c #55c6fb",
".pv c #55c6fc",
".wx c #55c6fd",
".Ao c #55c6fe",
".v2 c #55c6ff",
".FN c #55c7f5",
".vD c #55c7f6",
".DW c #55c7f8",
".xi c #55c7f9",
".ES c #55c7fa",
".EA c #55c7fb",
".sV c #55c7fc",
".sF c #55c7fd",
".pw c #55c7fe",
".u# c #55c7ff",
".97 c #55c8e6",
".w6 c #55c8f4",
".Gb c #55c8f7",
".Bg c #55c8f8",
".Cg c #55c8fa",
".EZ c #55c8fb",
".xI c #55c8fc",
".vv c #55c8fe",
".xG c #55c8ff",
".G# c #55c9f4",
".Ga c #55c9f5",
".xt c #55c9f6",
".Fw c #55c9f8",
".Gk c #55c9fa",
".Dj c #55c9fb",
".xF c #55c9fe",
".tl c #55c9ff",
".HB c #55cafc",
".NG c #55cbf5",
"QtZ c #55dafb",
"Qt2 c #55dafc",
"QtL c #55dafd",
"QtR c #55dbfc",
"QtN c #55dbfd",
".lV c #56b8fb",
".D4 c #56c0f7",
".Eq c #56c2fa",
".AW c #56c3f8",
".DN c #56c3ff",
".En c #56c4f1",
".wA c #56c4fc",
".GD c #56c4fd",
".wt c #56c4fe",
".GQ c #56c4ff",
".Kg c #56c5ee",
".FO c #56c5f4",
".Ek c #56c5f6",
".ud c #56c5fa",
".wz c #56c5fb",
".uo c #56c5fd",
".DM c #56c5fe",
".vo c #56c5ff",
".JM c #56c6e9",
".DX c #56c6f4",
".Gs c #56c6f5",
".vC c #56c6f6",
".D7 c #56c6f7",
".F5 c #56c6f9",
".Fb c #56c6fa",
".ui c #56c6fb",
".v3 c #56c6fc",
".sP c #56c6fd",
".sQ c #56c6fe",
".wB c #56c6ff",
".6O c #56c7f2",
".Fy c #56c7f6",
".Bc c #56c7f8",
".vy c #56c7fa",
".xu c #56c7fb",
".sU c #56c7fc",
".Fv c #56c7fd",
".sM c #56c7fe",
".vG c #56c7ff",
".FL c #56c8f4",
".Fx c #56c8f6",
".Bk c #56c8fa",
".xq c #56c8fe",
".xE c #56c8ff",
".O5 c #56c9f5",
".rb c #56c9fa",
".Bw c #56c9fb",
".EI c #56c9fe",
".O8 c #56caf5",
".J. c #56cafc",
".EK c #56cafd",
".O7 c #56cbf5",
"Qt6 c #56d9fa",
"Qt9 c #56d9fb",
"Qt3 c #56d9fd",
"QtQ c #56d9fe",
"QtP c #56dafb",
"QtO c #56dafc",
"QtK c #56dafd",
"QtY c #56dbfc",
"QtV c #56dbfd",
".ne c #57bef1",
".p. c #57bef3",
".uh c #57c1f3",
".AU c #57c1f9",
".Er c #57c2f2",
".Ed c #57c3f5",
".t7 c #57c4fc",
".wr c #57c4fd",
".Ey c #57c4fe",
".Gt c #57c5f6",
".Id c #57c5f8",
".Eb c #57c5f9",
".xe c #57c5fd",
".xf c #57c5fe",
".vn c #57c5ff",
".Ha c #57c6f9",
".D1 c #57c6fa",
".Bh c #57c6fb",
".y1 c #57c6fe",
".rA c #57c6ff",
".vI c #57c7f4",
".FR c #57c7f7",
".Kp c #57c7f8",
".Ez c #57c7f9",
".wG c #57c7fc",
".vx c #57c7fd",
".xp c #57c7fe",
".xD c #57c7ff",
".FJ c #57c8f5",
".HC c #57c8f8",
".F7 c #57c8fa",
".GV c #57c8fb",
".EM c #57c8fc",
".xr c #57c8fd",
".DY c #57c8fe",
".Br c #57c9fb",
".DA c #57c9fd",
".B1 c #57c9ff",
".O9 c #57caf6",
".OU c #57caf7",
".xA c #57caf8",
".GP c #57caf9",
".CD c #57cafa",
".FA c #57cafc",
".FC c #57cafd",
".BN c #57cafe",
".NS c #57cbf4",
".NA c #57cbfa",
".Ds c #57cbfe",
".8r c #57ccf0",
".Pe c #57cdf4",
".Gz c #57cff5",
"Qt5 c #57d8fa",
"Qt8 c #57d8fb",
"Qt7 c #57d8fc",
"Qt1 c #57d9fb",
"Qt4 c #57d9fc",
"Qt0 c #57d9fd",
"QtW c #57dafb",
"QtU c #57dafc",
"QtT c #57dafd",
"QtX c #57dafe",
".lo c #58b9f9",
".j9 c #58bcf8",
".nf c #58bff3",
".Et c #58c2f6",
".pO c #58c3f2",
".E. c #58c3f5",
".BC c #58c3fb",
".Eo c #58c4f3",
".vA c #58c4f4",
".D5 c #58c4f8",
".sH c #58c4fc",
".ws c #58c4fe",
".6N c #58c5ed",
".vz c #58c5f6",
".Bn c #58c5fd",
".EB c #58c5fe",
".vJ c #58c6f4",
".vB c #58c6f5",
".vE c #58c6f6",
".vK c #58c6f7",
".wI c #58c6fa",
".F4 c #58c6fc",
".sG c #58c6fe",
".wT c #58c6ff",
".Ei c #58c7f9",
".BS c #58c7fd",
".xo c #58c7fe",
".GC c #58c8f4",
".C2 c #58c8f6",
".vw c #58c8fa",
".F6 c #58c8fc",
".Ny c #58c8fe",
".Hw c #58c8ff",
".F2 c #58c9f9",
".OS c #58c9fa",
".Bs c #58c9fb",
".Cw c #58c9fc",
".JI c #58caf2",
".O6 c #58caf6",
".OT c #58caf7",
".OR c #58caf8",
".CT c #58caf9",
".Nz c #58cafa",
".BA c #58cafb",
".NC c #58cafc",
".NQ c #58cbf6",
".NL c #58cbf8",
".NB c #58cbfa",
".I7 c #58cbfb",
".Jg c #58d1fc",
".#. c #58d7fa",
".#a c #58d8f9",
".Es c #59c2f2",
".Hm c #59c3fb",
".CE c #59c4f9",
".t6 c #59c5fb",
".CP c #59c6f5",
".vM c #59c6f7",
".Fa c #59c6fc",
".xn c #59c6fe",
".Jh c #59c7f5",
".vN c #59c7f6",
".FQ c #59c7f7",
".xH c #59c7ff",
".x0 c #59c8f0",
".D2 c #59c8f7",
".Bp c #59c8f8",
".GR c #59c8fc",
".Bl c #59c8fd",
".P. c #59c9f5",
".Bd c #59c9f6",
".GS c #59c9f7",
".I1 c #59c9fc",
".xs c #59caf7",
".F3 c #59caf9",
".Ib c #59cafa",
".I# c #59cbf8",
".OY c #59cbfc",
".GA c #59ccf3",
".Pb c #59cdf5",
".KB c #59cdfb",
".Pd c #59cef5",
".Gy c #59cff4",
".## c #59d7fa",
".#b c #59d8f8",
".#f c #59d9fb",
".lp c #5ac0f9",
".yh c #5ac4f3",
".vR c #5ac4f9",
".HM c #5ac5f6",
".F1 c #5ac5f9",
".vg c #5ac6f8",
".xT c #5ac6f9",
".BF c #5ac6fe",
".xU c #5ac7f4",
".vQ c #5ac7f7",
".vL c #5ac7f8",
".Bf c #5ac7fd",
".xV c #5ac8f1",
".xW c #5ac8f2",
".FP c #5ac8f8",
".BV c #5ac9f9",
".Am c #5ac9fa",
".Gx c #5acaf3",
".Hf c #5acafb",
".NH c #5acbf3",
".Bq c #5acbfa",
".Kz c #5accf6",
".O2 c #5accf8",
".IK c #5accfb",
".O1 c #5acdf7",
".G7 c #5acdfb",
".#e c #5ad9f9",
".#d c #5ad9fa",
".#c c #5ad9fb",
".mx c #5bbcf5",
".mH c #5bbdf6",
".nH c #5bc0f5",
".jb c #5bc1fc",
".Dv c #5bc2fd",
".vS c #5bc3fb",
".wq c #5bc5f2",
".E8 c #5bc6f9",
".oS c #5bc7f3",
".xX c #5bc8f4",
".De c #5bc8f5",
".O4 c #5bc8fa",
".Bo c #5bc8fb",
".BJ c #5bc9fa",
".Bj c #5bcaf7",
".CS c #5bcaf8",
".BB c #5bcafc",
".xJ c #5bcbf9",
".Bz c #5bcbfb",
".NM c #5bccf6",
".Nx c #5bccf7",
".HP c #5bccf9",
".II c #5bccfa",
".BM c #5bcdf7",
".Kw c #5bcdf8",
".IJ c #5bcdfb",
".NJ c #5bcef8",
".I9 c #5bcff9",
".HZ c #5bcffb",
".HS c #5bcffc",
".H0 c #5bcffd",
".Ia c #5bd0fa",
".#i c #5bdafb",
".#h c #5bdafc",
".#g c #5bdafd",
".mt c #5cc3f5",
".o2 c #5cc4f4",
".o3 c #5cc4fc",
".E3 c #5cc5fa",
".BG c #5cc7f6",
".xS c #5cc7fb",
".DG c #5cc8f4",
".xY c #5cc9f4",
".GB c #5ccaf1",
".O3 c #5ccafb",
".NO c #5ccbf5",
".wU c #5ccbf8",
".Bx c #5ccbfb",
".O0 c #5cccf6",
".Io c #5cccfa",
".Iq c #5cccfb",
".Ir c #5cccfc",
".Is c #5ccdf8",
".Ic c #5ccdfa",
".I6 c #5ccdfd",
".HY c #5ccffc",
".I8 c #5cd0f9",
".BQ c #5cd1f6",
".#l c #5cd9fb",
".#k c #5cd9fc",
".#j c #5cd9fd",
".#m c #5cdafa",
".B4 c #5dc4f6",
".Ai c #5dc5f8",
".HJ c #5dc6f8",
".lf c #5dc7f8",
".xZ c #5dc8ec",
".Ck c #5dc8f5",
".CV c #5dc9f8",
".wE c #5dc9f9",
".OZ c #5dcbf7",
".wD c #5dcbf8",
".Ie c #5dcbfb",
".Bt c #5dccfd",
".Pa c #5dcdf2",
".OQ c #5dcdf7",
".Ip c #5dcdfa",
".Hr c #5dcdfb",
".HV c #5dcdfc",
".H. c #5dcef6",
".HR c #5dcef9",
".In c #5dcefa",
".HW c #5dcefb",
".HT c #5dcefc",
".EO c #5dcffe",
".NT c #5dd3f5",
".3G c #5dd4f9",
".#o c #5dd9fb",
".#n c #5dd9fc",
".#q c #5ddaf9",
".#p c #5ddafa",
"#.b c #5ebce6",
".5o c #5ebff3",
".jm c #5ec0f7",
".xw c #5ec7f5",
".BH c #5ec8f6",
".xR c #5ec8f9",
".rd c #5ec9f1",
".BI c #5ec9fb",
".NP c #5ec9fc",
".yl c #5ecaf8",
".Bv c #5ecafa",
".NF c #5eccf6",
".HQ c #5ecdf7",
".Ig c #5ecdfa",
".HU c #5ecdfc",
".Ih c #5ecefc",
".IN c #5ecff7",
".I5 c #5ecffc",
".GN c #5ed3fb",
".#s c #5edafb",
".#r c #5edafc",
".#t c #5edbfa",
".mU c #5fbdf8",
"#.a c #5fbee3",
".pU c #5fc1f8",
".xO c #5fc6f5",
".xM c #5fc6f6",
".xN c #5fc6f7",
".xv c #5fc8f4",
".xx c #5fc8f7",
".Hp c #5fcaf6",
".BE c #5fcaf7",
".Bm c #5fcafc",
".z7 c #5fcbfe",
".vi c #5fcdf4",
".JA c #5fcdfa",
".If c #5fcdfc",
".NN c #5fcef4",
".JK c #5fcefa",
".JL c #5fd2f8",
".JH c #5fd4f7",
".nd c #60c5f0",
".Gd c #60c5f9",
".xL c #60c6f6",
".xP c #60c7f7",
".xQ c #60c7f8",
".xz c #60c8f7",
".xy c #60c8f8",
".ra c #60caf5",
".lR c #60cafa",
".NR c #60cbf6",
".CL c #60cbf8",
".OX c #60cefa",
".JB c #60cffc",
".Pc c #60d0f5",
".He c #60d1fb",
".J# c #60d4fb",
".Mb c #60d5fb",
".H9 c #60d6f6",
".#x c #60ddfc",
".#y c #60ddfe",
".BD c #61c4f8",
".A5 c #61c5f8",
".C6 c #61c7f9",
".xK c #61c8f5",
".vO c #61c8f7",
".x4 c #61ccf7",
".Do c #61ccf8",
".wM c #61cff9",
".IB c #61d1f6",
".Im c #61d2fc",
".IL c #61d4fa",
".Mc c #61d5fb",
".Md c #61d6fb",
".#B c #61dcfc",
".#w c #61ddfc",
".#z c #61ddfe",
".ze c #62c4ee",
".mM c #62c8f3",
".Dm c #62caf3",
".q8 c #62ccf6",
".HA c #62ccf7",
".Mi c #62d2fa",
".M# c #62d3fb",
".LV c #62d3fd",
".FD c #62d3ff",
".LX c #62d4fc",
".LW c #62d4fd",
".IT c #62d5f8",
".Me c #62d5fb",
".Mk c #62d5fc",
".Hb c #62d5fe",
".Mn c #62d6fb",
".Jd c #62d6fe",
".Hl c #62d7f8",
".Mm c #62d7fb",
".Ml c #62d7fc",
".H1 c #62d7fe",
".#A c #62dcfc",
".#v c #62dcfd",
".#u c #62dcfe",
".#E c #62ddfc",
".i7 c #63bdf2",
".D# c #63c7f8",
".wm c #63c8f4",
".B8 c #63c9fa",
".rh c #63caf7",
".NK c #63cbfa",
".Fj c #63ccfc",
".v7 c #63cdf6",
".Mh c #63d4f9",
".L0 c #63d4fa",
".G3 c #63d4fe",
".Mf c #63d5fa",
".Mj c #63d5fb",
".L2 c #63d5fc",
".Hv c #63d7fb",
".L7 c #63d9f8",
".#C c #63dcfc",
".#D c #63ddfc",
".#N c #63defb",
".#K c #63defc",
".#I c #63defd",
".p# c #64c4f7",
".Ho c #64c5e9",
".mY c #64cbf7",
".Cs c #64ccf5",
".P# c #64cdf5",
".Dq c #64cdf6",
".NI c #64cef4",
".Cu c #64cef8",
".IH c #64cff9",
".uB c #64d0f6",
".LS c #64d4fb",
".EP c #64d4fc",
".LU c #64d4fd",
".Mg c #64d5fa",
".L1 c #64d5fb",
".LT c #64d5fc",
".Ja c #64d5fd",
".Mo c #64d6f8",
".I4 c #64d6f9",
".IZ c #64d6fa",
".LR c #64d7fb",
".KN c #64d7fe",
".EJ c #64d8fd",
".GG c #64d8ff",
".#O c #64ddfb",
".#J c #64ddfc",
".#L c #64defc",
".#H c #64defd",
".i8 c #65bdf0",
".Cz c #65c2fa",
".lk c #65c7f6",
".Cc c #65c9fa",
".C8 c #65ccf8",
".C9 c #65ccf9",
".Ca c #65cdf8",
".Gp c #65d0fd",
".KU c #65d1f9",
".Ma c #65d3fb",
".HI c #65d4f6",
".LZ c #65d4fa",
".LY c #65d5fc",
".KM c #65d7fa",
".GZ c #65d8fa",
".M. c #65d8fd",
".#M c #65ddfb",
".#F c #65ddfc",
".#G c #65ddfd",
".yq c #66c7f5",
".lx c #66c7f8",
".Hn c #66c8f2",
".yp c #66c9f3",
".mD c #66cdf5",
".C0 c #66cff7",
".5s c #66d1f9",
".rV c #66d3f8",
".Lc c #66d8f3",
".L3 c #66d8fc",
".KO c #66d8fd",
".L5 c #66daf7",
".L. c #66daf9",
".GU c #66dbfe",
".#Z c #66defb",
".#P c #66defc",
".#U c #66dffa",
".#V c #66dffb",
".ij c #67c2f4",
".Dg c #67cbf2",
".BO c #67cefd",
".DI c #67cffa",
".HX c #67d1f9",
".LQ c #67d9fa",
".Lb c #67d9fb",
".I2 c #67d9fd",
".IS c #67daf9",
".G2 c #67dbfc",
".IO c #67ddfc",
".Je c #67ddfe",
".#Y c #67defa",
".#T c #67defc",
".ik c #68c2f3",
".ii c #68c2f4",
".j3 c #68cafd",
".E1 c #68cef7",
".zi c #68cff5",
".rW c #68cff9",
".3F c #68d3f2",
".HD c #68dafd",
".FE c #68dbfc",
".I3 c #68dcfc",
".Jf c #68dcfe",
".#Q c #68ddfc",
".#X c #68defa",
".#S c #68defc",
".G5 c #68e1fe",
".ih c #69c1f4",
".ig c #69c1f5",
".if c #69c2f3",
".Hz c #69c7f4",
".tb c #69d1f8",
".C. c #69d1fb",
".C4 c #69d5f9",
".Ky c #69dcfe",
".#W c #69ddfb",
".#R c #69ddfc",
".0v c #69def8",
".It c #69defa",
".#0 c #69dffb",
".#1 c #69dffc",
".#2 c #69dffd",
".H2 c #69dffe",
".Su c #69e5fb",
".3f c #6ac8e5",
".Pf c #6ad4f7",
".IC c #6adafd",
".JN c #6adbfb",
".IY c #6addff",
".#5 c #6adefb",
".#4 c #6adefc",
".#3 c #6adefd",
".GT c #6adffd",
".#9 c #6ae0fc",
".ab c #6ae0fd",
".GL c #6ae0fe",
".G4 c #6ae2fc",
".RI c #6ae3fb",
".Rv c #6ae5fd",
".lK c #6bc5fa",
".A2 c #6bcefa",
".HL c #6bcffc",
".5p c #6bd1f0",
".Dd c #6bd2f8",
".LK c #6bd3f3",
".CN c #6bd4fd",
".6P c #6bd9fa",
".8p c #6bdef8",
".Ii c #6bdefe",
".#8 c #6bdffc",
".#6 c #6bdffd",
".#7 c #6bdffe",
".Hh c #6be0fc",
".ad c #6be0fd",
".Hi c #6be0fe",
".T# c #6be1fa",
".GM c #6be1fe",
".7N c #6be3fb",
".Yo c #6be4f7",
".Sv c #6be4fb",
".0E c #6be4ff",
".Tt c #6be5f8",
".Ru c #6be6fd",
".Se c #6be7f7",
".Ji c #6ccff7",
".v5 c #6cd1f6",
".Cm c #6cd1f7",
".mu c #6cd3fb",
".Hx c #6cdbf9",
".Hc c #6cdcff",
".G6 c #6cddfe",
".Nw c #6cdefd",
".GK c #6cdefe",
".Hg c #6cdeff",
".ac c #6cdffc",
".aa c #6cdffd",
".a# c #6cdffe",
".a. c #6cdfff",
".Hj c #6ce0fd",
".GJ c #6ce0fe",
".FB c #6ce0ff",
".MD c #6ce1fb",
".Xu c #6ce1fc",
".L6 c #6ce1fd",
".GI c #6ce1fe",
".QU c #6ce2fb",
".Xv c #6ce3fb",
".Tu c #6ce4fa",
".5Q c #6ce4fc",
".Yn c #6ce4fe",
".5R c #6ce4ff",
".RH c #6ce5fc",
".Zv c #6ce5fd",
".5n c #6dc4ea",
".kc c #6dcaf6",
".oP c #6dccfb",
".Ah c #6dcdf6",
".Cv c #6dcef9",
".mI c #6dd0f8",
".oI c #6dd0fb",
".wK c #6dd1f4",
".Dh c #6dd2f6",
".BX c #6dd3fe",
".B3 c #6dd5f9",
".af c #6ddefe",
".ae c #6ddeff",
".ai c #6ddffb",
".ah c #6ddffc",
".ag c #6ddffd",
".G1 c #6ddffe",
".8q c #6de0f8",
".G0 c #6de0fe",
".Y7 c #6de1fa",
".Qb c #6de1fc",
".L4 c #6de1fd",
".0j c #6de2f6",
".5q c #6de2f8",
".VL c #6de2fb",
".Ki c #6de2fc",
".UJ c #6de2fd",
".YL c #6de2fe",
".Sw c #6de3fa",
".Q8 c #6de3fc",
".QL c #6de3fe",
".0D c #6de3ff",
".QV c #6de4fc",
".7O c #6de5fc",
".Tr c #6de5fd",
".H7 c #6de5ff",
".R7 c #6de6fb",
".LL c #6de6ff",
".Al c #6ecffb",
".oF c #6ed0f8",
".KJ c #6ed1f1",
".FZ c #6ed5f5",
".qu c #6ed5f7",
".1R c #6edff9",
".Jm c #6edffc",
".an c #6edffe",
".Qj c #6ee0f8",
".al c #6ee0fc",
".ak c #6ee0fd",
".aj c #6ee0fe",
".ON c #6ee1fa",
".RJ c #6ee1fc",
".KP c #6ee1fd",
".Kh c #6ee1fe",
".IM c #6ee1ff",
".ZT c #6ee2f6",
".K6 c #6ee2f9",
".UG c #6ee2fb",
".St c #6ee2fd",
".H4 c #6ee2fe",
".Hs c #6ee2ff",
".UH c #6ee3f9",
".Y8 c #6ee3fa",
".Km c #6ee3fb",
".MA c #6ee3fd",
".H5 c #6ee3fe",
".Ht c #6ee3ff",
".T. c #6ee4fa",
".IQ c #6ee4fc",
".Zu c #6ee4fd",
".GH c #6ee4fe",
".Hu c #6ee4ff",
".L9 c #6ee5fc",
".MG c #6ee5fd",
".LM c #6ee5ff",
".R8 c #6ee6fd",
".H8 c #6ee6fe",
".P1 c #6ee6ff",
".7Q c #6ee7fb",
".mz c #6fd2fa",
".lC c #6fd3fa",
".Aa c #6fd3fc",
".y2 c #6fd6fa",
".JR c #6fdffa",
".ao c #6fdffe",
".Hd c #6fdfff",
".Y9 c #6fe0fb",
".J6 c #6fe0fd",
".IA c #6fe0fe",
".P8 c #6fe0ff",
".Uq c #6fe1fa",
".J4 c #6fe1fb",
".J5 c #6fe1fc",
".ap c #6fe1fd",
".HF c #6fe1fe",
".Iy c #6fe1ff",
".9G c #6fe2f5",
".UB c #6fe2f8",
".Ld c #6fe2fb",
".KV c #6fe2fc",
".JC c #6fe2fd",
".UC c #6fe2fe",
".P6 c #6fe2ff",
".S# c #6fe3fa",
".Nf c #6fe3fc",
".P5 c #6fe3fd",
".IX c #6fe3fe",
".Ju c #6fe3ff",
".Sx c #6fe4f9",
".PJ c #6fe4fb",
".IP c #6fe4fc",
".IU c #6fe4fd",
".OM c #6fe4fe",
".H6 c #6fe4ff",
".QA c #6fe5fa",
".Vv c #6fe5fc",
".KA c #6fe5fe",
".Up c #6fe5ff",
".Vw c #6fe6fb",
".L8 c #6fe6fc",
".Kj c #6fe6fd",
".Jv c #6fe6fe",
".Rt c #6fe6ff",
".Jk c #70cff1",
".Dt c #70d1f5",
".mV c #70d2f7",
".0u c #70dffc",
".am c #70dffe",
".6o c #70e0f2",
".Nt c #70e0f8",
".JS c #70e0f9",
".Qy c #70e0fb",
".J7 c #70e0fc",
".Qh c #70e0fd",
".Qe c #70e0fe",
".at c #70e0ff",
".WS c #70e1f0",
".Wc c #70e1f6",
".Rw c #70e1fb",
".Xt c #70e1fd",
".HE c #70e1fe",
".JO c #70e1ff",
".W8 c #70e2f8",
".0V c #70e2f9",
".OB c #70e2fa",
".UI c #70e2fb",
".J2 c #70e2fc",
".QW c #70e2fd",
".HH c #70e2fe",
".Il c #70e2ff",
".W7 c #70e3f4",
".03 c #70e3f8",
".Qz c #70e3f9",
".J3 c #70e3fa",
".JU c #70e3fb",
".Ik c #70e3fc",
".JE c #70e3fd",
".Iu c #70e3fe",
".IR c #70e3ff",
".RQ c #70e4f4",
".Sf c #70e4f5",
".Qs c #70e4fb",
".Jj c #70e4fc",
".Kn c #70e4fd",
".Hk c #70e4fe",
".H3 c #70e4ff",
".Sd c #70e5f7",
".Jz c #70e5fb",
".Rg c #70e5fc",
".Ng c #70e5fd",
".Jw c #70e5fe",
".JG c #70e5ff",
".Zb c #70e6fa",
".Nv c #70e6fc",
".Kl c #70e6fe",
".lO c #71d1f8",
".m2 c #71d1f9",
".jl c #71d1fc",
".Fn c #71d6fa",
".2r c #71def0",
".aq c #71defe",
".K. c #71dffb",
".2e c #71e0f7",
".YK c #71e0fa",
".Z. c #71e0fb",
".PH c #71e0fd",
".HG c #71e0fe",
".av c #71e0ff",
".U9 c #71e1f5",
".Ux c #71e1f6",
".RK c #71e1f7",
".Uz c #71e1f8",
".IE c #71e1fa",
".JD c #71e1fb",
".Sh c #71e1fc",
".as c #71e1fd",
".P2 c #71e1fe",
".P9 c #71e1ff",
".WT c #71e2f2",
".W6 c #71e2f3",
".7d c #71e2f4",
".Tk c #71e2f5",
".Uy c #71e2f6",
".Sg c #71e2f9",
".JT c #71e2fa",
".JP c #71e2fc",
".JF c #71e2fd",
".OD c #71e2fe",
".Iz c #71e2ff",
".W5 c #71e3f5",
".3H c #71e3f7",
".K3 c #71e3f8",
".Jy c #71e3f9",
".JW c #71e3fa",
".Lq c #71e3fb",
".ID c #71e3fc",
".KS c #71e3fd",
".LP c #71e3fe",
".Iw c #71e3ff",
".3I c #71e4f7",
".ZU c #71e4f8",
".UK c #71e4f9",
".JV c #71e4fa",
".KQ c #71e4fb",
".Jx c #71e4fc",
".Rq c #71e4fd",
".LN c #71e4fe",
".Js c #71e4ff",
".M8 c #71e5fb",
".Nu c #71e5fc",
".Ko c #71e5fd",
".Nn c #71e5fe",
".Jr c #71e5ff",
".Z6 c #71e6f8",
".IV c #71e6fd",
".IW c #71e6fe",
".No c #71e6ff",
".Kk c #71e7ff",
".7I c #72cae9",
".qv c #72d4fd",
".Cn c #72d7f8",
".mr c #72d9f6",
".WK c #72defb",
".Ut c #72dff6",
".6Q c #72dff8",
".Qu c #72dffb",
".Xs c #72dffc",
".WY c #72dffd",
".Us c #72e0f6",
".ZO c #72e0fa",
".J9 c #72e0fb",
".ax c #72e0fd",
".aw c #72e0ff",
".Xb c #72e1f3",
".Uu c #72e1f7",
".Uv c #72e1f8",
".Uw c #72e1f9",
".Ql c #72e1fb",
".J8 c #72e1fc",
".ay c #72e1fd",
".Pi c #72e1fe",
".QH c #72e1ff",
".WV c #72e2f5",
".Lt c #72e2f9",
".U7 c #72e2fa",
".Ns c #72e2fb",
".JQ c #72e2fc",
".Mr c #72e2fd",
".aC c #72e2fe",
".Ix c #72e2ff",
".WU c #72e3f4",
".RN c #72e3f5",
".U8 c #72e3f6",
".Qk c #72e3f8",
".QO c #72e3fa",
".PI c #72e3fb",
".OA c #72e3fc",
".KR c #72e3fd",
".JZ c #72e3fe",
".PS c #72e3ff",
".YT c #72e4ef",
".Z7 c #72e4f5",
".3J c #72e4f6",
".Qr c #72e4fa",
".JY c #72e4fb",
".OC c #72e4fc",
".J1 c #72e4fd",
".J0 c #72e4fe",
".Nq c #72e4ff",
".ZV c #72e5f8",
".0g c #72e5f9",
".R9 c #72e5fa",
".JX c #72e5fb",
".Tm c #72e5fc",
".Nd c #72e5fd",
".Jq c #72e5fe",
".0c c #72e6f4",
".0b c #72e6f5",
".K2 c #72e6fd",
".Ij c #72e6fe",
".Np c #72e6ff",
".2f c #72e8fe",
".7K c #73c9ef",
".lt c #73d7fc",
".F# c #73d8fc",
".Ci c #73d9fc",
".KL c #73dcfa",
".2c c #73ddef",
".W1 c #73dff5",
".UA c #73dff7",
".Kc c #73dff9",
".WX c #73dffb",
".au c #73dfff",
".14 c #73e0f5",
".WW c #73e0f7",
".RG c #73e0f9",
".Ka c #73e0fb",
".ar c #73e0fd",
".az c #73e0ff",
".MX c #73e1f3",
".98 c #73e1f7",
".PE c #73e1f8",
".QD c #73e1fb",
".K# c #73e1fc",
".IF c #73e1fd",
".PC c #73e1fe",
".Si c #73e1ff",
".Z5 c #73e2f3",
".Qm c #73e2f9",
".0C c #73e2fa",
".Pj c #73e2fb",
".Ms c #73e2fc",
".aB c #73e2fe",
".M6 c #73e2ff",
".0# c #73e3f0",
".YU c #73e3f2",
".VM c #73e3f6",
".K7 c #73e3f7",
".Qq c #73e3f9",
".MW c #73e3fa",
".MV c #73e3fb",
".Z# c #73e3fc",
".MH c #73e3fd",
".QK c #73e3fe",
".NV c #73e3ff",
".0a c #73e4f4",
".0f c #73e4f5",
".N6 c #73e4f7",
".U# c #73e4f8",
".Ls c #73e4fa",
".Lr c #73e4fb",
".RU c #73e4fc",
".QJ c #73e4fe",
".Iv c #73e4ff",
".ZS c #73e5f5",
".Y6 c #73e5fa",
".Q3 c #73e5fc",
".Jp c #73e5fd",
".Nb c #73e5fe",
".Nr c #73e5ff",
".Qt c #73e6f8",
".ZW c #73e6f9",
".Lp c #73e6fb",
".Ne c #73e6fd",
".oM c #74d4fc",
".yg c #74d5fa",
".to c #74d6fa",
".IG c #74d7fc",
".DB c #74daf8",
".B6 c #74dafc",
".2t c #74deee",
".Oz c #74defa",
".Ts c #74deff",
".Kd c #74dff8",
".YF c #74dff9",
".W0 c #74dffc",
".WZ c #74dffd",
".2T c #74e0f4",
".3T c #74e0f8",
".Kb c #74e0fb",
".UD c #74e0fc",
".Op c #74e0fe",
".Pl c #74e1fa",
".Ow c #74e1fb",
".LO c #74e1fc",
".aA c #74e1fe",
".Xc c #74e2f8",
".Oo c #74e2fa",
".Pz c #74e2fb",
".SA c #74e2fe",
".M7 c #74e2ff",
".Pw c #74e3f9",
".Nh c #74e3fb",
".Qi c #74e3fc",
".QE c #74e3fd",
".KW c #74e3fe",
".NU c #74e3ff",
".UL c #74e4f6",
".Qo c #74e4f8",
".ZX c #74e4fa",
".T0 c #74e4fc",
".0i c #74e4fe",
".WR c #74e5f1",
".0e c #74e5f6",
".Qp c #74e5f8",
".S. c #74e5f9",
".Ob c #74e5fa",
".Jn c #74e5fc",
".Na c #74e5fe",
".Nc c #74e5ff",
".QF c #74e6f9",
".T5 c #74e6fc",
".T1 c #74e6fd",
".MI c #74e6ff",
".7P c #74e8fc",
".mB c #75cef5",
".jc c #75cffb",
".5t c #75d0ec",
".vP c #75d1f4",
".A1 c #75d6f9",
".x8 c #75d6fb",
".wR c #75d7f6",
".uD c #75d9f9",
".KT c #75dafb",
".Mp c #75dbf3",
".Da c #75dbf8",
".2s c #75dded",
".2n c #75def6",
".2g c #75dfef",
".13 c #75dff3",
".5r c #75dff9",
".QC c #75dffa",
".6p c #75dffc",
".12 c #75e0f4",
".S9 c #75e0fa",
".N# c #75e0fc",
".Sm c #75e0ff",
".UF c #75e1fa",
".QI c #75e1fb",
".RV c #75e1fc",
".aD c #75e1fe",
".Tl c #75e1ff",
".Tf c #75e2f8",
".Pr c #75e2fa",
".L# c #75e2fc",
".aK c #75e2fd",
".4M c #75e2fe",
".aG c #75e2ff",
".ZJ c #75e3f7",
".Pk c #75e3f8",
".Nl c #75e3fa",
".Nm c #75e3fb",
".Te c #75e3fe",
".M5 c #75e3ff",
".Qw c #75e4f3",
".Ve c #75e4f5",
".0. c #75e4f6",
".Sc c #75e4f8",
".On c #75e4f9",
".Rd c #75e4fb",
".Rs c #75e4fc",
".Jo c #75e4fe",
".U. c #75e5f8",
".TU c #75e5f9",
".Yk c #75e5fc",
".0h c #75e5fd",
".Ph c #75e5ff",
".We c #75e6fa",
".TY c #75e6fb",
".TX c #75e6fc",
".Le c #75e8fa",
".SB c #75e9fa",
".7J c #76c4f3",
".m0 c #76d2f5",
".z9 c #76d3fa",
".A. c #76d4f8",
".z8 c #76d4f9",
".mK c #76d4fa",
".yk c #76d7fc",
".27 c #76dcf3",
".C3 c #76dcfa",
".La c #76ddfb",
".25 c #76def4",
".2o c #76def6",
".2d c #76def7",
".2U c #76dff4",
".P3 c #76dff7",
".Tq c #76dfff",
".P7 c #76e0fb",
".PR c #76e0fc",
".PK c #76e0fe",
".R3 c #76e0ff",
".2S c #76e1f6",
".M9 c #76e1fc",
".S5 c #76e1fd",
".Zm c #76e1fe",
".aF c #76e1ff",
".Zj c #76e2f0",
".9F c #76e2f2",
".Ni c #76e2fb",
".0F c #76e2fc",
".aJ c #76e2fd",
".Oq c #76e2fe",
".aH c #76e2ff",
".MB c #76e3f9",
".Q4 c #76e3fa",
".ND c #76e3fc",
".UR c #76e4f3",
".0d c #76e4f6",
".Zc c #76e4f8",
".TT c #76e4fa",
".Qn c #76e4fb",
".aR c #76e4fc",
".PG c #76e4fd",
".aN c #76e4fe",
".PB c #76e5f6",
".TS c #76e5f7",
".TV c #76e5f9",
".Ul c #76e5fd",
".Um c #76e5fe",
".JJ c #76e5ff",
".KZ c #76e6f7",
".Xf c #76e6f9",
".Oc c #76e6fa",
".TZ c #76e6fb",
".Uo c #76e6fc",
".Un c #76e6fd",
".Xg c #76e6fe",
".Oe c #76e7f9",
".Oa c #76e7fa",
".Uk c #76e8f3",
".Tv c #76e9f8",
".6S c #77c9e6",
".A# c #77d3f8",
".mn c #77d5fd",
".w# c #77d6fb",
".Cy c #77d7f9",
".n. c #77d8f9",
".26 c #77ddf2",
".28 c #77def4",
".s7 c #77defb",
".2h c #77dfef",
".2J c #77dff0",
".3i c #77dff5",
".1H c #77dfff",
".YV c #77e0f2",
".UE c #77e1f4",
".M3 c #77e1fb",
".Nj c #77e1fc",
".aE c #77e1ff",
".T9 c #77e2f6",
".Sa c #77e2f9",
".Sb c #77e2fc",
".aI c #77e2fd",
".US c #77e3f3",
".SQ c #77e3f9",
".QM c #77e3fa",
".aS c #77e3fc",
".Q. c #77e3fd",
".aO c #77e3fe",
".Xd c #77e4f8",
".aQ c #77e4fc",
".aM c #77e4fe",
".Qd c #77e4ff",
".RO c #77e5fb",
".NW c #77e5fc",
".aW c #77e5fd",
".a2 c #77e5fe",
".To c #77e5ff",
".PF c #77e6fb",
".TW c #77e6fd",
".Od c #77e8fa",
".Ss c #77e8fc",
".1g c #77eafa",
".2u c #78ddeb",
".2i c #78dfee",
".0s c #78dff3",
".29 c #78dff5",
".Ur c #78dfff",
".6q c #78e0f5",
".QB c #78e1fc",
".H# c #78e1fe",
".YG c #78e2f6",
".Nk c #78e2fd",
".M4 c #78e2ff",
".aP c #78e3fc",
".Q7 c #78e3fd",
".aL c #78e3fe",
".Ov c #78e3ff",
".4L c #78e4ef",
".T6 c #78e4f9",
".aV c #78e4fd",
".OP c #78e5f8",
".Mx c #78e5fa",
".QN c #78e5fb",
".aX c #78e5fc",
".NX c #78e6f9",
".a3 c #78e6fc",
".Oi c #78e7f8",
".Om c #78e7fc",
".S2 c #78e7fd",
".Ol c #78e7fe",
".S1 c #78e8f6",
".Og c #78e8f9",
".Ww c #78e8ff",
".Lu c #78e9fa",
".Of c #78e9fb",
".Xw c #78e9fc",
".N1 c #78eaf7",
".Ym c #78eafa",
".MJ c #78ecf9",
".Xy c #78ecff",
".2K c #79d7ed",
".mF c #79d9f8",
".2V c #79dbed",
".2I c #79dbee",
".WG c #79dbf3",
".Fo c #79ddf9",
".3. c #79def6",
".2p c #79def7",
".2R c #79dff4",
".3j c #79dff6",
".N. c #79dffc",
".QS c #79e0f4",
".3a c #79e0f6",
".3r c #79e0f8",
".PV c #79e3fa",
".R6 c #79e3fc",
".Qg c #79e3fd",
".aY c #79e4fc",
".aU c #79e4fd",
".a1 c #79e4fe",
".bb c #79e5fa",
".a4 c #79e5fc",
".TJ c #79e8f5",
".Oj c #79e8fa",
".Oh c #79e8fb",
".NY c #79e8fc",
".Ok c #79e9fa",
".Yj c #79eafa",
".Xx c #79ebfd",
".EG c #7ad4f9",
".vh c #7ad7f7",
".x5 c #7ad8f8",
".2H c #7adbef",
".3# c #7adef6",
".2q c #7adff5",
".Dc c #7adff7",
".QP c #7adffb",
".44 c #7ae0f5",
".QT c #7ae0f7",
".6e c #7ae1f1",
".5P c #7ae1f4",
".RT c #7ae2fb",
".43 c #7ae3f9",
".PO c #7ae3fe",
".bc c #7ae4fb",
".a9 c #7ae4fc",
".aT c #7ae4fd",
".a0 c #7ae4fe",
".ba c #7ae5fa",
".KX c #7ae5fb",
".b. c #7ae5fc",
".S3 c #7ae5fd",
".UQ c #7ae6f2",
".Vb c #7ae7f9",
".PD c #7ae8fc",
".EE c #7ae9fb",
".XT c #7aeaf9",
".Yh c #7aebf8",
".Yb c #7aebfc",
".Yc c #7aebfd",
".XS c #7aecf6",
".Sr c #7aecf8",
".MU c #7aecfb",
".Q2 c #7aecfd",
".8m c #7bc9e4",
".jh c #7bd5fc",
".nc c #7bd9f7",
".3h c #7bdbf2",
".99 c #7bdbf4",
".Hy c #7bdcf8",
".5B c #7bddee",
".QQ c #7bdff9",
".QR c #7be0f9",
".Rf c #7be3fa",
".Uf c #7be3fb",
".a6 c #7be4fc",
".a5 c #7be4fd",
".aZ c #7be4fe",
".QG c #7be5fc",
".bh c #7be5fd",
".bi c #7be6fb",
".2F c #7be7f2",
".Pm c #7be9fb",
".OV c #7be9fe",
".XU c #7beaf8",
".Yf c #7beafa",
".Sq c #7bebf8",
".N9 c #7bebf9",
".Ye c #7bebfb",
".Yd c #7bebfc",
".Yg c #7becf8",
".Rp c #7bedfa",
".Dk c #7cd6f8",
".x6 c #7cd6fa",
".A4 c #7cdbfb",
".2G c #7cdef1",
".5N c #7cdff1",
".BT c #7cdffc",
".1S c #7ce2f8",
".Rc c #7ce2fc",
".UT c #7ce3f3",
".a7 c #7ce3fc",
".a8 c #7ce3fe",
".PN c #7ce4f6",
".Ta c #7ce4f9",
".b# c #7ce4fc",
".Sy c #7ce5f9",
".bj c #7ce5fc",
".be c #7ce5fd",
".58 c #7ce6f6",
".Ry c #7ce6fd",
".ED c #7ce7fb",
".Xz c #7cecf7",
".Yi c #7cecfa",
".Vc c #7ceff8",
".4d c #7cf2fa",
".8l c #7dc8e2",
".m6 c #7dd9f8",
".rJ c #7dd9fc",
".3g c #7ddaf4",
".E9 c #7ddbf7",
".Dw c #7ddbf9",
".K1 c #7ddefb",
".AV c #7ddefc",
".7R c #7ddff2",
".OG c #7de1fa",
".Gg c #7de1fd",
".WH c #7de2f0",
".T2 c #7de2fb",
".Ce c #7de3fc",
".VP c #7de4fa",
".bd c #7de4fd",
".bf c #7de5fb",
".bg c #7de5fc",
".Uc c #7de7f9",
".Mv c #7de7fa",
".K9 c #7de7fc",
".So c #7de9f8",
".Sp c #7deaf8",
".38 c #7debf9",
".ZY c #7debfa",
".O# c #7dedf9",
".Ya c #7deefb",
".9z c #7ecee9",
".x7 c #7ed5f9",
".Dl c #7ed7f0",
".me c #7ed8f8",
".45 c #7eddf5",
".2Q c #7edff0",
".Di c #7edffa",
".s2 c #7edffc",
".5O c #7ee0f2",
".Gv c #7ee0fa",
".K0 c #7ee0fb",
".6d c #7ee3f2",
".bl c #7ee3fd",
".2D c #7ee4ec",
".bn c #7ee4fb",
".bm c #7ee4fd",
".bo c #7ee5fb",
".bt c #7ee5fc",
".bq c #7ee5fe",
".bu c #7ee6fc",
".Pg c #7ee6ff",
".Sn c #7eeaf8",
".39 c #7eebf9",
".VW c #7eecf7",
".4. c #7eecf9",
".VX c #7eedf8",
".4# c #7eeefc",
".4c c #7eeffb",
".Lw c #7ef0fc",
".04 c #7ef1fb",
".Wd c #7ef1fc",
".3e c #7fc8e4",
".9y c #7fcaee",
"#.# c #7fd5ed",
".ix c #7fd5f9",
".2m c #7fdbf3",
".uC c #7fdcf4",
".Gl c #7fdffc",
".ly c #7fe0ff",
".6b c #7fe1f2",
".6c c #7fe2f2",
".bk c #7fe3fd",
".LJ c #7fe4fb",
".bp c #7fe4fc",
".Q9 c #7fe4fd",
".Ot c #7fe5f8",
".bv c #7fe5fc",
".br c #7fe5fe",
".bw c #7fe6fc",
".1t c #7febf9",
".4a c #7feefc",
".TR c #7feff6",
".MY c #7ff0f8",
".Ro c #7ff0fa",
".Lx c #7ff0fb",
".Q1 c #7ff0fc",
".Wg c #7ff1fa",
".9x c #80c9e6",
".mO c #80dafc",
".5S c #80ddef",
".Fu c #80defa",
".7M c #80e1f8",
".6a c #80e2f5",
".6# c #80e2f6",
".6. c #80e2f7",
".59 c #80e3f7",
".Tn c #80e4fa",
".bs c #80e4fc",
".Ug c #80e5f7",
".bx c #80e5fc",
".bA c #80e5fe",
".OO c #80e6f6",
".Z8 c #80ebf6",
".M2 c #80ebfa",
".VV c #80eff6",
".Q0 c #80effd",
".Py c #80f0fd",
".Ly c #80f1fc",
".Lv c #80f2fa",
".Rn c #80f2fc",
".N5 c #80f2fd",
".Lo c #80f5fb",
".08 c #80f7fb",
"#.. c #81d8f2",
".S8 c #81dffa",
".lL c #81e1ff",
".Q6 c #81e3fa",
".by c #81e4fd",
".1f c #81e5f9",
".bB c #81e5fc",
".R# c #81e5fd",
".bE c #81e5fe",
".Qa c #81eafc",
".LD c #81edfb",
".Wj c #81eef8",
".VY c #81eefb",
".W2 c #81eff5",
".4b c #81effb",
".Pq c #81effc",
".QZ c #81effd",
".Xa c #81f0f0",
".Lz c #81f0fc",
".LA c #81f0fe",
".Ll c #81f1fa",
".NZ c #81f1fc",
".U6 c #81f1fd",
".S0 c #81f2f4",
".Lm c #81f3fa",
".Tj c #81f4fa",
".Ln c #81f5fb",
".1y c #81f7fe",
".0t c #82def2",
".3q c #82dfee",
".ll c #82e0fe",
".Xr c #82e2fd",
".1I c #82e3f7",
".Vx c #82e4f5",
".P4 c #82e4f6",
".bC c #82e4fc",
".bD c #82e4fd",
".bz c #82e4fe",
".P0 c #82e8fe",
".PP c #82ebf7",
".Qx c #82ecfe",
".LC c #82effb",
".LE c #82effc",
".Lj c #82f0fa",
".LB c #82f1fc",
".Wb c #82f1fe",
".V1 c #82f2fb",
".Pv c #82f2fe",
".Wo c #82f3fb",
".Lf c #82f3fc",
".WL c #82f3fd",
".UM c #82f4fa",
".VQ c #82f4fc",
".Yl c #82f4ff",
".8o c #83dff2",
".kb c #83dffd",
".Zt c #83e3f8",
".MF c #83e3fb",
".OL c #83e4fb",
".K5 c #83e4fd",
".bF c #83e5fd",
".Rh c #83e6fa",
".Rx c #83e7fd",
".Ra c #83e9fd",
".4e c #83eefa",
".Lk c #83f1fb",
".Li c #83f2fc",
".V. c #83f2fd",
".X0 c #83f4f9",
".Lg c #83f4fa",
".V2 c #83f4fb",
".Wn c #83f5fc",
".XY c #83f6fa",
".Dr c #84e0fa",
".le c #84e2fe",
".0k c #84e4f1",
".RS c #84e4f4",
".Sz c #84e5f8",
".VN c #84e6f4",
".T4 c #84e6fd",
".QX c #84e7fa",
".EF c #84e7fb",
".bI c #84e7fe",
".Rz c #84e8fa",
".W4 c #84f2ff",
".XV c #84f4f9",
".Lh c #84f4fb",
".Wf c #84f4fd",
".Wm c #84f5fa",
".V3 c #84f5fb",
".Za c #84f5ff",
".Wv c #84f6fd",
".XZ c #84f7fa",
".1x c #84fafe",
".1w c #84faff",
".mR c #85def4",
".ls c #85defd",
".3s c #85dff3",
".C1 c #85e0f7",
".Cq c #85e0fd",
".Dn c #85e2fa",
".Zn c #85e3f9",
".CF c #85e3fd",
".Cd c #85e3fe",
".Kf c #85e5fa",
".xl c #85e6f9",
".bH c #85e6fe",
".lq c #85e6ff",
".bJ c #85e7fe",
".Rb c #85e7ff",
".LH c #85eefa",
".LF c #85effc",
".1n c #85f2f4",
".V5 c #85f2fb",
".V6 c #85f2fc",
".X1 c #85f3fc",
".V4 c #85f4fb",
".V0 c #85f4fc",
".Vd c #85f5fc",
".XX c #85f5fd",
".V# c #85f5ff",
".XH c #85f6f8",
".07 c #85f6fd",
".Px c #85f7fc",
".N7 c #85f7fd",
".06 c #85f8fd",
".1i c #85fcfd",
".7L c #86d9ef",
".Du c #86ddf9",
".E2 c #86ddfc",
".C7 c #86dff9",
".DH c #86e0f4",
".8P c #86e1f4",
".Tp c #86e4ff",
".Rr c #86e5fd",
".1s c #86e6f7",
".bG c #86e6fe",
".S6 c #86e9fa",
".LG c #86f0fc",
".V7 c #86f2fc",
".V8 c #86f2fe",
".09 c #86f3fb",
".W9 c #86f5fb",
".PA c #86f6fd",
".XI c #86f7fa",
".Wh c #86f7fb",
".XR c #86f8fc",
".1v c #86f8fe",
".RF c #86f8ff",
".05 c #86f9fd",
".SM c #86f9fe",
".SE c #86fafc",
".qb c #87d8f9",
".24 c #87d9f7",
".qa c #87dcfa",
".mZ c #87dff5",
".Df c #87e1f7",
".bK c #87e5fe",
".bL c #87e6fe",
".2O c #87e7f0",
".od c #87e7fa",
".1z c #87e8f7",
".v4 c #87e8fe",
".R4 c #87e9fe",
".YW c #87f3f9",
".Y# c #87f5fd",
".XM c #87f5ff",
".XL c #87f6fc",
".XK c #87f7fb",
".Ps c #87f7fe",
".XG c #87f8f9",
".XJ c #87f8fb",
".X8 c #87f8fe",
".Ti c #87fafc",
".Fr c #87fbfe",
".Dz c #88def8",
".6R c #88e1f6",
".Cr c #88e1f9",
".D. c #88e1fa",
".Zd c #88e3f6",
".xm c #88e4fd",
".bM c #88e5fe",
".Ox c #88e6f9",
".bN c #88e6fd",
".bS c #88e6fe",
".bR c #88e6ff",
".OE c #88e7fe",
".Ua c #88eaf9",
".XN c #88f4ff",
".XO c #88f5fb",
".1k c #88f5fd",
".1m c #88f7fd",
".SI c #88f7fe",
".N0 c #88f8fc",
".X9 c #88f8fe",
".Fq c #88f9fe",
".N3 c #88fbfe",
".mS c #89dbf8",
".mL c #89ddf5",
".3S c #89e1ef",
".lP c #89e1fd",
".Zs c #89e2f2",
".Dx c #89e2f6",
".57 c #89e3ec",
".RP c #89e5f8",
".w5 c #89e6f7",
".bO c #89e6fd",
".bQ c #89e6fe",
".bT c #89e6ff",
".PM c #89e7f9",
".Gw c #89e7fe",
".bV c #89e8ff",
".Re c #89e9fd",
".KY c #89eaf9",
".LI c #89eefc",
".ZP c #89f3f8",
".Po c #89f6fd",
".1l c #89f6fe",
".Pp c #89f7fd",
".1j c #89f7fe",
".SF c #89f8fd",
".Y. c #89f8fe",
".Pu c #89f9fd",
".SC c #89f9fe",
".Xe c #89fafd",
".Pt c #89fafe",
".N2 c #89fdff",
".15 c #8adeeb",
".Dy c #8adff6",
".rB c #8adffa",
".YH c #8ae0ef",
".0U c #8ae3f5",
".Zi c #8ae4f2",
".MC c #8ae5fe",
".Mq c #8ae6f7",
".bP c #8ae6fd",
".NE c #8ae7fc",
".Qf c #8ae7ff",
".wJ c #8ae8fd",
".bW c #8ae8ff",
".K4 c #8aeafa",
".PT c #8aeafc",
".Co c #8aebff",
".YM c #8af4fd",
".1u c #8af6fc",
".SP c #8af6fe",
".SL c #8af8fe",
".Wl c #8af9f9",
".XP c #8af9fa",
".N8 c #8af9fd",
".XW c #8af9ff",
".Uj c #8afbfc",
".N4 c #8afbfe",
".TF c #8afcff",
".Vj c #8afdfe",
".Vi c #8afdff",
".DE c #8bdff7",
".Zr c #8be2f1",
".lA c #8be4fe",
".3U c #8be6f9",
".B5 c #8be6ff",
".bZ c #8be7fc",
".bY c #8be7fd",
".bX c #8be7fe",
".bU c #8be7ff",
".Td c #8be8fc",
".Sk c #8be9fe",
".37 c #8bedf4",
".Z4 c #8bf3f6",
".UU c #8bf8fe",
".Pn c #8bfafc",
".Tw c #8bfafe",
".Vu c #8bfcfd",
".UX c #8bfcfe",
".MK c #8bfcff",
".UY c #8bfdfe",
".MT c #8bfeff",
".mC c #8cdcf4",
".Zh c #8cdfef",
".j4 c #8cdfff",
".7n c #8ce0ee",
".Zg c #8ce1f0",
".F. c #8ce2fa",
".Xq c #8ce2fc",
".lY c #8ce5fd",
".Os c #8ce8fb",
".Q5 c #8ce8fc",
".b1 c #8ce8fe",
".PL c #8ce9fe",
".K8 c #8cebfd",
".wV c #8cebfe",
".Tc c #8cecfb",
".Fp c #8cf7ff",
".Y2 c #8cf8fe",
".Y5 c #8cfafe",
".Qv c #8cfaff",
".Y4 c #8cfbff",
".ML c #8cfcff",
".Vk c #8cfef8",
".Vr c #8cfefe",
".Vt c #8cfeff",
".MS c #8cffff",
".Zq c #8de0f2",
".6M c #8de0f8",
".ln c #8de0fd",
".3k c #8de1ec",
".YI c #8de1f0",
".wp c #8de1fb",
".Fi c #8de1fc",
".Zf c #8de2f2",
".VO c #8de5f5",
".lU c #8de8fd",
".b2 c #8de8fe",
".R. c #8de8ff",
".li c #8dedff",
".Y3 c #8df9fd",
".ZR c #8df9fe",
".Wi c #8dfafd",
".Fs c #8dfafe",
".YY c #8dfbfe",
".VZ c #8dfbff",
".O. c #8dfdff",
".MN c #8dfefd",
".MM c #8dfefe",
".Vs c #8dfeff",
".Ws c #8dfffc",
".Wu c #8dfffe",
".RE c #8dffff",
".YJ c #8ee2f3",
".Ze c #8ee2f5",
".fq c #8ee3fe",
".fp c #8ee4fe",
".1Q c #8ee7f5",
".b3 c #8ee7ff",
".b5 c #8ee8fc",
".b4 c #8ee8fd",
".b0 c #8ee8fe",
".S7 c #8ee9fd",
".c. c #8ee9ff",
".Rk c #8eeaf7",
".Ch c #8eeafe",
".SJ c #8ef3ff",
".SH c #8ef4f9",
".Y1 c #8ef9fe",
".Vf c #8efbfe",
".YQ c #8efbff",
".X7 c #8efdfb",
".U1 c #8efdff",
".TA c #8efefd",
".UZ c #8efefe",
".MZ c #8efeff",
".V9 c #8efffb",
".Wr c #8efffd",
".VR c #8effff",
".DC c #8fe3f8",
".fr c #8fe3fe",
".YE c #8fe4f3",
".b9 c #8fe8ff",
".c# c #8fe9fd",
".b7 c #8fe9fe",
".b8 c #8fe9ff",
".OW c #8febfd",
".RL c #8fecfc",
".SN c #8ff4fe",
".Th c #8ff8fd",
".Tx c #8ff8fe",
".X2 c #8ffbfd",
".Z0 c #8ffcfe",
".U2 c #8ffcff",
".X# c #8ffdfd",
".WQ c #8ffdff",
".W3 c #8ffefc",
".U0 c #8ffefe",
".RD c #8ffeff",
".XE c #8ffffa",
".Wt c #8ffffd",
".XQ c #8ffffe",
".MR c #8fffff",
".Zp c #90e0ef",
".Zo c #90e0f0",
".02 c #90e5f9",
".b6 c #90e8fd",
".cg c #90e9fd",
".cb c #90e9fe",
".ce c #90e9ff",
".VK c #90eaf7",
".Mz c #90ebfe",
".lv c #90ebff",
".1o c #90edf2",
".Ri c #90edfb",
".Ct c #90eeff",
".Tg c #90effb",
".Rm c #90f0fe",
".Wk c #90fcfd",
".Z1 c #90fcfe",
".U4 c #90fcff",
".U5 c #90fdfd",
".UV c #90fdff",
".YO c #90fff9",
".XD c #90fffb",
".Wa c #90fffd",
".R2 c #90fffe",
".MQ c #90ffff",
".8n c #91dae8",
".Fg c #91defa",
".v8 c #91e2fd",
".fs c #91e2fe",
".fx c #91e3fe",
".1T c #91e5f5",
".ca c #91e8fd",
".cc c #91e8ff",
".cd c #91e9fe",
".j8 c #91e9ff",
".OF c #91eafe",
".T7 c #91ebf8",
".TK c #91ecfb",
".Tb c #91ecfc",
".My c #91ecff",
".T8 c #91edfc",
".Or c #91efff",
".Jt c #91f2ff",
".Z3 c #91fbf8",
".Ty c #91fbfe",
".TI c #91fcfe",
".X. c #91fcff",
".TM c #91fdfc",
".RC c #91fdff",
".X6 c #91fefd",
".YR c #91fefe",
".M0 c #91feff",
".XF c #91fffd",
".Wq c #91fffe",
".MO c #91ffff",
".Fh c #92defb",
".ft c #92e1fe",
".fA c #92e2fe",
".fE c #92e3fe",
".fD c #92e4fe",
".CA c #92e5fe",
".1G c #92e6fb",
".sZ c #92e6fd",
".s1 c #92e7fc",
".s0 c #92e7fd",
".cf c #92e8ff",
".cl c #92e9fd",
".ch c #92e9fe",
".s8 c #92ebfc",
".PU c #92eefd",
".SD c #92f6fd",
".Va c #92f8ff",
".TE c #92fafe",
".U3 c #92fbff",
".Vh c #92fcff",
".TN c #92fdfd",
".WM c #92fdff",
".ZZ c #92fefb",
".ZQ c #92fefc",
".Z9 c #92fefd",
".M1 c #92feff",
".YP c #92fff8",
".W# c #92fffc",
".Wp c #92fffe",
".MP c #92ffff",
".96 c #93dbe9",
".fu c #93e0fe",
".fv c #93e1fe",
".Xp c #93e3f6",
".fB c #93e3fe",
".co c #93e8ff",
".cm c #93e9fc",
".cn c #93e9fd",
".ci c #93e9fe",
".cC c #93ebfd",
".cu c #93ebfe",
".cj c #93ebff",
".pJ c #93f0fe",
".UP c #93f8fd",
".TG c #93f8fe",
".TB c #93fafc",
".X5 c #93fcfe",
".X4 c #93fcff",
".Vl c #93fdf9",
".Y0 c #93fdfe",
".RB c #93fdff",
".YX c #93fefe",
".UW c #93feff",
".R0 c #93fffe",
".Tz c #93ffff",
".7H c #94d5ea",
".9A c #94deef",
".DD c #94def8",
".fy c #94dffe",
".fz c #94dfff",
".fw c #94e0fe",
"#.x c #94e2e7",
".fG c #94e2fe",
".fF c #94e2ff",
".5M c #94e4e7",
".1U c #94e4f3",
".fC c #94e4fe",
".zd c #94e9fe",
".cv c #94eafd",
".ct c #94eafe",
".R5 c #94eaff",
".cz c #94ebfd",
".cp c #94ebfe",
".cA c #94ebff",
".S4 c #94edfe",
".pV c #94edff",
".Vo c #94fbfe",
".Vn c #94fcff",
".Vg c #94fdfe",
".Vm c #94fdff",
".TQ c #94fefd",
".SY c #94fffb",
".SZ c #94fffd",
".R1 c #94fffe",
".W. c #94ffff",
".7o c #95dcf0",
".rD c #95e0fe",
".fH c #95e2fe",
".rF c #95e4fe",
".v9 c #95e6fd",
".rH c #95e6fe",
".wN c #95e9fb",
".cs c #95e9ff",
".cB c #95eafc",
".cq c #95eafd",
".cr c #95eafe",
".ck c #95eaff",
".Ue c #95ecfc",
".B9 c #95edff",
".RM c #95f0fb",
".YN c #95f9fe",
".Z2 c #95fafe",
".2E c #95fdfb",
".YZ c #95fdff",
".SX c #95fefb",
".1h c #95fefe",
".X3 c #95feff",
".YS c #95fffb",
".7S c #96dfee",
".rG c #96e5fe",
".rI c #96e6fe",
".SR c #96e7fb",
".cE c #96e9fc",
".Ge c #96e9fe",
".3K c #96eaf5",
".BW c #96eafd",
".Ke c #96eafe",
".cy c #96eaff",
".RW c #96ebfc",
".cw c #96ebfe",
".cx c #96ebff",
".Oy c #96edfe",
".Cb c #96eeff",
".pN c #96effe",
".PQ c #96f0ff",
".SO c #96f3fe",
".Qc c #96f3ff",
".Ft c #96f9fe",
".WP c #96fbff",
".Vq c #96fdff",
"##0 c #97d7ef",
".rE c #97e3fe",
".wd c #97e5fe",
".cF c #97e9fd",
".1. c #97edf9",
".BP c #97edfe",
".CC c #97eefe",
".tq c #97f0ff",
".CM c #97f1fe",
".Ud c #97f3fc",
".UN c #97f9fc",
".2P c #97fafc",
".Vp c #97fcff",
".9w c #98d4e7",
"##U c #98dcea",
".2v c #98e3f1",
".we c #98e5fd",
".9H c #98e7f4",
".w0 c #98e8fb",
".w. c #98e8fc",
".w1 c #98e9fa",
".cD c #98e9fb",
".mw c #98e9fc",
".wO c #98eafc",
".0r c #98ecf5",
".Cl c #98ecfe",
".SK c #98f1ff",
".Rl c #98f3fe",
".UO c #98f9fc",
".83 c #99d9ef",
".wk c #99e4fe",
".wg c #99e5fb",
".wf c #99e5fc",
".wh c #99e5fd",
".wj c #99e5fe",
".1a c #99e7f5",
".1p c #99e8f5",
".wZ c #99e8fb",
".wY c #99e8fc",
".w3 c #99e9fa",
".w2 c #99e9fb",
".cJ c #99eafc",
".cI c #99eafd",
".cK c #99eafe",
".w4 c #99ebf8",
".1r c #99ebfa",
".CI c #99edff",
".Sj c #99eefe",
".pR c #99f0fe",
".Ou c #99f0ff",
".nG c #99f1fd",
".XA c #99f5fc",
".VS c #99faff",
".8O c #9ae4ef",
".wl c #9ae5fe",
".1q c #9ae6f6",
".wi c #9ae6fd",
".1b c #9ae7f5",
".1e c #9ae7f6",
".1# c #9ae9f7",
".wX c #9ae9fb",
".cG c #9ae9fc",
".cH c #9ae9fd",
".cL c #9ae9fe",
".wW c #9aeafb",
".wP c #9aeafc",
".cX c #9aebfd",
".Yp c #9aecf6",
".lH c #9aeffe",
".Q# c #9af2ff",
".Rj c #9af5ff",
".TC c #9af7fd",
".VU c #9af7fe",
".46 c #9bdceb",
"##1 c #9bddf6",
".3M c #9bdff0",
".82 c #9bdff1",
".9D c #9be5f6",
".wo c #9be6fc",
".1d c #9be7f5",
".1D c #9be8f2",
".1c c #9be8f6",
".wQ c #9be9fc",
".cN c #9be9fd",
".cP c #9be9fe",
".1A c #9beaf1",
".cY c #9bebfd",
".F0 c #9bf0fe",
".y7 c #9bf2ff",
".Mw c #9bf3fe",
".TH c #9bf6fd",
".7T c #9ce2e7",
".9E c #9ce5f6",
".cO c #9ce8fe",
".cM c #9ce9fc",
".cQ c #9ce9fe",
".cW c #9ceafe",
".cV c #9ceaff",
".cT c #9cebfd",
".c5 c #9cecfe",
".c2 c #9cecff",
".CB c #9ceeff",
".ME c #9cf1ff",
".ST c #9cf6fe",
".SG c #9cf7fb",
".XC c #9cf8ff",
".Ui c #9cfaff",
".3L c #9de3f4",
".9C c #9de4f7",
".1C c #9de9f4",
".cS c #9de9fe",
".cR c #9de9ff",
".1B c #9deaf4",
".cU c #9deafd",
".c4 c #9debfe",
".cZ c #9debff",
".c1 c #9decfd",
".c0 c #9decfe",
".c3 c #9decff",
".lB c #9df1ff",
".SU c #9df7ff",
".TP c #9df8fd",
".42 c #9ee6f4",
".01 c #9ee6f6",
".8N c #9ee8f1",
".1F c #9ee8f6",
".wc c #9ee9fe",
".OH c #9eeafe",
".df c #9eebfd",
".c6 c #9eebfe",
".c7 c #9eebff",
".db c #9eecfd",
".c8 c #9eecff",
".dk c #9eedfd",
".d. c #9eedfe",
".c9 c #9eedff",
".WI c #9ef0fe",
".zh c #9ef0ff",
".Go c #9ef2ff",
".VT c #9ef6fe",
".9B c #9fe1f4",
".8s c #9fe8f6",
".dc c #9febfd",
".dd c #9febfe",
".de c #9febff",
".0W c #9fecfc",
".dn c #9fecfd",
".dm c #9fecfe",
".dv c #9fedfc",
".dj c #9fedfd",
".da c #9fedfe",
".d# c #9fedff",
".dt c #9feefc",
".PZ c #9feefd",
".do c #9feeff",
".PY c #9ff0fb",
".Sl c #9ff2ff",
".Uh c #9ff5fd",
".RZ c #9ff7fd",
".5C c #a0e6f1",
".1E c #a0e7f2",
"#.w c #a0eaef",
".di c #a0ecfd",
".dl c #a0ecfe",
".ds c #a0edfc",
".du c #a0edfd",
".dh c #a0edfe",
".dg c #a0edff",
".dp c #a0eeff",
".SW c #a0f7fa",
".5A c #a1e2ee",
".Vy c #a1ecf3",
".lI c #a1ecff",
".dw c #a1eefd",
".dr c #a1eefe",
".dq c #a1eeff",
".T3 c #a1f0ff",
".Ub c #a1f1fd",
".6n c #a2eaf0",
".dx c #a2edfd",
".PX c #a2edfe",
".RR c #a2f3fd",
".TL c #a2f4fc",
".WN c #a2f4ff",
".TO c #a2f6fe",
".Wx c #a3ebf3",
".OI c #a3ebfe",
".PW c #a3ecfe",
".OJ c #a3edfe",
".CG c #a3edff",
".dE c #a3eefd",
".dy c #a3eefe",
".OK c #a3efff",
".Gf c #a3f2fd",
".TD c #a3f4fe",
".XB c #a3f7ff",
"##j c #a4e5eb",
".dH c #a4eefc",
".dA c #a4eefd",
".dC c #a4eefe",
".dG c #a4effc",
".Zk c #a4f1f8",
".QY c #a4f2ff",
".WO c #a4f3ff",
"#.c c #a5d3e4",
".wn c #a5ecfc",
".dS c #a5eefa",
".dP c #a5eefb",
".dD c #a5eefc",
".dB c #a5eefd",
".dz c #a5eefe",
".ZK c #a5f3fc",
"##Z c #a6e5f3",
".3b c #a6ebfa",
".CH c #a6ebff",
".rC c #a6ecfd",
".dK c #a6edfc",
".dO c #a6eefa",
".dF c #a6eefc",
".4f c #a6eff9",
".KK c #a6f1ff",
".of c #a6f6ff",
".8Q c #a7e1ef",
"##Y c #a7e7f3",
".dL c #a7ecfc",
".dR c #a7edfa",
".dI c #a7edfc",
".Gn c #a7edfe",
".RA c #a7f2ff",
"##V c #a8e7f1",
".dQ c #a8ecfb",
".dJ c #a8ecfc",
".dT c #a8edfa",
".dU c #a8edfb",
".dN c #a8eefc",
".dM c #a8eefd",
".dW c #a8effb",
".dX c #a8effc",
".y4 c #a8f4ff",
"##i c #a9e5e8",
"##W c #a9e6ef",
"##X c #a9e6f2",
".VI c #a9e9f4",
".4N c #a9e9f5",
".Vz c #a9eaf4",
".41 c #a9ecf5",
".3E c #a9ecf9",
".dY c #a9edfc",
".dV c #a9edfd",
".dZ c #a9eefb",
".d0 c #a9eefc",
".d8 c #a9effd",
".d4 c #a9effe",
".d2 c #a9f0fc",
".d3 c #a9f0fd",
".Gm c #a9f2ff",
".it c #a9f3ff",
".iv c #a9f4ff",
".oe c #a9f7ff",
".VC c #aaebf5",
".VE c #aaecf4",
".VD c #aaecf5",
".e. c #aaeffc",
".d5 c #aaeffe",
".d7 c #aaf0fc",
".ec c #aaf0ff",
".y5 c #aaf3ff",
".iu c #aaf4ff",
".tp c #aaf8ff",
".2L c #abe6f0",
".VB c #abebf5",
".VH c #abebf6",
".VF c #abecf5",
".d9 c #abeffc",
".d6 c #abeffd",
".d1 c #abeffe",
".RX c #abf0fc",
".ed c #abf0ff",
".SV c #abf1fe",
".eg c #abf1ff",
".is c #abf2ff",
".y6 c #abf4ff",
".VG c #acecf6",
".RY c #aceefe",
".SS c #aceffa",
".ee c #acefff",
".eb c #acf0fd",
".ea c #acf0fe",
".e# c #acf0ff",
".eh c #acf1ff",
".11 c #acf3f7",
".VJ c #adeaf3",
".ei c #adeffe",
".ef c #adefff",
".em c #adf0fe",
".el c #adf0ff",
".ep c #adf1ff",
".y3 c #adf5ff",
".iw c #adf8ff",
".VA c #aee9f4",
".ek c #aeefff",
".ej c #aef0ff",
".eq c #aef1ff",
".et c #aef2ff",
".ey c #aef3fe",
".00 c #afeaf6",
".eo c #aff0ff",
".en c #aff1ff",
".ev c #aff2fe",
".eu c #aff2ff",
".ew c #aff3fe",
".WJ c #aff3ff",
".1J c #b0e8f0",
".2C c #b0eff6",
".4K c #b0f0f5",
".ex c #b0f1ff",
".er c #b0f2fe",
".es c #b0f2ff",
".6L c #b1e9f6",
".3t c #b1eef6",
".ez c #b1f1fe",
".eA c #b1f1ff",
".eB c #b1f2ff",
".eC c #b1f3ff",
".2N c #b2ebf1",
".eF c #b2f1fe",
".eE c #b2f1ff",
".eD c #b2f2ff",
".8k c #b3deef",
".Yq c #b3f0fc",
".eH c #b3f2fe",
".eG c #b3f2ff",
".eI c #b4f1ff",
".eL c #b4f2fd",
".eK c #b4f2fe",
".eJ c #b4f2ff",
".eO c #b5f3fe",
".eP c #b5f3ff",
".eR c #b5f4fc",
".eS c #b5f4fd",
".6f c #b6ecf3",
".0w c #b6f3fb",
".eN c #b6f3fe",
".eV c #b6f4ff",
".eQ c #b7f2fe",
".eM c #b7f2ff",
".eW c #b7f4fd",
".eX c #b7f4fe",
".eU c #b7f4ff",
".eY c #b8f4fd",
".eZ c #b8f4fe",
".eT c #b8f4ff",
".3V c #b9f2f9",
".WF c #baf0fa",
".0B c #baf6fb",
"##T c #bbe1e4",
".e3 c #bbf8fd",
".4R c #bcebf3",
".e1 c #bcf8fc",
".e2 c #bcf8fd",
".e0 c #bcf9fc",
"##k c #bde5e7",
".3u c #bdf0f5",
".3v c #bdf0f6",
"#ai c #bee4e4",
".3R c #bef0f8",
".2W c #bef2f6",
".e5 c #bef7fe",
".e4 c #bef8fe",
".fc c #bff7fb",
".fd c #bff7fc",
".e6 c #bff7fd",
".6r c #c0f2f8",
".40 c #c0f3f5",
".e9 c #c0f6fc",
".e8 c #c0f6fd",
".fg c #c0f7f9",
".ff c #c0f7fa",
".fj c #c0f7fc",
".e7 c #c0f7fd",
".fk c #c0f7fe",
".fi c #c0f8fc",
"#ah c #c1e9e6",
".4k c #c1f0f6",
".4T c #c1f0f8",
".3N c #c1f0f9",
".8v c #c1f3fa",
".fb c #c1f6fc",
".fh c #c1f7fa",
".fn c #c1f7fd",
".fm c #c1f7fe",
".fl c #c1f7ff",
".Zl c #c1f9fe",
".4g c #c2f0f5",
".4S c #c2f1f9",
".4V c #c2f2f8",
".fe c #c2f5ff",
".fa c #c2f6fd",
".f# c #c2f6fe",
".f. c #c2f6ff",
".fo c #c2f7fd",
".36 c #c2fdfc",
".3P c #c3f0f7",
".4u c #c3f1f7",
".4W c #c3f2f6",
".3O c #c4f0f7",
".4U c #c4f0f8",
".4j c #c4f1f7",
".4t c #c4f1f8",
".6T c #c5e7f3",
".4Q c #c5ebf3",
".4i c #c5eff4",
".1M c #c5f0fb",
".4v c #c5f1f7",
".3X c #c5f1f8",
".6K c #c6e0f1",
".5X c #c6eaf1",
"##2 c #c6eaf2",
".4h c #c6f0f6",
".4F c #c6f0f7",
".3w c #c6f1f4",
".3Y c #c6f1f7",
".4s c #c6f2f8",
".2j c #c6f8fb",
".3Q c #c7f0f9",
".4E c #c7f1f6",
".4G c #c7f1f7",
".4J c #c7f1f8",
".8w c #c7f1fb",
".3W c #c8f0f6",
".4H c #c8f1f7",
".4I c #c8f1f8",
".35 c #c8f3f6",
".4q c #c8f4f4",
".4w c #c9f0f5",
".1N c #caf3fd",
".94 c #cbeeea",
".4D c #cbf1fa",
".7c c #cbf6fb",
".10 c #cbf7fa",
".93 c #ccecef",
".4X c #ccf3f3",
".0Z c #ccf5f9",
".1Z c #ccf5fa",
".Xo c #cdf4f9",
".1O c #cdf6fe",
".8u c #cdf7fb",
".7e c #cef2f9",
".8t c #cef7fc",
".4r c #cefbf9",
".0Y c #cff6f9",
".0X c #cff7f9",
".1P c #cff8fd",
".1L c #d0eff9",
".5T c #d0f4f9",
".2l c #d0fafe",
".9I c #d1eceb",
".95 c #d1f0e8",
".1Y c #d1f3f9",
"#.M c #d2eaec",
".Xn c #d2f3f9",
".3p c #d2f7f7",
".0l c #d2fcfe",
"#G. c #d39f65",
"#Hn c #d39f66",
".5m c #d3f4f9",
"#G4 c #d4a066",
".8j c #d4e9ea",
"#Oj c #d59c62",
"#NB c #d59d62",
"#M3 c #d59e63",
"#J. c #d59e65",
"#L5 c #d59f64",
"#GP c #d5a168",
"#Ho c #d5a267",
"#.y c #d5edea",
".3Z c #d5eff6",
".6s c #d5f6f2",
".1V c #d5f7f6",
"#NZ c #d69d63",
"#NG c #d69e63",
"#Oc c #d69e64",
"#Ob c #d69f63",
"#M4 c #d69f64",
"#M5 c #d69f65",
"#MU c #d69f66",
"#MW c #d6a063",
"#L3 c #d6a065",
"#H# c #d6a168",
".9J c #d6eae6",
".4l c #d6f5f8",
"#NH c #d79e64",
"#NY c #d79f63",
"#Iz c #d79f64",
"#NX c #d79f65",
"#Os c #d7a064",
"#L4 c #d7a065",
"#Jb c #d7a068",
"#G# c #d7a369",
"#.N c #d7e6e0",
".4n c #d7f1fb",
".6t c #d7f3f1",
"#Od c #d89f64",
"#NF c #d89f65",
"#N8 c #d89f66",
"#Mh c #d8a063",
"#M1 c #d8a064",
"#M0 c #d8a065",
"#L1 c #d8a066",
"#Ny c #d8a166",
"#Og c #d8a167",
"#Kh c #d8a168",
"#KG c #d8a266",
"#Kv c #d8a268",
"#Kj c #d8a269",
"#Hl c #d8a46b",
".34 c #d8f9fb",
"#Of c #d99f65",
"#Oa c #d99f66",
"#Oe c #d9a065",
"#Jq c #d9a066",
"#Mi c #d9a164",
"#Km c #d9a166",
"#NA c #d9a167",
"#Or c #d9a266",
"#Kr c #d9a267",
"#Mz c #d9a368",
"#H5 c #d9a468",
"#G8 c #d9a46b",
"#Hm c #d9a56b",
"#fW c #d9bfab",
"#iN c #d9c0a5",
"#fp c #d9c3a8",
"#fl c #d9c4a9",
".6J c #d9eef3",
".7m c #d9f3fa",
".4p c #d9f4f5",
"#Nu c #daa066",
"#Oi c #daa166",
"#Im c #daa167",
"#Ol c #daa266",
"#Ir c #daa267",
"#Iq c #daa268",
"#NI c #daa367",
"#MA c #daa469",
"#L2 c #daa56a",
"#iK c #dabea7",
"#iP c #dabfa5",
"#iM c #dabfa8",
"#iO c #dac0a5",
"#fO c #dac1aa",
"#fN c #dac1ab",
"#fv c #dac2aa",
"#fq c #dac3a8",
"#fn c #dac4a9",
".92 c #daeae6",
".84 c #daf1f5",
"#NR c #dba167",
"#Oo c #dba168",
"#NU c #dba267",
"#In c #dba268",
"#On c #dba269",
"#Op c #dba367",
"#Iy c #dba368",
"#H6 c #dba369",
"#Mj c #dba467",
"#JG c #dba469",
"#J# c #dba46b",
"#MB c #dba56a",
"#JI c #dba56b",
"#I8 c #dba66c",
"#Gf c #dba76b",
"#HA c #dba76e",
"#Gd c #dba86e",
"#iL c #dbbeaa",
"#iQ c #dbbfa7",
"#f1 c #dbc1a9",
"#fw c #dbc1aa",
"#fX c #dbc1ab",
"#fk c #dbc3a9",
"#fu c #dbc3aa",
"#fI c #dbc3ab",
"#fK c #dbc3ac",
"#fr c #dbc4a9",
"#ft c #dbc4ab",
"#fm c #dbc5aa",
"#fo c #dbc5ab",
"#cD c #dbc7b0",
"#cE c #dbc7b1",
"#cG c #dbc8b1",
"##c c #dbf6f0",
"#Om c #dca268",
"#N4 c #dca269",
"#NE c #dca369",
"#NO c #dca36a",
"#MY c #dca36b",
"#Ma c #dca468",
"#MX c #dca469",
"#ND c #dca46a",
"#M7 c #dca56a",
"#Lz c #dca56c",
"#Lx c #dca56d",
"#IR c #dca66b",
"#Lf c #dca66c",
"#HK c #dca76d",
"#Ln c #dca86c",
"#Ke c #dca86e",
"#dL c #dcbf9f",
"#h8 c #dcc0a6",
"#iH c #dcc0a7",
"#iG c #dcc1a8",
"#fx c #dcc1a9",
"#f2 c #dcc1ab",
"#f0 c #dcc2aa",
"#fa c #dcc2ab",
"#fF c #dcc3a9",
"#fG c #dcc3aa",
"#fH c #dcc3ab",
"#dZ c #dcc4a9",
"#fJ c #dcc4ac",
"#fL c #dcc4ad",
"#cJ c #dcc6b1",
"#cK c #dcc6b2",
"#cL c #dcc6b3",
"#cH c #dcc7b2",
"#cF c #dcc8b2",
"#cu c #dcc9b0",
"#ct c #dccab1",
"#dl c #dce5dd",
"##Q c #dce5e0",
".9K c #dce7e2",
"##R c #dce8de",
".3l c #dce9ed",
".7U c #dcf0ec",
".6Y c #dcf9fc",
".7w c #dcfbfc",
".7x c #dcfbfd",
"#L0 c #dda36a",
"#Lp c #dda469",
"#Nk c #dda46a",
"#Oq c #dda46b",
"#Mg c #dda56a",
"#KR c #dda56b",
"#M9 c #dda66b",
"#M6 c #dda66c",
"#Ll c #dda66d",
"#Ls c #dda66e",
"#H4 c #dda76c",
"#HD c #dda86d",
"#IQ c #dda96f",
"#e9 c #ddbfaa",
"#lN c #ddc0a5",
"#fC c #ddc0a6",
"#fD c #ddc0a8",
"#dM c #ddc19f",
"#dP c #ddc1a2",
"#dQ c #ddc1a3",
"#hq c #ddc1a7",
"#fh c #ddc1a8",
"#fg c #ddc1a9",
"#dN c #ddc2a1",
"#dB c #ddc2a3",
"#h# c #ddc2a5",
"#iF c #ddc2a8",
"#fE c #ddc2a9",
"#fj c #ddc3a9",
"#fZ c #ddc3ab",
"#f# c #ddc3ad",
"#fM c #ddc4ad",
"#fs c #ddc5ab",
"#cM c #ddc5b3",
"#cI c #ddc7b3",
"#cQ c #ddc7b4",
"#cP c #ddc7b5",
"#cv c #ddc8b0",
"#cz c #ddc8b2",
"#cA c #ddc8b3",
"#cw c #ddc9b0",
"#cy c #ddc9b2",
"#cC c #ddc9b3",
"#cB c #ddc9b4",
"#hh c #ddd4c1",
"##P c #dde4da",
"#cd c #dde4dd",
".7C c #ddfafb",
".0A c #ddfdfd",
"#N2 c #dea46b",
"#Nh c #dea569",
"#H7 c #dea56b",
"#NS c #dea56c",
"#MO c #dea669",
"#MI c #dea66a",
"#MK c #dea66b",
"#Ns c #dea66c",
"#N3 c #dea76c",
"#KY c #dea76d",
"#Hx c #dea76e",
"#I9 c #dea76f",
"#My c #dea86d",
"#Gj c #deaa70",
"#i. c #dec0a2",
"#dR c #dec0a3",
"#h9 c #dec0a4",
"#gD c #dec0a6",
"#fz c #dec0a7",
"#fy c #dec0a8",
"#h. c #dec1a6",
"#hp c #dec1a8",
"#fi c #dec1a9",
"#dJ c #dec2a5",
"#dK c #dec2a6",
"#h7 c #dec2a7",
"#fe c #dec2a9",
"#ff c #dec2aa",
"#fb c #dec2ab",
"#f. c #dec2ad",
"#dO c #dec3a2",
"#dX c #dec3a4",
"#fY c #dec4ad",
"#gM c #dec8a7",
"#cx c #decab1",
"#dm c #dee6de",
"#dn c #dee6df",
"##b c #deebdc",
".6u c #def3f2",
".Xh c #def7f8",
"##e c #def8f6",
".7A c #def9fa",
".7B c #defafa",
".0z c #defdfd",
"#Ok c #dfa66b",
"#JU c #dfa66c",
"#NW c #dfa66d",
"#MP c #dfa76a",
"#Jt c #dfa76c",
"#IA c #dfa76d",
"#N. c #dfa86c",
"#M2 c #dfa86d",
"#Go c #dfa870",
"#MM c #dfa96e",
"#KK c #dfa970",
"#Kf c #dfab71",
"#iT c #dfbea9",
"#gE c #dfbfa4",
"#hu c #dfbfa5",
"#gx c #dfbfa6",
"#hv c #dfbfa7",
"#iS c #dfbfa8",
"#i# c #dfc0a2",
"#dS c #dfc0a3",
"#gG c #dfc0a4",
"#gC c #dfc0a6",
"#iI c #dfc0a7",
"#iE c #dfc0a8",
"#ia c #dfc1a4",
"#hr c #dfc1a6",
"#iR c #dfc1a7",
"#fB c #dfc1a8",
"#e8 c #dfc1a9",
"#dW c #dfc3a4",
"#kg c #dfc3a8",
"#fd c #dfc3aa",
"#fc c #dfc3ac",
"#fV c #dfc4aa",
"#lM c #dfc5a8",
"#cN c #dfc5b4",
"#gN c #dfc6aa",
"#cO c #dfc6b5",
"#hi c #dfd4c3",
"#hj c #dfd4c4",
"#ex c #dfdcd5",
"#ee c #dfddd4",
"#ey c #dfddd6",
"#bE c #dfe3df",
"#cf c #dfe4e0",
"#ce c #dfe5e0",
"#eA c #dfe6e1",
"#av c #dfe8dd",
".9v c #dfece4",
".7a c #dff9fd",
".7z c #dffafb",
".0o c #dffdfd",
".5u c #dfffff",
"#Il c #e0a76d",
"#Ot c #e0a76e",
"#Ng c #e0a86c",
"#Nq c #e0a86d",
"#Ji c #e0a86e",
"#ML c #e0a96e",
"#IM c #e0aa70",
"#KT c #e0aa71",
"#JM c #e0ac73",
"#gA c #e0bfa3",
"#gB c #e0bfa4",
"#gz c #e0bfa5",
"#gy c #e0bfa6",
"#hw c #e0bfa7",
"#lO c #e0bfa9",
"#ki c #e0bfaa",
"#gF c #e0c0a3",
"#ht c #e0c0a6",
"#hs c #e0c0a7",
"#hb c #e0c0a8",
"#kh c #e0c0a9",
"#dV c #e0c2a4",
"#dC c #e0c3a4",
"#dI c #e0c3a5",
"#dY c #e0c4a5",
"#jo c #e0c7a8",
"#fP c #e0c9b4",
"#hk c #e0d4c3",
"#d0 c #e0dacc",
"#ew c #e0dcd5",
"#ea c #e0ded4",
"#ec c #e0ded5",
"#cp c #e0e2dd",
"#co c #e0e3de",
"#bA c #e0e3df",
".9Q c #e0e4dd",
"#ez c #e0e4e0",
"#by c #e0e5dd",
"#bG c #e0e5de",
"#bF c #e0e5df",
"#do c #e0e5e1",
"##n c #e0e5e2",
".9L c #e0e6e0",
"#dp c #e0e6e4",
"##o c #e0e7dc",
"#bI c #e0e7df",
"#bJ c #e0e7e0",
"##S c #e0eade",
".81 c #e0f3f7",
".7p c #e0f5fa",
"##d c #e0f8f7",
".7y c #e0fafc",
".56 c #e0fcfc",
".0p c #e0fdfc",
".0n c #e0fefe",
"#NT c #e1a76d",
"#LY c #e1a86e",
"#NN c #e1a86f",
"#Ni c #e1a96c",
"#MN c #e1a96d",
"#Nr c #e1a96e",
"#Nx c #e1a96f",
"#Md c #e1aa6f",
"#IX c #e1ab70",
"#HJ c #e1ab71",
"#FO c #e1ad74",
"#KV c #e1ae71",
"#gw c #e1c0a6",
"#iJ c #e1c0a7",
"#hc c #e1c0a8",
"#dT c #e1c1a3",
"#dU c #e1c1a4",
"#fA c #e1c2aa",
"#dG c #e1c3a7",
"#dD c #e1c4a5",
"#dF c #e1c4a6",
"#dH c #e1c4a7",
"#g0 c #e1c8a6",
"#g1 c #e1c8a8",
"#j1 c #e1c9a8",
"#eM c #e1c9a9",
"#hg c #e1d3be",
"#e# c #e1dcd4",
"#ei c #e1ddd1",
"#ej c #e1ddd2",
"#ek c #e1ddd3",
"#ed c #e1dfd5",
"#eb c #e1dfd6",
"#ef c #e1e0d6",
".9R c #e1e3dc",
"#cr c #e1e3de",
"#bB c #e1e3df",
"#cg c #e1e4dd",
"#cq c #e1e4de",
"#bZ c #e1e5e0",
"#eB c #e1e5e1",
"##m c #e1e5e2",
"#cW c #e1e6da",
".9M c #e1e6de",
"#bz c #e1e6df",
"#bH c #e1e6e0",
"#fS c #e1e7de",
"#fT c #e1e7df",
"#fR c #e1e7e0",
"##F c #e1e8e0",
"#aj c #e1e8e1",
".7b c #e1fafd",
".7# c #e1fbfb",
".0y c #e1fcfa",
"#Oh c #e2a86f",
"#Nn c #e2a96e",
"#JX c #e2a96f",
"#KP c #e2aa6f",
"#Ms c #e2aa70",
"#M8 c #e2ab70",
"#K7 c #e2ab72",
"#K6 c #e2ab73",
"#Lw c #e2ac72",
"#JO c #e2ac73",
"#I7 c #e2ad73",
"#FP c #e2ae74",
"#G1 c #e2ae75",
"#he c #e2bfa7",
"#hd c #e2bfa8",
"#ha c #e2c0a6",
"#gu c #e2c0a8",
"#iD c #e2c1a6",
"#gv c #e2c1a7",
"#h6 c #e2c2a2",
"#g9 c #e2c2a3",
"#dE c #e2c5a6",
"#gW c #e2c6a6",
"#gR c #e2c6a7",
"#gS c #e2c6a8",
"#gO c #e2c6a9",
"#gZ c #e2c7a3",
"#js c #e2c7a5",
"#gU c #e2c7a6",
"#kf c #e2c7ac",
"#gY c #e2c8a5",
"#jn c #e2c9a9",
"#j2 c #e2c9aa",
"#ho c #e2ccb9",
"#iw c #e2cfac",
"#hl c #e2d3c3",
"#e. c #e2ddd5",
"#eu c #e2ddd7",
"#d3 c #e2ded2",
"#d9 c #e2ded5",
"#es c #e2ded7",
"#eh c #e2dfd1",
"#d2 c #e2e0d3",
"#bx c #e2e3d8",
"#b8 c #e2e3dd",
"#cs c #e2e3de",
"#bC c #e2e3df",
"#bp c #e2e4d7",
"#bo c #e2e4d8",
"#cn c #e2e4de",
"#da c #e2e4df",
"#cZ c #e2e5e0",
".9P c #e2e6dc",
"#cX c #e2e6dd",
"#b6 c #e2e6de",
"#b0 c #e2e6df",
".6F c #e2e6e0",
"#cT c #e2e7db",
"### c #e2e7e2",
"#dj c #e2e7e3",
"#cc c #e2e8e1",
"#dk c #e2e8e3",
"##a c #e2e9e1",
".7G c #e2eaec",
".8x c #e2f3f9",
".0q c #e2fdfd",
".0m c #e2feff",
"#Ip c #e3aa70",
"#Mr c #e3aa72",
"#Mw c #e3ab6f",
"#KQ c #e3ab70",
"#Mx c #e3ab71",
"#Nm c #e3ac70",
"#Nl c #e3ac71",
"#MV c #e3ac72",
"#Lj c #e3ad72",
"#Ha c #e3ae75",
"#HS c #e3af76",
"#gt c #e3bfa9",
"#gs c #e3c0a5",
"#hf c #e3c2ab",
"#gT c #e3c5a8",
"#gX c #e3c6a7",
"#jp c #e3c7a6",
"#gV c #e3c7a7",
"#gQ c #e3c7a8",
"#j7 c #e3c7a9",
"#gP c #e3c7aa",
"#jr c #e3c8a4",
"#jq c #e3c8a5",
"#g7 c #e3c8a8",
"#j5 c #e3c8aa",
"#j4 c #e3c8ab",
"#eN c #e3caab",
"#mQ c #e3cda6",
"#mP c #e3cda7",
"#if c #e3d0ac",
"#hm c #e3d2c3",
"#eq c #e3dbd3",
"#en c #e3dbd4",
"#eF c #e3dbd5",
"#el c #e3dcd5",
"#eG c #e3dcd6",
"#ev c #e3ded8",
"#d4 c #e3dfd3",
"#d1 c #e3e0d3",
"#eg c #e3e1d6",
"##s c #e3e3dc",
"#b9 c #e3e3dd",
"#bY c #e3e3de",
"#bu c #e3e4d7",
"#bw c #e3e4d8",
"#.H c #e3e4e3",
"#bv c #e3e5d7",
"#bm c #e3e5d8",
"#bn c #e3e5d9",
"#a1 c #e3e5df",
".6E c #e3e5e0",
"#a2 c #e3e6dd",
"#b7 c #e3e6de",
".6B c #e3e6e0",
"#cY c #e3e6e1",
"#cU c #e3e7db",
"#cS c #e3e7dc",
"#c1 c #e3e7e2",
"#di c #e3e7e4",
".47 c #e3f7fc",
".Xm c #e3f9fc",
".23 c #e3faff",
".ZL c #e3fdfd",
".ZN c #e3fefe",
"#J5 c #e4aa71",
"#NM c #e4ab70",
"#Mt c #e4ab71",
"#MT c #e4ac6f",
"#Jh c #e4ac71",
"#JW c #e4ac72",
"#Nc c #e4ad72",
"#JP c #e4ad75",
"#IS c #e4ae72",
"#K5 c #e4ae74",
"#JN c #e4ae75",
"#Ca c #e4af74",
"#G2 c #e4af76",
"#KU c #e4b075",
"#Gi c #e4b076",
"#Gs c #e4b077",
"#Hd c #e4b175",
"#Gu c #e4b278",
"#g8 c #e4c6a6",
"#g2 c #e4c7a8",
"#g6 c #e4c7a9",
"#gL c #e4c8a3",
"#ka c #e4c8a8",
"#j8 c #e4c8a9",
"#j3 c #e4c8aa",
"#j9 c #e4c8ab",
"#kb c #e4c9a5",
"#kc c #e4c9a6",
"#kd c #e4c9a8",
"#ke c #e4c9a9",
"#j6 c #e4c9ab",
"#m3 c #e4caab",
"#eO c #e4caac",
"#eQ c #e4caad",
"#eR c #e4caae",
"#m1 c #e4ccaa",
"#m2 c #e4ccab",
"#ig c #e4cdac",
"#mR c #e4cea7",
"#kN c #e4cea9",
"#kO c #e4ceab",
"#iv c #e4cfab",
"#fU c #e4d9ca",
"#em c #e4dcd5",
"#eL c #e4ddd4",
"#er c #e4ddd5",
"#ep c #e4ddd6",
"#d7 c #e4dfd5",
"#d8 c #e4dfd6",
"#et c #e4dfd8",
"#d5 c #e4e0d3",
"#d6 c #e4e0d5",
"##u c #e4e2dc",
"##t c #e4e2dd",
"#bX c #e4e2df",
"#bq c #e4e3d7",
"#bl c #e4e3d8",
"#c. c #e4e3dd",
"#bD c #e4e3df",
".6D c #e4e4e0",
"#db c #e4e4e3",
"#bt c #e4e5d8",
"##r c #e4e5dd",
".6C c #e4e5e0",
"#c9 c #e4e5e1",
"#dc c #e4e5e3",
"#cR c #e4e6da",
"#c7 c #e4e6dc",
"#c6 c #e4e6dd",
"#c5 c #e4e6df",
"#c8 c #e4e6e2",
"#cV c #e4e7db",
".8a c #e4e7e2",
".8. c #e4e8e3",
"#b4 c #e4e9e1",
"#a0 c #e4e9e3",
"##O c #e4eae4",
".91 c #e4efe8",
".5Y c #e4f2f3",
"#.L c #e4f7f8",
".4x c #e4f8f9",
".ZM c #e4fdfd",
"#.v c #e4fefb",
"#N0 c #e5ab71",
"#Nj c #e5ac71",
"#Ib c #e5ac72",
"#KZ c #e5ad72",
"#Mu c #e5ad73",
"#Nv c #e5ae73",
"#Kg c #e5ae76",
"#KF c #e5af74",
"#K. c #e5af75",
"#I0 c #e5af76",
"#F2 c #e5af77",
"#DO c #e5b076",
"#F0 c #e5b077",
"#Hh c #e5b078",
"#Ku c #e5b175",
"#Gz c #e5b178",
"#F. c #e5b277",
"#GH c #e5b278",
"#Gv c #e5b379",
"#Ef c #e5b477",
"#GR c #e5b479",
"#g4 c #e5c6a9",
"#g3 c #e5c7a7",
"#g5 c #e5c7a9",
"#k# c #e5c7ac",
"#k. c #e5c8ac",
"#eS c #e5caad",
"#m4 c #e5cbac",
"#eP c #e5cbad",
"#lD c #e5ccaa",
"#lC c #e5ccab",
"#lL c #e5ccac",
"#m0 c #e5cda8",
"#il c #e5cdaa",
"#im c #e5cdab",
"#in c #e5cdac",
"#io c #e5cdad",
"#iu c #e5cea7",
"#ip c #e5cea8",
"#kV c #e5cfac",
"#kW c #e5cfad",
"#kM c #e5d0aa",
"#kP c #e5d0ad",
"#nR c #e5d2ac",
"#hn c #e5d2c3",
"#nT c #e5d3aa",
"#eE c #e5ddd5",
"#eK c #e5ded5",
"#eH c #e5ded7",
"#eo c #e5dfd7",
"#bj c #e5e2d4",
"##p c #e5e3dc",
"#c# c #e5e3e0",
"#eC c #e5e4dc",
"#bW c #e5e4df",
".9O c #e5e5db",
"##q c #e5e5dd",
"#dd c #e5e5e4",
"#c4 c #e5e6e2",
"#cm c #e5e6e3",
".9S c #e5e7e0",
"#c0 c #e5e7e2",
".77 c #e5e7e3",
"#dh c #e5e7e5",
".8# c #e5e8e3",
".8A c #e5e8e8",
"#b3 c #e5ebe3",
"##G c #e5ebe4",
"##z c #e5ede6",
"##y c #e5ede7",
"##f c #e5fcfb",
".0x c #e5fcfc",
"#MS c #e6ad70",
"#JR c #e6ad73",
"#MG c #e6ae71",
"#MQ c #e6ae72",
"#KO c #e6ae73",
"#Mv c #e6ae74",
"#GB c #e6ae76",
"#Mp c #e6af74",
"#KS c #e6af75",
"#Ja c #e6af76",
"#GJ c #e6af77",
"#MD c #e6af78",
"#Mk c #e6b072",
"#JD c #e6b074",
"#HF c #e6b075",
"#KI c #e6b076",
"#Hz c #e6b077",
"#G9 c #e6b078",
"#IG c #e6b175",
"#Fz c #e6b176",
"#HO c #e6b177",
"#F4 c #e6b178",
"#Dy c #e6b276",
"#Cg c #e6b278",
"#Fq c #e6b279",
"#Ew c #e6b376",
"#Jy c #e6b377",
"#B8 c #e6b379",
"#Ek c #e6b47b",
"#DC c #e6b57a",
"#EF c #e6b57b",
"#gr c #e6c59c",
"#eW c #e6c69f",
"#jt c #e6c9a7",
"#m6 c #e6c9ad",
"#m7 c #e6c9ae",
"#m5 c #e6caac",
"#m8 c #e6caad",
"#ik c #e6ccaa",
"#ih c #e6ccac",
"#it c #e6cda7",
"#ir c #e6cda8",
"#iA c #e6cdac",
"#iz c #e6cdad",
"#k0 c #e6cea8",
"#iq c #e6cea9",
"#iy c #e6ceab",
"#ix c #e6ceac",
"#lG c #e6cfa9",
"#kS c #e6cfaa",
"#kU c #e6cfab",
"#kX c #e6cfac",
"#lI c #e6d0a6",
"#lH c #e6d0a7",
"#nN c #e6d0aa",
"#kQ c #e6d0ad",
"#nJ c #e6d2aa",
"#nQ c #e6d2ac",
"#o1 c #e6dbaf",
"#eJ c #e6dfd6",
"#bk c #e6e2d6",
"#bd c #e6e4d6",
"#br c #e6e4d8",
"#dx c #e6e4dd",
"#bs c #e6e5d9",
"#fQ c #e6e5db",
"#dA c #e6e5dd",
"#bb c #e6e6d8",
"#dg c #e6e6e5",
".78 c #e6e7e3",
"#df c #e6e7e5",
"#de c #e6e7e6",
".76 c #e6e8e3",
"#c2 c #e6e8e4",
".6A c #e6e9e3",
"#au c #e6ede3",
"##A c #e6ede6",
"##w c #e6efe7",
".6X c #e6fbfb",
".5L c #e6fdfd",
".51 c #e6ffff",
"#N9 c #e7ad73",
"#O# c #e7ad74",
"#Np c #e7ae73",
"#Ix c #e7ae74",
"#No c #e7ae75",
"#M# c #e7af72",
"#MH c #e7af73",
"#H8 c #e7af74",
"#Kq c #e7af75",
"#Na c #e7af76",
"#GM c #e7af77",
"#Mc c #e7b074",
"#Jx c #e7b075",
"#NJ c #e7b076",
"#F3 c #e7b077",
"#Hi c #e7b078",
"#Hj c #e7b079",
"#LE c #e7b174",
"#JQ c #e7b175",
"#Hf c #e7b176",
"#Hs c #e7b177",
"#G5 c #e7b178",
"#Gx c #e7b179",
"#LU c #e7b275",
"#HC c #e7b276",
"#DG c #e7b277",
"#F# c #e7b278",
"#DA c #e7b279",
"#BY c #e7b377",
"#Jc c #e7b378",
"#FB c #e7b379",
"#FU c #e7b37a",
"#DU c #e7b478",
"#Ev c #e7b479",
"#Gq c #e7b47a",
"#G7 c #e7b57b",
"#gH c #e7c6a1",
"#iC c #e7c8a9",
"#j0 c #e7c9a3",
"#eT c #e7cbac",
"#is c #e7cdaa",
"#ij c #e7cdab",
"#ii c #e7cdad",
"#lv c #e7cea3",
"#f8 c #e7cea4",
"#lz c #e7cea5",
"#ly c #e7cea6",
"#lK c #e7cea8",
"#lA c #e7ceaa",
"#iB c #e7ceab",
"#kZ c #e7cfa8",
"#kT c #e7cfab",
"#kR c #e7cfac",
"#kY c #e7d0a9",
"#lF c #e7d0ab",
"#lE c #e7d0ac",
"#nI c #e7d2a9",
"#nS c #e7d2aa",
"#nP c #e7d2ac",
"#p0 c #e7d9af",
"#ps c #e7dab0",
"#eI c #e7e1d8",
"#bh c #e7e2d8",
"#be c #e7e3d5",
"#bg c #e7e3d7",
".9N c #e7e3dc",
"#dy c #e7e4dd",
"#dt c #e7e4df",
"#dz c #e7e5dd",
"#bc c #e7e6d7",
"#dw c #e7e6de",
".79 c #e7e7e3",
"#c3 c #e7e9e5",
".75 c #e7ebe6",
"##I c #e7ede7",
"##v c #e7ede8",
"##H c #e7eee6",
"##B c #e7eee7",
"##x c #e7eee8",
".6m c #e7f9f8",
".5W c #e7fafe",
".2w c #e7ffff",
"#NK c #e8ae74",
"#NQ c #e8ae75",
"#K3 c #e8af73",
"#K4 c #e8af74",
"#Jf c #e8af75",
"#Mn c #e8af76",
"#GL c #e8af77",
"#Mb c #e8b074",
"#Jp c #e8b075",
"#Ia c #e8b076",
"#Nb c #e8b077",
"#GN c #e8b078",
"#Kw c #e8b175",
"#Kd c #e8b176",
"#HE c #e8b177",
"#F6 c #e8b178",
"#GQ c #e8b179",
"#Ml c #e8b274",
"#J3 c #e8b275",
"#Jd c #e8b276",
"#Er c #e8b277",
"#Hw c #e8b278",
"#FW c #e8b279",
"#Mm c #e8b375",
"#Gh c #e8b377",
"#Lu c #e8b378",
"#Hy c #e8b379",
"#E. c #e8b37a",
"#C9 c #e8b478",
"#DH c #e8b47a",
"#Fm c #e8b47b",
"#Ck c #e8b579",
"#Bj c #e8b57b",
"#AA c #e8b67e",
"#gp c #e8c6a0",
"#gq c #e8c6a1",
"#k1 c #e8cbac",
"#eU c #e8ccae",
"#lB c #e8ceac",
"#lJ c #e8cfa7",
"#jm c #e8d0ad",
"#jN c #e8d1a6",
"#f7 c #e8d1aa",
"#mS c #e8d4ab",
"#f6 c #e8d4ad",
"#f5 c #e8d4ae",
"#f4 c #e8d4af",
"#jO c #e8d5ad",
"#jP c #e8d5af",
"#f3 c #e8d5b0",
"#nK c #e8d6ac",
"#oy c #e8d9ae",
"#eD c #e8e2d7",
"#bi c #e8e3d9",
"##l c #e8e3de",
"#bf c #e8e4d6",
"#ds c #e8e5e1",
"#dq c #e8e8e7",
"#d. c #e8e9e5",
"#d# c #e8e9e6",
"#aL c #e8ebe4",
"#aX c #e8ece8",
"##C c #e8efe7",
"##E c #e8efe8",
"##J c #e8efe9",
"##D c #e8f0e8",
".52 c #e8ffff",
"#O. c #e9af74",
"#N7 c #e9af75",
"#NC c #e9af76",
"#Mq c #e9af77",
"#Lv c #e9b074",
"#MC c #e9b075",
"#ID c #e9b076",
"#Ko c #e9b077",
"#GK c #e9b078",
"#LI c #e9b174",
"#LP c #e9b175",
"#I. c #e9b176",
"#I# c #e9b177",
"#IT c #e9b178",
"#K1 c #e9b275",
"#LA c #e9b276",
"#Ju c #e9b277",
"#JE c #e9b278",
"#H0 c #e9b279",
"#Hk c #e9b27a",
"#zW c #e9b27d",
"#LV c #e9b376",
"#IJ c #e9b377",
"#C# c #e9b378",
"#He c #e9b379",
"#GD c #e9b37a",
"#MF c #e9b37b",
"#LL c #e9b476",
"#DR c #e9b478",
"#HP c #e9b479",
"#DV c #e9b47a",
"#FV c #e9b47b",
"#ES c #e9b47d",
"#C8 c #e9b579",
"#Dx c #e9b57a",
"#E# c #e9b57b",
"#Fn c #e9b57c",
"#DN c #e9b67a",
"#CS c #e9b67b",
"#Eg c #e9b77b",
"#gK c #e9c89f",
"#f9 c #e9cda1",
"#eV c #e9cdb0",
"#g# c #e9cea2",
"#ie c #e9cea3",
"#lw c #e9cea6",
"#jl c #e9d1ac",
"#nO c #e9d1ad",
"#nM c #e9d4ae",
"#jQ c #e9d5ae",
"#iU c #e9d6af",
"#iV c #e9d7af",
"#p5 c #e9d8ac",
"#pr c #e9d9ae",
"#km c #e9d9b2",
"#pz c #e9daaf",
"#p6 c #e9dab0",
"#sE c #e9dbad",
"#pq c #e9dbae",
"#o0 c #e9dbaf",
"#sF c #e9ddac",
"#dr c #e9e6e4",
"#dv c #e9e8e1",
".ZD c #e9e9e7",
".0O c #e9eae7",
".61 c #e9eaea",
"#aI c #e9ebe3",
"#.d c #e9ebea",
"#aJ c #e9ece3",
"#aK c #e9ece4",
"#aY c #e9ece9",
"#ar c #e9ede6",
"#aZ c #e9ede9",
"##L c #e9edeb",
"##K c #e9eeea",
"##3 c #e9efeb",
".70 c #e9f1ea",
".Wy c #e9ffff",
"#NL c #eaaf76",
"#Ih c #eab076",
"#IF c #eab077",
"#J7 c #eab078",
"#MR c #eab174",
"#LB c #eab175",
"#MZ c #eab176",
"#Is c #eab177",
"#Mf c #eab178",
"#LM c #eab179",
"#K2 c #eab275",
"#Ky c #eab276",
"#Ii c #eab277",
"#Js c #eab278",
"#N# c #eab279",
"#Nf c #eab27a",
"#MJ c #eab375",
"#LD c #eab376",
"#L8 c #eab377",
"#I5 c #eab378",
"#JH c #eab379",
"#GF c #eab37a",
"#GS c #eab37b",
"#AF c #eab37c",
"#K0 c #eab477",
"#JC c #eab478",
"#Ei c #eab479",
"#Es c #eab47a",
"#BV c #eab47b",
"#GA c #eab47c",
"#DF c #eab579",
"#Lm c #eab57a",
"#GE c #eab57b",
"#FF c #eab57c",
"#Ej c #eab57d",
"#D. c #eab67a",
"#B9 c #eab67b",
"#C2 c #eab67c",
"#Gp c #eab67d",
"#ER c #eab77b",
"#Bo c #eab77d",
"#jY c #eacaa0",
"#ib c #eacba5",
"#jy c #eacd9e",
"#jX c #eacda4",
"#jT c #ead3af",
"#jU c #ead3b1",
"#jR c #ead4ae",
"#jS c #ead4af",
"#mZ c #ead5ad",
"#oi c #ead5af",
"#mW c #ead7ac",
"#mX c #ead8ac",
"#nL c #ead8ae",
"#kj c #ead8af",
"#iW c #ead8b0",
"#qH c #ead8b1",
"#iY c #ead9ad",
"#l3 c #ead9ae",
"#l0 c #ead9b0",
"#ny c #ead9b1",
"#lQ c #ead9b2",
"#o2 c #eadaac",
"#mE c #eadaad",
"#kl c #eadaae",
"#lm c #eadaaf",
"#lR c #eadab0",
"#kn c #eadab1",
"#oG c #eadab2",
"#o9 c #eadab3",
"#nx c #eadab4",
"#p7 c #eadbb2",
"#oF c #eadcb1",
"##N c #eaeceb",
".71 c #eaf0e7",
".6Z c #eafafd",
"#.u c #eafffe",
"#J6 c #ebb079",
"#Lh c #ebb177",
"#KA c #ebb178",
"#AE c #ebb17a",
"#LC c #ebb276",
"#NV c #ebb277",
"#If c #ebb278",
"#Mo c #ebb279",
"#Me c #ebb27a",
"#N6 c #ebb27b",
"#Nz c #ebb375",
"#LH c #ebb376",
"#M. c #ebb377",
"#Ij c #ebb378",
"#Ie c #ebb379",
"#LW c #ebb37a",
"#GO c #ebb37b",
"#Ne c #ebb478",
"#IH c #ebb479",
"#KH c #ebb47a",
"#FZ c #ebb47b",
"#GI c #ebb47c",
"#HG c #ebb579",
"#Eb c #ebb57a",
"#Ht c #ebb57b",
"#DP c #ebb57c",
"#HL c #ebb57d",
"#J4 c #ebb678",
"#HN c #ebb67b",
"#EK c #ebb67c",
"#E9 c #ebb67d",
"#CJ c #ebb77b",
"#EV c #ebb77c",
"#CN c #ebb77d",
"#B1 c #ebb77e",
"#BZ c #ebb879",
"#H3 c #ebb87c",
"#Ge c #ebb87d",
"#Fb c #ebb87e",
"#D2 c #ebb97f",
"#yP c #ebba85",
"#go c #ebc49e",
"#jZ c #ebc99f",
"#jz c #ebce9f",
"#lx c #ebcea7",
"#mL c #ebcf9e",
"#jM c #ebcfa2",
"#hG c #ebd09b",
"#hI c #ebd0a0",
"#jk c #ebd1aa",
"#mO c #ebd4ad",
"#jV c #ebd4ae",
"#hF c #ebd5a3",
"#oN c #ebd6a7",
"#pJ c #ebd6ab",
"#nn c #ebd6ac",
"#mY c #ebd6ae",
"#mb c #ebd6b0",
"#oS c #ebd7ab",
"#mV c #ebd7ac",
"#mT c #ebd7ae",
"#ma c #ebd7b0",
"#oj c #ebd8a9",
"#qA c #ebd8aa",
"#ti c #ebd8ab",
"#lP c #ebd8ae",
"#sd c #ebd8af",
"#ob c #ebd8b0",
"#hA c #ebd8b1",
"#va c #ebd9aa",
"#hE c #ebd9ab",
"#hD c #ebd9ac",
"#hC c #ebd9ad",
"#iX c #ebd9ae",
"#hB c #ebd9af",
"#kk c #ebd9b0",
"#hz c #ebd9b1",
"#lp c #ebd9b2",
"#l9 c #ebdaa9",
"#o6 c #ebdaab",
"#l8 c #ebdaac",
"#kx c #ebdaad",
"#kF c #ebdaae",
"#ln c #ebdaaf",
"#ky c #ebdab0",
"#lo c #ebdab1",
"#l2 c #ebdab2",
"#o8 c #ebdab6",
"#nw c #ebdbad",
"#o# c #ebdbae",
"#py c #ebdbb0",
"#px c #ebdbb1",
"#l1 c #ebdbb2",
"#aH c #ebeae3",
"#aM c #ebebe4",
"#aF c #ebece5",
"#aW c #ebefeb",
".9u c #ebf1ea",
"#bK c #ebf2eb",
"#NP c #ecb177",
"#Kz c #ecb178",
"#LZ c #ecb278",
"#Ou c #ecb279",
"#N1 c #ecb378",
"#Ig c #ecb379",
"#L7 c #ecb37a",
"#K# c #ecb37b",
"#Nd c #ecb478",
"#H9 c #ecb479",
"#Jo c #ecb47a",
"#Je c #ecb57a",
"#KM c #ecb57b",
"#IZ c #ecb57c",
"#GC c #ecb57d",
"#IU c #ecb67a",
"#Eq c #ecb67b",
"#IW c #ecb67c",
"#Eu c #ecb67d",
"#Hp c #ecb67e",
"#K8 c #ecb779",
"#Ed c #ecb77b",
"#Hr c #ecb77c",
"#E7 c #ecb77d",
"#Dt c #ecb77e",
"#EU c #ecb77f",
"#D# c #ecb87c",
"#DT c #ecb87d",
"#Da c #ecb87e",
"#Ds c #ecb87f",
"#FH c #ecb880",
"#FI c #ecb881",
"#EX c #ecb97e",
"#F8 c #ecb97f",
"#G3 c #ecb980",
"#I1 c #ecba81",
"#gJ c #ecc79e",
"#gI c #ecc89f",
"#e7 c #eccc9e",
"#g. c #eccca2",
"#k2 c #eccca4",
"#jx c #eccd9c",
"#jH c #eccda3",
"#jA c #ecce9f",
"#hJ c #ecd09f",
"#w1 c #ecd19f",
"#mn c #ecd1a2",
"#rn c #ecd1a9",
"#uw c #ecd29d",
"#rA c #ecd2a3",
"#lu c #ecd2a5",
"#rB c #ecd3a3",
"#jW c #ecd3aa",
"#oZ c #ecd4a6",
"#hH c #ecd4a8",
"#p# c #ecd4ab",
"#w0 c #ecd5a1",
"#pa c #ecd5ac",
"#jg c #ecd6a7",
"#ll c #ecd6a8",
"#lV c #ecd6ac",
"#oJ c #ecd6ad",
"#mc c #ecd6b1",
"#oO c #ecd7a8",
"#pp c #ecd7aa",
"#nh c #ecd7ac",
"#oR c #ecd7ad",
"#kL c #ecd7ae",
"#mg c #ecd7af",
"#mh c #ecd7b0",
"#md c #ecd7b2",
"#ok c #ecd8aa",
"#nU c #ecd8ab",
"#mU c #ecd8ac",
"#nb c #ecd8ad",
"#mI c #ecd8ae",
"#nk c #ecd8af",
"#nl c #ecd8b0",
"#qb c #ecd9ab",
"#m. c #ecd9ac",
"#iZ c #ecd9ad",
"#pM c #ecd9ae",
"#kG c #ecd9af",
"#o7 c #ecd9b0",
"#hy c #ecd9b1",
"#hx c #ecd9b2",
"#kz c #ecd9b3",
"#t# c #ecd9b6",
"#t. c #ecd9b7",
"#oQ c #ecdaa9",
"#kH c #ecdaaa",
"#om c #ecdaab",
"#nV c #ecdaac",
"#nz c #ecdaae",
"#no c #ecdaaf",
"#ng c #ecdab0",
"#lU c #ecdab1",
"#nf c #ecdab2",
"#pE c #ecdab3",
"#oH c #ecdbad",
"#ot c #ecdbaf",
"#n0 c #ecdbb0",
"#pL c #ecdbb1",
"#ta c #ecdbb2",
"#vS c #ecdca6",
"#du c #eceae5",
"#aG c #ecebe5",
"##M c #ecebea",
".8i c #ecebeb",
"#aO c #eceee2",
"#aE c #eceee7",
"#ag c #eceee9",
"#aD c #ecefe7",
".6G c #ecefe9",
"#a8 c #ecefed",
"#a9 c #ecefee",
"#b. c #ecf0f0",
"#aw c #ecf1e9",
".7Z c #ecf2ea",
".7D c #ecfbfc",
".5D c #ecffff",
"#N5 c #edb278",
"#Nw c #edb479",
"#Jv c #edb47a",
"#LO c #edb578",
"#L# c #edb579",
"#Id c #edb57a",
"#Ic c #edb57b",
"#IN c #edb67b",
"#Bn c #edb67c",
"#GT c #edb67d",
"#HZ c #edb67e",
"#IO c #edb77b",
"#Ey c #edb77c",
"#E8 c #edb77d",
"#JJ c #edb77e",
"#G0 c #edb77f",
"#DJ c #edb780",
"#Cl c #edb87c",
"#E0 c #edb87d",
"#E1 c #edb87e",
"#E3 c #edb87f",
"#FR c #edb880",
"#Fs c #edb881",
"#CI c #edb97d",
"#EP c #edb97e",
"#DQ c #edb97f",
"#B7 c #edb980",
"#D3 c #edb982",
"#Cb c #edba7e",
"#HQ c #edba80",
"#CO c #edbb80",
"#FM c #edbb81",
"#Ao c #edbf8a",
"#uZ c #edc187",
"#yo c #edc188",
"#t6 c #edc289",
"#gn c #edc29e",
"#zu c #edc38e",
"#tS c #edc48e",
"#zt c #edc58f",
"#ju c #edcca2",
"#mJ c #edcd9c",
"#jF c #edcda1",
"#jG c #edcda2",
"#jI c #edce9d",
"#k3 c #edce9f",
"#jE c #edcea0",
"#h5 c #edcea2",
"#k4 c #edcf9e",
"#jc c #edcf9f",
"#qK c #edd19e",
"#rz c #edd1a4",
"#rl c #edd2a1",
"#pX c #edd2a2",
"#rC c #edd3a4",
"#of c #edd3a5",
"#or c #edd3a6",
"#n3 c #edd4a3",
"#qa c #edd4a4",
"#jb c #edd4a6",
"#p1 c #edd4a8",
"#jj c #edd4a9",
"#ji c #edd5a5",
"#qc c #edd5a6",
"#j. c #edd5a7",
"#i3 c #edd5a8",
"#r6 c #edd6a3",
"#rt c #edd6a7",
"#jh c #edd6a8",
"#i2 c #edd6ac",
"#mN c #edd6ad",
"#oK c #edd6ae",
"#me c #edd6b0",
"#vR c #edd7a3",
"#mM c #edd7a6",
"#p4 c #edd7a7",
"#nj c #edd7a8",
"#nH c #edd7ab",
"#mo c #edd7ac",
"#ur c #edd7ad",
"#mj c #edd7ae",
"#mi c #edd7af",
"#mf c #edd7b0",
"#oM c #edd7b1",
"#lT c #edd8ac",
"#n6 c #edd8ad",
"#kq c #edd8af",
"#nm c #edd8b0",
"#oL c #edd8b1",
"#pb c #edd8b2",
"#s8 c #edd8b3",
"#mF c #edd9a7",
"#pw c #edd9a9",
"#ol c #edd9ab",
"#lS c #edd9ac",
"#n5 c #edd9ad",
"#o. c #edd9ae",
"#tX c #edd9af",
"#qI c #edd9b0",
"#ow c #edd9b1",
"#sz c #edd9b2",
"#r7 c #eddaa9",
"#l7 c #eddaaa",
"#q9 c #eddaad",
"#lq c #eddaae",
"#m# c #eddaaf",
"#sA c #eddab0",
"#p8 c #eddab2",
"#kA c #eddab4",
"#vc c #eddbac",
"#rK c #eddbae",
"#qN c #eddbb1",
"#qG c #eddbb2",
"#qO c #eddbb3",
"#bV c #edece8",
"#a7 c #ededed",
".9V c #edeee9",
".8B c #edefed",
"#.G c #edf0ec",
".9t c #edf1ec",
"#.I c #edf1ee",
".72 c #edf2e9",
"#b# c #edf2f0",
"#.g c #edf3f0",
"#aq c #edf4ea",
"##5 c #edf4ee",
".2b c #edf5f0",
"#a3 c #edf8ed",
".49 c #edf8fc",
".5k c #edfaf4",
".1X c #edfcf6",
".7k c #edfcfd",
".4m c #edfcfe",
".0T c #edfdfc",
".3o c #edfff9",
".6j c #edffff",
"#II c #eeb57b",
"#Lc c #eeb67a",
"#JV c #eeb67b",
"#JY c #eeb67c",
"#HV c #eeb67d",
"#Fk c #eeb67e",
"#Nt c #eeb77b",
"#I2 c #eeb77c",
"#C4 c #eeb77d",
"#H. c #eeb77e",
"#FX c #eeb77f",
"#Lq c #eeb87b",
"#JK c #eeb87c",
"#C7 c #eeb87d",
"#Lk c #eeb87e",
"#E6 c #eeb87f",
"#H1 c #eeb880",
"#DW c #eeb882",
"#GZ c #eeb97e",
"#E2 c #eeb97f",
"#FS c #eeb980",
"#CR c #eeba7e",
"#CT c #eeba7f",
"#FA c #eeba80",
"#Di c #eeba81",
"#Eh c #eebb7f",
"#EY c #eebb80",
"#FN c #eebb81",
"#Gw c #eebc82",
"#Fd c #eebd84",
"#zC c #eec38a",
"#zD c #eec38b",
"#u# c #eec38c",
"#yR c #eec48b",
"#yX c #eec48c",
"#yQ c #eec48e",
"#tT c #eec58e",
"#gm c #eec9a1",
"#e4 c #eecd9b",
"#jD c #eecd9e",
"#jK c #eecd9f",
"#hW c #eece9a",
"#ga c #eece9c",
"#hQ c #eece9d",
"#jB c #eecea0",
"#q# c #eecea1",
"#h4 c #eecf9f",
"#ve c #eecfa3",
"#k5 c #eed09d",
"#tj c #eed0a3",
"#p. c #eed199",
"#k6 c #eed19e",
"#h1 c #eed1a0",
"#oW c #eed1a1",
"#vN c #eed1a3",
"#rk c #eed2a1",
"#i5 c #eed2a4",
"#rr c #eed2a6",
"#nc c #eed3a3",
"#rD c #eed3a4",
"#tf c #eed3a5",
"#rs c #eed4a7",
"#n9 c #eed4a8",
"#kt c #eed4a9",
"#jf c #eed5a6",
"#pZ c #eed5a7",
"#j# c #eed5a8",
"#ux c #eed6a5",
"#qk c #eed6a7",
"#i0 c #eed6a8",
"#i4 c #eed6a9",
"#m9 c #eed6af",
"#qL c #eed7a9",
"#pA c #eed7aa",
"#oq c #eed7ab",
"#mq c #eed7ad",
"#mk c #eed7af",
"#qn c #eed7b0",
"#lr c #eed8a6",
"#n4 c #eed8aa",
"#uq c #eed8ab",
"#rG c #eed8ac",
"#mp c #eed8ad",
"#oE c #eed8ae",
"#kr c #eed8af",
"#qB c #eed8b0",
"#oP c #eed9a9",
"#tb c #eed9aa",
"#se c #eed9ab",
"#rJ c #eed9ac",
"#ko c #eed9ae",
"#kK c #eed9af",
"#oh c #eed9b0",
"#ox c #eed9b1",
"#s9 c #eed9b2",
"#s7 c #eed9b4",
"#kI c #eedaab",
"#kE c #eedaac",
"#kJ c #eedaad",
"#s. c #eedaae",
"#pK c #eedaaf",
"#qF c #eedab0",
"#nA c #eedab1",
"#vd c #eedbac",
"#vb c #eedbad",
"#qM c #eedbb1",
".0N c #eeeeec",
".8b c #eeefea",
".ZC c #eeefec",
".62 c #eef0ed",
"#aV c #eef1ed",
"#at c #eef2e9",
"#b1 c #eef3eb",
"#a5 c #eef3ed",
"#b5 c #eef4eb",
".8J c #eef4ed",
".7f c #eef4f1",
"#an c #eef6ec",
"#a4 c #eef6ee",
".5. c #eef8fb",
".6k c #eefbff",
".3n c #eefffc",
"##g c #eeffff",
"#Fw c #efb27d",
"#JT c #efb67c",
"#LN c #efb77b",
"#Iu c #efb77c",
"#IB c #efb77d",
"#LX c #efb87d",
"#Fj c #efb87f",
"#AD c #efb880",
"#Ec c #efb97d",
"#IK c #efb97e",
"#GX c #efb97f",
"#BW c #efb980",
"#Hq c #efb981",
"#GY c #efba7e",
"#EQ c #efba80",
"#E4 c #efba81",
"#FG c #efba82",
"#CK c #efbb7f",
"#CX c #efbb80",
"#Cf c #efbb81",
"#E5 c #efbb82",
"#CW c #efbb83",
"#Fi c #efbc80",
"#FC c #efbc82",
"#Ee c #efbd80",
"#AZ c #efbf87",
"#Dg c #efc086",
"#ue c #efc087",
"#EJ c #efc088",
"#EH c #efc187",
"#ud c #efc18a",
"#sx c #efc18d",
"#An c #efc28d",
"#zR c #efc38c",
"#yZ c #efc48d",
"#vr c #efc58c",
"#ty c #efc58e",
"#yW c #efc58f",
"#sn c #efcc9b",
"#jw c #efcd98",
"#uG c #efcd99",
"#so c #efcd9a",
"#mK c #efcd9c",
"#jJ c #efcd9d",
"#e6 c #efce9a",
"#gb c #efce9b",
"#e5 c #efce9c",
"#hR c #efce9d",
"#jL c #efce9f",
"#jC c #efcea0",
"#mw c #efcea1",
"#hU c #efcf9a",
"#hT c #efcf9b",
"#hS c #efcf9c",
"#pF c #efd09c",
"#uv c #efd09d",
"#hK c #efd09e",
"#h0 c #efd09f",
"#on c #efd0a6",
"#ws c #efd19a",
"#ov c #efd19d",
"#k7 c #efd19e",
"#po c #efd19f",
"#qP c #efd1a0",
"#h2 c #efd1a1",
"#pP c #efd1a2",
"#pD c #efd1a3",
"#uo c #efd1a4",
"#rm c #efd1a7",
"#kB c #efd2a2",
"#nv c #efd2a3",
"#rq c #efd2a6",
"#to c #efd3a0",
"#rj c #efd3a2",
"#n# c #efd3a7",
"#nq c #efd3ac",
"#wZ c #efd4a0",
"#ri c #efd4a3",
"#pI c #efd4a6",
"#us c #efd5a4",
"#pY c #efd6a7",
"#mG c #efd6a8",
"#ja c #efd6a9",
"#np c #efd6af",
"#ml c #efd6b4",
"#l4 c #efd7a4",
"#nB c #efd7a8",
"#lZ c #efd7a9",
"#mD c #efd7aa",
"#mC c #efd7ac",
"#mB c #efd7ad",
"#kw c #efd8a8",
"#oa c #efd8aa",
"#mr c #efd8ab",
"#r9 c #efd8ac",
"#kp c #efd8ad",
"#r8 c #efd8ae",
"#oV c #efd8af",
"#og c #efd8b0",
"#oc c #efd9a9",
"#rL c #efd9ac",
"#s# c #efd9ae",
"#qZ c #efd9b0",
"#qX c #efd9b2",
"#qE c #efdab0",
"#q0 c #efdab1",
"#qC c #efdbb1",
"#aN c #efeae3",
".7W c #efefe8",
"#.O c #eff0eb",
".7V c #eff1e6",
"#.Q c #eff2ef",
"#.f c #eff3f1",
"#as c #eff4ec",
"##4 c #eff4ef",
"##9 c #eff4f0",
".6I c #eff4f1",
"#.k c #eff4f2",
"#bM c #eff5ec",
"#.C c #eff5ed",
".8e c #eff5ee",
"##8 c #eff5f0",
"#am c #eff6ec",
".8K c #eff7f1",
".5j c #eff7f2",
".48 c #eff7fc",
".5l c #effbf7",
".8M c #effbfd",
".ZI c #effefd",
".2k c #efffff",
"#Bm c #f0b67b",
"#IE c #f0b77d",
"#Jn c #f0b77e",
"#LK c #f0b87c",
"#Jj c #f0b87d",
"#JS c #f0b87e",
"#Kb c #f0b87f",
"#Ka c #f0b881",
"#zV c #f0b883",
"#Lb c #f0b97d",
"#DS c #f0b97e",
"#J9 c #f0b97f",
"#IY c #f0b980",
"#Et c #f0b981",
"#Le c #f0ba7d",
"#KB c #f0ba7e",
"#Hc c #f0ba7f",
"#BI c #f0ba81",
"#ME c #f0ba82",
"#HB c #f0bb7f",
"#JL c #f0bb80",
"#EZ c #f0bb81",
"#Ch c #f0bb82",
"#FY c #f0bb83",
"#Li c #f0bc80",
"#C. c #f0bc81",
"#Bk c #f0bc82",
"#Fp c #f0bc83",
"#CU c #f0bd81",
"#Fc c #f0bd83",
"#Fh c #f0bd84",
"#Db c #f0be88",
"#tH c #f0bf84",
"#t5 c #f0bf88",
"#tI c #f0c085",
"#xE c #f0c088",
"#yO c #f0c08a",
"#ua c #f0c187",
"#xS c #f0c188",
"#t7 c #f0c18a",
"#z3 c #f0c18c",
"#Dh c #f0c283",
"#D1 c #f0c285",
"#zB c #f0c28a",
"#uR c #f0c28b",
"#u2 c #f0c291",
"#uW c #f0c38a",
"#uV c #f0c38b",
"#vi c #f0c38d",
"#vB c #f0c38e",
"#El c #f0c488",
"#sN c #f0c48c",
"#sW c #f0c48d",
"#we c #f0c48f",
"#vZ c #f0c490",
"#y0 c #f0c58d",
"#A5 c #f0c590",
"#yU c #f0c592",
"#sQ c #f0c690",
"#y5 c #f0c691",
"#wh c #f0c78c",
"#CP c #f0c88a",
"#yb c #f0c991",
"#DD c #f0ca8c",
"#e3 c #f0cc9b",
"#sp c #f0cd99",
"#hX c #f0cd9b",
"#jv c #f0cd9c",
"#mx c #f0cd9d",
"#hP c #f0cd9e",
"#gi c #f0ce9a",
"#e0 c #f0ce9b",
"#eY c #f0ce9c",
"#eX c #f0ce9d",
"#qs c #f0ce9f",
"#xb c #f0cf97",
"#gh c #f0cf9a",
"#hV c #f0cf9b",
"#uu c #f0cf9c",
"#nY c #f0cf9d",
"#xa c #f0d097",
"#yi c #f0d09a",
"#pn c #f0d09d",
"#n2 c #f0d09e",
"#ut c #f0d09f",
"#h3 c #f0d0a1",
"#s4 c #f0d19e",
"#os c #f0d19f",
"#rM c #f0d29e",
"#sa c #f0d2a1",
"#qz c #f0d2a3",
"#nC c #f0d3a1",
"#wV c #f0d3a3",
"#lt c #f0d3a4",
"#oI c #f0d3a5",
"#mm c #f0d3ab",
"#p3 c #f0d4a2",
"#lk c #f0d4a3",
"#nr c #f0d4a4",
"#n. c #f0d4ac",
"#wu c #f0d5a3",
"#rd c #f0d5a4",
"#qj c #f0d5a8",
"#pe c #f0d6a7",
"#ql c #f0d6a8",
"#op c #f0d6a9",
"#q8 c #f0d6ab",
"#vL c #f0d7a7",
"#mH c #f0d7ab",
"#oD c #f0d7ad",
"#uz c #f0d8ab",
"#sc c #f0d8ae",
"#qY c #f0d8b1",
"#s6 c #f0d8b4",
"#mA c #f0d9a9",
"#th c #f0d9aa",
"#tg c #f0d9ab",
"#ms c #f0daad",
"#ks c #f0dab1",
"#qD c #f0dbb2",
"#a6 c #f0eeee",
"#ca c #f0efeb",
"#aP c #f0f0ed",
".0P c #f0f0ee",
"#ba c #f0f0ef",
".7Y c #f0f1ea",
"#ck c #f0f2ee",
".4Y c #f0f2ef",
"#cj c #f0f2f0",
".5a c #f0f3ed",
".73 c #f0f3ee",
".9s c #f0f3f0",
"#bN c #f0f4ec",
"#.D c #f0f4ed",
".8T c #f0f4ee",
"#a# c #f0f4f0",
"#b2 c #f0f5ed",
".74 c #f0f5ee",
".8f c #f0f5ef",
"#.p c #f0f5f0",
"#.j c #f0f5f2",
"#ao c #f0f6ec",
"#aC c #f0f6ed",
"#aB c #f0f6ee",
"#.B c #f0f7ee",
"##6 c #f0f7f2",
".7v c #f0fcf8",
".5v c #f0fdff",
"##h c #f0feff",
".WD c #f0ffff",
"#Iv c #f1b87e",
"#KW c #f1b880",
"#L. c #f1b97c",
"#Iw c #f1b97e",
"#It c #f1b97f",
"#HY c #f1b980",
"#J2 c #f1ba7f",
"#JF c #f1ba80",
"#G6 c #f1ba81",
"#FE c #f1ba82",
"#LT c #f1bb7f",
"#Hb c #f1bb80",
"#La c #f1bb81",
"#F1 c #f1bb82",
"#C0 c #f1bc80",
"#J0 c #f1bc81",
"#HI c #f1bc82",
"#CV c #f1bc83",
"#EL c #f1bc84",
"#C1 c #f1bd81",
"#Fl c #f1bd82",
"#CM c #f1bd83",
"#Fy c #f1bd84",
"#FQ c #f1bd85",
"#FJ c #f1bd86",
"#Lt c #f1be82",
"#BC c #f1be84",
"#AB c #f1be85",
"#BN c #f1bf82",
"#Dw c #f1bf83",
"#F7 c #f1bf84",
"#Bp c #f1bf85",
"#xC c #f1bf87",
"#A8 c #f1bf88",
"#ya c #f1bf8a",
"#EG c #f1c084",
"#BD c #f1c085",
"#x9 c #f1c087",
"#uc c #f1c088",
"#y# c #f1c089",
"#A2 c #f1c08b",
"#uO c #f1c08c",
"#B# c #f1c186",
"#At c #f1c187",
"#yL c #f1c188",
"#xT c #f1c189",
"#A1 c #f1c18a",
"#w7 c #f1c18b",
"#u0 c #f1c287",
"#De c #f1c288",
"#B6 c #f1c289",
"#xX c #f1c28a",
"#wC c #f1c28b",
"#yY c #f1c28c",
"#vW c #f1c28d",
"#yn c #f1c388",
"#wy c #f1c38a",
"#sY c #f1c38c",
"#vj c #f1c38d",
"#zi c #f1c48d",
"#zj c #f1c48e",
"#Ap c #f1c48f",
"#vA c #f1c490",
"#uf c #f1c58c",
"#y1 c #f1c58d",
"#zk c #f1c58e",
"#zl c #f1c58f",
"#zm c #f1c590",
"#tD c #f1c68e",
"#tC c #f1c68f",
"#CQ c #f1c78a",
"#w4 c #f1c78e",
"#sS c #f1c790",
"#sZ c #f1c892",
"#DE c #f1c98b",
"#tt c #f1cb98",
"#e2 c #f1cc9b",
"#tF c #f1cc9d",
"#gd c #f1cd9b",
"#hO c #f1cd9d",
"#te c #f1cd9e",
"#vT c #f1cd9f",
"#xI c #f1ce96",
"#r2 c #f1ce98",
"#gk c #f1ce99",
"#gg c #f1ce9a",
"#gc c #f1ce9b",
"#e1 c #f1ce9c",
"#my c #f1ce9d",
"#oe c #f1ce9e",
"#n8 c #f1cea0",
"#v2 c #f1cf98",
"#yg c #f1cf99",
"#nZ c #f1cf9b",
"#oY c #f1cf9c",
"#un c #f1cf9d",
"#eZ c #f1cf9e",
"#vI c #f1cf9f",
"#pm c #f1cfa0",
"#q1 c #f1cfa1",
"#tk c #f1cfa2",
"#xM c #f1d098",
"#oX c #f1d099",
"#yh c #f1d09a",
"#sh c #f1d09b",
"#yj c #f1d09d",
"#pG c #f1d09e",
"#pB c #f1d09f",
"#ry c #f1d0a0",
"#qt c #f1d0a1",
"#oT c #f1d0a3",
"#s3 c #f1d19d",
"#td c #f1d19e",
"#k8 c #f1d19f",
"#l6 c #f1d29d",
"#qJ c #f1d2a1",
"#p9 c #f1d2a2",
"#pd c #f1d2a6",
"#od c #f1d3a1",
"#i9 c #f1d3a3",
"#na c #f1d3a4",
"#qu c #f1d3a5",
"#qW c #f1d3a7",
"#tc c #f1d4a1",
"#vK c #f1d4a4",
"#qg c #f1d4a5",
"#qv c #f1d4a6",
"#rg c #f1d4a8",
"#ns c #f1d5a3",
"#re c #f1d5a4",
"#oz c #f1d5a6",
"#rh c #f1d5a7",
"#i1 c #f1d5a8",
"#tY c #f1d5a9",
"#r. c #f1d6a4",
"#up c #f1d6aa",
"#o5 c #f1d7a7",
"#sf c #f1d7a8",
"#tU c #f1d7ad",
"#uy c #f1d8a8",
"#oC c #f1d9ab",
"#mt c #f1d9ac",
"#s5 c #f1d9af",
".7X c #f1efea",
"#ae c #f1efef",
"#ad c #f1f1ee",
"#.0 c #f1f1f5",
"#ch c #f1f2ee",
"#ab c #f1f3eb",
".9b c #f1f3ed",
".5b c #f1f3ee",
"#.E c #f1f4ec",
"#aa c #f1f4ed",
".2# c #f1f4ee",
".5f c #f1f4ef",
"#.K c #f1f4f2",
".90 c #f1f4f5",
".8R c #f1f4f6",
"#ap c #f1f5ec",
"#.o c #f1f5ee",
".5i c #f1f5ef",
"#.m c #f1f5f0",
"#a. c #f1f5f1",
"#al c #f1f6ec",
".6H c #f1f6ef",
".68 c #f1f6f3",
".6v c #f1f6f5",
"#bL c #f1f7ef",
".9Y c #f1f7f1",
".6l c #f1fbfe",
".1K c #f1fdfd",
".WC c #f1ffff",
"#FL c #f2b880",
"#C6 c #f2b97f",
"#LG c #f2ba7d",
"#IC c #f2ba7f",
"#J8 c #f2ba80",
"#Lo c #f2ba81",
"#Fg c #f2ba83",
"#LF c #f2bb7e",
"#CZ c #f2bb80",
"#HH c #f2bb81",
"#J1 c #f2bb82",
"#GV c #f2bb83",
"#H2 c #f2bb84",
"#Dj c #f2bb87",
"#L9 c #f2bc80",
"#BH c #f2bc81",
"#Fa c #f2bc82",
"#Gy c #f2bc83",
"#IL c #f2bd81",
"#CH c #f2bd83",
"#DI c #f2bd84",
"#CB c #f2bd88",
"#Cm c #f2be82",
"#D7 c #f2be83",
"#DB c #f2be84",
"#Cd c #f2be85",
"#Ga c #f2be86",
"#ET c #f2be87",
"#t4 c #f2be88",
"#CG c #f2bf82",
"#BO c #f2bf83",
"#B2 c #f2bf84",
"#EA c #f2bf85",
"#xm c #f2bf86",
"#vD c #f2bf87",
"#x4 c #f2bf88",
"#wm c #f2bf8a",
"#A3 c #f2bf8c",
"#B0 c #f2c084",
"#Au c #f2c085",
"#ub c #f2c086",
"#vw c #f2c087",
"#xB c #f2c088",
"#y. c #f2c089",
"#v6 c #f2c08a",
"#wk c #f2c08b",
"#Cs c #f2c184",
"#Cv c #f2c185",
"#zd c #f2c186",
"#vs c #f2c187",
"#y9 c #f2c188",
"#vC c #f2c189",
"#A9 c #f2c18a",
"#zX c #f2c18b",
"#zG c #f2c287",
"#BS c #f2c288",
"#wc c #f2c289",
"#yt c #f2c28a",
"#AL c #f2c28b",
"#wI c #f2c388",
"#wA c #f2c38a",
"#zE c #f2c38c",
"#u1 c #f2c38d",
"#sX c #f2c48d",
"#t9 c #f2c48f",
"#wi c #f2c58b",
"#sO c #f2c58d",
"#zh c #f2c58f",
"#tu c #f2c591",
"#Fe c #f2c68c",
"#yK c #f2c68e",
"#uN c #f2c691",
"#EN c #f2c78e",
"#wG c #f2c78f",
"#v0 c #f2c793",
"#sK c #f2c893",
"#zv c #f2c994",
"#sw c #f2c996",
"#Aj c #f2ca94",
"#tR c #f2ca96",
"#kC c #f2cb9e",
"#wq c #f2cc93",
"#r3 c #f2cc97",
"#uH c #f2cc99",
"#tG c #f2cc9b",
"#id c #f2cc9c",
"#su c #f2cc9d",
"#nd c #f2cd95",
"#vV c #f2cd97",
"#sq c #f2cd99",
"#rv c #f2cd9a",
"#ro c #f2cd9b",
"#le c #f2cd9c",
"#lc c #f2cd9d",
"#ic c #f2cda1",
"#yw c #f2ce96",
"#r1 c #f2ce98",
"#gj c #f2ce99",
"#la c #f2ce9a",
"#rp c #f2ce9b",
"#lb c #f2ce9c",
"#wU c #f2ce9e",
"#vU c #f2ce9f",
"#vO c #f2cea1",
"#ne c #f2cf98",
"#wX c #f2cf99",
"#gl c #f2cf9a",
"#o3 c #f2cf9b",
"#wT c #f2cf9c",
"#nu c #f2cf9d",
"#lW c #f2cf9e",
"#tl c #f2cfa0",
"#pk c #f2cfa1",
"#je c #f2cfa3",
"#wr c #f2d099",
"#tq c #f2d09a",
"#yf c #f2d09b",
"#q7 c #f2d09c",
"#rN c #f2d09d",
"#sg c #f2d09f",
"#n7 c #f2d0a0",
"#pj c #f2d0a1",
"#wt c #f2d19e",
"#tn c #f2d19f",
"#pi c #f2d1a2",
"#ni c #f2d1a5",
"#lj c #f2d29f",
"#qf c #f2d2a0",
"#nD c #f2d2a1",
"#pH c #f2d2a2",
"#kD c #f2d2a3",
"#nE c #f2d2a4",
"#nF c #f2d2a5",
"#sG c #f2d2a6",
"#nW c #f2d2a7",
"#r# c #f2d3a1",
"#ls c #f2d3a2",
"#pv c #f2d3a4",
"#rc c #f2d3a5",
"#mv c #f2d3a6",
"#rf c #f2d3a9",
"#oB c #f2d4a4",
"#mz c #f2d4a5",
"#qh c #f2d4a6",
"#qi c #f2d4a7",
"#uA c #f2d5a7",
"#qm c #f2d7a7",
"#vM c #f2d9ab",
"#.W c #f2f2ec",
"#ac c #f2f2ed",
"#.J c #f2f2ef",
"#bO c #f2f3ed",
".9c c #f2f3ee",
".2. c #f2f3ef",
".19 c #f2f3f0",
"#ci c #f2f3f4",
"#.Z c #f2f4ea",
".9d c #f2f4ee",
"#.R c #f2f4ef",
"#cl c #f2f4f0",
"#.q c #f2f4f2",
"#.X c #f2f5ed",
"#.S c #f2f5ee",
".3D c #f2f5ef",
".9U c #f2f5f0",
".6x c #f2f5f2",
".9T c #f2f6f0",
"#.l c #f2f6f1",
".7F c #f2f7f0",
".4o c #f2f7fd",
".9X c #f2f8f2",
".5# c #f2fbfd",
".WB c #f2ffff",
"#I4 c #f3ba80",
"#Ik c #f3bb80",
"#K9 c #f3bc7f",
"#KX c #f3bc80",
"#CD c #f3bc81",
"#Hv c #f3bc83",
"#Gc c #f3bc84",
"#LQ c #f3bd81",
"#DM c #f3bd82",
"#Hu c #f3bd83",
"#FT c #f3bd84",
"#Ea c #f3bd85",
"#Lr c #f3be81",
"#CE c #f3be82",
"#Dv c #f3be83",
"#Gn c #f3be84",
"#BF c #f3be85",
"#HR c #f3be86",
"#ys c #f3be88",
"#CC c #f3be89",
"#D8 c #f3bf83",
"#B3 c #f3bf84",
"#BK c #f3bf85",
"#Ba c #f3bf86",
"#By c #f3bf87",
"#w. c #f3bf88",
"#AY c #f3bf89",
"#t8 c #f3bf8a",
"#A4 c #f3bf8c",
"#BM c #f3c084",
"#Bb c #f3c085",
"#xn c #f3c086",
"#yA c #f3c087",
"#uP c #f3c088",
"#uQ c #f3c089",
"#vE c #f3c08a",
"#wn c #f3c08b",
"#zN c #f3c185",
"#zH c #f3c186",
"#xv c #f3c187",
"#x1 c #f3c188",
"#v5 c #f3c189",
"#v9 c #f3c18a",
"#v4 c #f3c18c",
"#Aw c #f3c18e",
"#u5 c #f3c18f",
"#zI c #f3c286",
"#Cw c #f3c287",
"#yE c #f3c288",
"#v7 c #f3c289",
"#v8 c #f3c28a",
"#vp c #f3c28c",
"#zM c #f3c28d",
"#zx c #f3c386",
"#wd c #f3c388",
"#wx c #f3c38a",
"#sM c #f3c38b",
"#vl c #f3c38c",
"#vx c #f3c489",
"#yM c #f3c48a",
"#sV c #f3c48b",
"#sT c #f3c48c",
"#yV c #f3c491",
"#u4 c #f3c492",
"#Em c #f3c589",
"#ss c #f3c58b",
"#vv c #f3c58c",
"#sy c #f3c590",
"#Bz c #f3c68d",
"#wp c #f3c68e",
"#xF c #f3c68f",
"#w3 c #f3c692",
"#uX c #f3c78d",
"#zy c #f3c790",
"#vX c #f3c791",
"#v3 c #f3c794",
"#tJ c #f3c88b",
"#Cn c #f3c88e",
"#EC c #f3c98f",
"#A6 c #f3c993",
"#zs c #f3c995",
"#Cx c #f3ca92",
"#Ak c #f3ca95",
"#jd c #f3caa0",
"#lX c #f3cb96",
"#ku c #f3cb98",
"#xN c #f3cb99",
"#i7 c #f3cb9a",
"#uB c #f3cb9b",
"#r5 c #f3cb9c",
"#u8 c #f3cc96",
"#yc c #f3cc97",
"#r4 c #f3cc98",
"#sI c #f3cc99",
"#sH c #f3cc9a",
"#uC c #f3cc9b",
"#qr c #f3cc9c",
"#hL c #f3cc9d",
"#sv c #f3cc9e",
"#q. c #f3cca0",
"#u. c #f3cd96",
"#yd c #f3cd98",
"#um c #f3cd99",
"#sb c #f3cd9a",
"#hN c #f3cd9b",
"#i6 c #f3cd9c",
"#ld c #f3cd9d",
"#v# c #f3cd9e",
"#pC c #f3cd9f",
"#rT c #f3ce97",
"#si c #f3ce98",
"#gf c #f3ce99",
"#ge c #f3ce9a",
"#l# c #f3ce9b",
"#s1 c #f3ce9c",
"#pt c #f3ce9e",
"#qo c #f3ce9f",
"#oA c #f3cea0",
"#vP c #f3cea1",
"#ts c #f3cf97",
"#tr c #f3cf98",
"#wW c #f3cf99",
"#lf c #f3cf9a",
"#qV c #f3cf9b",
"#qQ c #f3cf9c",
"#o4 c #f3cf9d",
"#l5 c #f3cf9e",
"#vJ c #f3cf9f",
"#v. c #f3cfa0",
"#u9 c #f3cfa1",
"#pO c #f3cfa3",
"#xL c #f3d099",
"#zp c #f3d09a",
"#qe c #f3d09e",
"#tp c #f3d09f",
"#vQ c #f3d0a0",
"#qd c #f3d19c",
"#k9 c #f3d19f",
"#li c #f3d2a0",
"#nG c #f3d2a3",
"#oo c #f3d2a5",
"#oU c #f3d2a6",
"#ou c #f3d2a7",
"#nt c #f3d3a0",
"#n1 c #f3d3a7",
"#pf c #f3d5a6",
"#mu c #f3d7ab",
"#bU c #f3f2eb",
"#bT c #f3f2ec",
"#af c #f3f2ef",
"#aT c #f3f2f0",
"#bP c #f3f3ed",
".8c c #f3f3ee",
"#aU c #f3f3f0",
".ZB c #f3f3f1",
"#.r c #f3f3f3",
".5h c #f3f4ef",
".18 c #f3f4f1",
".6w c #f3f4f3",
".2a c #f3f5ee",
".5e c #f3f5ef",
".6y c #f3f5f1",
"#cb c #f3f5f2",
"#.A c #f3f6ef",
".5g c #f3f6f0",
"##. c #f3f6f2",
".9W c #f3f7f1",
"#aA c #f3f9f1",
"#.h c #f3f9f6",
".5z c #f3fffd",
".Wz c #f3ffff",
"#Bl c #f4ba80",
"#Io c #f4bb81",
"#Ld c #f4bb82",
"#D5 c #f4bb83",
"#Kn c #f4bc81",
"#Lg c #f4bc82",
"#Ly c #f4bc83",
"#Gm c #f4bc84",
"#En c #f4bd82",
"#KL c #f4bd83",
"#Gk c #f4bd84",
"#Gl c #f4bd85",
"#Eo c #f4bd86",
"#Hg c #f4be82",
"#C5 c #f4be83",
"#BJ c #f4be84",
"#Ep c #f4be85",
"#D4 c #f4be86",
"#w# c #f4be88",
"#LR c #f4bf82",
"#DL c #f4bf83",
"#Dz c #f4bf84",
"#EW c #f4bf85",
"#x0 c #f4bf86",
"#wa c #f4bf87",
"#AX c #f4bf88",
"#xW c #f4bf89",
"#Dr c #f4bf8a",
"#Ac c #f4bf8b",
"#Ez c #f4c084",
"#CY c #f4c085",
"#Av c #f4c086",
"#yr c #f4c087",
"#xz c #f4c088",
"#z9 c #f4c089",
"#DY c #f4c08a",
"#z5 c #f4c08b",
"#Do c #f4c08c",
"#u6 c #f4c08d",
"#xu c #f4c185",
"#A. c #f4c186",
"#zQ c #f4c187",
"#zA c #f4c188",
"#wb c #f4c189",
"#wo c #f4c18a",
"#zF c #f4c18b",
"#zZ c #f4c18c",
"#CF c #f4c285",
"#BX c #f4c286",
"#zK c #f4c288",
"#xj c #f4c289",
"#vt c #f4c28a",
"#xU c #f4c28b",
"#wB c #f4c28c",
"#wK c #f4c387",
"#zJ c #f4c388",
"#sU c #f4c389",
"#xD c #f4c38a",
"#y8 c #f4c38b",
"#vk c #f4c38d",
"#Bi c #f4c48c",
"#tv c #f4c48d",
"#wz c #f4c58c",
"#tw c #f4c58d",
"#tx c #f4c58f",
"#vg c #f4c691",
"#xy c #f4c78d",
"#BR c #f4c88c",
"#uU c #f4c890",
"#wH c #f4c990",
"#Dc c #f4c991",
"#wR c #f4c993",
"#y4 c #f4c994",
"#uk c #f4c996",
"#ui c #f4c997",
"#x. c #f4ca92",
"#uj c #f4ca94",
"#yT c #f4ca95",
"#v1 c #f4ca96",
"#uY c #f4ca97",
"#xO c #f4ca99",
"#tL c #f4ca9a",
"#Ai c #f4cb95",
"#Al c #f4cb96",
"#uF c #f4cb99",
"#uD c #f4cb9a",
"#ym c #f4cc93",
"#vq c #f4cc94",
"#tz c #f4cc95",
"#yl c #f4cc98",
"#tW c #f4cc99",
"#pU c #f4cc9a",
"#pV c #f4cc9b",
"#hM c #f4cc9c",
"#q5 c #f4cc9e",
"#wv c #f4cc9f",
"#lY c #f4cd99",
"#kv c #f4cd9a",
"#i8 c #f4cd9b",
"#rU c #f4cd9c",
"#q6 c #f4cd9d",
"#pl c #f4cd9e",
"#hZ c #f4cd9f",
"#yv c #f4ce95",
"#sk c #f4ce98",
"#sJ c #f4ce9a",
"#s0 c #f4ce9b",
"#ru c #f4ce9c",
"#rO c #f4ce9d",
"#qU c #f4ce9e",
"#q2 c #f4cea0",
"#sR c #f4cf97",
"#r0 c #f4cf98",
"#sj c #f4cf99",
"#rx c #f4cf9a",
"#sD c #f4cf9b",
"#l. c #f4cf9c",
"#qR c #f4cf9f",
"#qT c #f4cfa1",
"#x# c #f4d098",
"#lg c #f4d09c",
"#ye c #f4d09d",
"#tm c #f4d0a0",
"#nX c #f4d0a1",
"#pQ c #f4d0a2",
"#pc c #f4d0a6",
"#sB c #f4d19e",
"#ph c #f4d1a2",
"#wY c #f4d2a0",
"#pg c #f4d2a3",
"#rI c #f4d3a5",
"#tV c #f4d6ab",
"#.e c #f4f1f2",
"#.1 c #f4f1f6",
".8I c #f4f2ed",
".9Z c #f4f2f2",
"#bS c #f4f3ed",
"#bR c #f4f3ee",
".67 c #f4f3f0",
".5c c #f4f4ef",
".ZE c #f4f4f1",
".5d c #f4f5f0",
".3C c #f4f5f1",
".7r c #f4f5f2",
"#.9 c #f4f5f4",
"#.n c #f4f6ef",
".6z c #f4f6f2",
".9r c #f4f7f4",
".8U c #f4f8f3",
"##7 c #f4f9f6",
".3m c #f4fafe",
".7. c #f4fffe",
".WE c #f4ffff",
"#Fv c #f5b884",
"#Ff c #f5bb85",
"#LJ c #f5bc80",
"#Jr c #f5bc82",
"#Kl c #f5bd82",
"#Jl c #f5bd83",
"#HU c #f5bd84",
"#xe c #f5bd87",
"#Ex c #f5be83",
"#Fx c #f5be85",
"#xf c #f5be86",
"#Dd c #f5be8a",
"#Kx c #f5bf82",
"#KE c #f5bf83",
"#BG c #f5bf84",
"#GU c #f5bf85",
"#xg c #f5bf86",
"#DK c #f5bf87",
"#DZ c #f5bf89",
"#Ab c #f5bf8a",
"#AP c #f5bf8b",
"#CA c #f5bf8d",
"#KD c #f5c082",
"#Du c #f5c084",
"#Bc c #f5c085",
"#yB c #f5c086",
"#xr c #f5c087",
"#xA c #f5c088",
"#xR c #f5c089",
"#wj c #f5c08a",
"#wF c #f5c08b",
"#AG c #f5c08e",
"#AW c #f5c185",
"#yH c #f5c186",
"#zz c #f5c187",
"#xs c #f5c188",
"#z# c #f5c189",
"#sL c #f5c18a",
"#Bv c #f5c18c",
"#z4 c #f5c18d",
"#A7 c #f5c18e",
"#JA c #f5c285",
"#EO c #f5c286",
"#Dl c #f5c287",
"#z. c #f5c288",
"#yJ c #f5c289",
"#wO c #f5c28a",
"#zf c #f5c28b",
"#zL c #f5c28c",
"#Cp c #f5c28d",
"#Bx c #f5c28e",
"#AS c #f5c389",
"#xl c #f5c38a",
"#w5 c #f5c38b",
"#w6 c #f5c38c",
"#sP c #f5c38e",
"#x8 c #f5c48a",
"#Dm c #f5c48d",
"#zU c #f5c48e",
"#wL c #f5c58d",
"#yN c #f5c58e",
"#w8 c #f5c58f",
"#xc c #f5c593",
"#zY c #f5c68f",
"#w9 c #f5c690",
"#wQ c #f5c692",
"#EM c #f5c78e",
"#wM c #f5c78f",
"#wP c #f5c790",
"#xx c #f5c791",
"#tP c #f5c796",
"#uL c #f5c893",
"#uM c #f5c894",
"#uS c #f5c991",
"#uK c #f5c993",
"#y2 c #f5c995",
"#Cr c #f5ca91",
"#yS c #f5ca94",
"#Ag c #f5ca96",
"#t1 c #f5ca97",
"#tN c #f5ca9a",
"#tE c #f5cb91",
"#vm c #f5cb92",
"#tB c #f5cb93",
"#Ah c #f5cb95",
"#tK c #f5cb96",
"#uh c #f5cb98",
"#uE c #f5cb99",
"#tM c #f5cb9b",
"#q4 c #f5cb9c",
"#Co c #f5cc91",
"#ul c #f5cc98",
"#ug c #f5cc99",
"#w2 c #f5cc9a",
"#pW c #f5cc9c",
"#uI c #f5cd95",
"#wS c #f5cd97",
"#rP c #f5cd98",
"#rW c #f5cd99",
"#rV c #f5cd9a",
"#rw c #f5cd9b",
"#qx c #f5cd9c",
"#qp c #f5cd9d",
"#q3 c #f5cd9f",
"#rS c #f5ce97",
"#sl c #f5ce99",
"#pu c #f5ce9a",
"#pT c #f5ce9b",
"#qw c #f5ce9c",
"#s2 c #f5ce9d",
"#rH c #f5ce9f",
"#zn c #f5cf98",
"#rR c #f5cf99",
"#zo c #f5cf9a",
"#p2 c #f5cf9d",
"#xH c #f5d099",
"#qS c #f5d0a1",
"#lh c #f5d19e",
"#yk c #f5d3a1",
"#aR c #f5f1f1",
"#aQ c #f5f1f3",
"#aS c #f5f2f1",
"#.3 c #f5f3f5",
"#.2 c #f5f3f6",
"#.V c #f5f4ee",
"#bQ c #f5f4ef",
"#.5 c #f5f4f1",
"#.7 c #f5f4f2",
"#.4 c #f5f4f3",
"#.6 c #f5f5f1",
".7s c #f5f5f2",
".0M c #f5f5f3",
"#.F c #f5f6f0",
".9e c #f5f6f1",
".3B c #f5f6f3",
"#.T c #f5f7f1",
".69 c #f5f7f7",
".7g c #f5f8f7",
".7q c #f5f9f5",
".2M c #f5fdff",
".YD c #f5fefe",
".5w c #f5feff",
".53 c #f5ffff",
"#LS c #f6bc84",
"#KC c #f6bd83",
"#F5 c #f6bd85",
"#I3 c #f6be83",
"#Jk c #f6be84",
"#Dk c #f6be86",
"#yz c #f6be8a",
"#IP c #f6bf84",
"#HW c #f6bf85",
"#Gb c #f6bf86",
"#xq c #f6bf87",
"#EE c #f6bf89",
"#BQ c #f6bf8a",
"#IV c #f6c084",
"#yC c #f6c085",
"#B4 c #f6c086",
"#xo c #f6c087",
"#B5 c #f6c088",
"#Br c #f6c089",
"#xV c #f6c08b",
"#Bu c #f6c08c",
"#BL c #f6c185",
"#yD c #f6c186",
"#x3 c #f6c187",
"#yq c #f6c188",
"#yp c #f6c189",
"#zb c #f6c18a",
"#xt c #f6c286",
"#yI c #f6c287",
"#wJ c #f6c288",
"#za c #f6c289",
"#sr c #f6c28a",
"#Fr c #f6c28b",
"#C3 c #f6c387",
"#JB c #f6c388",
"#Gr c #f6c389",
"#zS c #f6c38b",
"#As c #f6c38c",
"#wD c #f6c38d",
"#vn c #f6c38e",
"#ze c #f6c48a",
"#AQ c #f6c48c",
"#wl c #f6c48e",
"#yy c #f6c490",
"#Be c #f6c58a",
"#x5 c #f6c58c",
"#yG c #f6c58e",
"#D0 c #f6c68d",
"#Az c #f6c68e",
"#FK c #f6c78d",
"#Df c #f6c78e",
"#A0 c #f6c791",
"#tQ c #f6c796",
"#EI c #f6c88e",
"#AK c #f6c890",
"#AJ c #f6c891",
"#z0 c #f6c892",
"#B. c #f6c98d",
"#tO c #f6c998",
"#uT c #f6ca92",
"#Af c #f6ca94",
"#xP c #f6ca97",
"#Am c #f6ca98",
"#rE c #f6ca99",
"#uJ c #f6cb93",
"#wf c #f6cb95",
"#t0 c #f6cb98",
"#rF c #f6cb99",
"#qq c #f6cb9c",
"#zr c #f6cc99",
"#tZ c #f6cc9a",
"#rY c #f6cd97",
"#rX c #f6cd99",
"#ra c #f6cd9a",
"#qy c #f6cd9b",
"#pR c #f6cd9d",
"#st c #f6ce91",
"#tA c #f6ce95",
"#rZ c #f6ce97",
"#sm c #f6ce9a",
"#pS c #f6ce9b",
"#pN c #f6cea4",
"#xK c #f6d09b",
"#sC c #f6d09f",
"#ak c #f6f3ec",
"#.z c #f6f3ee",
"#.Y c #f6f3f0",
"#.U c #f6f5f0",
".8S c #f6f5f1",
"#.8 c #f6f5f2",
".8d c #f6f6f1",
".3A c #f6f7f4",
".7E c #f6f8f5",
".7h c #f6f9f8",
".3d c #f6fcfa",
".50 c #f6ffff",
"#D6 c #f7bd87",
"#xd c #f7bd8b",
"#Jw c #f7be83",
"#Jg c #f7be84",
"#BA c #f7be8a",
"#Jm c #f7bf84",
"#xh c #f7bf85",
"#BB c #f7bf89",
"#Cq c #f7bf8b",
"#Cy c #f7bf8c",
"#Cj c #f7c085",
"#xi c #f7c086",
"#xp c #f7c087",
"#FD c #f7c088",
"#z8 c #f7c089",
"#CL c #f7c186",
"#AT c #f7c187",
"#x2 c #f7c188",
"#zc c #f7c189",
"#AC c #f7c18a",
"#BP c #f7c18b",
"#L6 c #f7c287",
"#AU c #f7c288",
"#Ci c #f7c289",
"#GW c #f7c28a",
"#A# c #f7c28b",
"#Gg c #f7c387",
"#Ks c #f7c388",
"#Cc c #f7c389",
"#Gt c #f7c38a",
"#ED c #f7c48c",
"#Dq c #f7c48d",
"#Bw c #f7c490",
"#Bq c #f7c58d",
"#z6 c #f7c58f",
"#xZ c #f7c68c",
"#Bs c #f7c68d",
"#Bt c #f7c68f",
"#Dn c #f7c690",
"#xw c #f7c78e",
"#xk c #f7c78f",
"#vF c #f7c790",
"#ww c #f7c890",
"#Ar c #f7c891",
"#z1 c #f7c892",
"#u3 c #f7c895",
"#Bh c #f7c992",
"#DX c #f7ca90",
"#Ae c #f7ca93",
"#zw c #f7cb91",
"#u7 c #f7cb95",
"#hY c #f7cb9e",
"#Ay c #f7cc95",
"#y3 c #f7cc97",
"#t2 c #f7cc98",
"#zq c #f7cc9a",
"#vG c #f7cd96",
"#t3 c #f7cd98",
"#rb c #f7cd99",
"#vH c #f7cd9a",
"#xG c #f7cf98",
"#xJ c #f7cf9c",
".8H c #f7f5f0",
"#.s c #f7f7f7",
".0Q c #f7f8f4",
".17 c #f7f8f6",
".8C c #f7f9f6",
".4Z c #f7f9f8",
"#ay c #f7fbf5",
".5Z c #f7fdf9",
".5U c #f7fdfe",
".2X c #f7fffd",
".WA c #f7ffff",
"#Cz c #f8be8b",
"#KN c #f8c085",
"#HX c #f8c087",
"#vo c #f8c08b",
"#y6 c #f8c08c",
"#HT c #f8c188",
"#Fo c #f8c189",
"#KJ c #f8c286",
"#Kc c #f8c287",
"#AV c #f8c288",
"#GG c #f8c289",
"#xQ c #f8c28d",
"#Jz c #f8c388",
"#HM c #f8c389",
"#zP c #f8c38a",
"#BU c #f8c38f",
"#Ce c #f8c48b",
"#AI c #f8c490",
"#wN c #f8c58c",
"#AO c #f8c590",
"#Ad c #f8c591",
"#BT c #f8c68c",
"#zT c #f8c68e",
"#BE c #f8c78d",
"#Aq c #f8c78e",
"#D9 c #f8c78f",
"#y7 c #f8c88f",
"#vu c #f8cb92",
"#vy c #f8cc93",
"#yu c #f8cc95",
"#vf c #f8cc97",
"#vz c #f8cc98",
"#rQ c #f8cd95",
"#wg c #f8ce9a",
".8g c #f8f3ed",
".8y c #f8f4f5",
".66 c #f8f7f3",
".0J c #f8f8f5",
".3z c #f8f9f6",
"#.P c #f8f9f7",
".3x c #f8faf7",
".9q c #f8faf8",
"#az c #f8fbf6",
".3y c #f8fbf8",
"#ax c #f8fcf6",
".6i c #f8fcfd",
".4C c #f8fcff",
".7l c #f8fdfc",
".30 c #f8fdfe",
".6h c #f8fffc",
".2x c #f8fffd",
".5V c #f8ffff",
"#wE c #f9bf8c",
"#EB c #f9c08a",
"#JZ c #f9c187",
"#Ki c #f9c289",
"#Kk c #f9c388",
"#F9 c #f9c48b",
"#zO c #f9c58b",
"#Fu c #f9c58e",
"#zg c #f9c58f",
"#Ct c #f9c78d",
"#Bg c #f9c791",
"#x6 c #f9c88f",
"#yF c #f9c890",
"#AM c #f9c992",
"#xY c #f9ca92",
"#AN c #f9ca93",
"#z2 c #f9cb95",
"#vh c #f9cb96",
"#vY c #f9cc97",
"#yx c #f9cd98",
".8Y c #f9f8fb",
".ZA c #f9f9f7",
".9a c #f9faf5",
".Zz c #f9faf7",
".0R c #f9fcf7",
".9g c #f9fcfc",
".8V c #f9fdf8",
".7i c #f9fdfc",
"#.t c #f9fdfe",
".7j c #f9fefd",
".6W c #f9fffa",
".YB c #f9fffb",
".6g c #f9fffc",
".3c c #f9fffd",
".2B c #f9ffff",
"#Kp c #fac287",
"#Kt c #fac38a",
"#Ax c #fac78d",
"#Bf c #fac793",
"#x7 c #fac88e",
"#Dp c #fac890",
"#Ft c #face94",
".0L c #fafaf8",
".9# c #fafbf6",
".9. c #fafbf7",
".63 c #fafbf8",
".8E c #fafbf9",
".ZF c #fafcf8",
".8Z c #fafcfb",
".8X c #fafcfc",
".8W c #fafdf9",
".4P c #fafefb",
".8L c #fafefc",
"#.i c #fafefd",
".5J c #fafefe",
".2A c #fafffe",
".2y c #faffff",
"#I6 c #fbc48b",
"#AH c #fbc895",
"#Bd c #fbc98f",
"#z7 c #fbc992",
".8h c #fbf5f1",
".8z c #fbf7f9",
".Yy c #fbfafa",
".9p c #fbfafb",
".0K c #fbfbf9",
".60 c #fbfbfd",
".8F c #fbfcfa",
".ZG c #fbfef9",
".80 c #fbfefa",
".2Y c #fbfffd",
".2z c #fbfffe",
".5F c #fbffff",
"#Aa c #fcc790",
"#Cu c #fcc990",
"#AR c #fccb90",
".Yz c #fcfbfa",
".85 c #fcfcf7",
".89 c #fcfcf8",
".Zy c #fcfcf9",
".87 c #fcfcfb",
".0S c #fcfdf7",
".9f c #fcfdf8",
".7t c #fcfdfa",
".20 c #fcfdfd",
".1W c #fcfef5",
".8D c #fcfefb",
".9h c #fcfefc",
".5E c #fcfefd",
".55 c #fcfefe",
".22 c #fcfeff",
".2Z c #fcfffe",
".Xi c #fcffff",
".9o c #fdfafa",
".9j c #fdfdf8",
".8G c #fdfdf9",
".4O c #fdfdfa",
".88 c #fdfdfb",
".33 c #fdfdfd",
".21 c #fdfdfe",
".0H c #fdfefc",
".86 c #fdfefd",
".54 c #fdfefe",
".5y c #fdfff9",
".6V c #fdfffa",
".YA c #fdfffc",
".64 c #fdfffd",
".6U c #fdfffe",
".5x c #fdffff",
".9k c #fefcf7",
".5I c #fefcfb",
".5K c #fefcff",
".9i c #fefdfa",
".0G c #fefdfb",
".Yr c #fefdfc",
".Yx c #fefdfd",
".Yu c #fefdfe",
".7u c #fefefa",
".Zw c #fefefc",
".Yw c #fefefd",
".5H c #fefefe",
".5G c #fefeff",
".ZH c #fefffa",
".0I c #fefffd",
".16 c #fefffe",
".Xl c #feffff",
".9m c #fffbf9",
".9n c #fffbfa",
".9l c #fffcf8",
".32 c #fffcfb",
".4A c #fffcfe",
".4B c #fffcff",
".31 c #fffdfc",
".4z c #fffdfe",
".4y c #fffdff",
".65 c #fffefb",
".Yt c #fffefd",
".Yv c #fffefe",
".Xk c #fffeff",
".YC c #fffffc",
".Zx c #fffffd",
".Ys c #fffffe",
".Xj c #ffffff",
"Qt.Qt.Qt.Qt#QtaQt#Qt#QtbQtcQtdQtbQteQtbQtbQtbQtcQtdQtbQteQtbQtbQtbQtcQtbQtbQteQtbQtbQtbQtfQtbQtbQtbQtbQtbQtbQtcQtbQteQtbQtbQtbQtdQtcQtbQteQtbQtbQtbQtcQtdQtbQteQtbQtbQtbQtcQtbQtbQteQtbQtbQtbQtfQtbQtbQteQtbQtbQtbQtfQtbQteQtbQtbQtbQtbQtcQtbQteQtbQtbQtbQtdQtcQtbQteQtbQtbQtbQtcQtdQtbQteQtbQtbQtbQtcQtbQtbQteQtbQtbQtbQtfQtbQtbQteQtbQtbQtbQtcQtbQteQtbQtbQtbQtdQtcQtbQteQtbQtbQtbQtdQtdQtbQteQtbQtbQtbQtcQtdQtbQteQtbQtbQtbQtcQtbQtbQteQtbQtbQtbQtfQtbQtbQteQtbQtbQtbQtcQtbQteQtbQtbQtbQtdQtcQtbQteQtbQtbQtbQtdQtdQtbQteQtbQtbQtbQtcQtdQtbQteQtbQtbQtbQtcQtbQtbQteQtbQtbQtbQtfQtbQtbQtbQtbQtbQtbQtcQtbQteQtbQtbQtbQtdQtcQtbQteQtbQtbQtbQtcQtdQtbQteQtbQtbQtbQtcQtbQtbQteQtbQtbQtbQtfQtbQtbQteQtbQtbQtbQtfQtbQteQtbQtbQtbQtbQtcQtbQteQtbQtbQtbQtdQtcQtbQteQtbQtbQtbQtcQtdQtbQteQtbQtbQtbQtcQtb",
"Qt.Qt.Qt.Qt#QtaQt#Qt#QtbQtcQtdQtbQteQtbQtbQtbQtcQtdQtbQteQtbQtbQtbQtcQtbQtbQteQtbQtbQtbQtfQtbQtbQtbQtbQtbQtbQtcQtbQteQtbQtbQtbQtdQtcQtbQteQtbQtbQtbQtcQtdQtbQteQtbQtbQtbQtcQtbQtbQteQtbQtbQtbQtfQtbQtbQteQtbQtbQtbQtfQtbQteQtbQtbQtbQtbQtcQtbQteQtbQtbQtbQtdQtcQtbQteQtbQtbQtbQtcQtdQtbQteQtbQtbQtbQtcQtbQtbQteQtbQtbQtbQtfQtbQtbQteQtbQtbQtbQtcQtbQteQtbQtbQtbQtdQtcQtbQteQtbQtbQtbQtdQtdQtbQteQtbQtbQtbQtcQtdQtbQteQtbQtbQtbQtcQtbQtbQteQtbQtbQtbQtfQtbQtbQteQtbQtbQtbQtcQtbQteQtbQtbQtbQtdQtcQtbQteQtbQtbQtbQtdQtdQtbQteQtbQtbQtbQtcQtdQtbQteQtbQtbQtbQtcQtbQtbQteQtbQtbQtbQtfQtbQtbQtbQtbQtbQtbQtcQtbQteQtbQtbQtbQtdQtcQtbQteQtbQtbQtbQtcQtdQtbQteQtbQtbQtbQtcQtbQtbQteQtbQtbQtbQtfQtbQtbQteQtbQtbQtbQtfQtbQteQtbQtbQtbQtbQtcQtbQteQtbQtbQtbQtdQtcQtbQteQtbQtbQtbQtcQtdQtbQteQtbQtbQtbQtcQtb",
"QtgQtgQtgQthQtiQthQthQt#QtjQt#QtkQtkQtkQtkQt#QtjQt#QtkQtkQtkQt#Qt#QtjQtkQtkQtkQtkQt#Qt#QtlQtkQtkQtkQtkQt#Qt#QtjQtkQtkQtkQtkQt#Qt#QtjQtkQtkQtkQtkQt#QtjQt#QtkQtkQtkQtkQt#QtjQtkQtkQtkQtkQt#Qt#QtlQtkQtkQtkQtkQt#Qt#QtlQtkQtkQtkQtkQt#Qt#QtjQtkQtkQtkQtkQt#Qt#QtjQtkQtkQtkQtkQt#QtjQt#QtkQtkQtkQtkQt#QtjQtkQtkQtkQtkQt#Qt#QtlQtkQtkQtkQtkQt#Qt#QtjQtkQtkQtkQtkQt#Qt#QtjQtkQtkQtkQtkQt#Qt#Qt#QtkQtkQtkQtkQt#QtjQt#QtkQtkQtkQtkQt#QtjQtkQtkQtkQtkQt#Qt#QtlQtkQtkQtkQtkQt#Qt#QtjQtkQtkQtkQtkQt#Qt#QtjQtkQtkQtkQtkQt#Qt#Qt#QtkQtkQtkQtkQt#QtjQt#QtkQtkQtkQt#Qt#QtjQtkQtkQtkQtkQt#Qt#QtlQtkQtkQtkQtkQt#Qt#QtjQtkQtkQtkQtkQt#Qt#QtjQtkQtkQtkQtkQt#QtjQt#QtkQtkQtkQtkQt#QtjQtkQtkQtkQtkQt#Qt#QtlQtkQtkQtkQtkQt#Qt#QtlQtkQtkQtkQtkQt#Qt#QtjQtkQtkQtkQtkQt#Qt#QtjQtkQtkQtkQtkQt#QtjQt#QtkQtkQtkQtkQt#QtjQtk",
"QtmQtmQtmQtnQtnQtnQtnQtoQtoQtpQtpQtpQtpQtpQtoQtoQtpQtpQtpQtpQtoQtoQtoQtpQtpQtpQtpQtoQtoQtoQtpQtpQtpQtpQtoQtoQtoQtpQtpQtpQtpQtoQtoQtoQtpQtpQtpQtpQtoQtoQtpQtpQtpQtpQtpQtoQtoQtpQtpQtpQtpQtoQtoQtoQtpQtpQtpQtpQtoQtoQtoQtpQtpQtpQtpQtoQtoQtoQtpQtpQtpQtpQtoQtoQtpQtpQtpQtpQtpQtoQtoQtpQtpQtpQtpQtpQtoQtoQtpQtpQtpQtpQtoQtoQtoQtpQtpQtpQtpQtoQtoQtoQtpQtpQtpQtpQtoQtoQtoQtpQtpQtpQtpQtoQtoQtpQtpQtpQtpQtpQtoQtoQtpQtpQtpQtpQtpQtoQtoQtpQtpQtpQtpQtoQtoQtoQtpQtpQtpQtpQtoQtoQtoQtpQtpQtpQtpQtoQtoQtoQtpQtpQtpQtpQtoQtoQtpQtpQtpQtpQtpQtoQtoQtpQtpQtpQtpQtoQtoQtoQtpQtpQtpQtpQtoQtoQtoQtpQtpQtpQtpQtoQtoQtoQtpQtpQtpQtpQtoQtoQtoQtpQtpQtpQtpQtoQtoQtpQtpQtpQtpQtpQtoQtoQtpQtpQtpQtpQtoQtoQtoQtpQtpQtpQtpQtoQtoQtoQtpQtpQtpQtpQtoQtoQtoQtpQtpQtpQtpQtoQtoQtpQtpQtpQtpQtpQtoQtoQtpQtpQtpQtpQtpQtoQtoQtp",
"QtmQtmQtmQtnQtnQtnQtnQtqQtqQtrQtrQtsQtsQtsQtqQtqQtrQtrQtsQtsQtqQtqQtqQtrQtrQtsQtsQtqQtqQtqQtrQtrQtsQtsQtqQtqQtqQtrQtsQtsQtsQtqQtqQtqQtrQtsQtsQtsQtqQtqQtrQtrQtsQtsQtsQtqQtqQtrQtrQtsQtsQtqQtqQtqQtrQtrQtsQtsQtqQtqQtqQtrQtrQtsQtsQtqQtqQtqQtrQtsQtsQtsQtqQtqQtrQtrQtsQtsQtsQtqQtqQtrQtrQtsQtsQtsQtqQtqQtrQtrQtsQtsQtqQtqQtqQtrQtrQtsQtsQtqQtqQtqQtrQtsQtsQtsQtqQtqQtqQtrQtsQtsQtsQtqQtqQtrQtrQtsQtsQtsQtqQtqQtrQtrQtsQtsQtsQtqQtqQtrQtrQtsQtsQtqQtqQtqQtrQtrQtsQtsQtqQtqQtqQtrQtsQtsQtsQtqQtqQtqQtrQtsQtsQtsQtqQtqQtrQtrQtsQtsQtsQtqQtqQtrQtrQtsQtsQtqQtqQtqQtrQtrQtsQtsQtqQtqQtqQtrQtrQtsQtsQtqQtqQtqQtrQtsQtsQtsQtqQtqQtqQtrQtsQtsQtsQtqQtqQtrQtrQtsQtsQtsQtqQtqQtrQtrQtsQtsQtqQtqQtqQtrQtrQtsQtsQtqQtqQtqQtrQtrQtsQtsQtqQtqQtqQtrQtsQtsQtsQtqQtqQtrQtrQtsQtsQtsQtqQtqQtrQtrQtsQtsQtsQtqQtqQtr",
"QttQttQttQttQtuQtuQtuQttQttQttQttQtuQtuQtuQttQttQttQttQtuQtuQttQttQttQttQttQtuQtuQttQttQttQttQttQtuQtuQttQttQttQttQtuQtuQtuQttQttQttQttQtuQtuQtuQttQttQttQttQtuQtuQtuQttQttQttQttQtuQtuQttQttQttQttQttQtuQtuQttQttQttQttQttQtuQtuQttQttQttQttQtuQtuQtuQttQttQttQttQtuQtuQtuQttQttQttQttQtuQtuQtuQttQttQttQttQtuQtuQttQttQttQttQttQtuQtuQttQttQttQttQtuQtuQtuQttQttQttQttQtuQtuQtuQttQttQttQttQtuQtuQtuQttQttQttQttQtuQtuQtuQttQttQttQttQtuQtuQttQttQttQttQttQtuQtuQttQttQttQttQtuQtuQtuQttQttQttQttQtuQtuQtuQttQttQttQttQtuQtuQtuQttQttQttQttQtuQtuQttQttQttQttQttQtuQtuQttQttQttQttQttQtuQtuQttQttQttQttQtuQtuQtuQttQttQttQttQtuQtuQtuQttQttQttQttQtuQtuQtuQttQttQttQttQtuQtuQttQttQttQttQttQtuQtuQttQttQttQttQttQtuQtuQttQttQttQttQtuQtuQtuQttQttQttQttQtuQtuQtuQttQttQttQttQtuQtuQtuQttQttQtt",
"QtvQtvQtvQtvQtvQtvQtvQtwQtwQtvQtvQtvQtvQtvQtvQtwQtwQtwQtvQtvQtvQtvQtvQtvQtvQtvQtvQtvQtvQtvQtvQtvQtvQtvQtvQtvQtvQtvQtvQtvQtvQtvQtvQtvQtvQtvQtvQtvQtvQtvQtvQtvQtvQtvQtvQtvQtvQtvQtvQtvQtvQtvQtvQtvQtvQtvQtvQtvQtvQtvQtvQtvQtvQtvQtvQtvQtvQtvQtvQtvQtvQtvQtvQtvQtvQtvQtvQtvQtvQtvQtvQtvQtvQtvQtvQtvQtvQtvQtvQtvQtvQtvQtvQtvQtvQtvQtvQtvQtvQtvQtvQtvQtvQtvQtvQtvQtvQtvQtvQtvQtvQtvQtvQtvQtvQtvQtvQtvQtvQtvQtvQtvQtvQtvQtvQtvQtvQtvQtvQtvQtvQtvQtvQtvQtvQtvQtvQtvQtvQtvQtvQtvQtvQtvQtvQtvQtvQtvQtvQtvQtvQtvQtvQtvQtvQtvQtvQtvQtvQtvQtvQtvQtvQtvQtvQtvQtvQtvQtvQtvQtvQtvQtvQtvQtvQtvQtvQtvQtvQtvQtvQtvQtvQtvQtvQtvQtvQtvQtvQtvQtvQtvQtvQtvQtvQtvQtvQtvQtvQtvQtvQtvQtvQtvQtvQtvQtvQtvQtvQtvQtvQtvQtvQtvQtvQtvQtvQtvQtvQtvQtvQtvQtvQtvQtvQtvQtvQtvQtvQtvQtvQtvQtvQtvQtvQtvQtvQtvQtvQtvQtvQtvQtvQtvQtvQtv",
"QtxQtyQtzQtzQtzQtAQtAQtAQtAQtzQtzQtzQtzQtzQtzQtBQtCQtCQtCQtCQtyQtzQtzQtzQtyQtxQtCQtyQtzQtzQtzQtzQtzQtzQtzQtzQtzQtzQtzQtzQtzQtzQtzQtzQtzQtzQtzQtzQtzQtzQtzQtzQtzQtzQtzQtzQtzQtzQtzQtzQtzQtzQtzQtzQtzQtzQtzQtzQtzQtzQtzQtzQtzQtzQtzQtzQtzQtzQtzQtzQtzQtzQtzQtzQtzQtzQtzQtzQtzQtzQtzQtzQtzQtzQtzQtzQtzQtzQtzQtzQtzQtzQtzQtzQtzQtzQtzQtzQtzQtzQtzQtzQtzQtzQtzQtzQtzQtzQtzQtzQtzQtzQtzQtzQtzQtzQtzQtzQtzQtzQtzQtzQtzQtzQtzQtzQtzQtzQtzQtzQtzQtzQtzQtzQtzQtzQtzQtzQtzQtzQtzQtzQtzQtzQtzQtzQtzQtzQtzQtzQtzQtzQtzQtzQtzQtzQtzQtzQtzQtzQtzQtzQtzQtzQtzQtzQtzQtzQtzQtzQtzQtzQtzQtzQtzQtzQtzQtzQtzQtzQtzQtzQtzQtzQtzQtzQtzQtzQtzQtzQtzQtzQtzQtzQtzQtzQtzQtzQtzQtzQtzQtzQtzQtzQtzQtzQtzQtzQtzQtzQtzQtzQtzQtzQtzQtzQtzQtzQtzQtzQtzQtzQtzQtzQtzQtzQtzQtzQtzQtzQtzQtzQtzQtzQtzQtzQtzQtzQtzQtzQtzQtzQtzQtzQtzQtz",
"QtxQtyQtzQtzQtzQtAQtAQtAQtAQtzQtzQtzQtzQtzQtzQtBQtCQtCQtCQtCQtyQtzQtzQtzQtyQtxQtCQtyQtzQtzQtzQtzQtzQtzQtzQtzQtzQtzQtzQtzQtzQtzQtzQtzQtzQtzQtzQtzQtzQtzQtzQtzQtzQtzQtzQtzQtzQtzQtzQtzQtzQtzQtzQtzQtzQtzQtzQtzQtzQtzQtzQtzQtzQtzQtzQtzQtzQtzQtzQtzQtzQtzQtzQtzQtzQtzQtzQtzQtzQtzQtzQtzQtzQtzQtzQtzQtzQtzQtzQtzQtzQtzQtzQtzQtzQtzQtzQtzQtzQtzQtzQtzQtzQtzQtzQtzQtzQtzQtzQtzQtzQtzQtzQtzQtzQtzQtzQtzQtzQtzQtzQtzQtzQtzQtzQtzQtzQtzQtzQtzQtzQtzQtzQtzQtzQtzQtzQtzQtzQtzQtzQtzQtzQtzQtzQtzQtzQtzQtzQtzQtzQtzQtzQtzQtzQtzQtzQtzQtzQtzQtzQtzQtzQtzQtzQtzQtzQtzQtzQtzQtzQtzQtzQtzQtzQtzQtzQtzQtzQtzQtzQtzQtzQtzQtzQtzQtzQtzQtzQtzQtzQtzQtzQtzQtzQtzQtzQtzQtzQtzQtzQtzQtzQtzQtzQtzQtzQtzQtzQtzQtzQtzQtzQtzQtzQtzQtzQtzQtzQtzQtzQtzQtzQtzQtzQtzQtzQtzQtzQtzQtzQtzQtzQtzQtzQtzQtzQtzQtzQtzQtzQtzQtzQtzQtzQtz",
"QtDQtDQtEQtEQtEQtEQtEQtEQtEQtEQtEQtDQtEQtEQtEQtEQtEQtEQtEQtEQtFQtGQtHQtEQtEQtEQtEQtEQtEQtEQtEQtEQtEQtEQtEQtEQtEQtEQtEQtEQtEQtEQtEQtEQtEQtEQtEQtEQtEQtEQtEQtEQtEQtEQtEQtEQtEQtEQtEQtEQtEQtEQtEQtEQtEQtEQtEQtEQtEQtEQtEQtEQtEQtEQtEQtEQtEQtEQtEQtEQtEQtEQtEQtEQtEQtEQtEQtEQtEQtEQtEQtEQtEQtEQtEQtEQtEQtEQtEQtEQtEQtEQtEQtEQtEQtEQtEQtEQtEQtEQtEQtEQtEQtEQtEQtEQtEQtEQtEQtEQtEQtEQtEQtEQtEQtEQtEQtEQtEQtEQtEQtEQtEQtEQtEQtEQtEQtEQtEQtEQtEQtEQtEQtEQtEQtEQtEQtEQtEQtEQtEQtEQtEQtEQtEQtEQtEQtEQtEQtEQtEQtEQtEQtEQtEQtEQtEQtEQtEQtEQtEQtEQtEQtEQtEQtEQtEQtEQtEQtEQtEQtEQtEQtEQtEQtEQtEQtEQtEQtEQtEQtEQtEQtEQtEQtEQtEQtEQtEQtEQtEQtEQtEQtEQtEQtEQtEQtEQtEQtEQtEQtEQtEQtEQtEQtEQtEQtEQtEQtEQtEQtEQtEQtEQtEQtEQtEQtEQtEQtEQtEQtEQtEQtEQtEQtEQtEQtEQtEQtEQtEQtEQtEQtEQtEQtEQtEQtEQtEQtEQtEQtEQtEQtEQtEQtE",
"QtDQtDQtEQtEQtEQtEQtEQtEQtEQtEQtEQtDQtEQtEQtEQtEQtEQtEQtEQtEQtFQtGQtHQtEQtEQtEQtEQtEQtEQtEQtEQtEQtEQtEQtEQtEQtEQtEQtEQtEQtEQtEQtEQtEQtEQtEQtEQtEQtEQtEQtEQtEQtEQtEQtEQtEQtEQtEQtEQtEQtEQtEQtEQtEQtEQtEQtEQtEQtEQtEQtEQtEQtEQtEQtEQtEQtEQtEQtEQtEQtEQtEQtEQtEQtEQtEQtEQtEQtEQtEQtEQtEQtEQtEQtEQtEQtEQtEQtEQtEQtEQtEQtEQtEQtEQtEQtEQtEQtEQtEQtEQtEQtEQtEQtEQtEQtEQtEQtEQtEQtEQtEQtEQtEQtEQtEQtEQtEQtEQtEQtEQtEQtEQtEQtEQtEQtEQtEQtEQtEQtEQtEQtEQtEQtEQtEQtEQtEQtEQtEQtEQtEQtEQtEQtEQtEQtEQtEQtEQtEQtEQtEQtEQtEQtEQtEQtEQtEQtEQtEQtEQtEQtEQtEQtEQtEQtEQtEQtEQtEQtEQtEQtEQtEQtEQtEQtEQtEQtEQtEQtEQtEQtEQtEQtEQtEQtEQtEQtEQtEQtEQtEQtEQtEQtEQtEQtEQtEQtEQtEQtEQtEQtEQtEQtEQtEQtEQtEQtEQtEQtEQtEQtEQtEQtEQtEQtEQtEQtEQtEQtEQtEQtEQtEQtEQtEQtEQtEQtEQtEQtEQtEQtEQtEQtEQtEQtEQtEQtEQtEQtEQtEQtEQtEQtEQtE",
"QtIQtJQtKQtKQtKQtKQtKQtKQtKQtKQtLQtMQtNQtNQtKQtOQtPQtPQtPQtNQtLQtKQtQQtKQtOQtPQtPQtRQtNQtNQtNQtKQtKQtKQtKQtKQtKQtKQtKQtKQtKQtKQtKQtKQtKQtKQtKQtKQtKQtKQtKQtKQtKQtKQtKQtKQtKQtKQtKQtKQtKQtKQtKQtKQtKQtKQtKQtKQtKQtKQtKQtKQtKQtKQtKQtKQtKQtKQtKQtKQtKQtKQtKQtKQtKQtKQtKQtKQtKQtKQtKQtKQtKQtKQtKQtKQtKQtKQtKQtKQtKQtKQtKQtKQtKQtKQtKQtKQtKQtKQtKQtKQtKQtKQtKQtKQtKQtKQtKQtKQtKQtKQtKQtKQtKQtKQtKQtKQtKQtKQtKQtKQtKQtKQtKQtKQtKQtKQtKQtKQtKQtKQtKQtKQtKQtKQtKQtKQtKQtKQtKQtKQtKQtKQtKQtKQtKQtKQtKQtKQtKQtKQtKQtKQtKQtKQtKQtKQtKQtKQtKQtKQtKQtKQtKQtKQtKQtKQtKQtKQtKQtKQtKQtKQtKQtKQtKQtKQtKQtKQtKQtKQtKQtKQtKQtKQtKQtKQtKQtKQtKQtKQtKQtKQtKQtKQtKQtKQtKQtKQtKQtKQtKQtKQtKQtKQtKQtKQtKQtKQtKQtKQtKQtKQtKQtKQtKQtKQtKQtKQtKQtKQtKQtKQtKQtKQtKQtKQtKQtKQtKQtKQtKQtKQtKQtKQtKQtKQtKQtKQtKQtKQtKQtKQtKQtK",
"QtSQtRQtTQtTQtTQtTQtTQtUQtTQtTQtTQtNQtNQtVQtUQtUQtWQtWQtWQtNQtKQtTQtXQtTQtUQtWQtWQtYQtRQtNQtVQtTQtTQtTQtTQtTQtTQtTQtTQtTQtTQtTQtTQtTQtTQtTQtTQtTQtTQtTQtTQtTQtTQtTQtTQtTQtTQtTQtTQtTQtTQtTQtTQtTQtTQtTQtTQtTQtTQtTQtTQtTQtTQtTQtTQtTQtTQtTQtTQtTQtTQtTQtTQtTQtTQtTQtTQtTQtTQtTQtTQtTQtTQtTQtTQtTQtTQtTQtTQtTQtTQtTQtTQtTQtTQtTQtTQtTQtTQtTQtTQtTQtTQtTQtTQtTQtTQtTQtTQtTQtTQtTQtTQtTQtTQtTQtTQtTQtTQtTQtTQtTQtTQtTQtTQtTQtTQtTQtTQtTQtTQtTQtTQtTQtTQtTQtTQtTQtTQtTQtTQtTQtTQtTQtTQtTQtTQtTQtTQtTQtTQtTQtTQtTQtTQtTQtTQtTQtTQtTQtTQtTQtTQtTQtTQtTQtTQtTQtTQtTQtTQtTQtTQtTQtTQtTQtTQtTQtTQtTQtTQtTQtTQtTQtTQtTQtTQtTQtTQtTQtTQtTQtTQtTQtTQtTQtTQtTQtTQtTQtTQtTQtTQtTQtTQtTQtTQtTQtTQtTQtTQtTQtTQtTQtTQtTQtTQtTQtTQtTQtTQtTQtTQtTQtTQtTQtTQtTQtTQtTQtTQtTQtTQtTQtTQtTQtTQtTQtTQtTQtTQtTQtTQtTQtTQtT",
"QtZQtPQtUQtUQtUQt0Qt0Qt1Qt1QtUQtUQt2Qt3QtUQtWQt1Qt1Qt1Qt1Qt4QtUQtUQtUQtUQtWQtWQt1Qt1Qt1Qt4Qt4QtUQtUQtUQtUQtUQtUQtUQtUQtUQtUQtUQtUQtUQtUQtUQtUQtUQtUQtUQtUQtUQtUQtUQtUQtUQtUQtUQtUQtUQtUQtUQtUQtUQtUQtUQtUQtUQtUQtUQtUQtUQtUQtUQtUQtUQtUQtUQtUQtUQtUQtUQtUQtUQtUQtUQtUQtUQtUQtUQtUQtUQtUQtUQtUQtUQtUQtUQtUQtUQtUQtUQtUQtUQtUQtUQtUQtUQtUQtUQtUQtUQtUQtUQtUQtUQtUQtUQtUQtUQtUQtUQtUQtUQtUQtUQtUQtUQtUQtUQtUQtUQtUQtUQtUQtUQtUQtUQtUQtUQtUQtUQtUQtUQtUQtUQtUQtUQtUQtUQtUQtUQtUQtUQtUQtUQtUQtUQtUQtUQtUQtUQtUQtUQtUQtUQtUQtUQtUQtUQtUQtUQtUQtUQtUQtUQtUQtUQtUQtUQtUQtUQtUQtUQtUQtUQtUQtUQtUQtUQtUQtUQtUQtUQtUQtUQtUQtUQtUQtUQtUQtUQtUQtUQtUQtUQtUQtUQtUQtUQtUQtUQtUQtUQtUQtUQtUQtUQtUQtUQtUQtUQtUQtUQtUQtUQtUQtUQtUQtUQtUQtUQtUQtUQtUQtUQtUQtUQtUQtUQtUQtUQtUQtUQtUQtUQtUQtUQtUQtUQtUQtUQtUQtUQtUQtU",
"Qt5Qt5Qt6Qt6Qt6Qt7Qt7Qt5Qt5Qt6Qt6Qt5Qt7Qt8Qt6Qt5Qt5Qt5Qt5Qt5Qt6Qt6Qt9Qt6Qt6Qt6Qt5.#..##.##.#.Qt6Qt6Qt6Qt6Qt6Qt6Qt6Qt6Qt6Qt6Qt6Qt6Qt6Qt6Qt6Qt6Qt6Qt6Qt6Qt6Qt6Qt6Qt6Qt6Qt6Qt6Qt6Qt6Qt6Qt6Qt6Qt6Qt6Qt6Qt6Qt6Qt6Qt6Qt6Qt6Qt6Qt6Qt6Qt6Qt6Qt6Qt6Qt6Qt6Qt6Qt6Qt6Qt6Qt6Qt6Qt6Qt6Qt6Qt6Qt6Qt6Qt6Qt6Qt6Qt6Qt6Qt6Qt6Qt6Qt6Qt6Qt6Qt6Qt6Qt6Qt6Qt6Qt6Qt6Qt6Qt6Qt6Qt6Qt6Qt6Qt6Qt6Qt6Qt6Qt6Qt6Qt6Qt6Qt6Qt6Qt6Qt6Qt6Qt6Qt6Qt6Qt6Qt6Qt6Qt6Qt6Qt6Qt6Qt6Qt6Qt6Qt6Qt6Qt6Qt6Qt6Qt6Qt6Qt6Qt6Qt6Qt6Qt6Qt6Qt6Qt6Qt6Qt6Qt6Qt6Qt6Qt6Qt6Qt6Qt6Qt6Qt6Qt6Qt6Qt6Qt6Qt6Qt6Qt6Qt6Qt6Qt6Qt6Qt6Qt6Qt6Qt6Qt6Qt6Qt6Qt6Qt6Qt6Qt6Qt6Qt6Qt6Qt6Qt6Qt6Qt6Qt6Qt6Qt6Qt6Qt6Qt6Qt6Qt6Qt6Qt6Qt6Qt6Qt6Qt6Qt6Qt6Qt6Qt6Qt6Qt6Qt6Qt6Qt6Qt6Qt6Qt6Qt6Qt6Qt6Qt6Qt6Qt6Qt6Qt6Qt6Qt6Qt6Qt6Qt6Qt6Qt6Qt6Qt6Qt6Qt6Qt6Qt6Qt6Qt6Qt6Qt6Qt6Qt6Qt6Qt6Qt6Qt6Qt6Qt6",
"Qt5Qt5Qt5Qt5Qt5Qt5Qt5Qt5Qt5Qt6Qt6Qt5Qt5Qt5Qt6Qt5Qt5Qt5Qt5Qt5Qt6Qt6Qt6Qt6Qt6Qt6Qt5.#a.#b.##.#.Qt6Qt6Qt6Qt6Qt6Qt6Qt6Qt6Qt6Qt6Qt6Qt6Qt6Qt6Qt6Qt6Qt6Qt6Qt6Qt6Qt6Qt6Qt6Qt6Qt6Qt6Qt6Qt6Qt6Qt6Qt6Qt6Qt6Qt6Qt6Qt6Qt6Qt6Qt6Qt6Qt6Qt6Qt6Qt6Qt6Qt6Qt6Qt6Qt6Qt6Qt6Qt6Qt6Qt6Qt6Qt6Qt6Qt6Qt6Qt6Qt6Qt6Qt6Qt6Qt6Qt6Qt6Qt6Qt6Qt6Qt6Qt6Qt6Qt6Qt6Qt6Qt6Qt6Qt6Qt6Qt6Qt6Qt6Qt6Qt6Qt6Qt6Qt6Qt6Qt6Qt6Qt6Qt6Qt6Qt6Qt6Qt6Qt6Qt6Qt6Qt6Qt6Qt6Qt6Qt6Qt6Qt6Qt6Qt6Qt6Qt6Qt6Qt6Qt6Qt6Qt6Qt6Qt6Qt6Qt6Qt6Qt6Qt6Qt6Qt6Qt6Qt6Qt6Qt6Qt6Qt6Qt6Qt6Qt6Qt6Qt6Qt6Qt6Qt6Qt6Qt6Qt6Qt6Qt6Qt6Qt6Qt6Qt6Qt6Qt6Qt6Qt6Qt6Qt6Qt6Qt6Qt6Qt6Qt6Qt6Qt6Qt6Qt6Qt6Qt6Qt6Qt6Qt6Qt6Qt6Qt6Qt6Qt6Qt6Qt6Qt6Qt6Qt6Qt6Qt6Qt6Qt6Qt6Qt6Qt6Qt6Qt6Qt6Qt6Qt6Qt6Qt6Qt6Qt6Qt6Qt6Qt6Qt6Qt6Qt6Qt6Qt6Qt6Qt6Qt6Qt6Qt6Qt6Qt6Qt6Qt6Qt6Qt6Qt6Qt6Qt6Qt6Qt6Qt6Qt6Qt6Qt6Qt6Qt6Qt6",
".#c.#c.#c.#c.#d.#e.#e.#f.#f.#f.#f.#f.#f.#f.#f.#f.#f.#f.#f.#f.#f.#f.#f.#f.#f.#f.#f.#d.#e.#c.#c.#f.#f.#f.#f.#f.#f.#f.#f.#f.#f.#f.#f.#f.#f.#f.#f.#f.#f.#f.#f.#f.#f.#f.#f.#f.#f.#f.#f.#f.#f.#f.#f.#f.#f.#f.#f.#f.#f.#f.#f.#f.#f.#f.#f.#f.#f.#f.#f.#f.#f.#f.#f.#f.#f.#f.#f.#f.#f.#f.#f.#f.#f.#f.#f.#f.#f.#f.#f.#f.#f.#f.#f.#f.#f.#f.#f.#f.#f.#f.#f.#f.#f.#f.#f.#f.#f.#f.#f.#f.#f.#f.#f.#f.#f.#f.#f.#f.#f.#f.#f.#f.#f.#f.#f.#f.#f.#f.#f.#f.#f.#f.#f.#f.#f.#f.#f.#f.#f.#f.#f.#f.#f.#f.#f.#f.#f.#f.#f.#f.#f.#f.#f.#f.#f.#f.#f.#f.#f.#f.#f.#f.#f.#f.#f.#f.#f.#f.#f.#f.#f.#f.#f.#f.#f.#f.#f.#f.#f.#f.#f.#f.#f.#f.#f.#f.#f.#f.#f.#f.#f.#f.#f.#f.#f.#f.#f.#f.#f.#f.#f.#f.#f.#f.#f.#f.#f.#f.#f.#f.#f.#f.#f.#f.#f.#f.#f.#f.#f.#f.#f.#f.#f.#f.#f.#f.#f.#f.#f.#f.#f.#f.#f.#f.#f.#f.#f.#f.#f.#f.#f.#f.#f.#f.#f.#f",
".#c.#c.#c.#c.#d.#e.#e.#f.#f.#f.#f.#f.#f.#f.#f.#f.#f.#f.#f.#f.#f.#f.#f.#f.#f.#f.#f.#d.#e.#c.#c.#f.#f.#f.#f.#f.#f.#f.#f.#f.#f.#f.#f.#f.#f.#f.#f.#f.#f.#f.#f.#f.#f.#f.#f.#f.#f.#f.#f.#f.#f.#f.#f.#f.#f.#f.#f.#f.#f.#f.#f.#f.#f.#f.#f.#f.#f.#f.#f.#f.#f.#f.#f.#f.#f.#f.#f.#f.#f.#f.#f.#f.#f.#f.#f.#f.#f.#f.#f.#f.#f.#f.#f.#f.#f.#f.#f.#f.#f.#f.#f.#f.#f.#f.#f.#f.#f.#f.#f.#f.#f.#f.#f.#f.#f.#f.#f.#f.#f.#f.#f.#f.#f.#f.#f.#f.#f.#f.#f.#f.#f.#f.#f.#f.#f.#f.#f.#f.#f.#f.#f.#f.#f.#f.#f.#f.#f.#f.#f.#f.#f.#f.#f.#f.#f.#f.#f.#f.#f.#f.#f.#f.#f.#f.#f.#f.#f.#f.#f.#f.#f.#f.#f.#f.#f.#f.#f.#f.#f.#f.#f.#f.#f.#f.#f.#f.#f.#f.#f.#f.#f.#f.#f.#f.#f.#f.#f.#f.#f.#f.#f.#f.#f.#f.#f.#f.#f.#f.#f.#f.#f.#f.#f.#f.#f.#f.#f.#f.#f.#f.#f.#f.#f.#f.#f.#f.#f.#f.#f.#f.#f.#f.#f.#f.#f.#f.#f.#f.#f.#f.#f.#f.#f.#f.#f.#f",
".#g.#g.#h.#i.#i.#i.#i.#i.#i.#i.#i.#i.#i.#i.#i.#i.#i.#i.#i.#i.#i.#i.#i.#i.#i.#i.#i.#i.#i.#i.#i.#i.#i.#i.#i.#i.#i.#i.#i.#i.#i.#i.#i.#i.#i.#i.#i.#i.#i.#i.#i.#i.#i.#i.#i.#i.#i.#i.#i.#i.#i.#i.#i.#i.#i.#i.#i.#i.#i.#i.#i.#i.#i.#i.#i.#i.#i.#i.#i.#i.#i.#i.#i.#i.#i.#i.#i.#i.#i.#i.#i.#i.#i.#i.#i.#i.#i.#i.#i.#i.#i.#i.#i.#i.#i.#i.#i.#i.#i.#i.#i.#i.#i.#i.#i.#i.#i.#i.#i.#i.#i.#i.#i.#i.#i.#i.#i.#i.#i.#i.#i.#i.#i.#i.#i.#i.#i.#i.#i.#i.#i.#i.#i.#i.#i.#i.#i.#i.#i.#i.#i.#i.#i.#i.#i.#i.#i.#i.#i.#i.#i.#i.#i.#i.#i.#i.#i.#i.#i.#i.#i.#i.#i.#i.#i.#i.#i.#i.#i.#i.#i.#i.#i.#i.#i.#i.#i.#i.#i.#i.#i.#i.#i.#i.#i.#i.#i.#i.#i.#i.#i.#i.#i.#i.#i.#i.#i.#i.#i.#i.#i.#i.#i.#i.#i.#i.#i.#i.#i.#i.#i.#i.#i.#i.#i.#i.#i.#i.#i.#i.#i.#i.#i.#i.#i.#i.#i.#i.#i.#i.#i.#i.#i.#i.#i.#i.#i.#i.#i.#i.#i.#i.#i.#i.#i.#i",
".#g.#g.#h.#i.#i.#i.#i.#i.#i.#i.#i.#i.#i.#i.#i.#i.#i.#i.#i.#i.#i.#i.#i.#i.#i.#i.#i.#i.#i.#i.#i.#i.#i.#i.#i.#i.#i.#i.#i.#i.#i.#i.#i.#i.#i.#i.#i.#i.#i.#i.#i.#i.#i.#i.#i.#i.#i.#i.#i.#i.#i.#i.#i.#i.#i.#i.#i.#i.#i.#i.#i.#i.#i.#i.#i.#i.#i.#i.#i.#i.#i.#i.#i.#i.#i.#i.#i.#i.#i.#i.#i.#i.#i.#i.#i.#i.#i.#i.#i.#i.#i.#i.#i.#i.#i.#i.#i.#i.#i.#i.#i.#i.#i.#i.#i.#i.#i.#i.#i.#i.#i.#i.#i.#i.#i.#i.#i.#i.#i.#i.#i.#i.#i.#i.#i.#i.#i.#i.#i.#i.#i.#i.#i.#i.#i.#i.#i.#i.#i.#i.#i.#i.#i.#i.#i.#i.#i.#i.#i.#i.#i.#i.#i.#i.#i.#i.#i.#i.#i.#i.#i.#i.#i.#i.#i.#i.#i.#i.#i.#i.#i.#i.#i.#i.#i.#i.#i.#i.#i.#i.#i.#i.#i.#i.#i.#i.#i.#i.#i.#i.#i.#i.#i.#i.#i.#i.#i.#i.#i.#i.#i.#i.#i.#i.#i.#i.#i.#i.#i.#i.#i.#i.#i.#i.#i.#i.#i.#i.#i.#i.#i.#i.#i.#i.#i.#i.#i.#i.#i.#i.#i.#i.#i.#i.#i.#i.#i.#i.#i.#i.#i.#i.#i.#i.#i.#i",
".#j.#j.#k.#l.#m.#m.#m.#l.#l.#l.#l.#l.#l.#l.#i.#i.#i.#i.#i.#i.#i.#i.#i.#i.#i.#i.#i.#i.#i.#i.#i.#i.#i.#i.#i.#i.#i.#i.#i.#i.#i.#i.#i.#i.#i.#i.#i.#i.#i.#i.#i.#i.#i.#i.#i.#i.#i.#i.#i.#i.#i.#i.#i.#i.#i.#i.#i.#i.#i.#i.#i.#i.#i.#i.#i.#i.#i.#i.#i.#i.#i.#i.#i.#i.#i.#i.#i.#i.#i.#i.#i.#i.#i.#i.#i.#i.#i.#i.#i.#i.#i.#i.#i.#i.#i.#i.#i.#i.#i.#i.#i.#i.#i.#i.#i.#i.#i.#i.#i.#i.#i.#i.#i.#i.#i.#i.#i.#i.#i.#i.#i.#i.#i.#i.#i.#i.#i.#i.#i.#i.#i.#i.#i.#i.#i.#i.#i.#i.#i.#i.#i.#i.#i.#i.#i.#i.#i.#i.#i.#i.#i.#i.#i.#i.#i.#i.#i.#i.#i.#i.#i.#i.#i.#i.#i.#i.#i.#i.#i.#i.#i.#i.#i.#i.#i.#i.#i.#i.#i.#i.#i.#i.#i.#i.#i.#i.#i.#i.#i.#i.#i.#i.#i.#i.#i.#i.#i.#i.#i.#i.#i.#i.#i.#i.#i.#i.#i.#i.#i.#i.#i.#i.#i.#i.#i.#i.#i.#i.#i.#i.#i.#i.#i.#i.#i.#i.#i.#i.#i.#i.#i.#i.#i.#i.#i.#i.#i.#i.#i.#i.#i.#i.#i.#i.#i.#i",
".#n.#n.#n.#o.#p.#q.#q.#o.#o.#o.#o.#o.#o.#l.#i.#i.#i.#i.#i.#i.#i.#i.#i.#i.#i.#i.#i.#i.#i.#i.#i.#i.#i.#i.#i.#i.#i.#i.#i.#i.#i.#i.#i.#i.#i.#i.#i.#i.#i.#i.#i.#i.#i.#i.#i.#i.#i.#i.#i.#i.#i.#i.#i.#i.#i.#i.#i.#i.#i.#i.#i.#i.#i.#i.#i.#i.#i.#i.#i.#i.#i.#i.#i.#i.#i.#i.#i.#i.#i.#i.#i.#i.#i.#i.#i.#i.#i.#i.#i.#i.#i.#i.#i.#i.#i.#i.#i.#i.#i.#i.#i.#i.#i.#i.#i.#i.#i.#i.#i.#i.#i.#i.#i.#i.#i.#i.#i.#i.#i.#i.#i.#i.#i.#i.#i.#i.#i.#i.#i.#i.#i.#i.#i.#i.#i.#i.#i.#i.#i.#i.#i.#i.#i.#i.#i.#i.#i.#i.#i.#i.#i.#i.#i.#i.#i.#i.#i.#i.#i.#i.#i.#i.#i.#i.#i.#i.#i.#i.#i.#i.#i.#i.#i.#i.#i.#i.#i.#i.#i.#i.#i.#i.#i.#i.#i.#i.#i.#i.#i.#i.#i.#i.#i.#i.#i.#i.#i.#i.#i.#i.#i.#i.#i.#i.#i.#i.#i.#i.#i.#i.#i.#i.#i.#i.#i.#i.#i.#i.#i.#i.#i.#i.#i.#i.#i.#i.#i.#i.#i.#i.#i.#i.#i.#i.#i.#i.#i.#i.#i.#i.#i.#i.#i.#i.#i.#i",
".#r.#r.#s.#s.#t.#t.#t.#r.#r.#r.#r.#r.#r.#r.#r.#r.#r.#r.#r.#r.#r.#r.#r.#r.#r.#r.#r.#r.#r.#r.#r.#r.#r.#r.#r.#r.#r.#r.#r.#r.#r.#r.#r.#r.#r.#r.#r.#r.#r.#r.#r.#r.#r.#r.#r.#r.#r.#r.#r.#r.#r.#r.#r.#r.#r.#r.#r.#r.#r.#r.#r.#r.#r.#r.#r.#r.#r.#r.#r.#r.#r.#r.#r.#r.#r.#r.#r.#r.#r.#r.#r.#r.#r.#r.#r.#r.#r.#r.#r.#r.#r.#r.#r.#r.#r.#r.#r.#r.#r.#r.#r.#r.#r.#r.#r.#r.#r.#r.#r.#r.#r.#r.#r.#r.#r.#r.#r.#r.#r.#r.#r.#r.#r.#r.#r.#r.#r.#r.#r.#r.#r.#r.#r.#r.#r.#r.#r.#r.#r.#r.#r.#r.#r.#r.#r.#r.#r.#r.#r.#r.#r.#r.#r.#r.#r.#r.#r.#r.#r.#r.#r.#r.#r.#r.#r.#r.#r.#r.#r.#r.#r.#r.#r.#r.#r.#r.#r.#r.#r.#r.#r.#r.#r.#r.#r.#r.#r.#r.#r.#r.#r.#r.#r.#r.#r.#r.#r.#r.#r.#r.#r.#r.#r.#r.#r.#r.#r.#r.#r.#r.#r.#r.#r.#r.#r.#r.#r.#r.#r.#r.#r.#r.#r.#r.#r.#r.#r.#r.#r.#r.#r.#r.#r.#r.#r.#r.#r.#r.#r.#r.#r.#r.#r.#r.#r.#r",
".#u.#u.#v.#w.#x.#x.#x.#y.#y.#y.#y.#y.#y.#z.#u.#u.#u.#u.#u.#u.#u.#u.#u.#u.#u.#u.#u.#u.#u.#u.#u.#u.#u.#u.#u.#u.#u.#u.#u.#u.#u.#u.#u.#u.#u.#u.#u.#u.#u.#u.#u.#u.#u.#u.#u.#u.#u.#u.#u.#u.#u.#u.#u.#u.#u.#u.#u.#u.#u.#u.#u.#u.#u.#u.#u.#u.#u.#u.#u.#u.#u.#u.#u.#u.#u.#u.#u.#u.#u.#u.#u.#u.#u.#u.#u.#u.#u.#u.#u.#u.#u.#u.#u.#u.#u.#u.#u.#u.#u.#u.#u.#u.#u.#u.#u.#u.#u.#u.#u.#u.#u.#u.#u.#u.#u.#u.#u.#u.#u.#u.#u.#u.#u.#u.#u.#u.#u.#u.#u.#u.#u.#u.#u.#u.#u.#u.#u.#u.#u.#u.#u.#u.#u.#u.#u.#u.#u.#u.#u.#u.#u.#u.#u.#u.#u.#u.#u.#u.#u.#u.#u.#u.#u.#u.#u.#u.#u.#u.#u.#u.#u.#u.#u.#u.#u.#u.#u.#u.#u.#u.#u.#u.#u.#u.#u.#u.#u.#u.#u.#u.#u.#u.#u.#u.#u.#u.#u.#u.#u.#u.#u.#u.#u.#u.#u.#u.#u.#u.#u.#u.#u.#u.#u.#u.#u.#u.#u.#u.#u.#u.#u.#u.#u.#u.#u.#u.#u.#u.#u.#u.#u.#u.#u.#u.#u.#u.#u.#u.#u.#u.#u.#u.#u.#u.#u.#u",
".#A.#A.#A.#w.#x.#x.#x.#y.#y.#y.#y.#y.#y.#z.#u.#u.#u.#u.#u.#u.#u.#u.#u.#u.#u.#u.#u.#u.#u.#u.#u.#u.#u.#u.#u.#u.#u.#u.#u.#u.#u.#u.#u.#u.#u.#u.#u.#u.#u.#u.#u.#u.#u.#u.#u.#u.#u.#u.#u.#u.#u.#u.#u.#u.#u.#u.#u.#u.#u.#u.#u.#u.#u.#u.#u.#u.#u.#u.#u.#u.#u.#u.#u.#u.#u.#u.#u.#u.#u.#u.#u.#u.#u.#u.#u.#u.#u.#u.#u.#u.#u.#u.#u.#u.#u.#u.#u.#u.#u.#u.#u.#u.#u.#u.#u.#u.#u.#u.#u.#u.#u.#u.#u.#u.#u.#u.#u.#u.#u.#u.#u.#u.#u.#u.#u.#u.#u.#u.#u.#u.#u.#u.#u.#u.#u.#u.#u.#u.#u.#u.#u.#u.#u.#u.#u.#u.#u.#u.#u.#u.#u.#u.#u.#u.#u.#u.#u.#u.#u.#u.#u.#u.#u.#u.#u.#u.#u.#u.#u.#u.#u.#u.#u.#u.#u.#u.#u.#u.#u.#u.#u.#u.#u.#u.#u.#u.#u.#u.#u.#u.#u.#u.#u.#u.#u.#u.#u.#u.#u.#u.#u.#u.#u.#u.#u.#u.#u.#u.#u.#u.#u.#u.#u.#u.#u.#u.#u.#u.#u.#u.#u.#u.#u.#u.#u.#u.#u.#u.#u.#u.#u.#u.#u.#u.#u.#u.#u.#u.#u.#u.#u.#u.#u.#u.#u.#u",
".#A.#A.#A.#w.#x.#x.#x.#u.#u.#u.#u.#u.#u.#u.#u.#u.#u.#u.#u.#u.#u.#u.#u.#u.#u.#u.#u.#u.#u.#u.#u.#u.#u.#u.#u.#u.#u.#u.#u.#u.#u.#u.#u.#u.#u.#u.#u.#u.#u.#u.#u.#u.#u.#u.#u.#u.#u.#u.#u.#u.#u.#u.#u.#u.#u.#u.#u.#u.#u.#u.#u.#u.#u.#u.#u.#u.#u.#u.#u.#u.#u.#u.#u.#u.#u.#u.#u.#u.#u.#u.#u.#u.#u.#u.#u.#u.#u.#u.#u.#u.#u.#u.#u.#u.#u.#u.#u.#u.#u.#u.#u.#u.#u.#u.#u.#u.#u.#u.#u.#u.#u.#u.#u.#u.#u.#u.#u.#u.#u.#u.#u.#u.#u.#u.#u.#u.#u.#u.#u.#u.#u.#u.#u.#u.#u.#u.#u.#u.#u.#u.#u.#u.#u.#u.#u.#u.#u.#u.#u.#u.#u.#u.#u.#u.#u.#u.#u.#u.#u.#u.#u.#u.#u.#u.#u.#u.#u.#u.#u.#u.#u.#u.#u.#u.#u.#u.#u.#u.#u.#u.#u.#u.#u.#u.#u.#u.#u.#u.#u.#u.#u.#u.#u.#u.#u.#u.#u.#u.#u.#u.#u.#u.#u.#u.#u.#u.#u.#u.#u.#u.#u.#u.#u.#u.#u.#u.#u.#u.#u.#u.#u.#u.#u.#u.#u.#u.#u.#u.#u.#u.#u.#u.#u.#u.#u.#u.#u.#u.#u.#u.#u.#u.#u.#u.#u.#u",
".#A.#A.#A.#w.#x.#x.#x.#u.#u.#u.#u.#u.#u.#u.#u.#u.#u.#u.#u.#u.#u.#u.#u.#u.#u.#u.#u.#u.#u.#u.#u.#u.#u.#u.#u.#u.#u.#u.#u.#u.#u.#u.#u.#u.#u.#u.#u.#u.#u.#u.#u.#u.#u.#u.#u.#u.#u.#u.#u.#u.#u.#u.#u.#u.#u.#u.#u.#u.#u.#u.#u.#u.#u.#u.#u.#u.#u.#u.#u.#u.#u.#u.#u.#u.#u.#u.#u.#u.#u.#u.#u.#u.#u.#u.#u.#u.#u.#u.#u.#u.#u.#u.#u.#u.#u.#u.#u.#u.#u.#u.#u.#u.#u.#u.#u.#u.#u.#u.#u.#u.#u.#u.#u.#u.#u.#u.#u.#u.#u.#u.#u.#u.#u.#u.#u.#u.#u.#u.#u.#u.#u.#u.#u.#u.#u.#u.#u.#u.#u.#u.#u.#u.#u.#u.#u.#u.#u.#u.#u.#u.#u.#u.#u.#u.#u.#u.#u.#u.#u.#u.#u.#u.#u.#u.#u.#u.#u.#u.#u.#u.#u.#u.#u.#u.#u.#u.#u.#u.#u.#u.#u.#u.#u.#u.#u.#u.#u.#u.#u.#u.#u.#u.#u.#u.#u.#u.#u.#u.#u.#u.#u.#u.#u.#u.#u.#u.#u.#u.#u.#u.#u.#u.#u.#u.#u.#u.#u.#u.#u.#u.#u.#u.#u.#u.#u.#u.#u.#u.#u.#u.#u.#u.#u.#u.#u.#u.#u.#u.#u.#u.#u.#u.#u.#u.#u.#u",
".#A.#A.#A.#A.#B.#B.#B.#v.#v.#v.#v.#v.#v.#v.#v.#v.#v.#v.#v.#v.#v.#v.#v.#v.#v.#v.#v.#v.#v.#v.#v.#v.#v.#v.#v.#v.#v.#v.#v.#v.#v.#v.#v.#v.#v.#v.#v.#v.#v.#v.#v.#v.#v.#v.#v.#v.#v.#v.#v.#v.#v.#v.#v.#v.#v.#v.#v.#v.#v.#v.#v.#v.#v.#v.#v.#v.#v.#v.#v.#v.#v.#v.#v.#v.#v.#v.#v.#v.#v.#v.#v.#v.#v.#v.#v.#v.#v.#v.#v.#v.#v.#v.#v.#v.#v.#v.#v.#v.#v.#v.#v.#v.#v.#v.#v.#v.#v.#v.#v.#v.#v.#v.#v.#v.#v.#v.#v.#v.#v.#v.#v.#v.#v.#v.#v.#v.#v.#v.#v.#v.#v.#v.#v.#v.#v.#v.#v.#v.#v.#v.#v.#v.#v.#v.#v.#v.#v.#v.#v.#v.#v.#v.#v.#v.#v.#v.#v.#v.#v.#v.#v.#v.#v.#v.#v.#v.#v.#v.#v.#v.#v.#v.#v.#v.#v.#v.#v.#v.#v.#v.#v.#v.#v.#v.#v.#v.#v.#v.#v.#v.#v.#v.#v.#v.#v.#v.#v.#v.#v.#v.#v.#v.#v.#v.#v.#v.#v.#v.#v.#v.#v.#v.#v.#v.#v.#v.#v.#v.#v.#v.#v.#v.#v.#v.#v.#v.#v.#v.#v.#v.#v.#v.#v.#v.#v.#v.#v.#v.#v.#v.#v.#v.#v.#v.#v.#v",
".#A.#A.#A.#A.#A.#A.#A.#A.#A.#A.#A.#A.#A.#A.#A.#A.#A.#A.#A.#A.#A.#A.#A.#A.#A.#A.#A.#A.#A.#A.#A.#A.#A.#A.#A.#A.#A.#A.#A.#A.#A.#A.#A.#A.#A.#A.#A.#A.#A.#A.#A.#A.#A.#A.#A.#A.#A.#A.#A.#A.#A.#A.#A.#A.#A.#A.#A.#A.#A.#A.#A.#A.#A.#A.#A.#A.#A.#A.#A.#A.#A.#A.#A.#A.#A.#A.#A.#A.#A.#A.#A.#A.#A.#A.#A.#A.#A.#A.#A.#A.#A.#A.#A.#A.#A.#A.#A.#A.#A.#A.#A.#A.#A.#A.#A.#A.#A.#A.#A.#A.#A.#A.#A.#A.#A.#A.#A.#A.#A.#A.#A.#A.#A.#A.#A.#A.#A.#A.#A.#A.#A.#A.#A.#A.#A.#A.#A.#A.#A.#A.#A.#A.#A.#A.#A.#A.#A.#A.#A.#A.#A.#A.#A.#A.#A.#A.#A.#A.#A.#A.#A.#A.#A.#A.#A.#A.#A.#A.#A.#A.#A.#A.#A.#A.#A.#A.#A.#A.#A.#A.#A.#A.#A.#A.#A.#A.#A.#A.#A.#A.#A.#A.#A.#A.#A.#A.#A.#A.#A.#A.#A.#A.#A.#A.#A.#A.#A.#A.#A.#A.#A.#A.#A.#A.#A.#A.#A.#A.#A.#A.#A.#A.#A.#A.#A.#A.#A.#A.#A.#A.#A.#A.#A.#A.#A.#A.#A.#A.#A.#A.#A.#A.#A.#A.#A.#A",
".#C.#C.#C.#D.#E.#E.#E.#E.#E.#C.#C.#E.#E.#D.#C.#D.#E.#C.#C.#C.#C.#C.#C.#C.#C.#C.#C.#C.#C.#C.#C.#C.#C.#C.#C.#C.#C.#C.#C.#C.#C.#C.#C.#C.#C.#C.#C.#C.#C.#C.#C.#C.#C.#C.#C.#C.#C.#C.#C.#C.#C.#C.#C.#C.#C.#C.#C.#C.#C.#C.#C.#C.#C.#C.#C.#C.#C.#C.#C.#C.#C.#C.#C.#C.#C.#C.#C.#C.#C.#C.#C.#C.#C.#C.#C.#C.#C.#C.#C.#C.#C.#C.#C.#C.#C.#C.#C.#C.#C.#C.#C.#C.#C.#C.#C.#C.#C.#C.#C.#C.#C.#C.#C.#C.#C.#C.#C.#C.#C.#C.#C.#C.#C.#C.#C.#C.#C.#C.#C.#C.#C.#C.#C.#C.#C.#C.#C.#C.#C.#C.#C.#C.#C.#C.#C.#C.#C.#C.#C.#C.#C.#C.#C.#C.#C.#C.#C.#C.#C.#C.#C.#C.#C.#C.#C.#C.#C.#C.#C.#C.#C.#C.#C.#C.#C.#C.#C.#C.#C.#C.#C.#C.#C.#C.#C.#C.#C.#C.#C.#C.#C.#C.#C.#C.#C.#C.#C.#C.#C.#C.#C.#C.#C.#C.#C.#C.#C.#C.#C.#C.#C.#C.#C.#C.#C.#C.#C.#C.#C.#C.#C.#C.#C.#C.#C.#C.#C.#C.#C.#C.#C.#C.#C.#C.#C.#C.#C.#C.#C.#C.#C.#C.#C.#C.#C.#C",
".#F.#G.#G.#H.#I.#I.#I.#I.#I.#J.#F.#K.#K.#L.#F.#H.#I.#G.#G.#G.#G.#G.#F.#F.#F.#F.#F.#F.#F.#G.#G.#G.#G.#G.#G.#G.#F.#F.#F.#F.#F.#F.#G.#G.#G.#G.#G.#G.#G.#G.#F.#F.#F.#F.#F.#F.#G.#G.#G.#G.#G.#G.#G.#F.#F.#F.#F.#F.#F.#F.#G.#G.#G.#G.#G.#G.#G.#F.#F.#F.#F.#F.#F.#G.#G.#G.#G.#G.#G.#G.#G.#F.#F.#F.#F.#F.#F.#G.#G.#G.#G.#G.#G.#G.#F.#F.#F.#F.#F.#F.#F.#G.#G.#G.#G.#G.#G.#G.#F.#F.#F.#F.#F.#F.#G.#G.#G.#G.#G.#G.#G.#G.#F.#F.#F.#F.#F.#F.#G.#G.#G.#G.#G.#G.#G.#F.#F.#F.#F.#F.#F.#F.#G.#G.#G.#G.#G.#G.#G.#F.#F.#F.#F.#F.#F.#G.#G.#G.#G.#G.#G.#G.#G.#F.#F.#F.#F.#F.#F.#G.#G.#G.#G.#G.#G.#G.#F.#F.#F.#F.#F.#F.#F.#G.#G.#G.#G.#G.#G.#G.#F.#F.#F.#F.#F.#F.#G.#G.#G.#G.#G.#G.#G.#G.#F.#F.#F.#F.#F.#F.#G.#G.#G.#G.#G.#G.#G.#F.#F.#F.#F.#F.#F.#F.#G.#G.#G.#G.#G.#G.#G.#F.#F.#F.#F.#F.#F.#G.#G.#G.#G.#G.#G.#G.#G.#F",
".#M.#F.#G.#G.#G.#G.#G.#G.#F.#M.#M.#N.#O.#M.#M.#F.#G.#G.#G.#G.#G.#G.#M.#M.#M.#M.#M.#M.#M.#G.#G.#G.#G.#G.#G.#G.#M.#M.#M.#M.#M.#M.#F.#G.#G.#G.#G.#G.#G.#F.#M.#M.#M.#M.#M.#M.#F.#G.#G.#G.#G.#G.#G.#M.#M.#M.#M.#M.#M.#M.#G.#G.#G.#G.#G.#G.#G.#M.#M.#M.#M.#M.#M.#F.#G.#G.#G.#G.#G.#G.#F.#M.#M.#M.#M.#M.#M.#F.#G.#G.#G.#G.#G.#G.#M.#M.#M.#M.#M.#M.#M.#G.#G.#G.#G.#G.#G.#G.#M.#M.#M.#M.#M.#M.#F.#G.#G.#G.#G.#G.#G.#F.#M.#M.#M.#M.#M.#M.#G.#G.#G.#G.#G.#G.#G.#M.#M.#M.#M.#M.#M.#M.#G.#G.#G.#G.#G.#G.#F.#M.#M.#M.#M.#M.#M.#F.#G.#G.#G.#G.#G.#G.#F.#M.#M.#M.#M.#M.#M.#G.#G.#G.#G.#G.#G.#G.#M.#M.#M.#M.#M.#M.#M.#G.#G.#G.#G.#G.#G.#F.#M.#M.#M.#M.#M.#M.#F.#G.#G.#G.#G.#G.#G.#F.#M.#M.#M.#M.#M.#M.#G.#G.#G.#G.#G.#G.#G.#M.#M.#M.#M.#M.#M.#M.#G.#G.#G.#G.#G.#G.#F.#M.#M.#M.#M.#M.#M.#F.#G.#G.#G.#G.#G.#G.#F.#M",
".#P.#P.#P.#Q.#R.#R.#R.#R.#R.#S.#P.#P.#S.#T.#P.#Q.#R.#T.#P.#P.#P.#P.#P.#P.#P.#P.#P.#P.#P.#P.#P.#P.#P.#P.#P.#P.#P.#P.#P.#P.#P.#P.#P.#P.#P.#P.#P.#P.#P.#P.#P.#P.#P.#P.#P.#P.#P.#P.#P.#P.#P.#P.#P.#P.#P.#P.#P.#P.#P.#P.#P.#P.#P.#P.#P.#P.#P.#P.#P.#P.#P.#P.#P.#P.#P.#P.#P.#P.#P.#P.#P.#P.#P.#P.#P.#P.#P.#P.#P.#P.#P.#P.#P.#P.#P.#P.#P.#P.#P.#P.#P.#P.#P.#P.#P.#P.#P.#P.#P.#P.#P.#P.#P.#P.#P.#P.#P.#P.#P.#P.#P.#P.#P.#P.#P.#P.#P.#P.#P.#P.#P.#P.#P.#P.#P.#P.#P.#P.#P.#P.#P.#P.#P.#P.#P.#P.#P.#P.#P.#P.#P.#P.#P.#P.#P.#P.#P.#P.#P.#P.#P.#P.#P.#P.#P.#P.#P.#P.#P.#P.#P.#P.#P.#P.#P.#P.#P.#P.#P.#P.#P.#P.#P.#P.#P.#P.#P.#P.#P.#P.#P.#P.#P.#P.#P.#P.#P.#P.#P.#P.#P.#P.#P.#P.#P.#P.#P.#P.#P.#P.#P.#P.#P.#P.#P.#P.#P.#P.#P.#P.#P.#P.#P.#P.#P.#P.#P.#P.#P.#P.#P.#P.#P.#P.#P.#P.#P.#P.#P.#P.#P.#P.#P.#P.#P.#P",
".#U.#V.#P.#Q.#R.#R.#R.#R.#W.#X.#U.#U.#X.#Y.#U.#W.#R.#T.#P.#P.#P.#P.#U.#U.#U.#U.#U.#U.#U.#P.#P.#P.#P.#P.#P.#P.#U.#U.#U.#U.#U.#U.#V.#P.#P.#P.#P.#P.#P.#V.#U.#U.#U.#U.#U.#U.#Z.#P.#P.#P.#P.#P.#P.#U.#U.#U.#U.#U.#U.#U.#P.#P.#P.#P.#P.#P.#P.#U.#U.#U.#U.#U.#U.#V.#P.#P.#P.#P.#P.#P.#V.#U.#U.#U.#U.#U.#U.#Z.#P.#P.#P.#P.#P.#P.#U.#U.#U.#U.#U.#U.#U.#P.#P.#P.#P.#P.#P.#P.#U.#U.#U.#U.#U.#U.#V.#P.#P.#P.#P.#P.#P.#V.#U.#U.#U.#U.#U.#U.#P.#P.#P.#P.#P.#P.#P.#U.#U.#U.#U.#U.#U.#U.#P.#P.#P.#P.#P.#P.#Z.#U.#U.#U.#U.#U.#U.#V.#P.#P.#P.#P.#P.#P.#V.#U.#U.#U.#U.#U.#U.#P.#P.#P.#P.#P.#P.#P.#U.#U.#U.#U.#U.#U.#U.#P.#P.#P.#P.#P.#P.#Z.#U.#U.#U.#U.#U.#U.#V.#P.#P.#P.#P.#P.#P.#V.#U.#U.#U.#U.#U.#U.#P.#P.#P.#P.#P.#P.#P.#U.#U.#U.#U.#U.#U.#U.#P.#P.#P.#P.#P.#P.#Z.#U.#U.#U.#U.#U.#U.#Z.#P.#P.#P.#P.#P.#P.#V.#U",
".#0.#1.#2.#3.#4.#5.#5.#3.#4.#0.#0.#0.#0.#0.#0.#4.#3.#2.#2.#2.#2.#2.#0.#0.#0.#0.#0.#0.#0.#2.#2.#2.#2.#2.#2.#2.#0.#0.#0.#0.#0.#0.#1.#2.#2.#2.#2.#2.#2.#1.#0.#0.#0.#0.#0.#0.#1.#2.#2.#2.#2.#2.#2.#0.#0.#0.#0.#0.#0.#0.#2.#2.#2.#2.#2.#2.#2.#0.#0.#0.#0.#0.#0.#1.#2.#2.#2.#2.#2.#2.#1.#0.#0.#0.#0.#0.#0.#1.#2.#2.#2.#2.#2.#2.#0.#0.#0.#0.#0.#0.#0.#2.#2.#2.#2.#2.#2.#2.#0.#0.#0.#0.#0.#0.#1.#2.#2.#2.#2.#2.#2.#1.#0.#0.#0.#0.#0.#0.#2.#2.#2.#2.#2.#2.#2.#0.#0.#0.#0.#0.#0.#0.#2.#2.#2.#2.#2.#2.#1.#0.#0.#0.#0.#0.#0.#1.#2.#2.#2.#2.#2.#2.#1.#0.#0.#0.#0.#0.#0.#2.#2.#2.#2.#2.#2.#2.#0.#0.#0.#0.#0.#0.#0.#2.#2.#2.#2.#2.#2.#1.#0.#0.#0.#0.#0.#0.#1.#2.#2.#2.#2.#2.#2.#1.#0.#0.#0.#0.#0.#0.#2.#2.#2.#2.#2.#2.#2.#0.#0.#0.#0.#0.#0.#0.#2.#2.#2.#2.#2.#2.#1.#0.#0.#0.#0.#0.#0.#1.#2.#2.#2.#2.#2.#2.#1.#0",
".#0.#1.#2.#3.#4.#5.#5.#3.#4.#0.#0.#0.#0.#0.#0.#4.#3.#2.#2.#2.#2.#2.#0.#0.#0.#0.#0.#0.#0.#2.#2.#2.#2.#2.#2.#2.#0.#0.#0.#0.#0.#0.#1.#2.#2.#2.#2.#2.#2.#1.#0.#0.#0.#0.#0.#0.#1.#2.#2.#2.#2.#2.#2.#0.#0.#0.#0.#0.#0.#0.#2.#2.#2.#2.#2.#2.#2.#0.#0.#0.#0.#0.#0.#1.#2.#2.#2.#2.#2.#2.#1.#0.#0.#0.#0.#0.#0.#1.#2.#2.#2.#2.#2.#2.#0.#0.#0.#0.#0.#0.#0.#2.#2.#2.#2.#2.#2.#2.#0.#0.#0.#0.#0.#0.#1.#2.#2.#2.#2.#2.#2.#1.#0.#0.#0.#0.#0.#0.#2.#2.#2.#2.#2.#2.#2.#0.#0.#0.#0.#0.#0.#0.#2.#2.#2.#2.#2.#2.#1.#0.#0.#0.#0.#0.#0.#1.#2.#2.#2.#2.#2.#2.#1.#0.#0.#0.#0.#0.#0.#2.#2.#2.#2.#2.#2.#2.#0.#0.#0.#0.#0.#0.#0.#2.#2.#2.#2.#2.#2.#1.#0.#0.#0.#0.#0.#0.#1.#2.#2.#2.#2.#2.#2.#1.#0.#0.#0.#0.#0.#0.#2.#2.#2.#2.#2.#2.#2.#0.#0.#0.#0.#0.#0.#0.#2.#2.#2.#2.#2.#2.#1.#0.#0.#0.#0.#0.#0.#1.#2.#2.#2.#2.#2.#2.#1.#0",
".#6.#7.#7.#6.#6.#8.#8.#6.#6.#8.#8.#9.#8.#8.#8.#6.#6.#6.#6.#6.#6.#6.#8.#8.#8.#8.#8.#8.#8.#6.#6.#6.#6.#6.#6.#6.#8.#8.#8.#8.#8.#8.#6.#6.#6.#6.#6.#6.#6.#6.#8.#8.#8.#8.#8.#8.#6.#6.#6.#6.#6.#6.#6.#8.#8.#8.#8.#8.#8.#8.#6.#6.#6.#6.#6.#6.#6.#8.#8.#8.#8.#8.#8.#6.#6.#6.#6.#6.#6.#6.#6.#8.#8.#8.#8.#8.#8.#6.#6.#6.#6.#6.#6.#6.#8.#8.#8.#8.#8.#8.#8.#6.#6.#6.#6.#6.#6.#6.#8.#8.#8.#8.#8.#8.#6.#6.#6.#6.#6.#6.#6.#6.#8.#8.#8.#8.#8.#8.#6.#6.#6.#6.#6.#6.#6.#8.#8.#8.#8.#8.#8.#8.#6.#6.#6.#6.#6.#6.#6.#8.#8.#8.#8.#8.#8.#6.#6.#6.#6.#6.#6.#6.#6.#8.#8.#8.#8.#8.#8.#6.#6.#6.#6.#6.#6.#6.#8.#8.#8.#8.#8.#8.#8.#6.#6.#6.#6.#6.#6.#6.#8.#8.#8.#8.#8.#8.#6.#6.#6.#6.#6.#6.#6.#6.#8.#8.#8.#8.#8.#8.#6.#6.#6.#6.#6.#6.#6.#8.#8.#8.#8.#8.#8.#8.#6.#6.#6.#6.#6.#6.#6.#8.#8.#8.#8.#8.#8.#6.#6.#6.#6.#6.#6.#6.#6.#8",
".a..a..a#.aa.aa.aa.aa.aa.aa.aa.aa.ab.aa.aa.aa.aa.aa.aa.aa.aa.aa.aa.aa.aa.aa.aa.aa.aa.aa.aa.aa.aa.aa.aa.aa.aa.aa.aa.aa.aa.aa.aa.aa.aa.aa.aa.aa.aa.aa.aa.aa.aa.aa.aa.aa.aa.aa.aa.aa.aa.aa.aa.aa.aa.aa.aa.aa.aa.aa.aa.aa.aa.aa.aa.aa.aa.aa.aa.aa.aa.aa.aa.aa.aa.aa.aa.aa.aa.aa.aa.aa.aa.aa.aa.aa.aa.aa.aa.aa.aa.aa.aa.aa.aa.aa.aa.aa.aa.aa.aa.aa.aa.aa.aa.aa.aa.aa.aa.aa.aa.aa.aa.aa.aa.aa.aa.aa.aa.aa.aa.aa.aa.aa.aa.aa.aa.aa.aa.aa.aa.aa.aa.aa.aa.aa.aa.aa.aa.aa.aa.aa.aa.aa.aa.aa.aa.aa.aa.aa.aa.aa.aa.aa.aa.aa.aa.aa.aa.aa.aa.aa.aa.aa.aa.aa.aa.aa.aa.aa.aa.aa.aa.aa.aa.aa.aa.aa.aa.aa.aa.aa.aa.aa.aa.aa.aa.aa.aa.aa.aa.aa.aa.aa.aa.aa.aa.aa.aa.aa.aa.aa.aa.aa.aa.aa.aa.aa.aa.aa.aa.aa.aa.aa.aa.aa.aa.aa.aa.aa.aa.aa.aa.aa.aa.aa.aa.aa.aa.aa.aa.aa.aa.aa.aa.aa.aa.aa.aa.aa.aa.aa.aa.aa.aa.aa.aa",
".a..a..a#.aa.aa.ac.ac.aa.aa.aa.aa.ad.aa.aa.aa.aa.aa.aa.aa.aa.aa.aa.aa.aa.aa.aa.aa.aa.aa.aa.aa.aa.aa.aa.aa.aa.aa.aa.aa.aa.aa.aa.aa.aa.aa.aa.aa.aa.aa.aa.aa.aa.aa.aa.aa.aa.aa.aa.aa.aa.aa.aa.aa.aa.aa.aa.aa.aa.aa.aa.aa.aa.aa.aa.aa.aa.aa.aa.aa.aa.aa.aa.aa.aa.aa.aa.aa.aa.aa.aa.aa.aa.aa.aa.aa.aa.aa.aa.aa.aa.aa.aa.aa.aa.aa.aa.aa.aa.aa.aa.aa.aa.aa.aa.aa.aa.aa.aa.aa.aa.aa.aa.aa.aa.aa.aa.aa.aa.aa.aa.aa.aa.aa.aa.aa.aa.aa.aa.aa.aa.aa.aa.aa.aa.aa.aa.aa.aa.aa.aa.aa.aa.aa.aa.aa.aa.aa.aa.aa.aa.aa.aa.aa.aa.aa.aa.aa.aa.aa.aa.aa.aa.aa.aa.aa.aa.aa.aa.aa.aa.aa.aa.aa.aa.aa.aa.aa.aa.aa.aa.aa.aa.aa.aa.aa.aa.aa.aa.aa.aa.aa.aa.aa.aa.aa.aa.aa.aa.aa.aa.aa.aa.aa.aa.aa.aa.aa.aa.aa.aa.aa.aa.aa.aa.aa.aa.aa.aa.aa.aa.aa.aa.aa.aa.aa.aa.aa.aa.aa.aa.aa.aa.aa.aa.aa.aa.aa.aa.aa.aa.aa.aa.aa.aa.aa.aa",
".ae.ae.af.ag.ah.ai.ai.ag.ag.ag.aa.aa.aa.aa.ag.ag.ag.ag.ag.aa.ag.ag.ag.ag.ag.ag.ag.aa.aa.aa.aa.aa.aa.aa.aa.aa.aa.aa.aa.aa.aa.aa.aa.aa.aa.aa.aa.aa.aa.aa.aa.aa.aa.aa.aa.aa.aa.aa.aa.aa.aa.aa.aa.aa.aa.aa.aa.aa.aa.aa.aa.aa.aa.aa.aa.aa.aa.aa.aa.aa.aa.aa.aa.aa.aa.aa.aa.aa.aa.aa.aa.aa.aa.aa.aa.aa.aa.aa.aa.aa.aa.aa.aa.aa.aa.aa.aa.aa.aa.aa.aa.aa.aa.aa.aa.aa.aa.aa.aa.aa.aa.aa.aa.aa.aa.aa.aa.aa.aa.aa.aa.aa.aa.aa.aa.aa.aa.aa.aa.aa.aa.aa.aa.aa.aa.aa.aa.aa.aa.aa.aa.aa.aa.aa.aa.aa.aa.aa.aa.aa.aa.aa.aa.aa.aa.aa.aa.aa.aa.aa.aa.aa.aa.aa.aa.aa.aa.aa.aa.aa.aa.aa.aa.aa.aa.aa.aa.aa.aa.aa.aa.aa.aa.aa.aa.aa.aa.aa.aa.aa.aa.aa.aa.aa.aa.aa.aa.aa.aa.aa.aa.aa.aa.aa.aa.aa.aa.aa.aa.aa.aa.aa.aa.aa.aa.aa.aa.aa.aa.aa.aa.aa.aa.aa.aa.aa.aa.aa.aa.aa.aa.aa.aa.aa.aa.aa.aa.aa.aa.aa.aa.aa.aa.aa.aa.aa",
".aj.aj.aj.aj.ak.al.al.ag.ag.ag.ag.ag.ag.ag.ag.ag.ag.ag.ag.ag.ag.ag.ag.ag.ag.ag.ag.ag.ag.ag.ag.ag.ag.ag.ag.ag.ag.ag.ag.ag.ag.ag.ag.ag.ag.ag.ag.ag.ag.ag.ag.ag.ag.ag.ag.ag.ag.ag.ag.ag.ag.ag.ag.ag.ag.ag.ag.ag.ag.ag.ag.ag.ag.ag.ag.ag.ag.ag.ag.ag.ag.ag.ag.ag.ag.ag.ag.ag.ag.ag.ag.ag.ag.ag.ag.ag.ag.ag.ag.ag.ag.ag.ag.ag.ag.ag.ag.ag.ag.ag.ag.ag.ag.ag.ag.ag.ag.ag.ag.ag.ag.ag.ag.ag.ag.ag.ag.ag.ag.ag.ag.ag.ag.ag.ag.ag.ag.ag.ag.ag.ag.ag.ag.ag.ag.ag.ag.ag.ag.ag.ag.ag.ag.ag.ag.ag.ag.ag.ag.ag.ag.ag.ag.ag.ag.ag.ag.ag.ag.ag.ag.ag.ag.ag.ag.ag.ag.ag.ag.ag.ag.ag.ag.ag.ag.ag.ag.ag.ag.ag.ag.ag.ag.ag.ag.ag.ag.ag.ag.ag.ag.ag.ag.ag.ag.ag.ag.ag.ag.ag.ag.ag.ag.ag.ag.ag.ag.ag.ag.ag.ag.ag.ag.ag.ag.ag.ag.ag.ag.ag.ag.ag.ag.ag.ag.ag.ag.ag.ag.ag.ag.ag.ag.ag.ag.ag.ag.ag.ag.ag.ag.ag.ag.ag.ag.ag",
".aj.aj.ak.al.al.al.al.aj.aj.aj.am.am.am.an.aj.aj.aj.aj.ao.am.ao.aj.aj.aj.aj.aj.aj.ao.am.am.am.am.am.am.am.am.am.am.am.am.am.am.am.am.am.am.am.am.am.am.am.am.am.am.am.am.am.am.am.am.am.am.am.am.am.am.am.am.am.am.am.am.am.am.am.am.am.am.am.am.am.am.am.am.am.am.am.am.am.am.am.am.am.am.am.am.am.am.am.am.am.am.am.am.am.am.am.am.am.am.am.am.am.am.am.am.am.am.am.am.am.am.am.am.am.am.am.am.am.am.am.am.am.am.am.am.am.am.am.am.am.am.am.am.am.am.am.am.am.am.am.am.am.am.am.am.am.am.am.am.am.am.am.am.am.am.am.am.am.am.am.am.am.am.am.am.am.am.am.am.am.am.am.am.am.am.am.am.am.am.am.am.am.am.am.am.am.am.am.am.am.am.am.am.am.am.am.am.am.am.am.am.am.am.am.am.am.am.am.am.am.am.am.am.am.am.am.am.am.am.am.am.am.am.am.am.am.am.am.am.am.am.am.am.am.am.am.am.am.am.am.am.am.am.am.am",
".ap.ap.ap.ap.ap.ap.ap.aj.aj.aj.aq.aq.am.ao.aj.aj.aj.aj.am.aq.am.aj.aj.aj.aj.aj.aj.ao.am.am.am.am.am.am.am.am.am.am.am.am.am.am.am.am.am.am.am.am.am.am.am.am.am.am.am.am.am.am.am.am.am.am.am.am.am.am.am.am.am.am.am.am.am.am.am.am.am.am.am.am.am.am.am.am.am.am.am.am.am.am.am.am.am.am.am.am.am.am.am.am.am.am.am.am.am.am.am.am.am.am.am.am.am.am.am.am.am.am.am.am.am.am.am.am.am.am.am.am.am.am.am.am.am.am.am.am.am.am.am.am.am.am.am.am.am.am.am.am.am.am.am.am.am.am.am.am.am.am.am.am.am.am.am.am.am.am.am.am.am.am.am.am.am.am.am.am.am.am.am.am.am.am.am.am.am.am.am.am.am.am.am.am.am.am.am.am.am.am.am.am.am.am.am.am.am.am.am.am.am.am.am.am.am.am.am.am.am.am.am.am.am.am.am.am.am.am.am.am.am.am.am.am.am.am.am.am.am.am.am.am.am.am.am.am.am.am.am.am.am.am.am.am.am.am.am.am",
".ar.ar.as.as.as.as.as.at.at.at.au.au.av.av.at.at.at.at.av.au.aw.at.at.at.at.at.at.av.av.av.av.av.av.av.av.av.av.av.av.av.av.av.av.av.av.av.av.av.av.av.av.av.av.av.av.av.av.av.av.av.av.av.av.av.av.av.av.av.av.av.av.av.av.av.av.av.av.av.av.av.av.av.av.av.av.av.av.av.av.av.av.av.av.av.av.av.av.av.av.av.av.av.av.av.av.av.av.av.av.av.av.av.av.av.av.av.av.av.av.av.av.av.av.av.av.av.av.av.av.av.av.av.av.av.av.av.av.av.av.av.av.av.av.av.av.av.av.av.av.av.av.av.av.av.av.av.av.av.av.av.av.av.av.av.av.av.av.av.av.av.av.av.av.av.av.av.av.av.av.av.av.av.av.av.av.av.av.av.av.av.av.av.av.av.av.av.av.av.av.av.av.av.av.av.av.av.av.av.av.av.av.av.av.av.av.av.av.av.av.av.av.av.av.av.av.av.av.av.av.av.av.av.av.av.av.av.av.av.av.av.av.av.av.av.av.av.av.av.av.av.av.av.av.av.av.av",
".ar.ar.ax.as.as.as.as.av.av.av.au.au.av.av.av.av.av.av.av.au.aw.av.av.av.av.av.av.av.av.av.av.av.av.av.av.av.av.av.av.av.av.av.av.av.av.av.av.av.av.av.av.av.av.av.av.av.av.av.av.av.av.av.av.av.av.av.av.av.av.av.av.av.av.av.av.av.av.av.av.av.av.av.av.av.av.av.av.av.av.av.av.av.av.av.av.av.av.av.av.av.av.av.av.av.av.av.av.av.av.av.av.av.av.av.av.av.av.av.av.av.av.av.av.av.av.av.av.av.av.av.av.av.av.av.av.av.av.av.av.av.av.av.av.av.av.av.av.av.av.av.av.av.av.av.av.av.av.av.av.av.av.av.av.av.av.av.av.av.av.av.av.av.av.av.av.av.av.av.av.av.av.av.av.av.av.av.av.av.av.av.av.av.av.av.av.av.av.av.av.av.av.av.av.av.av.av.av.av.av.av.av.av.av.av.av.av.av.av.av.av.av.av.av.av.av.av.av.av.av.av.av.av.av.av.av.av.av.av.av.av.av.av.av.av.av.av.av.av.av.av.av.av.av.av.av.av",
".ar.ar.ar.ay.ay.as.as.aw.aw.aw.az.az.aw.aw.aw.aw.aw.aw.aw.az.az.aw.aw.aw.aw.aw.aw.aw.aw.aw.aw.aw.aw.aw.aw.aw.aw.aw.aw.aw.aw.aw.aw.aw.aw.aw.aw.aw.aw.aw.aw.aw.aw.aw.aw.aw.aw.aw.aw.aw.aw.aw.aw.aw.aw.aw.aw.aw.aw.aw.aw.aw.aw.aw.aw.aw.aw.aw.aw.aw.aw.aw.aw.aw.aw.aw.aw.aw.aw.aw.aw.aw.aw.aw.aw.aw.aw.aw.aw.aw.aw.aw.aw.aw.aw.aw.aw.aw.aw.aw.aw.aw.aw.aw.aw.aw.aw.aw.aw.aw.aw.aw.aw.aw.aw.aw.aw.aw.aw.aw.aw.aw.aw.aw.aw.aw.aw.aw.aw.aw.aw.aw.aw.aw.aw.aw.aw.aw.aw.aw.aw.aw.aw.aw.aw.aw.aw.aw.aw.aw.aw.aw.aw.aw.aw.aw.aw.aw.aw.aw.aw.aw.aw.aw.aw.aw.aw.aw.aw.aw.aw.aw.aw.aw.aw.aw.aw.aw.aw.aw.aw.aw.aw.aw.aw.aw.aw.aw.aw.aw.aw.aw.aw.aw.aw.aw.aw.aw.aw.aw.aw.aw.aw.aw.aw.aw.aw.aw.aw.aw.aw.aw.aw.aw.aw.aw.aw.aw.aw.aw.aw.aw.aw.aw.aw.aw.aw.aw.aw.aw.aw.aw.aw.aw.aw.aw.aw.aw.aw.aw.aw.aw.aw.aw.aw.aw",
".aA.aA.aA.aA.aB.aC.aC.aA.aA.aA.aA.aA.aA.aA.aA.aA.aA.aA.aA.aA.aA.aA.aA.aA.aA.aA.aA.aA.aA.aA.aA.aA.aA.aA.aA.aA.aA.aA.aA.aA.aA.aA.aA.aA.aA.aA.aA.aA.aA.aA.aA.aA.aA.aA.aA.aA.aA.aA.aA.aA.aA.aA.aA.aA.aA.aA.aA.aA.aA.aA.aA.aA.aA.aA.aA.aA.aA.aA.aA.aA.aA.aA.aA.aA.aA.aA.aA.aA.aA.aA.aA.aA.aA.aA.aA.aA.aA.aA.aA.aA.aA.aA.aA.aA.aA.aA.aA.aA.aA.aA.aA.aA.aA.aA.aA.aA.aA.aA.aA.aA.aA.aA.aA.aA.aA.aA.aA.aA.aA.aA.aA.aA.aA.aA.aA.aA.aA.aA.aA.aA.aA.aA.aA.aA.aA.aA.aA.aA.aA.aA.aA.aA.aA.aA.aA.aA.aA.aA.aA.aA.aA.aA.aA.aA.aA.aA.aA.aA.aA.aA.aA.aA.aA.aA.aA.aA.aA.aA.aA.aA.aA.aA.aA.aA.aA.aA.aA.aA.aA.aA.aA.aA.aA.aA.aA.aA.aA.aA.aA.aA.aA.aA.aA.aA.aA.aA.aA.aA.aA.aA.aA.aA.aA.aA.aA.aA.aA.aA.aA.aA.aA.aA.aA.aA.aA.aA.aA.aA.aA.aA.aA.aA.aA.aA.aA.aA.aA.aA.aA.aA.aA.aA.aA.aA.aA.aA.aA.aA.aA.aA.aA.aA.aA.aA.aA.aA",
".aD.aD.aA.aA.aB.aB.aB.aA.aA.aA.aA.aA.aA.aA.aA.aA.aA.aA.aA.aA.aA.aA.aA.aA.aA.aA.aA.aA.aA.aD.aA.aA.aA.aA.aA.aA.aA.aA.aA.aA.aA.aA.aA.aA.aA.aA.aA.aA.aA.aA.aA.aA.aA.aA.aA.aA.aA.aA.aA.aA.aA.aA.aA.aD.aA.aA.aA.aA.aA.aA.aD.aA.aA.aA.aA.aA.aA.aA.aA.aA.aA.aA.aA.aA.aA.aA.aA.aA.aA.aA.aA.aA.aA.aA.aA.aA.aA.aA.aA.aA.aA.aA.aA.aA.aD.aA.aA.aA.aA.aA.aA.aA.aA.aA.aA.aA.aA.aA.aA.aA.aA.aA.aA.aA.aA.aA.aA.aA.aA.aA.aA.aA.aA.aA.aA.aA.aA.aA.aA.aA.aA.aA.aA.aA.aA.aD.aA.aA.aA.aA.aA.aA.aA.aA.aA.aA.aA.aA.aA.aA.aA.aA.aA.aA.aA.aA.aA.aA.aA.aA.aA.aA.aA.aA.aA.aA.aA.aA.aA.aA.aA.aA.aA.aA.aA.aA.aD.aA.aA.aA.aA.aA.aA.aA.aA.aA.aA.aA.aA.aA.aA.aA.aA.aA.aA.aA.aA.aA.aA.aA.aA.aA.aA.aA.aA.aA.aA.aA.aA.aA.aD.aA.aA.aA.aA.aA.aA.aD.aA.aA.aA.aA.aA.aA.aA.aA.aA.aA.aA.aA.aA.aA.aA.aA.aA.aA.aA.aA.aA.aA.aA.aA.aA.aA.aA.aA",
".aE.aE.aF.aG.aG.aG.aG.aG.aF.aH.aG.aG.aG.aG.aG.aF.aH.aG.aG.aG.aG.aG.aF.aG.aG.aG.aG.aG.aG.aE.aG.aG.aG.aG.aG.aG.aF.aG.aG.aG.aG.aG.aH.aF.aG.aG.aG.aG.aG.aF.aH.aG.aG.aG.aG.aG.aF.aG.aG.aG.aG.aG.aG.aE.aG.aG.aG.aG.aG.aG.aE.aG.aG.aG.aG.aG.aG.aF.aG.aG.aG.aG.aG.aH.aF.aG.aG.aG.aG.aG.aF.aH.aG.aG.aG.aG.aG.aF.aG.aG.aG.aG.aG.aG.aE.aG.aG.aG.aG.aG.aG.aF.aG.aG.aG.aG.aG.aH.aF.aG.aG.aG.aG.aG.aH.aH.aG.aG.aG.aG.aG.aF.aH.aG.aG.aG.aG.aG.aF.aG.aG.aG.aG.aG.aG.aE.aG.aG.aG.aG.aG.aG.aF.aG.aG.aG.aG.aG.aH.aF.aG.aG.aG.aG.aG.aH.aH.aG.aG.aG.aG.aG.aF.aH.aG.aG.aG.aG.aG.aF.aG.aG.aG.aG.aG.aG.aE.aG.aG.aG.aG.aG.aG.aF.aG.aG.aG.aG.aG.aH.aF.aG.aG.aG.aG.aG.aF.aH.aG.aG.aG.aG.aG.aF.aG.aG.aG.aG.aG.aG.aE.aG.aG.aG.aG.aG.aG.aE.aG.aG.aG.aG.aG.aG.aF.aG.aG.aG.aG.aG.aH.aF.aG.aG.aG.aG.aG.aF.aH.aG.aG.aG.aG.aG.aF.aG",
".aI.aI.aJ.aK.aK.aK.aK.aK.aJ.aJ.aK.aK.aK.aK.aK.aJ.aJ.aK.aK.aK.aK.aK.aJ.aK.aK.aK.aK.aK.aK.aI.aK.aK.aK.aK.aK.aK.aJ.aK.aK.aK.aK.aK.aJ.aJ.aK.aK.aK.aK.aK.aJ.aJ.aK.aK.aK.aK.aK.aJ.aK.aK.aK.aK.aK.aK.aI.aK.aK.aK.aK.aK.aK.aI.aK.aK.aK.aK.aK.aK.aJ.aK.aK.aK.aK.aK.aJ.aJ.aK.aK.aK.aK.aK.aJ.aJ.aK.aK.aK.aK.aK.aJ.aK.aK.aK.aK.aK.aK.aI.aK.aK.aK.aK.aK.aK.aJ.aK.aK.aK.aK.aK.aJ.aJ.aK.aK.aK.aK.aK.aJ.aJ.aK.aK.aK.aK.aK.aJ.aJ.aK.aK.aK.aK.aK.aJ.aK.aK.aK.aK.aK.aK.aI.aK.aK.aK.aK.aK.aK.aJ.aK.aK.aK.aK.aK.aJ.aJ.aK.aK.aK.aK.aK.aJ.aJ.aK.aK.aK.aK.aK.aJ.aJ.aK.aK.aK.aK.aK.aJ.aK.aK.aK.aK.aK.aK.aI.aK.aK.aK.aK.aK.aK.aJ.aK.aK.aK.aK.aK.aJ.aJ.aK.aK.aK.aK.aK.aJ.aJ.aK.aK.aK.aK.aK.aJ.aK.aK.aK.aK.aK.aK.aI.aK.aK.aK.aK.aK.aK.aI.aK.aK.aK.aK.aK.aK.aJ.aK.aK.aK.aK.aK.aJ.aJ.aK.aK.aK.aK.aK.aJ.aJ.aK.aK.aK.aK.aK.aJ.aK",
".aL.aL.aL.aL.aM.aL.aL.aL.aL.aL.aL.aN.aL.aL.aL.aL.aL.aL.aM.aL.aL.aL.aL.aL.aO.aM.aL.aL.aL.aL.aL.aO.aO.aL.aL.aL.aL.aL.aM.aO.aL.aL.aL.aL.aL.aM.aL.aL.aL.aL.aL.aL.aN.aL.aL.aL.aL.aL.aL.aM.aL.aL.aL.aL.aL.aO.aM.aL.aL.aL.aL.aL.aM.aO.aL.aL.aL.aL.aL.aM.aO.aL.aL.aL.aL.aL.aM.aL.aL.aL.aL.aL.aL.aN.aL.aL.aL.aL.aL.aL.aM.aL.aL.aL.aL.aL.aO.aM.aL.aL.aL.aL.aL.aM.aO.aL.aL.aL.aL.aL.aM.aL.aL.aL.aL.aL.aL.aN.aL.aL.aL.aL.aL.aL.aN.aL.aL.aL.aL.aL.aL.aM.aL.aL.aL.aL.aL.aO.aM.aL.aL.aL.aL.aL.aM.aO.aL.aL.aL.aL.aL.aM.aL.aL.aL.aL.aL.aL.aN.aL.aL.aL.aL.aL.aL.aM.aL.aL.aL.aL.aL.aO.aM.aL.aL.aL.aL.aL.aO.aO.aL.aL.aL.aL.aL.aM.aO.aL.aL.aL.aL.aL.aM.aL.aL.aL.aL.aL.aL.aN.aL.aL.aL.aL.aL.aL.aM.aL.aL.aL.aL.aL.aO.aM.aL.aL.aL.aL.aL.aO.aO.aL.aL.aL.aL.aL.aM.aO.aL.aL.aL.aL.aL.aM.aL.aL.aL.aL.aL.aL.aN.aL.aL.aL.aL.aL",
".aP.aP.aP.aP.aQ.aP.aP.aP.aP.aP.aP.aR.aP.aP.aP.aP.aP.aP.aQ.aP.aP.aP.aP.aP.aS.aQ.aP.aP.aP.aP.aP.aS.aS.aP.aP.aP.aP.aP.aQ.aS.aP.aP.aP.aP.aP.aQ.aP.aP.aP.aP.aP.aP.aR.aP.aP.aP.aP.aP.aP.aQ.aP.aP.aP.aP.aP.aS.aQ.aP.aP.aP.aP.aP.aQ.aS.aP.aP.aP.aP.aP.aQ.aS.aP.aP.aP.aP.aP.aQ.aP.aP.aP.aP.aP.aP.aR.aP.aP.aP.aP.aP.aP.aQ.aP.aP.aP.aP.aP.aS.aQ.aP.aP.aP.aP.aP.aQ.aS.aP.aP.aP.aP.aP.aQ.aP.aP.aP.aP.aP.aP.aR.aP.aP.aP.aP.aP.aP.aR.aP.aP.aP.aP.aP.aP.aQ.aP.aP.aP.aP.aP.aS.aQ.aP.aP.aP.aP.aP.aQ.aS.aP.aP.aP.aP.aP.aQ.aP.aP.aP.aP.aP.aP.aR.aP.aP.aP.aP.aP.aP.aQ.aP.aP.aP.aP.aP.aS.aQ.aP.aP.aP.aP.aP.aS.aS.aP.aP.aP.aP.aP.aQ.aS.aP.aP.aP.aP.aP.aQ.aP.aP.aP.aP.aP.aP.aR.aP.aP.aP.aP.aP.aP.aQ.aP.aP.aP.aP.aP.aS.aQ.aP.aP.aP.aP.aP.aS.aS.aP.aP.aP.aP.aP.aQ.aS.aP.aP.aP.aP.aP.aQ.aP.aP.aP.aP.aP.aP.aR.aP.aP.aP.aP.aP",
".aT.aT.aU.aU.aV.aU.aU.aT.aT.aU.aU.aW.aU.aU.aU.aU.aU.aU.aX.aY.aU.aU.aU.aU.aV.aV.aU.aU.aU.aT.aU.aV.aV.aU.aU.aU.aU.aU.aV.aV.aU.aU.aU.aU.aU.aV.aU.aU.aU.aU.aU.aU.aV.aU.aU.aU.aU.aU.aU.aV.aU.aU.aU.aT.aU.aV.aV.aU.aU.aU.aT.aU.aV.aV.aU.aU.aU.aU.aU.aV.aV.aU.aU.aU.aU.aU.aV.aU.aU.aU.aU.aU.aU.aV.aU.aU.aU.aU.aU.aU.aV.aU.aU.aU.aT.aU.aV.aV.aU.aU.aU.aU.aU.aV.aV.aU.aU.aU.aU.aU.aV.aU.aU.aU.aU.aU.aU.aV.aU.aU.aU.aU.aU.aU.aV.aU.aU.aU.aU.aU.aU.aV.aU.aU.aU.aT.aU.aV.aV.aU.aU.aU.aU.aU.aV.aV.aU.aU.aU.aU.aU.aV.aU.aU.aU.aU.aU.aU.aV.aU.aU.aU.aU.aU.aU.aV.aU.aU.aU.aU.aU.aV.aV.aU.aU.aU.aT.aU.aV.aV.aU.aU.aU.aU.aU.aV.aV.aU.aU.aU.aU.aU.aV.aU.aU.aU.aU.aU.aU.aV.aU.aU.aU.aU.aU.aU.aV.aU.aU.aU.aT.aU.aV.aV.aU.aU.aU.aT.aU.aV.aV.aU.aU.aU.aU.aU.aV.aV.aU.aU.aU.aU.aU.aV.aU.aU.aU.aU.aU.aU.aV.aU.aU.aU.aU.aU",
".aZ.aZ.a0.a1.a1.a1.a1.aZ.aZ.a0.a1.a2.a1.a1.a1.a0.a0.a1.a3.a4.aU.a1.a0.a1.a1.a1.a1.a1.a1.aZ.a1.a1.a1.a1.a1.a1.a0.a1.a1.a1.a1.a1.a0.a0.a1.a1.a1.a1.a1.a0.a0.a1.a1.a1.a1.a1.a0.a1.a1.a1.a1.a1.a1.aZ.a1.a1.a1.a1.a1.a1.aZ.a1.a1.a1.a1.a1.a1.a0.a1.a1.a1.a1.a1.a0.a0.a1.a1.a1.a1.a1.a0.a0.a1.a1.a1.a1.a1.a0.a1.a1.a1.a1.a1.a1.aZ.a1.a1.a1.a1.a1.a1.a0.a1.a1.a1.a1.a1.a0.a0.a1.a1.a1.a1.a1.a0.a0.a1.a1.a1.a1.a1.a0.a0.a1.a1.a1.a1.a1.a0.a1.a1.a1.a1.a1.a1.aZ.a1.a1.a1.a1.a1.a1.a0.a1.a1.a1.a1.a1.a0.a0.a1.a1.a1.a1.a1.a0.a0.a1.a1.a1.a1.a1.a0.a0.a1.a1.a1.a1.a1.a0.a1.a1.a1.a1.a1.a1.aZ.a1.a1.a1.a1.a1.a1.a0.a1.a1.a1.a1.a1.a0.a0.a1.a1.a1.a1.a1.a0.a0.a1.a1.a1.a1.a1.a0.a1.a1.a1.a1.a1.a1.aZ.a1.a1.a1.a1.a1.a1.aZ.a1.a1.a1.a1.a1.a1.a0.a1.a1.a1.a1.a1.a0.a0.a1.a1.a1.a1.a1.a0.a0.a1.a1.a1.a1.a1.a0.a1",
".aZ.aZ.a0.a0.a1.aT.aT.a5.a5.a5.aT.aU.a0.a0.a0.aZ.aT.aT.aX.a4.aU.aT.aT.aT.aU.aU.aT.aT.aT.a5.aT.aU.aU.aT.aT.aT.aT.aT.aU.aU.aT.aT.aT.aT.aT.aU.aT.aT.aT.aT.aT.aT.aU.aT.aT.aT.aT.aT.aT.aU.aT.aT.aT.a5.aT.aU.aU.aT.aT.aT.a5.aT.aU.aU.aT.aT.aT.aT.aT.aU.aU.aT.aT.aT.aT.aT.aU.aT.aT.aT.aT.aT.aT.aU.aT.aT.aT.aT.aT.aT.aU.aT.aT.aT.a5.aT.aU.aU.aT.aT.aT.aT.aT.aU.aU.aT.aT.aT.aT.aT.aU.aT.aT.aT.aT.aT.aT.aU.aT.aT.aT.aT.aT.aT.aU.aT.aT.aT.aT.aT.aT.aU.aT.aT.aT.a5.aT.aU.aU.aT.aT.aT.aT.aT.aU.aU.aT.aT.aT.aT.aT.aU.aT.aT.aT.aT.aT.aT.aU.aT.aT.aT.aT.aT.aT.aU.aT.aT.aT.aT.aT.aU.aU.aT.aT.aT.a5.aT.aU.aU.aT.aT.aT.aT.aT.aU.aU.aT.aT.aT.aT.aT.aU.aT.aT.aT.aT.aT.aT.aU.aT.aT.aT.aT.aT.aT.aU.aT.aT.aT.a5.aT.aU.aU.aT.aT.aT.a5.aT.aU.aU.aT.aT.aT.aT.aT.aU.aU.aT.aT.aT.aT.aT.aU.aT.aT.aT.aT.aT.aT.aU.aT.aT.aT.aT.aT",
".aZ.aZ.aZ.aZ.a0.a6.a6.a6.a7.a6.a6.a4.aZ.aZ.aZ.a8.a6.a6.a4.a4.a9.a6.a6.a6.a9.b..a6.a6.a6.a6.a6.a9.a9.a6.a6.a6.a6.a6.b..a9.a6.a6.a6.a6.a6.b..a6.a6.a6.a6.a6.a6.a4.a6.a6.a6.a6.a6.a6.b..a6.a6.a6.a6.a6.a9.b..a6.a6.a6.a6.a6.b..a9.a6.a6.a6.a6.a6.b..a9.a6.a6.a6.a6.a6.b..a6.a6.a6.a6.a6.a6.a4.a6.a6.a6.a6.a6.a6.b..a6.a6.a6.a6.a6.a9.b..a6.a6.a6.a6.a6.b..a9.a6.a6.a6.a6.a6.b..a6.a6.a6.a6.a6.a6.a4.a6.a6.a6.a6.a6.a6.a4.a6.a6.a6.a6.a6.a6.b..a6.a6.a6.a6.a6.a9.b..a6.a6.a6.a6.a6.b..a9.a6.a6.a6.a6.a6.b..a6.a6.a6.a6.a6.a6.a4.a6.a6.a6.a6.a6.a6.b..a6.a6.a6.a6.a6.a9.b..a6.a6.a6.a6.a6.a9.a9.a6.a6.a6.a6.a6.b..a9.a6.a6.a6.a6.a6.b..a6.a6.a6.a6.a6.a6.a4.a6.a6.a6.a6.a6.a6.b..a6.a6.a6.a6.a6.a9.b..a6.a6.a6.a6.a6.a9.a9.a6.a6.a6.a6.a6.b..a9.a6.a6.a6.a6.a6.b..a6.a6.a6.a6.a6.a6.a4.a6.a6.a6.a6.a6",
".aZ.aZ.aZ.aZ.a0.a6.a6.a6.a7.a6.a6.a4.aZ.aZ.aZ.a8.a6.a6.a4.a4.a9.a6.a6.a6.a6.a6.a6.a6.a6.a6.a6.a9.a9.a6.a6.a6.a6.a6.b..a9.a6.a6.a6.a6.a6.b..a6.a6.a6.a6.a6.a6.a4.a6.a6.a6.a6.a6.a6.b..a6.a6.a6.a6.a6.a9.b..a6.a6.a6.a6.a6.b..a9.a6.a6.a6.a6.a6.b..a9.a6.a6.a6.a6.a6.b..a6.a6.a6.a6.a6.a6.a4.a6.a6.a6.a6.a6.a6.b..a6.a6.a6.a6.a6.a9.b..a6.a6.a6.a6.a6.b..a9.a6.a6.a6.a6.a6.b..a6.a6.a6.a6.a6.a6.a4.a6.a6.a6.a6.a6.a6.a4.a6.a6.a6.a6.a6.a6.b..a6.a6.a6.a6.a6.a9.b..a6.a6.a6.a6.a6.b..a9.a6.a6.a6.a6.a6.b..a6.a6.a6.a6.a6.a6.a4.a6.a6.a6.a6.a6.a6.b..a6.a6.a6.a6.a6.a9.b..a6.a6.a6.a6.a6.a9.a9.a6.a6.a6.a6.a6.b..a9.a6.a6.a6.a6.a6.b..a6.a6.a6.a6.a6.a6.a4.a6.a6.a6.a6.a6.a6.b..a6.a6.a6.a6.a6.a9.b..a6.a6.a6.a6.a6.a9.a9.a6.a6.a6.a6.a6.b..a9.a6.a6.a6.a6.a6.b..a6.a6.a6.a6.a6.a6.a4.a6.a6.a6.a6.a6",
".a8.a8.a8.a8.aZ.a6.a6.a7.a7.a7.a7.b..aZ.aZ.a8.a8.a7.b#.ba.bb.bc.a6.a6.a6.a7.a7.a7.a6.a6.a6.a6.a6.a6.a6.a6.a6.a6.a6.a6.a6.a6.a6.a6.a6.a6.a6.a6.a6.a6.a6.a6.a6.a6.a6.a6.a6.a6.a6.a6.a6.a6.a6.a6.a6.a6.a6.a6.a6.a6.a6.a6.a6.a6.a6.a6.a6.a6.a6.a6.a6.a6.a6.a6.a6.a6.a6.a6.a6.a6.a6.a6.a6.a6.a6.a6.a6.a6.a6.a6.a6.a6.a6.a6.a6.a6.a6.a6.a6.a6.a6.a6.a6.a6.a6.a6.a6.a6.a6.a6.a6.a6.a6.a6.a6.a6.a6.a6.a6.a6.a6.a6.a6.a6.a6.a6.a6.a6.a6.a6.a6.a6.a6.a6.a6.a6.a6.a6.a6.a6.a6.a6.a6.a6.a6.a6.a6.a6.a6.a6.a6.a6.a6.a6.a6.a6.a6.a6.a6.a6.a6.a6.a6.a6.a6.a6.a6.a6.a6.a6.a6.a6.a6.a6.a6.a6.a6.a6.a6.a6.a6.a6.a6.a6.a6.a6.a6.a6.a6.a6.a6.a6.a6.a6.a6.a6.a6.a6.a6.a6.a6.a6.a6.a6.a6.a6.a6.a6.a6.a6.a6.a6.a6.a6.a6.a6.a6.a6.a6.a6.a6.a6.a6.a6.a6.a6.a6.a6.a6.a6.a6.a6.a6.a6.a6.a6.a6.a6.a6.a6.a6.a6.a6.a6.a6.a6.a6",
".bd.bd.bd.bd.be.be.be.bf.bg.bd.bd.bh.be.be.bd.bd.bd.bd.bi.bi.bj.be.be.be.bd.bd.bd.b#.a6.a6.a6.a6.a6.a6.a6.a6.a6.a6.a6.a6.a6.a6.a6.a6.a6.a6.a6.a6.a6.a6.a6.a6.a6.a6.a6.a6.a6.a6.a6.a6.a6.a6.a6.a6.a6.a6.a6.a6.a6.a6.a6.a6.a6.a6.a6.a6.a6.a6.a6.a6.a6.a6.a6.a6.a6.a6.a6.a6.a6.a6.a6.a6.a6.a6.a6.a6.a6.a6.a6.a6.a6.a6.a6.a6.a6.a6.a6.a6.a6.a6.a6.a6.a6.a6.a6.a6.a6.a6.a6.a6.a6.a6.a6.a6.a6.a6.a6.a6.a6.a6.a6.a6.a6.a6.a6.a6.a6.a6.a6.a6.a6.a6.a6.a6.a6.a6.a6.a6.a6.a6.a6.a6.a6.a6.a6.a6.a6.a6.a6.a6.a6.a6.a6.a6.a6.a6.a6.a6.a6.a6.a6.a6.a6.a6.a6.a6.a6.a6.a6.a6.a6.a6.a6.a6.a6.a6.a6.a6.a6.a6.a6.a6.a6.a6.a6.a6.a6.a6.a6.a6.a6.a6.a6.a6.a6.a6.a6.a6.a6.a6.a6.a6.a6.a6.a6.a6.a6.a6.a6.a6.a6.a6.a6.a6.a6.a6.a6.a6.a6.a6.a6.a6.a6.a6.a6.a6.a6.a6.a6.a6.a6.a6.a6.a6.a6.a6.a6.a6.a6.a6.a6.a6.a6.a6.a6.a6",
".bk.bk.bl.bd.bd.bl.bm.bf.bn.bo.bf.bf.bl.bm.bd.bl.bo.bf.bf.bf.bp.bk.bk.bk.bd.bd.bd.bq.br.br.br.br.br.br.br.br.br.br.br.br.br.br.br.br.br.br.br.br.br.br.br.br.br.br.br.br.br.br.br.br.br.br.br.br.br.br.br.br.br.br.br.br.br.br.br.br.br.br.br.br.br.br.br.br.br.br.br.br.br.br.br.br.br.br.br.br.br.br.br.br.br.br.br.br.br.br.br.br.br.br.br.br.br.br.br.br.br.br.br.br.br.br.br.br.br.br.br.br.br.br.br.br.br.br.br.br.br.br.br.br.br.br.br.br.br.br.br.br.br.br.br.br.br.br.br.br.br.br.br.br.br.br.br.br.br.br.br.br.br.br.br.br.br.br.br.br.br.br.br.br.br.br.br.br.br.br.br.br.br.br.br.br.br.br.br.br.br.br.br.br.br.br.br.br.br.br.br.br.br.br.br.br.br.br.br.br.br.br.br.br.br.br.br.br.br.br.br.br.br.br.br.br.br.br.br.br.br.br.br.br.br.br.br.br.br.br.br.br.br.br.br.br.br.br.br.br",
".bs.bs.bp.bt.bp.bs.bs.bu.bv.bw.bu.bx.bs.bp.bt.bp.bu.bu.bx.bx.by.bz.bz.bz.br.bq.bq.br.bA.bA.bA.bA.bA.bA.bA.bA.bA.bA.bA.bA.bA.bA.bA.bA.bA.bA.bA.bA.bA.bA.bA.bA.bA.bA.bA.bA.bA.bA.bA.bA.bA.bA.bA.bA.bA.bA.bA.bA.bA.bA.bA.bA.bA.bA.bA.bA.bA.bA.bA.bA.bA.bA.bA.bA.bA.bA.bA.bA.bA.bA.bA.bA.bA.bA.bA.bA.bA.bA.bA.bA.bA.bA.bA.bA.bA.bA.bA.bA.bA.bA.bA.bA.bA.bA.bA.bA.bA.bA.bA.bA.bA.bA.bA.bA.bA.bA.bA.bA.bA.bA.bA.bA.bA.bA.bA.bA.bA.bA.bA.bA.bA.bA.bA.bA.bA.bA.bA.bA.bA.bA.bA.bA.bA.bA.bA.bA.bA.bA.bA.bA.bA.bA.bA.bA.bA.bA.bA.bA.bA.bA.bA.bA.bA.bA.bA.bA.bA.bA.bA.bA.bA.bA.bA.bA.bA.bA.bA.bA.bA.bA.bA.bA.bA.bA.bA.bA.bA.bA.bA.bA.bA.bA.bA.bA.bA.bA.bA.bA.bA.bA.bA.bA.bA.bA.bA.bA.bA.bA.bA.bA.bA.bA.bA.bA.bA.bA.bA.bA.bA.bA.bA.bA.bA.bA.bA.bA.bA.bA.bA.bA.bA.bA.bA.bA.bA.bA.bA.bA.bA.bA.bA.bA.bA.bA.bA.bA",
".bB.bB.bB.bB.bB.bB.bB.bv.bx.bx.bv.bx.bx.bx.bw.bx.bv.bv.bx.bx.by.bz.bz.bz.bA.br.br.bA.bA.bA.bA.bA.bA.bA.bA.bA.bA.bA.bA.bA.bA.bA.bA.bA.bA.bA.bA.bA.bA.bA.bA.bA.bA.bA.bA.bA.bA.bA.bA.bA.bA.bA.bA.bA.bA.bA.bA.bA.bA.bA.bA.bA.bA.bA.bA.bA.bA.bA.bA.bA.bA.bA.bA.bA.bA.bA.bA.bA.bA.bA.bA.bA.bA.bA.bA.bA.bA.bA.bA.bA.bA.bA.bA.bA.bA.bA.bA.bA.bA.bA.bA.bA.bA.bA.bA.bA.bA.bA.bA.bA.bA.bA.bA.bA.bA.bA.bA.bA.bA.bA.bA.bA.bA.bA.bA.bA.bA.bA.bA.bA.bA.bA.bA.bA.bA.bA.bA.bA.bA.bA.bA.bA.bA.bA.bA.bA.bA.bA.bA.bA.bA.bA.bA.bA.bA.bA.bA.bA.bA.bA.bA.bA.bA.bA.bA.bA.bA.bA.bA.bA.bA.bA.bA.bA.bA.bA.bA.bA.bA.bA.bA.bA.bA.bA.bA.bA.bA.bA.bA.bA.bA.bA.bA.bA.bA.bA.bA.bA.bA.bA.bA.bA.bA.bA.bA.bA.bA.bA.bA.bA.bA.bA.bA.bA.bA.bA.bA.bA.bA.bA.bA.bA.bA.bA.bA.bA.bA.bA.bA.bA.bA.bA.bA.bA.bA.bA.bA.bA.bA.bA.bA.bA.bA.bA.bA.bA",
".bC.bC.bC.bC.bC.bC.bC.bx.bx.bx.bx.bx.bx.bx.bx.bx.bx.bx.bx.bx.by.bz.bz.bz.bA.bA.bA.bA.bA.bA.bA.bA.bA.bA.bA.bA.bA.bA.bA.bA.bA.bA.bA.bA.bA.bA.bA.bA.bA.bA.bA.bA.bA.bA.bA.bA.bA.bA.bA.bA.bA.bA.bA.bA.bA.bA.bA.bA.bA.bA.bA.bA.bA.bA.bA.bA.bA.bA.bA.bA.bA.bA.bA.bA.bA.bA.bA.bA.bA.bA.bA.bA.bA.bA.bA.bA.bA.bA.bA.bA.bA.bA.bA.bA.bA.bA.bA.bA.bA.bA.bA.bA.bA.bA.bA.bA.bA.bA.bA.bA.bA.bA.bA.bA.bA.bA.bA.bA.bA.bA.bA.bA.bA.bA.bA.bA.bA.bA.bA.bA.bA.bA.bA.bA.bA.bA.bA.bA.bA.bA.bA.bA.bA.bA.bA.bA.bA.bA.bA.bA.bA.bA.bA.bA.bA.bA.bA.bA.bA.bA.bA.bA.bA.bA.bA.bA.bA.bA.bA.bA.bA.bA.bA.bA.bA.bA.bA.bA.bA.bA.bA.bA.bA.bA.bA.bA.bA.bA.bA.bA.bA.bA.bA.bA.bA.bA.bA.bA.bA.bA.bA.bA.bA.bA.bA.bA.bA.bA.bA.bA.bA.bA.bA.bA.bA.bA.bA.bA.bA.bA.bA.bA.bA.bA.bA.bA.bA.bA.bA.bA.bA.bA.bA.bA.bA.bA.bA.bA.bA.bA.bA.bA.bA.bA.bA.bA",
".bC.bC.bC.bC.bC.bC.bC.bB.bB.bB.bB.bB.bB.bB.bB.bB.bB.bB.bB.bB.bD.bz.bz.bz.bE.bE.bE.bE.bE.bE.bE.bE.bE.bE.bE.bE.bE.bE.bE.bE.bE.bE.bE.bE.bE.bE.bE.bE.bE.bE.bE.bE.bE.bE.bE.bE.bE.bE.bE.bE.bE.bE.bE.bE.bE.bE.bE.bE.bE.bE.bE.bE.bE.bE.bE.bE.bE.bE.bE.bE.bE.bE.bE.bE.bE.bE.bE.bE.bE.bE.bE.bE.bE.bE.bE.bE.bE.bE.bE.bE.bE.bE.bE.bE.bE.bE.bE.bE.bE.bE.bE.bE.bE.bE.bE.bE.bE.bE.bE.bE.bE.bE.bE.bE.bE.bE.bE.bE.bE.bE.bE.bE.bE.bE.bE.bE.bE.bE.bE.bE.bE.bE.bE.bE.bE.bE.bE.bE.bE.bE.bE.bE.bE.bE.bE.bE.bE.bE.bE.bE.bE.bE.bE.bE.bE.bE.bE.bE.bE.bE.bE.bE.bE.bE.bE.bE.bE.bE.bE.bE.bE.bE.bE.bE.bE.bE.bE.bE.bE.bE.bE.bE.bE.bE.bE.bE.bE.bE.bE.bE.bE.bE.bE.bE.bE.bE.bE.bE.bE.bE.bE.bE.bE.bE.bE.bE.bE.bE.bE.bE.bE.bE.bE.bE.bE.bE.bE.bE.bE.bE.bE.bE.bE.bE.bE.bE.bE.bE.bE.bE.bE.bE.bE.bE.bE.bE.bE.bE.bE.bE.bE.bE.bE.bE.bE.bE",
".bF.bF.bF.bF.bF.bF.bF.bF.bF.bF.bF.bF.bF.bF.bF.bF.bF.bF.bF.bF.bF.bF.bF.bF.bF.bF.bF.bF.bF.bF.bF.bF.bF.bF.bF.bF.bF.bF.bF.bF.bF.bF.bF.bF.bF.bF.bF.bF.bF.bF.bF.bF.bF.bF.bF.bF.bF.bF.bF.bF.bF.bF.bF.bF.bF.bF.bF.bF.bF.bF.bF.bF.bF.bF.bF.bF.bF.bF.bF.bF.bF.bF.bF.bF.bF.bF.bF.bF.bF.bF.bF.bF.bF.bF.bF.bF.bF.bF.bF.bF.bF.bF.bF.bF.bF.bF.bF.bF.bF.bF.bF.bF.bF.bF.bF.bF.bF.bF.bF.bF.bF.bF.bF.bF.bF.bF.bF.bF.bF.bF.bF.bF.bF.bF.bF.bF.bF.bF.bF.bF.bF.bF.bF.bF.bF.bF.bF.bF.bF.bF.bF.bF.bF.bF.bF.bF.bF.bF.bF.bF.bF.bF.bF.bF.bF.bF.bF.bF.bF.bF.bF.bF.bF.bF.bF.bF.bF.bF.bF.bF.bF.bF.bF.bF.bF.bF.bF.bF.bF.bF.bF.bF.bF.bF.bF.bF.bF.bF.bF.bF.bF.bF.bF.bF.bF.bF.bF.bF.bF.bF.bF.bF.bF.bF.bF.bF.bF.bF.bF.bF.bF.bF.bF.bF.bF.bF.bF.bF.bF.bF.bF.bF.bF.bF.bF.bF.bF.bF.bF.bF.bF.bF.bF.bF.bF.bF.bF.bF.bF.bF.bF.bF.bF.bF.bF.bF",
".bF.bF.bF.bF.bF.bF.bF.bF.bF.bF.bF.bF.bF.bF.bF.bF.bF.bF.bF.bF.bF.bF.bF.bF.bF.bF.bF.bF.bF.bF.bF.bF.bF.bF.bF.bF.bF.bF.bF.bF.bF.bF.bF.bF.bF.bF.bF.bF.bF.bF.bF.bF.bF.bF.bF.bF.bF.bF.bF.bF.bF.bF.bF.bF.bF.bF.bF.bF.bF.bF.bF.bF.bF.bF.bF.bF.bF.bF.bF.bF.bF.bF.bF.bF.bF.bF.bF.bF.bF.bF.bF.bF.bF.bF.bF.bF.bF.bF.bF.bF.bF.bF.bF.bF.bF.bF.bF.bF.bF.bF.bF.bF.bF.bF.bF.bF.bF.bF.bF.bF.bF.bF.bF.bF.bF.bF.bF.bF.bF.bF.bF.bF.bF.bF.bF.bF.bF.bF.bF.bF.bF.bF.bF.bF.bF.bF.bF.bF.bF.bF.bF.bF.bF.bF.bF.bF.bF.bF.bF.bF.bF.bF.bF.bF.bF.bF.bF.bF.bF.bF.bF.bF.bF.bF.bF.bF.bF.bF.bF.bF.bF.bF.bF.bF.bF.bF.bF.bF.bF.bF.bF.bF.bF.bF.bF.bF.bF.bF.bF.bF.bF.bF.bF.bF.bF.bF.bF.bF.bF.bF.bF.bF.bF.bF.bF.bF.bF.bF.bF.bF.bF.bF.bF.bF.bF.bF.bF.bF.bF.bF.bF.bF.bF.bF.bF.bF.bF.bF.bF.bF.bF.bF.bF.bF.bF.bF.bF.bF.bF.bF.bF.bF.bF.bF.bF.bF",
".bG.bG.bG.bG.bG.bG.bG.bG.bG.bG.bG.bG.bG.bH.bI.bI.bI.bI.bI.bI.bI.bI.bI.bI.bI.bI.bI.bI.bI.bI.bI.bI.bI.bI.bI.bI.bI.bI.bI.bI.bI.bI.bI.bI.bI.bI.bI.bI.bI.bI.bI.bI.bI.bI.bI.bI.bI.bI.bI.bI.bI.bI.bI.bI.bI.bI.bI.bI.bI.bI.bI.bI.bI.bI.bI.bI.bI.bI.bI.bI.bI.bI.bI.bI.bI.bI.bI.bI.bI.bI.bI.bI.bI.bI.bI.bI.bI.bI.bI.bI.bI.bI.bI.bI.bI.bI.bI.bI.bI.bI.bI.bI.bI.bI.bI.bI.bI.bI.bI.bI.bI.bI.bI.bI.bI.bI.bI.bI.bI.bI.bI.bI.bI.bI.bI.bI.bI.bI.bI.bI.bI.bI.bI.bI.bI.bI.bI.bI.bI.bI.bI.bI.bI.bI.bI.bI.bI.bI.bI.bI.bI.bI.bI.bI.bI.bI.bI.bI.bI.bI.bI.bI.bI.bI.bI.bI.bI.bI.bI.bI.bI.bI.bI.bI.bI.bI.bI.bI.bI.bI.bI.bI.bI.bI.bI.bI.bI.bI.bI.bI.bI.bI.bI.bI.bI.bI.bI.bI.bI.bI.bI.bI.bI.bI.bI.bI.bI.bI.bI.bI.bI.bI.bI.bI.bI.bI.bI.bI.bI.bI.bI.bI.bI.bI.bI.bI.bI.bI.bI.bI.bI.bI.bI.bI.bI.bI.bI.bI.bI.bI.bI.bI.bI.bI.bI.bI",
".bG.bG.bG.bG.bG.bG.bG.bG.bG.bG.bG.bG.bG.bH.bJ.bJ.bJ.bJ.bJ.bJ.bJ.bJ.bJ.bJ.bJ.bJ.bJ.bJ.bJ.bJ.bJ.bJ.bJ.bJ.bJ.bJ.bJ.bJ.bJ.bJ.bJ.bJ.bJ.bJ.bJ.bJ.bJ.bJ.bJ.bJ.bJ.bJ.bJ.bJ.bJ.bJ.bJ.bJ.bJ.bJ.bJ.bJ.bJ.bJ.bJ.bJ.bJ.bJ.bJ.bJ.bJ.bJ.bJ.bJ.bJ.bJ.bJ.bJ.bJ.bJ.bJ.bJ.bJ.bJ.bJ.bJ.bJ.bJ.bJ.bJ.bJ.bJ.bJ.bJ.bJ.bJ.bJ.bJ.bJ.bJ.bJ.bJ.bJ.bJ.bJ.bJ.bJ.bJ.bJ.bJ.bJ.bJ.bJ.bJ.bJ.bJ.bJ.bJ.bJ.bJ.bJ.bJ.bJ.bJ.bJ.bJ.bJ.bJ.bJ.bJ.bJ.bJ.bJ.bJ.bJ.bJ.bJ.bJ.bJ.bJ.bJ.bJ.bJ.bJ.bJ.bJ.bJ.bJ.bJ.bJ.bJ.bJ.bJ.bJ.bJ.bJ.bJ.bJ.bJ.bJ.bJ.bJ.bJ.bJ.bJ.bJ.bJ.bJ.bJ.bJ.bJ.bJ.bJ.bJ.bJ.bJ.bJ.bJ.bJ.bJ.bJ.bJ.bJ.bJ.bJ.bJ.bJ.bJ.bJ.bJ.bJ.bJ.bJ.bJ.bJ.bJ.bJ.bJ.bJ.bJ.bJ.bJ.bJ.bJ.bJ.bJ.bJ.bJ.bJ.bJ.bJ.bJ.bJ.bJ.bJ.bJ.bJ.bJ.bJ.bJ.bJ.bJ.bJ.bJ.bJ.bJ.bJ.bJ.bJ.bJ.bJ.bJ.bJ.bJ.bJ.bJ.bJ.bJ.bJ.bJ.bJ.bJ.bJ.bJ.bJ.bJ.bJ.bJ.bJ.bJ.bJ.bJ.bJ.bJ.bJ.bJ",
".bG.bG.bG.bK.bK.bK.bK.bG.bG.bG.bG.bG.bG.bG.bK.bK.bK.bK.bK.bK.bK.bK.bK.bK.bK.bK.bK.bK.bK.bK.bK.bK.bK.bK.bK.bK.bK.bK.bK.bK.bK.bK.bK.bK.bK.bK.bK.bK.bK.bK.bK.bK.bK.bK.bK.bK.bK.bK.bK.bK.bK.bK.bK.bK.bK.bK.bK.bK.bK.bK.bK.bK.bK.bK.bK.bK.bK.bK.bK.bK.bK.bK.bK.bK.bK.bK.bK.bK.bK.bK.bK.bK.bK.bK.bK.bK.bK.bK.bK.bK.bK.bK.bK.bK.bK.bK.bK.bK.bK.bK.bK.bK.bK.bK.bK.bK.bK.bK.bK.bK.bK.bK.bK.bK.bK.bK.bK.bK.bK.bK.bK.bK.bK.bK.bK.bK.bK.bK.bK.bK.bK.bK.bK.bK.bK.bK.bK.bK.bK.bK.bK.bK.bK.bK.bK.bK.bK.bK.bK.bK.bK.bK.bK.bK.bK.bK.bK.bK.bK.bK.bK.bK.bK.bK.bK.bK.bK.bK.bK.bK.bK.bK.bK.bK.bK.bK.bK.bK.bK.bK.bK.bK.bK.bK.bK.bK.bK.bK.bK.bK.bK.bK.bK.bK.bK.bK.bK.bK.bK.bK.bK.bK.bK.bK.bK.bK.bK.bK.bK.bK.bK.bK.bK.bK.bK.bK.bK.bK.bK.bK.bK.bK.bK.bK.bK.bK.bK.bK.bK.bK.bK.bK.bK.bK.bK.bK.bK.bK.bK.bK.bK.bK.bK.bK.bK.bK",
".bG.bG.bG.bK.bK.bK.bK.bG.bG.bG.bG.bG.bG.bG.bK.bK.bK.bK.bK.bK.bK.bK.bK.bK.bK.bK.bK.bK.bK.bK.bK.bK.bK.bK.bK.bK.bK.bK.bK.bK.bK.bK.bK.bK.bK.bK.bK.bK.bK.bK.bK.bK.bK.bK.bK.bK.bK.bK.bK.bK.bK.bK.bK.bK.bK.bK.bK.bK.bK.bK.bK.bK.bK.bK.bK.bK.bK.bK.bK.bK.bK.bK.bK.bK.bK.bK.bK.bK.bK.bK.bK.bK.bK.bK.bK.bK.bK.bK.bK.bK.bK.bK.bK.bK.bK.bK.bK.bK.bK.bK.bK.bK.bK.bK.bK.bK.bK.bK.bK.bK.bK.bK.bK.bK.bK.bK.bK.bK.bK.bK.bK.bK.bK.bK.bK.bK.bK.bK.bK.bK.bK.bK.bK.bK.bK.bK.bK.bK.bK.bK.bK.bK.bK.bK.bK.bK.bK.bK.bK.bK.bK.bK.bK.bK.bK.bK.bK.bK.bK.bK.bK.bK.bK.bK.bK.bK.bK.bK.bK.bK.bK.bK.bK.bK.bK.bK.bK.bK.bK.bK.bK.bK.bK.bK.bK.bK.bK.bK.bK.bK.bK.bK.bK.bK.bK.bK.bK.bK.bK.bK.bK.bK.bK.bK.bK.bK.bK.bK.bK.bK.bK.bK.bK.bK.bK.bK.bK.bK.bK.bK.bK.bK.bK.bK.bK.bK.bK.bK.bK.bK.bK.bK.bK.bK.bK.bK.bK.bK.bK.bK.bK.bK.bK.bK.bK.bK",
".bL.bL.bL.bM.bM.bM.bM.bL.bL.bL.bL.bL.bM.bM.bK.bK.bK.bK.bK.bK.bK.bK.bK.bK.bK.bK.bK.bK.bK.bK.bK.bK.bK.bK.bK.bK.bK.bK.bK.bK.bK.bK.bK.bK.bK.bK.bK.bK.bK.bK.bK.bK.bK.bK.bK.bK.bK.bK.bK.bK.bK.bK.bK.bK.bK.bK.bK.bK.bK.bK.bK.bK.bK.bK.bK.bK.bK.bK.bK.bK.bK.bK.bK.bK.bK.bK.bK.bK.bK.bK.bK.bK.bK.bK.bK.bK.bK.bK.bK.bK.bK.bK.bK.bK.bK.bK.bK.bK.bK.bK.bK.bK.bK.bK.bK.bK.bK.bK.bK.bK.bK.bK.bK.bK.bK.bK.bK.bK.bK.bK.bK.bK.bK.bK.bK.bK.bK.bK.bK.bK.bK.bK.bK.bK.bK.bK.bK.bK.bK.bK.bK.bK.bK.bK.bK.bK.bK.bK.bK.bK.bK.bK.bK.bK.bK.bK.bK.bK.bK.bK.bK.bK.bK.bK.bK.bK.bK.bK.bK.bK.bK.bK.bK.bK.bK.bK.bK.bK.bK.bK.bK.bK.bK.bK.bK.bK.bK.bK.bK.bK.bK.bK.bK.bK.bK.bK.bK.bK.bK.bK.bK.bK.bK.bK.bK.bK.bK.bK.bK.bK.bK.bK.bK.bK.bK.bK.bK.bK.bK.bK.bK.bK.bK.bK.bK.bK.bK.bK.bK.bK.bK.bK.bK.bK.bK.bK.bK.bK.bK.bK.bK.bK.bK.bK.bK.bK",
".bN.bN.bN.bO.bP.bP.bP.bN.bN.bN.bN.bN.bP.bQ.bR.bR.bR.bR.bR.bR.bS.bN.bN.bN.bN.bS.bR.bS.bN.bN.bN.bN.bS.bR.bN.bN.bN.bN.bN.bR.bR.bN.bN.bN.bN.bN.bR.bR.bN.bN.bN.bN.bN.bR.bS.bN.bN.bN.bN.bS.bR.bS.bN.bN.bN.bN.bS.bR.bS.bN.bN.bN.bN.bS.bR.bN.bN.bN.bN.bN.bR.bR.bN.bN.bN.bN.bN.bR.bR.bN.bN.bN.bN.bN.bR.bS.bN.bN.bN.bN.bS.bR.bS.bN.bN.bN.bN.bS.bR.bN.bN.bN.bN.bN.bS.bR.bN.bN.bN.bN.bN.bR.bR.bN.bN.bN.bN.bN.bR.bS.bN.bN.bN.bN.bN.bR.bS.bN.bN.bN.bN.bS.bR.bS.bN.bN.bN.bN.bS.bR.bN.bN.bN.bN.bN.bS.bR.bN.bN.bN.bN.bN.bR.bR.bN.bN.bN.bN.bN.bR.bS.bN.bN.bN.bN.bN.bR.bS.bN.bN.bN.bN.bS.bR.bS.bN.bN.bN.bN.bS.bR.bN.bN.bN.bN.bN.bS.bR.bN.bN.bN.bN.bN.bR.bR.bN.bN.bN.bN.bN.bR.bS.bN.bN.bN.bN.bS.bR.bS.bN.bN.bN.bN.bS.bR.bS.bN.bN.bN.bN.bS.bR.bN.bN.bN.bN.bN.bR.bR.bN.bN.bN.bN.bN.bR.bR.bN.bN.bN.bN.bN.bR.bS.bN.bN.bN",
".bO.bO.bO.bO.bP.bP.bP.bN.bN.bO.bO.bO.bP.bQ.bT.bT.bT.bT.bT.bT.bQ.bO.bO.bO.bO.bQ.bT.bQ.bO.bO.bO.bO.bQ.bT.bO.bO.bO.bO.bO.bT.bT.bO.bO.bO.bO.bO.bT.bT.bO.bO.bO.bO.bO.bT.bQ.bO.bO.bO.bO.bQ.bT.bQ.bO.bO.bO.bO.bQ.bT.bQ.bO.bO.bO.bO.bQ.bT.bO.bO.bO.bO.bO.bT.bT.bO.bO.bO.bO.bO.bT.bT.bO.bO.bO.bO.bO.bT.bQ.bO.bO.bO.bO.bQ.bT.bQ.bO.bO.bO.bO.bQ.bT.bO.bO.bO.bO.bO.bQ.bT.bO.bO.bO.bO.bO.bT.bT.bO.bO.bO.bO.bO.bT.bQ.bO.bO.bO.bO.bO.bT.bQ.bO.bO.bO.bO.bQ.bT.bQ.bO.bO.bO.bO.bQ.bT.bO.bO.bO.bO.bO.bQ.bT.bO.bO.bO.bO.bO.bT.bT.bO.bO.bO.bO.bO.bT.bQ.bO.bO.bO.bO.bO.bT.bQ.bO.bO.bO.bO.bQ.bT.bQ.bO.bO.bO.bO.bQ.bT.bO.bO.bO.bO.bO.bQ.bT.bO.bO.bO.bO.bO.bT.bT.bO.bO.bO.bO.bO.bT.bQ.bO.bO.bO.bO.bQ.bT.bQ.bO.bO.bO.bO.bQ.bT.bQ.bO.bO.bO.bO.bQ.bT.bO.bO.bO.bO.bO.bT.bT.bO.bO.bO.bO.bO.bT.bT.bO.bO.bO.bO.bO.bT.bQ.bO.bO.bO",
".bU.bU.bU.bU.bU.bU.bU.bV.bW.bU.bU.bU.bU.bU.bU.bU.bU.bU.bX.bY.bX.bU.bU.bU.bU.bX.bY.bX.bU.bU.bU.bU.bX.bY.bU.bU.bU.bU.bU.bX.bY.bU.bU.bU.bU.bU.bY.bX.bU.bU.bU.bU.bU.bY.bX.bU.bU.bU.bU.bX.bY.bX.bU.bU.bU.bU.bX.bY.bX.bU.bU.bU.bU.bX.bY.bU.bU.bU.bU.bU.bX.bY.bU.bU.bU.bU.bU.bY.bX.bU.bU.bU.bU.bU.bY.bX.bU.bU.bU.bU.bX.bY.bX.bU.bU.bU.bU.bX.bY.bX.bU.bU.bU.bU.bX.bY.bU.bU.bU.bU.bU.bY.bY.bU.bU.bU.bU.bU.bY.bX.bU.bU.bU.bU.bX.bY.bX.bU.bU.bU.bU.bX.bY.bX.bU.bU.bU.bU.bX.bY.bX.bU.bU.bU.bU.bX.bY.bU.bU.bU.bU.bU.bY.bY.bU.bU.bU.bU.bU.bY.bX.bU.bU.bU.bU.bX.bY.bX.bU.bU.bU.bU.bX.bY.bX.bU.bU.bU.bU.bX.bY.bU.bU.bU.bU.bU.bX.bY.bU.bU.bU.bU.bU.bY.bX.bU.bU.bU.bU.bU.bY.bX.bU.bU.bU.bU.bX.bY.bX.bU.bU.bU.bU.bX.bY.bX.bU.bU.bU.bU.bX.bY.bU.bU.bU.bU.bU.bX.bY.bU.bU.bU.bU.bU.bY.bX.bU.bU.bU.bU.bU.bY.bX.bU.bU.bU",
".bU.bU.bU.bU.bU.bU.bU.bW.bW.bU.bU.bU.bU.bU.bU.bU.bU.bU.bX.bZ.bX.bU.bU.bU.bU.bX.bZ.bX.bU.bU.bU.bU.bY.bZ.bU.bU.bU.bU.bU.bY.bZ.bU.bU.bU.bU.bU.bZ.bY.bU.bU.bU.bU.bU.bZ.bY.bU.bU.bU.bU.bX.bZ.bX.bU.bU.bU.bU.bX.bZ.bX.bU.bU.bU.bU.bY.bZ.bU.bU.bU.bU.bU.bY.bZ.bU.bU.bU.bU.bU.bZ.bY.bU.bU.bU.bU.bU.bZ.bY.bU.bU.bU.bU.bX.bZ.bX.bU.bU.bU.bU.bX.bZ.bX.bU.bU.bU.bU.bY.bZ.bU.bU.bU.bU.bU.bZ.bZ.bU.bU.bU.bU.bU.bZ.bY.bU.bU.bU.bU.bX.bZ.bY.bU.bU.bU.bU.bX.bZ.bX.bU.bU.bU.bU.bY.bZ.bX.bU.bU.bU.bU.bY.bZ.bU.bU.bU.bU.bU.bZ.bZ.bU.bU.bU.bU.bU.bZ.bY.bU.bU.bU.bU.bX.bZ.bX.bU.bU.bU.bU.bX.bZ.bX.bU.bU.bU.bU.bY.bZ.bU.bU.bU.bU.bU.bY.bZ.bU.bU.bU.bU.bU.bZ.bY.bU.bU.bU.bU.bU.bZ.bY.bU.bU.bU.bU.bX.bZ.bX.bU.bU.bU.bU.bX.bZ.bX.bU.bU.bU.bU.bY.bZ.bU.bU.bU.bU.bU.bY.bZ.bU.bU.bU.bU.bU.bZ.bY.bU.bU.bU.bU.bU.bZ.bY.bU.bU.bU",
".b0.b0.b0.b0.b0.b1.b1.b2.b1.b2.b0.b1.b0.b0.b3.b3.b3.b3.b3.b0.b0.b0.b0.b0.b0.b0.b0.b0.b0.b0.b0.b0.b0.b0.b0.b0.b0.b0.b0.b0.b0.b0.b0.b0.b0.b0.b0.b0.b0.b0.b0.b0.b0.b0.b0.b0.b0.b0.b0.b0.b0.b0.b0.b0.b0.b0.b0.b0.b0.b0.b0.b0.b0.b0.b0.b0.b0.b0.b0.b0.b0.b0.b0.b0.b0.b0.b0.b0.b0.b0.b0.b0.b0.b0.b0.b0.b0.b0.b0.b0.b0.b0.b0.b0.b0.b0.b0.b0.b0.b0.b0.b0.b0.b0.b0.b0.b0.b0.b0.b0.b0.b0.b0.b0.b0.b0.b0.b0.b0.b0.b0.b0.b0.b0.b0.b0.b0.b0.b0.b0.b0.b0.b0.b0.b0.b0.b0.b0.b0.b0.b0.b0.b0.b0.b0.b0.b0.b0.b0.b0.b0.b0.b0.b0.b0.b0.b0.b0.b0.b0.b0.b0.b0.b0.b0.b0.b0.b0.b0.b0.b0.b0.b0.b0.b0.b0.b0.b0.b0.b0.b0.b0.b0.b0.b0.b0.b0.b0.b0.b0.b0.b0.b0.b0.b0.b0.b0.b0.b0.b0.b0.b0.b0.b0.b0.b0.b0.b0.b0.b0.b0.b0.b0.b0.b0.b0.b0.b0.b0.b0.b0.b0.b0.b0.b0.b0.b0.b0.b0.b0.b0.b0.b0.b0.b0.b0.b0.b0.b0.b0.b0.b0.b0.b0.b0.b0",
".b0.b0.b0.b0.b0.b1.b1.b0.b2.b2.b0.b1.b0.b0.b0.b0.b0.b0.b0.b0.b4.b5.b0.b0.b0.b0.b0.b4.b5.b0.b0.b0.b0.b0.b5.b5.b0.b0.b0.b0.b0.b5.b4.b0.b0.b0.b0.b0.b5.b4.b0.b0.b0.b0.b4.b5.b4.b0.b0.b0.b0.b4.b5.b0.b0.b0.b0.b0.b4.b5.b0.b0.b0.b0.b0.b5.b5.b0.b0.b0.b0.b0.b5.b4.b0.b0.b0.b0.b4.b5.b4.b0.b0.b0.b0.b4.b5.b4.b0.b0.b0.b0.b4.b5.b0.b0.b0.b0.b0.b5.b5.b0.b0.b0.b0.b0.b5.b5.b0.b0.b0.b0.b0.b5.b4.b0.b0.b0.b0.b4.b5.b4.b0.b0.b0.b0.b4.b5.b0.b0.b0.b0.b0.b4.b5.b0.b0.b0.b0.b0.b5.b5.b0.b0.b0.b0.b0.b5.b4.b0.b0.b0.b0.b0.b5.b4.b0.b0.b0.b0.b4.b5.b4.b0.b0.b0.b0.b4.b5.b0.b0.b0.b0.b0.b4.b5.b0.b0.b0.b0.b0.b5.b5.b0.b0.b0.b0.b0.b5.b4.b0.b0.b0.b0.b0.b5.b4.b0.b0.b0.b0.b4.b5.b4.b0.b0.b0.b0.b4.b5.b0.b0.b0.b0.b0.b4.b5.b0.b0.b0.b0.b0.b5.b5.b0.b0.b0.b0.b0.b5.b4.b0.b0.b0.b0.b0.b5.b4.b0.b0.b0.b0.b4.b5.b4.b0",
".b6.b6.b6.b7.b8.b8.b8.b8.b9.b8.b8.c..b8.b8.b8.b8.b8.b8.b8.b8.b7.c#.c#.c#.c#.b7.b8.b7.c#.c#.c#.c#.b7.b8.c#.c#.c#.c#.c#.b8.b8.c#.c#.c#.c#.c#.b8.b8.c#.c#.c#.c#.c#.b8.b7.c#.c#.c#.c#.b7.b8.b7.c#.c#.c#.c#.b7.b8.b7.c#.c#.c#.c#.b7.b8.c#.c#.c#.c#.c#.b8.b8.c#.c#.c#.c#.c#.b8.b7.c#.c#.c#.c#.c#.b8.b7.c#.c#.c#.c#.b7.b8.b7.c#.c#.c#.c#.b7.b8.c#.c#.c#.c#.c#.b7.b8.c#.c#.c#.c#.c#.b8.b8.c#.c#.c#.c#.c#.b8.b7.c#.c#.c#.c#.c#.b8.b7.c#.c#.c#.c#.b7.b8.b7.c#.c#.c#.c#.b7.b8.c#.c#.c#.c#.c#.b7.b8.c#.c#.c#.c#.c#.b8.b8.c#.c#.c#.c#.c#.b8.b7.c#.c#.c#.c#.c#.b8.b7.c#.c#.c#.c#.b7.b8.b7.c#.c#.c#.c#.b7.b8.c#.c#.c#.c#.c#.b7.b8.c#.c#.c#.c#.c#.b8.b8.c#.c#.c#.c#.c#.b8.b7.c#.c#.c#.c#.b7.b8.b7.c#.c#.c#.c#.b7.b8.b7.c#.c#.c#.c#.b7.b8.c#.c#.c#.c#.c#.b8.b8.c#.c#.c#.c#.c#.b8.b8.c#.c#.c#.c#.c#.b8.b7.c#.c#.c#",
".ca.ca.ca.cb.b8.cc.cc.b8.cc.cc.b8.b8.b8.b8.b7.b7.b7.b7.b7.b7.b7.c#.c#.c#.c#.c#.b7.b7.c#.c#.c#.c#.c#.b7.c#.c#.c#.c#.c#.b7.b7.c#.c#.c#.c#.c#.b7.b7.c#.c#.c#.c#.c#.b7.b7.c#.c#.c#.c#.c#.b7.b7.c#.c#.c#.c#.c#.b7.b7.c#.c#.c#.c#.c#.b7.c#.c#.c#.c#.c#.b7.b7.c#.c#.c#.c#.c#.b7.b7.c#.c#.c#.c#.c#.b7.b7.c#.c#.c#.c#.c#.b7.b7.c#.c#.c#.c#.c#.b7.c#.c#.c#.c#.c#.c#.b7.c#.c#.c#.c#.c#.b7.b7.c#.c#.c#.c#.c#.b7.b7.c#.c#.c#.c#.c#.b7.b7.c#.c#.c#.c#.c#.b7.b7.c#.c#.c#.c#.c#.b7.c#.c#.c#.c#.c#.c#.b7.c#.c#.c#.c#.c#.b7.b7.c#.c#.c#.c#.c#.b7.b7.c#.c#.c#.c#.c#.b7.b7.c#.c#.c#.c#.c#.b7.b7.c#.c#.c#.c#.c#.b7.c#.c#.c#.c#.c#.c#.b7.c#.c#.c#.c#.c#.b7.b7.c#.c#.c#.c#.c#.b7.b7.c#.c#.c#.c#.c#.b7.b7.c#.c#.c#.c#.c#.b7.b7.c#.c#.c#.c#.c#.b7.c#.c#.c#.c#.c#.b7.b7.c#.c#.c#.c#.c#.b7.b7.c#.c#.c#.c#.c#.b7.b7.c#.c#.c#",
".ca.ca.ca.cd.ce.cc.cc.ce.cf.cc.ce.ce.ce.cb.cg.cg.cg.cg.cg.cg.cg.cg.cg.cg.cg.cg.cg.cg.cg.cg.cg.cg.cg.cg.cg.cg.cg.cg.cg.cg.cg.cg.cg.cg.cg.cg.cg.cg.cg.cg.cg.cg.cg.cg.cg.cg.cg.cg.cg.cg.cg.cg.cg.cg.cg.cg.cg.cg.cg.cg.cg.cg.cg.cg.cg.cg.cg.cg.cg.cg.cg.cg.cg.cg.cg.cg.cg.cg.cg.cg.cg.cg.cg.cg.cg.cg.cg.cg.cg.cg.cg.cg.cg.cg.cg.cg.cg.cg.cg.cg.cg.cg.cg.cg.cg.cg.cg.cg.cg.cg.cg.cg.cg.cg.cg.cg.cg.cg.cg.cg.cg.cg.cg.cg.cg.cg.cg.cg.cg.cg.cg.cg.cg.cg.cg.cg.cg.cg.cg.cg.cg.cg.cg.cg.cg.cg.cg.cg.cg.cg.cg.cg.cg.cg.cg.cg.cg.cg.cg.cg.cg.cg.cg.cg.cg.cg.cg.cg.cg.cg.cg.cg.cg.cg.cg.cg.cg.cg.cg.cg.cg.cg.cg.cg.cg.cg.cg.cg.cg.cg.cg.cg.cg.cg.cg.cg.cg.cg.cg.cg.cg.cg.cg.cg.cg.cg.cg.cg.cg.cg.cg.cg.cg.cg.cg.cg.cg.cg.cg.cg.cg.cg.cg.cg.cg.cg.cg.cg.cg.cg.cg.cg.cg.cg.cg.cg.cg.cg.cg.cg.cg.cg.cg.cg.cg.cg",
".ch.ch.ch.ch.ch.ch.ch.ch.ci.ch.ch.ch.ch.ch.ch.ch.ch.ch.ch.ch.ch.ch.ch.ch.ch.ch.ch.ch.ch.ch.ch.ch.ch.ch.ch.ch.ch.ch.ch.ch.ch.ch.ch.ch.ch.ch.ch.ch.ch.ch.ch.ch.ch.ch.ch.ch.ch.ch.ch.ch.ch.ch.ch.ch.ch.ch.ch.ch.ch.ch.ch.ch.ch.ch.ch.ch.ch.ch.ch.ch.ch.ch.ch.ch.ch.ch.ch.ch.ch.ch.ch.ch.ch.ch.ch.ch.ch.ch.ch.ch.ch.ch.ch.ch.ch.ch.ch.ch.ch.ch.ch.ch.ch.ch.ch.ch.ch.ch.ch.ch.ch.ch.ch.ch.ch.ch.ch.ch.ch.ch.ch.ch.ch.ch.ch.ch.ch.ch.ch.ch.ch.ch.ch.ch.ch.ch.ch.ch.ch.ch.ch.ch.ch.ch.ch.ch.ch.ch.ch.ch.ch.ch.ch.ch.ch.ch.ch.ch.ch.ch.ch.ch.ch.ch.ch.ch.ch.ch.ch.ch.ch.ch.ch.ch.ch.ch.ch.ch.ch.ch.ch.ch.ch.ch.ch.ch.ch.ch.ch.ch.ch.ch.ch.ch.ch.ch.ch.ch.ch.ch.ch.ch.ch.ch.ch.ch.ch.ch.ch.ch.ch.ch.ch.ch.ch.ch.ch.ch.ch.ch.ch.ch.ch.ch.ch.ch.ch.ch.ch.ch.ch.ch.ch.ch.ch.ch.ch.ch.ch.ch.ch.ch.ch.ch.ch.ch",
".ch.ch.ch.ch.ch.ch.ch.ch.ci.ch.ch.ch.ch.ch.ch.ch.ch.ch.ch.ch.ch.ch.ch.ch.ch.ch.ch.ch.ch.ch.ch.ch.ch.ch.ch.ch.ch.ch.ch.ch.ch.ch.ch.ch.ch.ch.ch.ch.ch.ch.ch.ch.ch.ch.ch.ch.ch.ch.ch.ch.ch.ch.ch.ch.ch.ch.ch.ch.ch.ch.ch.ch.ch.ch.ch.ch.ch.ch.ch.ch.ch.ch.ch.ch.ch.ch.ch.ch.ch.ch.ch.ch.ch.ch.ch.ch.ch.ch.ch.ch.ch.ch.ch.ch.ch.ch.ch.ch.ch.ch.ch.ch.ch.ch.ch.ch.ch.ch.ch.ch.ch.ch.ch.ch.ch.ch.ch.ch.ch.ch.ch.ch.ch.ch.ch.ch.ch.ch.ch.ch.ch.ch.ch.ch.ch.ch.ch.ch.ch.ch.ch.ch.ch.ch.ch.ch.ch.ch.ch.ch.ch.ch.ch.ch.ch.ch.ch.ch.ch.ch.ch.ch.ch.ch.ch.ch.ch.ch.ch.ch.ch.ch.ch.ch.ch.ch.ch.ch.ch.ch.ch.ch.ch.ch.ch.ch.ch.ch.ch.ch.ch.ch.ch.ch.ch.ch.ch.ch.ch.ch.ch.ch.ch.ch.ch.ch.ch.ch.ch.ch.ch.ch.ch.ch.ch.ch.ch.ch.ch.ch.ch.ch.ch.ch.ch.ch.ch.ch.ch.ch.ch.ch.ch.ch.ch.ch.ch.ch.ch.ch.ch.ch.ch.ch.ch.ch",
".cj.cj.cj.cj.cj.ck.ck.ci.ci.ci.ci.ch.ch.cl.cm.cn.ci.ci.ci.ci.ci.ci.cm.cm.cm.cn.ci.ci.ci.co.ci.cn.cn.ci.ci.ci.co.ci.cn.cn.ci.ci.ci.co.ci.cn.ci.ci.ci.co.ci.ci.cm.ci.ci.ci.co.ci.ci.cn.ci.ci.ci.co.ci.cn.cn.ci.ci.ci.co.ci.cn.cn.ci.ci.ci.co.ci.cn.cn.ci.ci.ci.co.ci.cn.ci.ci.ci.co.ci.ci.cm.ci.ci.ci.co.ci.ci.cn.ci.ci.ci.co.ci.cn.cn.ci.ci.ci.co.ci.cn.cn.ci.ci.ci.co.ci.cn.ci.ci.ci.ci.ci.ci.cm.ci.ci.ci.co.ci.ci.cm.ci.ci.ci.co.ci.cn.cn.ci.ci.ci.co.ci.cn.cn.ci.ci.ci.co.ci.cn.cn.ci.ci.ci.co.ci.cn.ci.ci.ci.ci.ci.ci.cm.ci.ci.ci.co.ci.ci.cn.ci.ci.ci.co.ci.cn.cn.ci.ci.ci.co.ci.cn.cn.ci.ci.ci.co.ci.cn.cn.ci.ci.ci.co.ci.cn.ci.ci.ci.co.ci.ci.cm.ci.ci.ci.co.ci.ci.cn.ci.ci.ci.co.ci.cn.cn.ci.ci.ci.co.ci.cn.cn.ci.ci.ci.co.ci.cn.cn.ci.ci.ci.co.ci.cn.ci.ci.ci.co.ci.ci.cm.ci.ci.ci.co.ci",
".cj.cj.cj.cj.cj.ck.ck.ck.ck.ck.ck.cj.cj.cp.cq.cr.ck.ck.ck.ck.ck.ck.cq.cq.cq.cr.ck.ck.ck.cs.ck.cr.cr.ck.ck.ck.cs.ck.cr.cr.ck.ck.ck.cs.ck.cr.ck.ck.ck.cs.ck.ck.cq.ck.ck.ck.cs.ck.ck.cr.ck.ck.ck.cs.ck.cr.cr.ck.ck.ck.cs.ck.cr.cr.ck.ck.ck.cs.ck.cr.cr.ck.ck.ck.cs.ck.cr.ck.ck.ck.cs.ck.ck.cq.ck.ck.ck.cs.ck.ck.cr.ck.ck.ck.cs.ck.cr.cr.ck.ck.ck.cs.ck.cr.cr.ck.ck.ck.cs.ck.cr.ck.ck.ck.ck.ck.ck.cq.ck.ck.ck.cs.ck.ck.cq.ck.ck.ck.cs.ck.ck.cr.ck.ck.ck.cs.ck.cr.cr.ck.ck.ck.cs.ck.cr.cr.ck.ck.ck.cs.ck.cr.ck.ck.ck.ck.ck.ck.cq.ck.ck.ck.cs.ck.ck.cr.ck.ck.ck.cs.ck.cr.cr.ck.ck.ck.cs.ck.cr.cr.ck.ck.ck.cs.ck.cr.cr.ck.ck.ck.cs.ck.cr.ck.ck.ck.cs.ck.ck.cq.ck.ck.ck.cs.ck.ck.cr.ck.ck.ck.cs.ck.cr.cr.ck.ck.ck.cs.ck.cr.cr.ck.ck.ck.cs.ck.cr.cr.ck.ck.ck.cs.ck.cr.ck.ck.ck.cs.ck.ck.cq.ck.ck.ck.cs.ck",
".cj.cj.cj.ct.cq.cq.cq.cq.cq.cq.cq.cq.cq.cq.cq.cr.ck.ck.ck.ck.ck.ck.cq.cq.cq.cr.ck.ck.ck.cs.ck.cr.cr.ck.ck.ck.cs.ck.cr.cr.ck.ck.ck.cs.ck.cr.ck.ck.ck.cs.ck.ck.cq.ck.ck.ck.cs.ck.ck.cr.ck.ck.ck.cs.ck.cr.cr.ck.ck.ck.cs.ck.cr.cr.ck.ck.ck.cs.ck.cr.cr.ck.ck.ck.cs.ck.cr.ck.ck.ck.cs.ck.ck.cq.ck.ck.ck.cs.ck.ck.cr.ck.ck.ck.cs.ck.cr.cr.ck.ck.ck.cs.ck.cr.cr.ck.ck.ck.cs.ck.cr.ck.ck.ck.ck.ck.ck.cq.ck.ck.ck.cs.ck.ck.cq.ck.ck.ck.cs.ck.ck.cr.ck.ck.ck.cs.ck.cr.cr.ck.ck.ck.cs.ck.cr.cr.ck.ck.ck.cs.ck.cr.ck.ck.ck.ck.ck.ck.cq.ck.ck.ck.cs.ck.ck.cr.ck.ck.ck.cs.ck.cr.cr.ck.ck.ck.cs.ck.cr.cr.ck.ck.ck.cs.ck.cr.cr.ck.ck.ck.cs.ck.cr.ck.ck.ck.cs.ck.ck.cq.ck.ck.ck.cs.ck.ck.cr.ck.ck.ck.cs.ck.cr.cr.ck.ck.ck.cs.ck.cr.cr.ck.ck.ck.cs.ck.cr.cr.ck.ck.ck.cs.ck.cr.ck.ck.ck.cs.ck.ck.cq.ck.ck.ck.cs.ck",
".cu.cu.cu.cv.cq.cq.cq.cw.cw.cw.cw.cw.cw.cw.cw.cx.cx.cx.cx.cx.cw.cw.cw.cw.cw.cw.cx.cx.cx.cy.cx.cx.cx.cx.cx.cx.cy.cx.cw.cx.cx.cx.cx.cy.cx.cw.cx.cx.cx.cy.cx.cx.cw.cx.cx.cx.cy.cx.cx.cw.cx.cx.cx.cy.cx.cx.cw.cx.cx.cx.cy.cx.cw.cx.cx.cx.cx.cy.cx.cw.cx.cx.cx.cx.cy.cx.cw.cx.cx.cx.cy.cx.cx.cw.cx.cx.cx.cy.cx.cx.cw.cx.cx.cx.cy.cx.cx.cw.cx.cx.cx.cy.cx.cw.cx.cx.cx.cx.cy.cx.cw.cx.cx.cx.cx.cx.cx.cw.cx.cx.cx.cy.cx.cx.cw.cx.cx.cx.cy.cx.cx.cw.cx.cx.cx.cy.cx.cx.cw.cx.cx.cx.cy.cx.cw.cx.cx.cx.cx.cy.cx.cw.cx.cx.cx.cx.cx.cx.cw.cx.cx.cx.cy.cx.cx.cw.cx.cx.cx.cy.cx.cx.cw.cx.cx.cx.cy.cx.cx.cx.cx.cx.cx.cy.cx.cw.cx.cx.cx.cx.cy.cx.cw.cx.cx.cx.cy.cx.cx.cw.cx.cx.cx.cy.cx.cx.cw.cx.cx.cx.cy.cx.cx.cw.cx.cx.cx.cy.cx.cx.cx.cx.cx.cx.cy.cx.cw.cx.cx.cx.cx.cy.cx.cw.cx.cx.cx.cy.cx.cx.cw.cx.cx.cx.cy.cx",
".cv.cv.cv.cv.cz.cz.cz.cp.cp.cp.cp.cp.cp.cp.cp.cp.cp.cp.cp.cA.cp.cz.cp.cp.cp.cz.cp.cp.cp.cA.cp.cp.cp.cp.cp.cp.cA.cp.cz.cp.cp.cp.cA.cA.cp.cz.cp.cp.cp.cA.cA.cp.cp.cp.cp.cp.cA.cp.cp.cz.cp.cp.cp.cA.cp.cp.cz.cp.cp.cp.cA.cp.cz.cp.cp.cp.cp.cA.cp.cz.cp.cp.cp.cA.cA.cp.cz.cp.cp.cp.cA.cA.cp.cp.cp.cp.cp.cA.cp.cp.cz.cp.cp.cp.cA.cp.cp.cz.cp.cp.cp.cA.cp.cz.cp.cp.cp.cA.cA.cp.cz.cp.cp.cp.cA.cA.cp.cp.cp.cp.cp.cA.cA.cp.cp.cp.cp.cp.cA.cp.cp.cz.cp.cp.cp.cA.cp.cp.cz.cp.cp.cp.cA.cp.cz.cp.cp.cp.cA.cA.cp.cz.cp.cp.cp.cA.cA.cp.cp.cp.cp.cp.cA.cA.cp.cz.cp.cp.cp.cA.cp.cp.cz.cp.cp.cp.cA.cp.cp.cp.cp.cp.cp.cA.cp.cz.cp.cp.cp.cA.cA.cp.cz.cp.cp.cp.cA.cA.cp.cp.cp.cp.cp.cA.cp.cp.cz.cp.cp.cp.cA.cp.cp.cz.cp.cp.cp.cA.cp.cp.cp.cp.cp.cp.cA.cp.cz.cp.cp.cp.cA.cA.cp.cz.cp.cp.cp.cA.cA.cp.cp.cp.cp.cp.cA.cp",
".cB.cB.cB.cq.cz.cz.cz.cC.cC.cC.cC.cC.cC.cC.cC.cC.cC.cC.cC.cu.cu.cC.cC.cC.cC.cC.cC.cC.cC.cu.cC.cC.cC.cC.cC.cC.cu.cC.cC.cC.cC.cC.cu.cu.cC.cC.cC.cC.cC.cu.cu.cC.cC.cC.cC.cC.cu.cC.cC.cC.cC.cC.cC.cu.cC.cC.cC.cC.cC.cC.cu.cC.cC.cC.cC.cC.cC.cu.cC.cC.cC.cC.cC.cu.cu.cC.cC.cC.cC.cC.cu.cu.cC.cC.cC.cC.cC.cu.cC.cC.cC.cC.cC.cC.cu.cC.cC.cC.cC.cC.cC.cu.cC.cC.cC.cC.cC.cu.cu.cC.cC.cC.cC.cC.cu.cu.cC.cC.cC.cC.cC.cu.cu.cC.cC.cC.cC.cC.cu.cC.cC.cC.cC.cC.cC.cu.cC.cC.cC.cC.cC.cC.cu.cC.cC.cC.cC.cC.cu.cu.cC.cC.cC.cC.cC.cu.cu.cC.cC.cC.cC.cC.cu.cu.cC.cC.cC.cC.cC.cu.cC.cC.cC.cC.cC.cC.cu.cC.cC.cC.cC.cC.cC.cu.cC.cC.cC.cC.cC.cu.cu.cC.cC.cC.cC.cC.cu.cu.cC.cC.cC.cC.cC.cu.cC.cC.cC.cC.cC.cC.cu.cC.cC.cC.cC.cC.cC.cu.cC.cC.cC.cC.cC.cC.cu.cC.cC.cC.cC.cC.cu.cu.cC.cC.cC.cC.cC.cu.cu.cC.cC.cC.cC.cC.cu.cC",
".cD.cD.cD.cE.cF.cF.cF.cF.cF.cF.cF.cF.cF.cF.cF.cF.cF.cF.cF.cF.cF.cF.cF.cF.cF.cF.cF.cF.cF.cF.cF.cF.cF.cF.cF.cF.cF.cF.cF.cF.cF.cF.cF.cF.cF.cF.cF.cF.cF.cF.cF.cF.cF.cF.cF.cF.cF.cF.cF.cF.cF.cF.cF.cF.cF.cF.cF.cF.cF.cF.cF.cF.cF.cF.cF.cF.cF.cF.cF.cF.cF.cF.cF.cF.cF.cF.cF.cF.cF.cF.cF.cF.cF.cF.cF.cF.cF.cF.cF.cF.cF.cF.cF.cF.cF.cF.cF.cF.cF.cF.cF.cF.cF.cF.cF.cF.cF.cF.cF.cF.cF.cF.cF.cF.cF.cF.cF.cF.cF.cF.cF.cF.cF.cF.cF.cF.cF.cF.cF.cF.cF.cF.cF.cF.cF.cF.cF.cF.cF.cF.cF.cF.cF.cF.cF.cF.cF.cF.cF.cF.cF.cF.cF.cF.cF.cF.cF.cF.cF.cF.cF.cF.cF.cF.cF.cF.cF.cF.cF.cF.cF.cF.cF.cF.cF.cF.cF.cF.cF.cF.cF.cF.cF.cF.cF.cF.cF.cF.cF.cF.cF.cF.cF.cF.cF.cF.cF.cF.cF.cF.cF.cF.cF.cF.cF.cF.cF.cF.cF.cF.cF.cF.cF.cF.cF.cF.cF.cF.cF.cF.cF.cF.cF.cF.cF.cF.cF.cF.cF.cF.cF.cF.cF.cF.cF.cF.cF.cF.cF.cF.cF.cF.cF.cF.cF.cF",
".cG.cG.cG.cH.cI.cJ.cJ.cK.cK.cK.cK.cK.cL.cK.cK.cK.cK.cK.cK.cK.cK.cL.cL.cK.cK.cK.cK.cK.cL.cK.cK.cK.cK.cK.cK.cL.cK.cK.cK.cK.cK.cL.cL.cK.cK.cK.cK.cK.cL.cL.cK.cK.cK.cK.cK.cL.cL.cK.cK.cK.cK.cK.cL.cL.cK.cK.cK.cK.cK.cL.cK.cK.cK.cK.cK.cK.cL.cK.cK.cK.cK.cK.cL.cL.cK.cK.cK.cK.cK.cL.cL.cK.cK.cK.cK.cK.cL.cL.cK.cK.cK.cK.cK.cL.cL.cK.cK.cK.cK.cK.cL.cK.cK.cK.cK.cK.cL.cL.cK.cK.cK.cK.cK.cL.cL.cK.cK.cK.cK.cK.cL.cL.cK.cK.cK.cK.cK.cL.cL.cK.cK.cK.cK.cK.cL.cK.cK.cK.cK.cK.cK.cL.cK.cK.cK.cK.cK.cL.cL.cK.cK.cK.cK.cK.cL.cL.cK.cK.cK.cK.cK.cL.cL.cK.cK.cK.cK.cK.cL.cL.cK.cK.cK.cK.cK.cL.cK.cK.cK.cK.cK.cK.cL.cK.cK.cK.cK.cK.cL.cL.cK.cK.cK.cK.cK.cL.cL.cK.cK.cK.cK.cK.cL.cL.cK.cK.cK.cK.cK.cL.cL.cK.cK.cK.cK.cK.cL.cK.cK.cK.cK.cK.cK.cL.cK.cK.cK.cK.cK.cL.cL.cK.cK.cK.cK.cK.cL.cL.cK.cK.cK.cK.cK.cL.cL.cK",
".cM.cM.cM.cN.cH.cG.cG.cL.cL.cL.cL.cL.cO.cP.cL.cL.cL.cL.cL.cL.cP.cO.cO.cL.cL.cL.cL.cP.cO.cQ.cL.cL.cL.cL.cQ.cO.cP.cL.cL.cL.cL.cO.cO.cP.cL.cL.cL.cL.cO.cO.cP.cL.cL.cL.cP.cO.cO.cL.cL.cL.cL.cP.cO.cO.cL.cL.cL.cL.cP.cO.cQ.cL.cL.cL.cL.cQ.cO.cP.cL.cL.cL.cL.cO.cO.cP.cL.cL.cL.cP.cO.cO.cP.cL.cL.cL.cP.cO.cO.cL.cL.cL.cL.cP.cO.cO.cL.cL.cL.cL.cQ.cO.cQ.cL.cL.cL.cL.cO.cO.cP.cL.cL.cL.cL.cO.cO.cP.cL.cL.cL.cP.cO.cO.cP.cL.cL.cL.cP.cO.cO.cL.cL.cL.cL.cP.cO.cQ.cL.cL.cL.cL.cQ.cO.cP.cL.cL.cL.cL.cO.cO.cP.cL.cL.cL.cL.cO.cO.cP.cL.cL.cL.cP.cO.cO.cL.cL.cL.cL.cP.cO.cO.cL.cL.cL.cL.cP.cO.cQ.cL.cL.cL.cL.cQ.cO.cP.cL.cL.cL.cL.cO.cO.cP.cL.cL.cL.cL.cO.cO.cP.cL.cL.cL.cP.cO.cO.cL.cL.cL.cL.cP.cO.cO.cL.cL.cL.cL.cP.cO.cQ.cL.cL.cL.cL.cQ.cO.cP.cL.cL.cL.cL.cO.cO.cP.cL.cL.cL.cL.cO.cO.cP.cL.cL.cL.cP.cO.cO.cL",
".cR.cR.cS.cT.cT.cT.cT.cT.cT.cT.cT.cT.cT.cT.cT.cT.cT.cT.cT.cT.cU.cU.cU.cT.cT.cT.cT.cU.cU.cU.cT.cT.cT.cT.cU.cU.cU.cT.cT.cT.cT.cU.cU.cU.cT.cT.cT.cT.cU.cU.cT.cT.cT.cT.cT.cU.cU.cT.cT.cT.cT.cU.cU.cU.cT.cT.cT.cT.cU.cU.cU.cT.cT.cT.cT.cU.cU.cU.cT.cT.cT.cT.cU.cU.cT.cT.cT.cT.cT.cU.cU.cT.cT.cT.cT.cT.cU.cU.cT.cT.cT.cT.cU.cU.cU.cT.cT.cT.cT.cU.cU.cU.cT.cT.cT.cT.cU.cU.cU.cT.cT.cT.cT.cU.cU.cT.cT.cT.cT.cT.cU.cU.cT.cT.cT.cT.cT.cU.cU.cT.cT.cT.cT.cU.cU.cU.cT.cT.cT.cT.cU.cU.cU.cT.cT.cT.cT.cU.cU.cU.cT.cT.cT.cT.cU.cU.cT.cT.cT.cT.cT.cU.cU.cT.cT.cT.cT.cU.cU.cU.cT.cT.cT.cT.cU.cU.cU.cT.cT.cT.cT.cU.cU.cU.cT.cT.cT.cT.cU.cU.cU.cT.cT.cT.cT.cU.cU.cT.cT.cT.cT.cT.cU.cU.cT.cT.cT.cT.cU.cU.cU.cT.cT.cT.cT.cU.cU.cU.cT.cT.cT.cT.cU.cU.cU.cT.cT.cT.cT.cU.cU.cT.cT.cT.cT.cT.cU.cU.cT.cT.cT.cT.cT.cU.cU.cT",
".cV.cV.cW.cT.cT.cT.cT.cX.cY.cT.cT.cT.cT.cT.cT.cY.cX.cX.cX.cT.cT.cT.cU.cT.cY.cY.cT.cT.cT.cU.cT.cY.cY.cT.cT.cT.cU.cT.cY.cY.cT.cT.cT.cU.cT.cY.cT.cT.cT.cU.cT.cT.cX.cT.cT.cT.cU.cT.cT.cY.cT.cT.cT.cU.cT.cY.cY.cT.cT.cT.cU.cT.cY.cY.cT.cT.cT.cU.cT.cY.cY.cT.cT.cT.cU.cT.cY.cT.cT.cT.cU.cT.cT.cX.cT.cT.cT.cU.cT.cT.cY.cT.cT.cT.cU.cT.cY.cY.cT.cT.cT.cU.cT.cY.cY.cT.cT.cT.cU.cT.cY.cT.cT.cT.cT.cT.cT.cX.cT.cT.cT.cU.cT.cT.cX.cT.cT.cT.cU.cT.cY.cY.cT.cT.cT.cU.cT.cY.cY.cT.cT.cT.cU.cT.cY.cY.cT.cT.cT.cU.cT.cY.cT.cT.cT.cT.cT.cT.cX.cT.cT.cT.cU.cT.cT.cY.cT.cT.cT.cU.cT.cY.cY.cT.cT.cT.cU.cT.cY.cY.cT.cT.cT.cU.cT.cY.cY.cT.cT.cT.cU.cT.cY.cT.cT.cT.cU.cT.cT.cX.cT.cT.cT.cU.cT.cT.cY.cT.cT.cT.cU.cT.cY.cY.cT.cT.cT.cU.cT.cY.cY.cT.cT.cT.cU.cT.cY.cY.cT.cT.cT.cU.cT.cY.cT.cT.cT.cU.cT.cT.cX.cT.cT.cT.cU.cT",
".cZ.cZ.cZ.c0.c0.c1.c1.c2.c2.c3.c3.c3.c3.c3.c3.c2.c3.c3.cZ.c4.c0.c0.c5.c0.c0.c4.c6.c3.c3.c2.c3.c3.cZ.c6.c0.c5.c5.c0.c4.c4.c7.c3.c2.c2.c3.cZ.cZ.c6.c0.c5.c5.c0.c4.c4.c7.c3.c2.c3.c3.cZ.c4.c0.c0.c5.c0.c0.c4.c6.c3.c3.c2.c3.cZ.cZ.c6.c0.c5.c5.c0.c4.c4.c7.c3.c2.c2.c3.cZ.cZ.c6.c0.c5.c5.c0.c4.c4.c7.c3.c2.c3.c3.cZ.c6.c0.c0.c5.c0.c0.c4.c6.c3.c3.c2.c3.cZ.cZ.c6.c0.c5.c5.c0.c4.c4.c7.c3.c2.c2.c3.cZ.cZ.c6.c0.c5.c5.c0.c4.c4.cZ.c3.c2.c3.c3.cZ.c6.c4.c4.c7.c3.c2.c2.c3.cZ.cZ.c6.c0.c5.c5.c0.c4.c4.c7.c3.c2.c3.c3.cZ.c4.c0.c0.c5.c0.c0.c4.c6.c3.c3.c2.c3.cZ.cZ.c6.c0.c5.c5.c0.c4.c4.c7.c3.c2.c2.c3.cZ.cZ.c6.c0.c5.c5.c0.c4.c4.c7.c3.c2.c3.c3.cZ.c6.c0.c0.c5.c0.c0.c4.c6.c3.c3.c2.c3.cZ.cZ.c6.c0.c5.c5.c0.c4.c4.c7.c3.c2.c2.c3.cZ.cZ.c6.c0.c5.c5.c0.c4.c4.cZ.c3.c2.c3.c3.cZ.c6.c0.c0.c5.c0.c0.c4.c6.c3",
".c8.c8.c8.c9.d..d..d..c0.c0.c0.c0.c0.c0.c0.c0.c0.c0.c0.c6.c7.c3.c3.c3.c3.c3.c7.c7.c0.c0.c0.c0.c0.c6.c7.c3.c3.c3.c3.c7.c7.c6.c0.c0.c0.c0.c6.c6.c7.c3.c3.c3.c3.c7.c7.c6.c0.c0.c0.c0.c6.c7.c3.c3.c3.c3.c3.c7.c7.c0.c0.c0.c0.c6.c6.c7.c3.c3.c3.c3.c7.c7.c6.c0.c0.c0.c0.c6.c6.c7.c3.c3.c3.c3.c7.c7.c6.c0.c0.c0.c0.c6.c7.c3.c3.c3.c3.c3.c7.c7.c0.c0.c0.c0.c6.c6.c7.c3.c3.c3.c3.c7.c7.c6.c0.c0.c0.c0.c6.c6.c7.c3.c3.c3.c3.c7.c7.c0.c0.c0.c0.c0.c6.c7.c7.c7.c6.c0.c0.c0.c0.c6.c6.c7.c3.c3.c3.c3.c7.c7.c6.c0.c0.c0.c0.c6.c7.c3.c3.c3.c3.c3.c7.c7.c0.c0.c0.c0.c6.c6.c7.c3.c3.c3.c3.c7.c7.c6.c0.c0.c0.c0.c6.c6.c7.c3.c3.c3.c3.c7.c7.c6.c0.c0.c0.c0.c6.c7.c3.c3.c3.c3.c3.c7.c7.c0.c0.c0.c0.c6.c6.c7.c3.c3.c3.c3.c7.c7.c6.c0.c0.c0.c0.c6.c6.c7.c3.c3.c3.c3.c7.c7.c0.c0.c0.c0.c0.c6.c7.c3.c3.c3.c3.c3.c7.c7.c0",
".c9.c9.d#.d#.da.da.da.db.db.db.db.db.db.db.db.db.c1.c1.dc.dd.c8.c8.c3.c3.c8.de.dd.db.db.c1.c1.db.dc.de.c8.c8.c3.c3.c7.de.dc.db.db.c1.c1.dc.dc.de.c8.c8.c3.c3.de.dd.dc.db.db.c1.c1.dc.dd.c8.c8.c3.c3.c8.de.dd.db.db.c1.c1.df.dc.de.c8.c8.c3.c3.c7.de.dc.db.db.c1.c1.dc.dc.de.c8.c8.c3.c3.de.dd.dc.db.c1.c1.c1.dc.dd.c8.c8.c3.c3.c8.de.dd.db.db.c1.c1.df.dc.de.c8.c8.c3.c3.c7.de.dc.db.db.c1.c1.dc.dc.de.c8.c8.c3.c3.de.dd.db.db.c1.c1.c1.dc.dd.c7.de.dc.db.db.c1.c1.dc.dc.de.c8.c8.c3.c3.de.dd.dc.db.db.c1.c1.dc.dd.c8.c8.c3.c3.c8.de.dd.db.db.c1.c1.df.dc.de.c8.c8.c3.c3.c7.de.dc.db.db.c1.c1.dc.dc.de.c8.c8.c3.c3.de.dd.dc.db.c1.c1.c1.dc.dd.c8.c8.c3.c3.c8.de.dd.db.db.c1.c1.df.dc.de.c8.c8.c3.c3.c7.de.dc.db.db.c1.c1.dc.dc.de.c8.c8.c3.c3.de.dd.db.db.c1.c1.c1.dc.dd.c8.c8.c3.c3.c8.de.dd.db",
".c9.d#.dg.dh.dh.dh.dh.di.di.di.di.di.di.di.di.dj.dk.dk.di.dl.dl.dl.d..d..da.dl.dl.di.di.dk.dk.dj.di.dl.dl.dl.d..d..dm.dl.di.di.dn.dk.dk.di.di.dl.dl.da.d..d..dl.dl.di.di.dj.dk.dk.di.dl.dl.dl.d..d..da.dl.dl.di.di.dk.dk.dn.di.dl.dl.dl.d..d..dm.dl.di.di.dn.dk.dk.di.di.dl.dl.da.d..d..dl.dl.di.di.dk.dk.dk.di.dl.dl.dl.d..d..da.dl.dl.di.di.dk.dk.dn.di.dl.dl.dm.d..d..dm.dl.di.di.dn.dk.dk.di.di.dl.dl.da.d..d..dl.dl.di.di.dk.dk.dk.di.dl.dm.dl.di.di.dn.dk.dk.di.di.dl.dl.da.d..d..dl.dl.di.di.dj.dk.dk.di.dl.dl.dl.d..d..da.dl.dl.di.di.dk.dk.dn.di.dl.dl.dl.d..d..dm.dl.di.di.dn.dk.dk.di.di.dl.dl.da.d..d..dl.dl.di.di.dk.dk.dk.di.dl.dl.dl.d..d..da.dl.dl.di.di.dk.dk.dn.di.dl.dl.dm.d..d..dm.dl.di.di.dn.dk.dk.di.di.dl.dl.da.d..d..dl.dl.di.di.dk.dk.dk.di.dl.dl.dl.d..d..da.dl.dl.di",
".do.dp.dq.dq.dq.dq.dr.ds.ds.ds.ds.ds.ds.ds.ds.dt.dt.dt.ds.du.dl.dl.da.da.da.dl.du.ds.ds.dt.dt.dt.ds.dl.dl.dl.da.da.dm.dl.ds.ds.dv.dt.dt.ds.ds.dl.dl.da.da.da.dl.di.ds.ds.dt.dt.dt.ds.du.dl.dl.da.da.da.dl.du.ds.ds.dt.dt.dv.ds.dl.dl.dl.da.da.dm.dl.ds.ds.dv.dt.dt.ds.ds.dl.dl.da.da.da.dl.di.ds.ds.dt.dt.dt.ds.du.dl.dl.da.da.da.dl.du.ds.ds.dt.dt.dv.ds.dl.dl.dm.da.da.dm.dl.ds.ds.dv.dt.dt.ds.ds.dl.dl.da.da.da.dl.di.ds.ds.dt.dt.dt.ds.di.dm.dl.ds.ds.dv.dt.dt.ds.ds.dl.dl.da.da.da.dl.di.ds.ds.dt.dt.dt.ds.du.dl.dl.da.da.da.dl.du.ds.ds.dt.dt.dv.ds.dl.dl.dl.da.da.dm.dl.ds.ds.dv.dt.dt.ds.ds.dl.dl.da.da.da.dl.di.ds.ds.dt.dt.dt.ds.du.dl.dl.da.da.da.dl.du.ds.ds.dt.dt.dv.ds.dl.dl.dm.da.da.dm.dl.ds.ds.dv.dt.dt.ds.ds.dl.dl.da.da.da.dl.di.ds.ds.dt.dt.dt.ds.di.dl.dl.da.da.da.dl.du.ds",
".dw.dw.dx.dx.dx.dx.dx.dw.dw.dw.dw.dw.dw.dw.dw.dw.dw.dw.dw.dr.dq.dq.dq.dq.dq.dq.dr.dw.dw.dw.dw.dw.dw.dq.dq.dq.dq.dq.dq.dq.dw.dw.dw.dw.dw.dw.dw.dq.dq.dq.dq.dq.dq.dr.dw.dw.dw.dw.dw.dw.dr.dq.dq.dq.dq.dq.dq.dr.dw.dw.dw.dw.dw.dw.dq.dq.dq.dq.dq.dq.dq.dw.dw.dw.dw.dw.dw.dw.dq.dq.dq.dq.dq.dq.dr.dw.dw.dw.dw.dw.dw.dr.dq.dq.dq.dq.dq.dq.dr.dw.dw.dw.dw.dw.dw.dq.dq.dq.dq.dq.dq.dq.dw.dw.dw.dw.dw.dw.dw.dq.dq.dq.dq.dq.dq.dr.dw.dw.dw.dw.dw.dw.dr.dq.dq.dw.dw.dw.dw.dw.dw.dw.dq.dq.dq.dq.dq.dq.dr.dw.dw.dw.dw.dw.dw.dr.dq.dq.dq.dq.dq.dq.dr.dw.dw.dw.dw.dw.dw.dq.dq.dq.dq.dq.dq.dq.dw.dw.dw.dw.dw.dw.dw.dq.dq.dq.dq.dq.dq.dr.dw.dw.dw.dw.dw.dw.dr.dq.dq.dq.dq.dq.dq.dr.dw.dw.dw.dw.dw.dw.dq.dq.dq.dq.dq.dq.dq.dw.dw.dw.dw.dw.dw.dw.dq.dq.dq.dq.dq.dq.dr.dw.dw.dw.dw.dw.dw.dr.dq.dq.dq.dq.dq.dq.dr.dw",
".dw.dw.dx.dx.dx.dx.dx.dw.dw.dw.dw.dw.dw.dw.dw.dw.dw.dw.dw.dr.dq.dq.dq.dq.dq.dq.dr.dw.dw.dw.dw.dw.dw.dq.dq.dq.dq.dq.dq.dq.dw.dw.dw.dw.dw.dw.dw.dq.dq.dq.dq.dq.dq.dr.dw.dw.dw.dw.dw.dw.dr.dq.dq.dq.dq.dq.dq.dr.dw.dw.dw.dw.dw.dw.dq.dq.dq.dq.dq.dq.dq.dw.dw.dw.dw.dw.dw.dw.dq.dq.dq.dq.dq.dq.dr.dw.dw.dw.dw.dw.dw.dr.dq.dq.dq.dq.dq.dq.dr.dw.dw.dw.dw.dw.dw.dq.dq.dq.dq.dq.dq.dq.dw.dw.dw.dw.dw.dw.dw.dq.dq.dq.dq.dq.dq.dr.dw.dw.dw.dw.dw.dw.dr.dq.dq.dw.dw.dw.dw.dw.dw.dw.dq.dq.dq.dq.dq.dq.dr.dw.dw.dw.dw.dw.dw.dr.dq.dq.dq.dq.dq.dq.dr.dw.dw.dw.dw.dw.dw.dq.dq.dq.dq.dq.dq.dq.dw.dw.dw.dw.dw.dw.dw.dq.dq.dq.dq.dq.dq.dr.dw.dw.dw.dw.dw.dw.dr.dq.dq.dq.dq.dq.dq.dr.dw.dw.dw.dw.dw.dw.dq.dq.dq.dq.dq.dq.dq.dw.dw.dw.dw.dw.dw.dw.dq.dq.dq.dq.dq.dq.dr.dw.dw.dw.dw.dw.dw.dr.dq.dq.dq.dq.dq.dq.dr.dw",
".dy.dy.dy.dy.dy.dz.dz.dy.dy.dy.dy.dy.dy.dy.dy.dy.dy.dy.dy.dy.dy.dy.dy.dy.dy.dy.dy.dy.dy.dy.dy.dy.dy.dy.dy.dy.dy.dy.dy.dy.dy.dy.dy.dy.dy.dy.dy.dy.dy.dy.dy.dy.dy.dy.dy.dy.dy.dy.dy.dy.dy.dy.dy.dy.dy.dy.dy.dy.dy.dy.dy.dy.dy.dy.dy.dy.dy.dy.dy.dy.dy.dy.dy.dy.dy.dy.dy.dy.dy.dy.dy.dy.dy.dy.dy.dy.dy.dy.dy.dy.dy.dy.dy.dy.dy.dy.dy.dy.dy.dy.dy.dy.dy.dy.dy.dy.dy.dy.dy.dy.dy.dy.dy.dy.dy.dy.dy.dy.dy.dy.dy.dy.dy.dy.dy.dy.dy.dy.dy.dy.dy.dy.dy.dy.dy.dy.dy.dy.dy.dy.dy.dy.dy.dy.dy.dy.dy.dy.dy.dy.dy.dy.dy.dy.dy.dy.dy.dy.dy.dy.dy.dy.dy.dy.dy.dy.dy.dy.dy.dy.dy.dy.dy.dy.dy.dy.dy.dy.dy.dy.dy.dy.dy.dy.dy.dy.dy.dy.dy.dy.dy.dy.dy.dy.dy.dy.dy.dy.dy.dy.dy.dy.dy.dy.dy.dy.dy.dy.dy.dy.dy.dy.dy.dy.dy.dy.dy.dy.dy.dy.dy.dy.dy.dy.dy.dy.dy.dy.dy.dy.dy.dy.dy.dy.dy.dy.dy.dy.dy.dy.dy.dy.dy.dy.dy.dy",
".dy.dy.dy.dy.dy.dz.dz.dy.dy.dy.dy.dy.dy.dy.dy.dy.dy.dy.dy.dy.dy.dy.dy.dy.dy.dy.dy.dy.dy.dy.dy.dy.dy.dy.dy.dy.dy.dy.dy.dy.dy.dy.dy.dy.dy.dy.dy.dy.dy.dy.dy.dy.dy.dy.dy.dy.dy.dy.dy.dy.dy.dy.dy.dy.dy.dy.dy.dy.dy.dy.dy.dy.dy.dy.dy.dy.dy.dy.dy.dy.dy.dy.dy.dy.dy.dy.dy.dy.dy.dy.dy.dy.dy.dy.dy.dy.dy.dy.dy.dy.dy.dy.dy.dy.dy.dy.dy.dy.dy.dy.dy.dy.dy.dy.dy.dy.dy.dy.dy.dy.dy.dy.dy.dy.dy.dy.dy.dy.dy.dy.dy.dy.dy.dy.dy.dy.dy.dy.dy.dy.dy.dy.dy.dy.dy.dy.dy.dy.dy.dy.dy.dy.dy.dy.dy.dy.dy.dy.dy.dy.dy.dy.dy.dy.dy.dy.dy.dy.dy.dy.dy.dy.dy.dy.dy.dy.dy.dy.dy.dy.dy.dy.dy.dy.dy.dy.dy.dy.dy.dy.dy.dy.dy.dy.dy.dy.dy.dy.dy.dy.dy.dy.dy.dy.dy.dy.dy.dy.dy.dy.dy.dy.dy.dy.dy.dy.dy.dy.dy.dy.dy.dy.dy.dy.dy.dy.dy.dy.dy.dy.dy.dy.dy.dy.dy.dy.dy.dy.dy.dy.dy.dy.dy.dy.dy.dy.dy.dy.dy.dy.dy.dy.dy.dy.dy.dy",
".dA.dA.dA.dA.dA.dB.dB.dC.dC.dC.dC.dC.dC.dC.dC.dy.dy.dy.dy.dy.dC.dC.dy.dy.dC.dC.dC.dC.dy.dy.dy.dy.dy.dy.dC.dC.dy.dy.dC.dC.dC.dC.dy.dy.dy.dy.dy.dC.dC.dC.dy.dy.dC.dC.dC.dC.dy.dy.dy.dy.dy.dC.dC.dy.dy.dC.dC.dC.dC.dy.dy.dy.dy.dy.dy.dC.dC.dy.dy.dC.dC.dC.dC.dy.dy.dy.dy.dy.dC.dC.dC.dy.dy.dC.dC.dC.dC.dy.dy.dy.dy.dy.dC.dC.dy.dy.dC.dC.dC.dC.dy.dy.dy.dy.dy.dy.dC.dC.dy.dy.dC.dC.dC.dC.dy.dy.dy.dy.dy.dC.dC.dC.dy.dy.dC.dC.dC.dC.dy.dy.dy.dy.dy.dC.dC.dC.dC.dy.dy.dy.dy.dy.dC.dC.dC.dy.dy.dC.dC.dC.dC.dy.dy.dy.dy.dy.dC.dC.dy.dy.dC.dC.dC.dC.dy.dy.dy.dy.dy.dy.dC.dC.dy.dy.dC.dC.dC.dC.dy.dy.dy.dy.dy.dC.dC.dC.dy.dy.dC.dC.dC.dC.dy.dy.dy.dy.dy.dC.dC.dy.dy.dC.dC.dC.dC.dy.dy.dy.dy.dy.dy.dC.dC.dy.dy.dC.dC.dC.dC.dy.dy.dy.dy.dy.dC.dC.dC.dy.dy.dC.dC.dC.dC.dy.dy.dy.dy.dy.dC.dC.dy.dy.dC.dC.dC.dC",
".dD.dD.dD.dD.dD.dD.dD.dB.dz.dz.dz.dz.dz.dz.dC.dy.dy.dy.dy.dy.dA.dB.dE.dE.dA.dB.dz.dz.dy.dy.dy.dy.dy.dE.dB.dB.dE.dE.dA.dB.dz.dz.dy.dy.dy.dy.dy.dA.dB.dA.dE.dE.dB.dz.dz.dC.dy.dy.dy.dy.dy.dA.dB.dE.dE.dA.dB.dz.dz.dy.dy.dy.dy.dy.dE.dB.dB.dE.dE.dA.dB.dz.dC.dy.dy.dy.dy.dy.dA.dB.dA.dE.dE.dB.dz.dz.dC.dy.dy.dy.dy.dy.dA.dB.dE.dE.dA.dB.dz.dz.dy.dy.dy.dy.dy.dE.dB.dA.dE.dE.dA.dB.dz.dC.dy.dy.dy.dy.dy.dA.dB.dA.dE.dE.dB.dz.dz.dC.dy.dy.dy.dy.dy.dA.dB.dz.dz.dy.dy.dy.dy.dy.dA.dB.dA.dE.dE.dB.dz.dz.dC.dy.dy.dy.dy.dy.dA.dB.dE.dE.dA.dB.dz.dz.dy.dy.dy.dy.dy.dE.dB.dB.dE.dE.dA.dB.dz.dC.dy.dy.dy.dy.dy.dA.dB.dA.dE.dE.dB.dz.dz.dC.dy.dy.dy.dy.dy.dA.dB.dE.dE.dA.dB.dz.dz.dy.dy.dy.dy.dy.dE.dB.dA.dE.dE.dA.dB.dz.dC.dy.dy.dy.dy.dy.dA.dB.dA.dE.dE.dB.dz.dz.dC.dy.dy.dy.dy.dy.dA.dB.dE.dE.dA.dB.dz.dz",
".dF.dF.dF.dF.dF.dF.dF.dD.dB.dB.dB.dB.dB.dB.dB.dB.dB.dB.dB.dB.dD.dD.dG.dG.dG.dD.dB.dB.dB.dB.dB.dB.dB.dD.dD.dD.dG.dG.dH.dD.dB.dB.dB.dB.dB.dB.dB.dD.dD.dG.dG.dG.dD.dB.dB.dB.dB.dB.dB.dB.dB.dD.dD.dG.dG.dG.dD.dB.dB.dB.dB.dB.dB.dB.dD.dD.dD.dG.dG.dH.dD.dB.dB.dB.dB.dB.dB.dB.dD.dD.dG.dG.dG.dD.dB.dB.dB.dB.dB.dB.dB.dB.dD.dD.dG.dG.dG.dD.dB.dB.dB.dB.dB.dB.dB.dD.dD.dH.dG.dG.dH.dD.dB.dB.dB.dB.dB.dB.dB.dD.dD.dG.dG.dG.dD.dB.dB.dB.dB.dB.dB.dB.dB.dH.dD.dB.dB.dB.dB.dB.dB.dB.dD.dD.dG.dG.dG.dD.dB.dB.dB.dB.dB.dB.dB.dB.dD.dD.dG.dG.dG.dD.dB.dB.dB.dB.dB.dB.dB.dD.dD.dD.dG.dG.dH.dD.dB.dB.dB.dB.dB.dB.dB.dD.dD.dG.dG.dG.dD.dB.dB.dB.dB.dB.dB.dB.dB.dD.dD.dG.dG.dG.dD.dB.dB.dB.dB.dB.dB.dB.dD.dD.dH.dG.dG.dH.dD.dB.dB.dB.dB.dB.dB.dB.dD.dD.dG.dG.dG.dD.dB.dB.dB.dB.dB.dB.dB.dB.dD.dD.dG.dG.dG.dD.dB.dB",
".dI.dI.dI.dI.dI.dI.dI.dD.dD.dD.dD.dD.dD.dD.dI.dJ.dJ.dJ.dJ.dJ.dI.dD.dD.dD.dD.dD.dD.dF.dJ.dJ.dJ.dJ.dJ.dJ.dK.dD.dD.dD.dD.dD.dD.dI.dJ.dJ.dJ.dJ.dJ.dJ.dD.dD.dD.dD.dD.dD.dD.dL.dJ.dJ.dJ.dJ.dJ.dI.dD.dD.dD.dD.dD.dD.dF.dJ.dJ.dJ.dJ.dJ.dJ.dK.dD.dD.dD.dD.dD.dD.dI.dJ.dJ.dJ.dJ.dJ.dJ.dD.dD.dD.dD.dD.dD.dD.dJ.dJ.dJ.dJ.dJ.dJ.dI.dD.dD.dD.dD.dD.dD.dF.dJ.dJ.dJ.dJ.dJ.dJ.dK.dD.dD.dD.dD.dD.dD.dI.dJ.dJ.dJ.dJ.dJ.dJ.dD.dD.dD.dD.dD.dD.dD.dJ.dJ.dJ.dJ.dJ.dJ.dD.dD.dD.dI.dJ.dJ.dJ.dJ.dJ.dJ.dD.dD.dD.dD.dD.dD.dD.dL.dJ.dJ.dJ.dJ.dJ.dI.dD.dD.dD.dD.dD.dD.dF.dJ.dJ.dJ.dJ.dJ.dJ.dK.dD.dD.dD.dD.dD.dD.dI.dJ.dJ.dJ.dJ.dJ.dJ.dD.dD.dD.dD.dD.dD.dD.dJ.dJ.dJ.dJ.dJ.dJ.dI.dD.dD.dD.dD.dD.dD.dF.dJ.dJ.dJ.dJ.dJ.dJ.dK.dD.dD.dD.dD.dD.dD.dI.dJ.dJ.dJ.dJ.dJ.dJ.dD.dD.dD.dD.dD.dD.dD.dJ.dJ.dJ.dJ.dJ.dJ.dI.dD.dD.dD.dD.dD.dD.dD",
".dM.dM.dM.dM.dM.dM.dN.dO.dP.dD.dD.dD.dD.dD.dI.dJ.dJ.dJ.dJ.dQ.dR.dS.dS.dS.dS.dS.dP.dF.dJ.dJ.dJ.dJ.dJ.dT.dO.dS.dS.dS.dS.dS.dD.dI.dJ.dJ.dJ.dJ.dJ.dT.dS.dS.dS.dS.dS.dP.dD.dL.dJ.dJ.dJ.dJ.dQ.dR.dS.dS.dS.dS.dS.dP.dF.dJ.dJ.dJ.dJ.dJ.dT.dO.dS.dS.dS.dS.dS.dD.dI.dJ.dJ.dJ.dJ.dJ.dT.dS.dS.dS.dS.dS.dP.dD.dJ.dJ.dJ.dJ.dJ.dQ.dR.dS.dS.dS.dS.dS.dP.dF.dJ.dJ.dJ.dJ.dJ.dT.dO.dS.dS.dS.dS.dS.dD.dI.dJ.dJ.dJ.dJ.dJ.dT.dS.dS.dS.dS.dS.dP.dD.dJ.dJ.dJ.dJ.dJ.dU.dS.dS.dD.dI.dJ.dJ.dJ.dJ.dJ.dT.dS.dS.dS.dS.dS.dP.dD.dL.dJ.dJ.dJ.dJ.dQ.dR.dS.dS.dS.dS.dS.dP.dF.dJ.dJ.dJ.dJ.dJ.dT.dO.dS.dS.dS.dS.dS.dD.dI.dJ.dJ.dJ.dJ.dJ.dT.dS.dS.dS.dS.dS.dP.dD.dJ.dJ.dJ.dJ.dJ.dQ.dR.dS.dS.dS.dS.dS.dP.dF.dJ.dJ.dJ.dJ.dJ.dT.dO.dS.dS.dS.dS.dS.dD.dI.dJ.dJ.dJ.dJ.dJ.dT.dS.dS.dS.dS.dS.dP.dD.dJ.dJ.dJ.dJ.dJ.dU.dR.dS.dS.dS.dS.dS.dP.dD",
".dV.dV.dV.dV.dV.dV.dV.dW.dX.dM.dM.dM.dM.dM.dV.dV.dV.dV.dV.dY.dW.dW.dW.dM.dN.dW.dN.dM.dV.dV.dV.dV.dV.dZ.dW.dW.dW.dW.dW.dW.dM.dM.dV.dV.dV.dV.dV.dZ.dW.dW.dN.dM.dW.dX.dM.dV.dV.dV.dV.dV.dY.dW.dW.dW.dW.dW.dW.dN.dM.dV.dV.dV.dV.dV.dZ.dW.dW.dX.dM.dX.dW.dM.dM.dV.dV.dV.dV.dV.dZ.dW.dW.dW.dW.dW.dX.dM.dV.dV.dV.dV.dV.dY.dW.dW.dW.dM.dN.dW.dN.dM.dV.dV.dV.dV.dV.dZ.dW.dW.dW.dW.dW.dW.dM.dM.dV.dV.dV.dV.dV.dZ.dW.dW.dM.dM.dW.dX.dM.dV.dV.dV.dV.dV.d0.dW.dW.dM.dM.dV.dV.dV.dV.dV.dZ.dW.dW.dN.dM.dW.dX.dM.dV.dV.dV.dV.dV.dY.dW.dW.dW.dW.dW.dW.dN.dM.dV.dV.dV.dV.dV.dZ.dW.dW.dX.dM.dX.dW.dM.dM.dV.dV.dV.dV.dV.dZ.dW.dW.dW.dW.dW.dX.dM.dV.dV.dV.dV.dV.dY.dW.dW.dW.dM.dN.dW.dN.dM.dV.dV.dV.dV.dV.dZ.dW.dW.dW.dW.dW.dW.dM.dM.dV.dV.dV.dV.dV.dZ.dW.dW.dM.dM.dW.dX.dM.dV.dV.dV.dV.dV.d0.dW.dW.dW.dW.dW.dW.dN.dM",
".d1.d1.d1.d1.d1.d1.d1.d2.d3.d4.d4.d4.d4.d4.d5.d1.d1.d1.d1.d6.d7.d2.d2.d4.d8.d2.d8.d4.d1.d1.d1.d1.d1.d9.d2.d2.d2.d2.d2.d2.d4.d4.d1.d1.d1.d1.d1.e..d2.d2.d8.d4.d2.d3.d4.d5.d1.d1.d1.d1.d6.d7.d2.d2.d2.d2.d2.d8.d4.d1.d1.d1.d1.d1.d9.d2.d2.d3.d4.d3.d2.d4.d5.d1.d1.d1.d1.d1.e..d2.d2.d2.d2.d2.d3.d4.d5.d1.d1.d1.d1.d6.d7.d2.d2.d4.d8.d2.d8.d4.d1.d1.d1.d1.d1.d9.d2.d2.d2.d2.d2.d2.d4.d5.d1.d1.d1.d1.d1.e..d2.d2.d4.d4.d2.d3.d4.d5.d1.d1.d1.d1.d6.d2.d2.d4.d4.d1.d1.d1.d1.d1.e..d2.d2.d8.d4.d2.d3.d4.d5.d1.d1.d1.d1.d6.d7.d2.d2.d2.d2.d2.d8.d4.d1.d1.d1.d1.d1.d9.d2.d2.d3.d4.d3.d2.d4.d5.d1.d1.d1.d1.d1.e..d2.d2.d2.d2.d2.d3.d4.d5.d1.d1.d1.d1.d6.d7.d2.d2.d4.d8.d2.d8.d4.d1.d1.d1.d1.d1.d9.d2.d2.d2.d2.d2.d2.d4.d5.d1.d1.d1.d1.d1.e..d2.d2.d4.d4.d2.d3.d4.d5.d1.d1.d1.d1.d6.d7.d2.d2.d2.d2.d2.d8.d4",
".e#.e#.e#.e#.e#.e#.e#.d1.d1.d1.d1.d1.d1.d6.d1.d1.d1.d1.d9.d6.d1.d1.d4.d4.d5.d1.d1.d1.d1.d1.d1.d1.d1.d1.d1.d1.d4.d4.d5.d1.d1.d1.d1.d1.d1.d9.d9.d1.d1.d5.d4.d4.d1.d1.d1.d1.d1.d1.d1.d1.d1.d1.d1.d4.d4.d5.d1.d1.d1.d1.d1.d1.d6.d9.d1.d1.d1.d4.d4.d5.d1.d1.d1.d1.d1.d1.d1.d1.d1.d1.d5.d4.d4.d1.d1.d1.d1.d1.d1.d1.d9.d6.d1.d1.d4.d4.d5.d1.d1.d1.d1.d1.d1.d1.d1.d1.d1.d5.d4.d4.d5.d1.d1.d1.d1.d1.d1.d9.d9.d1.d1.d5.d4.d4.d1.d1.d1.d1.d1.d1.d1.d1.d1.d5.d1.d1.d1.d1.d1.d1.d9.d9.d1.d1.d5.d4.d4.d1.d1.d1.d1.d1.d1.d1.d1.d1.d1.d1.d4.d4.d5.d1.d1.d1.d1.d1.d1.d6.d9.d1.d1.d1.d4.d4.d5.d1.d1.d1.d1.d1.d1.d1.d1.d1.d1.d5.d4.d4.d1.d1.d1.d1.d1.d1.d1.d9.d6.d1.d1.d4.d4.d5.d1.d1.d1.d1.d1.d1.d1.d1.d1.d1.d5.d4.d4.d5.d1.d1.d1.d1.d1.d1.d9.d9.d1.d1.d5.d4.d4.d1.d1.d1.d1.d1.d1.d1.d1.d1.d1.d1.d4.d4.d5.d1.d1.d1",
".e#.e#.e#.e#.e#.e#.e#.e#.e#.e#.e#.e#.e#.ea.e#.e#.e#.e#.eb.ea.e#.e#.ec.ec.ed.e#.e#.e#.e#.e#.e#.e#.e#.e#.e#.e#.ec.ec.ed.e#.e#.e#.e#.e#.e#.eb.eb.e#.e#.ed.ec.ec.e#.e#.e#.e#.e#.e#.e#.e#.e#.e#.e#.ec.ec.ed.e#.e#.e#.e#.e#.e#.ea.eb.e#.e#.e#.ec.ec.ed.e#.e#.e#.e#.e#.e#.e#.e#.e#.e#.ed.ec.ec.e#.e#.e#.e#.e#.e#.e#.eb.ea.e#.e#.ec.ec.ed.e#.e#.e#.e#.e#.e#.e#.e#.e#.e#.ed.ec.ec.ed.e#.e#.e#.e#.e#.e#.eb.eb.e#.e#.ed.ec.ec.e#.e#.e#.e#.e#.e#.e#.e#.e#.ed.e#.e#.e#.e#.e#.e#.eb.eb.e#.e#.ed.ec.ec.e#.e#.e#.e#.e#.e#.e#.e#.e#.e#.e#.ec.ec.ed.e#.e#.e#.e#.e#.e#.ea.eb.e#.e#.e#.ec.ec.ed.e#.e#.e#.e#.e#.e#.e#.e#.e#.e#.ed.ec.ec.e#.e#.e#.e#.e#.e#.e#.eb.ea.e#.e#.ec.ec.ed.e#.e#.e#.e#.e#.e#.e#.e#.e#.e#.ed.ec.ec.ed.e#.e#.e#.e#.e#.e#.eb.eb.e#.e#.ed.ec.ec.e#.e#.e#.e#.e#.e#.e#.e#.e#.e#.e#.ec.ec.ed.e#.e#.e#",
".ee.ee.ee.ee.ee.ee.ee.e#.e#.e#.e#.e#.ee.ef.e#.e#.e#.e#.ea.ea.e#.e#.eg.ed.e#.e#.ef.ee.ee.ee.ee.ef.e#.e#.e#.e#.eg.e#.e#.e#.e#.e#.e#.ef.ee.ea.ea.e#.e#.eh.ed.e#.ee.ee.ef.e#.e#.e#.e#.e#.e#.e#.e#.eg.eg.eh.e#.ef.ee.ee.ee.ee.ea.ea.e#.e#.e#.eg.e#.e#.e#.e#.e#.e#.ef.ee.e#.e#.e#.e#.eh.e#.e#.ee.ee.ef.e#.e#.e#.e#.ea.ei.e#.e#.eg.ed.e#.e#.ef.ee.ee.ee.ee.e#.e#.e#.e#.e#.eg.e#.e#.e#.e#.e#.e#.ef.ee.ea.ea.e#.e#.eh.ed.e#.ee.ee.e#.e#.e#.e#.e#.e#.ef.e#.e#.e#.e#.e#.ef.ee.ea.ea.e#.e#.eh.ed.e#.ee.ee.ef.e#.e#.e#.e#.e#.e#.e#.e#.eg.eg.eh.e#.ef.ee.ee.ee.ee.ea.ea.e#.e#.e#.eg.e#.e#.e#.e#.e#.e#.ef.ee.e#.e#.e#.e#.eh.e#.e#.ee.ee.ef.e#.e#.e#.e#.ea.ei.e#.e#.eg.ed.e#.e#.ef.ee.ee.ee.ee.e#.e#.e#.e#.e#.eg.e#.e#.e#.e#.e#.e#.ef.ee.ea.ea.e#.e#.eh.ed.e#.ee.ee.e#.e#.e#.e#.e#.e#.ef.e#.e#.eg.eg.eh.e#.ef.ee",
".ej.ej.ek.ek.ek.ek.ek.e#.e#.e#.e#.e#.ej.el.e#.e#.e#.e#.ea.em.el.e#.e#.e#.e#.e#.ef.ek.ek.ek.ek.ef.e#.e#.e#.e#.el.ej.el.e#.e#.e#.e#.el.ej.ea.ea.e#.e#.e#.ef.ek.ek.ek.ef.e#.e#.e#.e#.e#.el.el.e#.e#.e#.e#.e#.ef.ek.ek.ej.ej.em.ea.e#.e#.e#.el.ek.el.e#.e#.e#.e#.ef.ek.e#.e#.e#.e#.e#.el.ej.ek.ek.ef.e#.e#.e#.e#.ea.ei.el.e#.e#.e#.e#.e#.ef.ek.ek.ek.ek.el.e#.e#.e#.e#.el.ej.el.e#.e#.e#.e#.el.ej.ea.ea.e#.e#.e#.ek.ek.ek.ek.el.e#.e#.e#.e#.e#.el.el.e#.e#.e#.e#.el.ej.ea.ea.e#.e#.e#.ef.ek.ek.ek.ef.e#.e#.e#.e#.e#.el.el.e#.e#.e#.e#.e#.ef.ek.ek.ej.ej.em.ea.e#.e#.e#.el.ek.el.e#.e#.e#.e#.ef.ek.e#.e#.e#.e#.e#.el.ej.ek.ek.ef.e#.e#.e#.e#.ea.ei.el.e#.e#.e#.e#.e#.ef.ek.ek.ek.ek.el.e#.e#.e#.e#.el.ej.el.e#.e#.e#.e#.el.ej.ea.ea.e#.e#.e#.ek.ek.ek.ek.el.e#.e#.e#.e#.e#.el.el.e#.e#.e#.e#.e#.ef.ek",
".en.en.eo.eo.eo.eo.eo.ep.ep.ep.ep.ep.en.eq.ep.ep.ep.ep.ep.eq.eq.ep.ep.ep.ep.ep.ej.eo.eo.eo.eo.ej.ep.ep.ep.ep.eq.en.eq.ep.ep.ep.ep.eq.en.ep.ep.ep.ep.ep.ej.eo.eo.eo.ej.ep.ep.ep.ep.ep.eq.eq.ep.ep.ep.ep.ep.ej.eo.eo.en.en.eq.ep.ep.ep.ep.eq.eo.eq.ep.ep.ep.ep.ej.eo.ep.ep.ep.ep.ep.eq.en.eo.eo.ej.ep.ep.ep.ep.ep.ej.eq.ep.ep.ep.ep.ep.ej.eo.eo.eo.eo.eq.ep.ep.ep.ep.eq.en.eq.ep.ep.ep.ep.eq.en.ep.ep.ep.ep.ep.eo.eo.eo.eo.eq.ep.ep.ep.ep.ep.eq.eq.ep.ep.ep.ep.eq.en.ep.ep.ep.ep.ep.ej.eo.eo.eo.ej.ep.ep.ep.ep.ep.eq.eq.ep.ep.ep.ep.ep.ej.eo.eo.en.en.eq.ep.ep.ep.ep.eq.eo.eq.ep.ep.ep.ep.ej.eo.ep.ep.ep.ep.ep.eq.en.eo.eo.ej.ep.ep.ep.ep.ep.ej.eq.ep.ep.ep.ep.ep.ej.eo.eo.eo.eo.eq.ep.ep.ep.ep.eq.en.eq.ep.ep.ep.ep.eq.en.ep.ep.ep.ep.ep.eo.eo.eo.eo.eq.ep.ep.ep.ep.ep.eq.eq.ep.ep.ep.ep.ep.ej.eo",
".en.en.en.en.en.en.en.ep.eq.en.en.en.en.eq.en.eq.en.en.en.en.en.en.ep.en.en.en.en.en.en.en.en.eq.ep.en.en.en.en.en.eq.ep.eo.en.en.en.en.ep.ep.en.en.en.en.en.en.en.en.en.eq.en.en.en.en.en.en.ep.en.en.eo.eo.en.en.en.en.eq.ep.en.en.en.en.en.eq.ep.en.en.en.en.en.ep.ep.en.en.en.en.en.eo.eo.eo.en.eq.en.en.en.en.en.en.ep.en.en.en.en.en.en.en.en.eq.ep.en.en.en.en.en.eq.ep.eo.en.en.en.en.ep.ep.en.en.en.en.en.en.en.en.en.eq.en.en.en.en.eq.ep.eo.en.en.en.en.ep.ep.en.en.en.en.en.en.en.en.en.eq.en.en.en.en.en.en.ep.en.en.eo.eo.en.en.en.en.eq.ep.en.en.en.en.en.eq.ep.en.en.en.en.en.ep.ep.en.en.en.en.en.eo.eo.eo.en.eq.en.en.en.en.en.en.ep.en.en.en.en.en.en.en.en.eq.ep.en.en.en.en.en.eq.ep.eo.en.en.en.en.ep.ep.en.en.en.en.en.en.en.en.en.eq.en.en.en.en.en.en.ep.en.en.eo.eo.en",
".er.er.es.es.es.es.es.et.eu.er.er.er.er.ev.er.ew.er.er.es.es.es.es.et.es.es.er.es.es.es.es.es.eu.et.er.er.er.er.es.eu.et.ex.es.es.er.er.et.et.es.es.es.es.es.er.er.es.es.eu.es.es.es.es.er.er.ey.es.es.es.ex.es.es.er.er.eu.et.es.es.es.es.es.ew.ey.es.es.es.es.es.et.et.er.er.er.es.es.es.es.ex.es.ew.er.er.es.es.es.es.et.es.es.er.es.es.es.es.es.eu.et.er.er.er.er.es.eu.et.ex.es.es.er.er.et.et.es.es.es.es.es.er.er.es.es.eu.es.es.es.er.eu.et.ex.es.es.er.er.et.et.es.es.es.es.es.er.er.es.es.eu.es.es.es.es.er.er.ey.es.es.es.ex.es.es.er.er.eu.et.es.es.es.es.es.ew.ey.es.es.es.es.es.et.et.er.er.er.es.es.es.es.ex.es.ew.er.er.es.es.es.es.et.es.es.er.es.es.es.es.es.eu.et.er.er.er.er.es.eu.et.ex.es.es.er.er.et.et.es.es.es.es.es.er.er.es.es.eu.es.es.es.er.er.er.ey.es.es.es.ex.es",
".ez.ez.eA.eA.ez.ez.ez.es.es.er.er.er.er.er.er.er.er.er.es.es.es.es.es.es.es.er.eA.eA.eA.ez.er.er.es.er.er.er.er.es.es.es.es.es.es.er.er.es.es.es.es.es.eA.eA.ez.ez.eA.es.er.er.er.es.es.er.er.er.es.es.es.eA.eA.eA.ez.er.es.es.es.es.es.es.es.er.er.es.es.es.er.er.es.es.er.er.er.eA.eA.eA.eA.eA.es.er.er.er.es.eA.es.es.es.es.es.er.eA.eA.eA.ez.er.es.es.er.er.er.er.es.es.es.es.es.es.er.er.es.es.es.es.es.eA.eA.ez.ez.es.es.er.er.er.es.ez.es.es.es.es.es.er.er.es.es.es.es.es.eA.eA.ez.ez.eA.es.er.er.er.es.es.er.er.er.es.es.es.eA.eA.eA.ez.er.es.es.es.es.es.es.es.er.er.es.es.es.er.er.es.es.er.er.er.eA.eA.eA.eA.eA.es.er.er.er.es.eA.es.es.es.es.es.er.eA.eA.eA.ez.er.es.es.er.er.er.er.es.es.es.es.es.es.er.er.es.es.es.es.es.eA.eA.ez.ez.es.es.er.er.er.es.ez.er.er.er.es.es.es.eA.eA",
".ez.ez.eA.eA.ez.ez.ez.es.es.er.er.er.er.er.er.er.er.er.es.es.es.es.es.es.es.er.eA.eA.eA.ez.er.er.es.er.er.er.er.es.es.es.es.es.es.er.er.es.es.es.es.es.eA.eA.ez.ez.eA.es.er.er.er.es.es.er.er.er.es.es.es.eA.eA.eA.ez.er.es.es.es.es.es.es.es.er.er.es.es.es.er.er.es.es.er.er.er.eA.eA.eA.eA.eA.es.er.er.er.es.eA.es.es.es.es.es.er.eA.eA.eA.ez.er.es.es.er.er.er.er.es.es.es.es.es.es.er.er.es.es.es.es.es.eA.eA.ez.ez.es.es.er.er.er.es.ez.es.es.es.es.es.er.er.es.es.es.es.es.eA.eA.ez.ez.eA.es.er.er.er.es.es.er.er.er.es.es.es.eA.eA.eA.ez.er.es.es.es.es.es.es.es.er.er.es.es.es.er.er.es.es.er.er.er.eA.eA.eA.eA.eA.es.er.er.er.es.eA.es.es.es.es.es.er.eA.eA.eA.ez.er.es.es.er.er.er.er.es.es.es.es.es.es.er.er.es.es.es.es.es.eA.eA.ez.ez.es.es.er.er.er.es.ez.er.er.er.es.es.es.eA.eA",
".eA.eA.eA.ez.ez.ez.ez.er.er.ez.ez.ez.ez.ez.eB.eC.eB.eB.eB.eB.eB.eB.eC.eB.eB.eB.eD.eD.eD.eD.eB.eB.eB.eB.eB.eB.eB.eB.eB.eB.eB.eB.eB.eB.eB.eB.eB.eB.eB.eB.eD.eD.eD.eD.eD.eB.eC.eB.eB.eB.eB.eB.eB.eC.eB.eB.eB.eD.eD.eD.eD.eB.eB.eB.eB.eB.eB.eB.eB.eB.eB.eB.eB.eB.eB.eB.eB.eB.eB.eB.eB.eD.eD.eD.eD.eD.eB.eC.eB.eB.eB.eD.eB.eB.eC.eB.eB.eB.eD.eD.eD.eD.eB.eB.eB.eB.eB.eB.eB.eB.eB.eB.eB.eB.eB.eB.eB.eB.eB.eB.eB.eB.eD.eD.eD.eD.eB.eB.eC.eB.eB.eB.eD.eB.eB.eB.eB.eB.eB.eB.eB.eB.eB.eB.eB.eD.eD.eD.eD.eD.eB.eC.eB.eB.eB.eB.eB.eB.eC.eB.eB.eB.eD.eD.eD.eD.eB.eB.eB.eB.eB.eB.eB.eB.eB.eB.eB.eB.eB.eB.eB.eB.eB.eB.eB.eB.eD.eD.eD.eD.eD.eB.eC.eB.eB.eB.eD.eB.eB.eC.eB.eB.eB.eD.eD.eD.eD.eB.eB.eB.eB.eB.eB.eB.eB.eB.eB.eB.eB.eB.eB.eB.eB.eB.eB.eB.eB.eD.eD.eD.eD.eB.eB.eC.eB.eB.eB.eD.eB.eB.eC.eB.eB.eB.eD.eD",
".eA.eA.eA.ez.ez.ez.ez.er.er.ez.ez.ez.ez.ez.eD.eC.eD.eD.eD.eD.eD.eD.eC.eD.eD.eD.eD.eD.eD.eD.eD.eD.eD.eD.eD.eD.eD.eD.eD.eD.eD.eD.eD.eD.eD.eD.eD.eD.eD.eD.eD.eD.eD.eD.eD.eD.eC.eD.eD.eD.eD.eD.eD.eC.eD.eD.eD.eD.eD.eD.eD.eD.eD.eD.eD.eD.eD.eD.eD.eD.eD.eD.eD.eD.eD.eD.eD.eD.eD.eD.eD.eD.eD.eD.eD.eD.eD.eC.eD.eD.eD.eD.eD.eD.eC.eD.eD.eD.eD.eD.eD.eD.eD.eD.eD.eD.eD.eD.eD.eD.eD.eD.eD.eD.eD.eD.eD.eD.eD.eD.eD.eD.eD.eD.eD.eD.eD.eD.eC.eD.eD.eD.eD.eD.eD.eD.eD.eD.eD.eD.eD.eD.eD.eD.eD.eD.eD.eD.eD.eD.eD.eC.eD.eD.eD.eD.eD.eD.eC.eD.eD.eD.eD.eD.eD.eD.eD.eD.eD.eD.eD.eD.eD.eD.eD.eD.eD.eD.eD.eD.eD.eD.eD.eD.eD.eD.eD.eD.eD.eD.eD.eD.eC.eD.eD.eD.eD.eD.eD.eC.eD.eD.eD.eD.eD.eD.eD.eD.eD.eD.eD.eD.eD.eD.eD.eD.eD.eD.eD.eD.eD.eD.eD.eD.eD.eD.eD.eD.eD.eD.eD.eD.eD.eC.eD.eD.eD.eD.eD.eD.eC.eD.eD.eD.eD.eD",
".eE.eE.eE.eF.eF.eF.eF.eF.eF.eF.eF.eF.eF.eF.eG.eG.eG.eG.eG.eG.eG.eG.eG.eG.eG.eG.eG.eG.eG.eH.eG.eG.eG.eG.eG.eG.eG.eG.eG.eG.eG.eG.eG.eG.eG.eG.eG.eG.eG.eG.eG.eG.eG.eG.eG.eG.eG.eG.eG.eG.eG.eG.eG.eG.eG.eG.eG.eG.eG.eG.eG.eG.eG.eG.eG.eG.eG.eG.eG.eG.eG.eG.eG.eG.eG.eG.eG.eG.eG.eG.eG.eG.eG.eG.eG.eG.eG.eG.eG.eG.eG.eG.eG.eG.eG.eG.eG.eG.eG.eG.eG.eG.eG.eG.eG.eG.eG.eG.eG.eG.eG.eG.eG.eG.eG.eG.eG.eG.eG.eG.eG.eG.eG.eG.eG.eG.eG.eG.eG.eG.eG.eG.eG.eG.eG.eG.eG.eG.eG.eG.eG.eG.eG.eG.eG.eG.eG.eG.eG.eG.eG.eG.eG.eG.eG.eG.eG.eG.eG.eG.eG.eG.eG.eG.eG.eG.eG.eG.eG.eG.eG.eG.eG.eG.eG.eG.eG.eG.eG.eG.eG.eG.eG.eG.eG.eG.eG.eG.eG.eG.eG.eG.eG.eG.eG.eG.eG.eG.eG.eG.eG.eG.eG.eG.eG.eG.eG.eG.eG.eG.eG.eG.eG.eG.eG.eG.eG.eG.eG.eG.eG.eG.eG.eG.eG.eG.eG.eG.eG.eG.eG.eG.eG.eG.eG.eG.eG.eG.eG.eG.eG.eG.eG.eG.eG.eG",
".eI.eI.eI.eJ.eK.eL.eL.eJ.eJ.eJ.eJ.eJ.eJ.eJ.eJ.eJ.eJ.eJ.eK.eJ.eJ.eJ.eJ.eI.eI.eI.eI.eJ.eJ.eL.eJ.eJ.eJ.eI.eI.eI.eI.eJ.eJ.eK.eJ.eJ.eJ.eJ.eJ.eK.eK.eJ.eJ.eJ.eI.eI.eI.eI.eI.eJ.eK.eJ.eJ.eJ.eJ.eI.eI.eI.eJ.eJ.eK.eJ.eJ.eJ.eJ.eJ.eJ.eK.eJ.eJ.eJ.eJ.eI.eI.eI.eI.eJ.eK.eK.eJ.eJ.eJ.eI.eI.eI.eJ.eJ.eK.eJ.eJ.eJ.eJ.eJ.eJ.eK.eJ.eJ.eJ.eJ.eI.eI.eI.eI.eJ.eJ.eK.eJ.eJ.eJ.eI.eI.eI.eI.eJ.eJ.eK.eJ.eJ.eJ.eJ.eJ.eK.eK.eJ.eJ.eJ.eI.eI.eI.eI.eJ.eJ.eK.eJ.eJ.eJ.eI.eJ.eK.eJ.eJ.eJ.eJ.eJ.eK.eK.eJ.eJ.eJ.eI.eI.eI.eI.eI.eJ.eK.eJ.eJ.eJ.eJ.eI.eI.eI.eJ.eJ.eK.eJ.eJ.eJ.eJ.eJ.eJ.eK.eJ.eJ.eJ.eJ.eI.eI.eI.eI.eJ.eK.eK.eJ.eJ.eJ.eI.eI.eI.eJ.eJ.eK.eJ.eJ.eJ.eJ.eJ.eJ.eK.eJ.eJ.eJ.eJ.eI.eI.eI.eI.eJ.eJ.eK.eJ.eJ.eJ.eI.eI.eI.eI.eJ.eJ.eK.eJ.eJ.eJ.eJ.eJ.eK.eK.eJ.eJ.eJ.eI.eI.eI.eI.eJ.eJ.eK.eJ.eJ.eJ.eI.eI.eI.eI.eJ.eJ.eK.eJ.eJ",
".eJ.eJ.eJ.eJ.eK.eL.eL.eL.eK.eJ.eJ.eJ.eJ.eJ.eJ.eJ.eJ.eJ.eL.eK.eJ.eJ.eJ.eJ.eJ.eJ.eJ.eJ.eJ.eL.eJ.eJ.eJ.eJ.eJ.eJ.eJ.eJ.eK.eL.eJ.eJ.eJ.eJ.eJ.eL.eL.eJ.eJ.eJ.eJ.eJ.eJ.eJ.eJ.eJ.eK.eJ.eJ.eJ.eJ.eJ.eJ.eJ.eJ.eK.eL.eK.eJ.eJ.eJ.eJ.eK.eL.eJ.eJ.eJ.eJ.eJ.eJ.eJ.eJ.eJ.eK.eK.eJ.eJ.eJ.eJ.eJ.eJ.eJ.eJ.eL.eK.eJ.eJ.eJ.eJ.eJ.eL.eK.eJ.eJ.eJ.eJ.eJ.eJ.eJ.eJ.eJ.eK.eJ.eJ.eJ.eJ.eJ.eJ.eJ.eJ.eK.eL.eJ.eJ.eJ.eJ.eJ.eL.eL.eJ.eJ.eJ.eJ.eJ.eJ.eJ.eJ.eJ.eK.eJ.eJ.eJ.eJ.eK.eL.eJ.eJ.eJ.eJ.eJ.eL.eL.eJ.eJ.eJ.eJ.eJ.eJ.eJ.eJ.eJ.eK.eJ.eJ.eJ.eJ.eJ.eJ.eJ.eJ.eK.eL.eK.eJ.eJ.eJ.eJ.eK.eL.eJ.eJ.eJ.eJ.eJ.eJ.eJ.eJ.eJ.eK.eK.eJ.eJ.eJ.eJ.eJ.eJ.eJ.eJ.eL.eK.eJ.eJ.eJ.eJ.eJ.eL.eK.eJ.eJ.eJ.eJ.eJ.eJ.eJ.eJ.eJ.eK.eJ.eJ.eJ.eJ.eJ.eJ.eJ.eJ.eK.eL.eJ.eJ.eJ.eJ.eJ.eL.eL.eJ.eJ.eJ.eJ.eJ.eJ.eJ.eJ.eJ.eK.eJ.eJ.eJ.eJ.eJ.eJ.eJ.eJ.eK.eL.eK.eJ",
".eM.eM.eM.eN.eO.eO.eO.eO.eO.eO.eO.eO.eO.eO.eO.eO.eP.eP.eO.eO.eO.eO.eO.eP.eP.eP.eP.eO.eO.eO.eO.eO.eO.eP.eP.eP.eP.eP.eO.eO.eO.eO.eO.eP.eP.eO.eO.eO.eO.eO.eP.eP.eP.eP.eP.eO.eO.eO.eO.eO.eO.eP.eP.eP.eP.eP.eO.eO.eO.eO.eO.eP.eO.eO.eO.eO.eO.eO.eP.eP.eP.eP.eO.eO.eO.eO.eO.eO.eP.eP.eP.eP.eP.eO.eO.eO.eO.eO.eP.eP.eO.eO.eO.eO.eO.eP.eP.eP.eP.eO.eO.eO.eO.eO.eO.eP.eP.eP.eP.eP.eO.eO.eO.eO.eO.eP.eP.eO.eO.eO.eO.eO.eP.eP.eP.eP.eO.eO.eO.eO.eO.eO.eP.eO.eO.eO.eO.eO.eP.eP.eO.eO.eO.eO.eO.eP.eP.eP.eP.eP.eO.eO.eO.eO.eO.eO.eP.eP.eP.eP.eP.eO.eO.eO.eO.eO.eP.eO.eO.eO.eO.eO.eO.eP.eP.eP.eP.eO.eO.eO.eO.eO.eO.eP.eP.eP.eP.eP.eO.eO.eO.eO.eO.eP.eP.eO.eO.eO.eO.eO.eP.eP.eP.eP.eO.eO.eO.eO.eO.eO.eP.eP.eP.eP.eP.eO.eO.eO.eO.eO.eP.eP.eO.eO.eO.eO.eO.eP.eP.eP.eP.eO.eO.eO.eO.eO.eO.eP.eP.eP.eP.eP.eP.eO.eO.eO",
".eQ.eQ.eQ.eN.eO.eO.eO.eR.eS.eO.eO.eO.eO.eO.eO.eO.eO.eO.eO.eO.eO.eO.eO.eO.eO.eO.eO.eO.eO.eO.eO.eO.eO.eO.eO.eO.eO.eO.eO.eO.eO.eO.eO.eO.eO.eO.eO.eO.eO.eO.eO.eO.eO.eO.eO.eO.eO.eO.eO.eO.eO.eO.eO.eO.eO.eO.eO.eO.eO.eO.eO.eO.eO.eO.eO.eO.eO.eO.eO.eO.eO.eO.eO.eO.eO.eO.eO.eO.eO.eO.eO.eO.eO.eO.eO.eO.eO.eO.eO.eO.eO.eO.eO.eO.eO.eO.eO.eO.eO.eO.eO.eO.eO.eO.eO.eO.eO.eO.eO.eO.eO.eO.eO.eO.eO.eO.eO.eO.eO.eO.eO.eO.eO.eO.eO.eO.eO.eO.eO.eO.eO.eO.eO.eO.eO.eO.eO.eO.eO.eO.eO.eO.eO.eO.eO.eO.eO.eO.eO.eO.eO.eO.eO.eO.eO.eO.eO.eO.eO.eO.eO.eO.eO.eO.eO.eO.eO.eO.eO.eO.eO.eO.eO.eO.eO.eO.eO.eO.eO.eO.eO.eO.eO.eO.eO.eO.eO.eO.eO.eO.eO.eO.eO.eO.eO.eO.eO.eO.eO.eO.eO.eO.eO.eO.eO.eO.eO.eO.eO.eO.eO.eO.eO.eO.eO.eO.eO.eO.eO.eO.eO.eO.eO.eO.eO.eO.eO.eO.eO.eO.eO.eO.eO.eO.eO.eO.eO.eO.eO.eO.eO.eO.eO.eO.eO.eO",
".eT.eT.eT.eU.eV.eV.eV.eW.eX.eU.eU.eU.eU.eU.eU.eU.eU.eU.eU.eU.eU.eU.eU.eU.eU.eU.eU.eU.eU.eU.eU.eU.eU.eU.eU.eU.eU.eU.eU.eU.eU.eU.eU.eU.eU.eU.eU.eU.eU.eU.eU.eU.eU.eU.eU.eU.eU.eU.eU.eU.eU.eU.eU.eU.eU.eU.eU.eU.eU.eU.eU.eU.eU.eU.eU.eU.eU.eU.eU.eU.eU.eU.eU.eU.eU.eU.eU.eU.eU.eU.eU.eU.eU.eU.eU.eU.eU.eU.eU.eU.eU.eU.eU.eU.eU.eU.eU.eU.eU.eU.eU.eU.eU.eU.eU.eU.eU.eU.eU.eU.eU.eU.eU.eU.eU.eU.eU.eU.eU.eU.eU.eU.eU.eU.eU.eU.eU.eU.eU.eU.eU.eU.eU.eU.eU.eU.eU.eU.eU.eU.eU.eU.eU.eU.eU.eU.eU.eU.eU.eU.eU.eU.eU.eU.eU.eU.eU.eU.eU.eU.eU.eU.eU.eU.eU.eU.eU.eU.eU.eU.eU.eU.eU.eU.eU.eU.eU.eU.eU.eU.eU.eU.eU.eU.eU.eU.eU.eU.eU.eU.eU.eU.eU.eU.eU.eU.eU.eU.eU.eU.eU.eU.eU.eU.eU.eU.eU.eU.eU.eU.eU.eU.eU.eU.eU.eU.eU.eU.eU.eU.eU.eU.eU.eU.eU.eU.eU.eU.eU.eU.eU.eU.eU.eU.eU.eU.eU.eU.eU.eU.eU.eU.eU.eU.eU.eU",
".eT.eT.eT.eU.eV.eV.eV.eY.eZ.eT.eT.eT.eT.eT.eT.eT.eT.eT.eT.eT.eT.eT.eT.eT.eT.eT.eT.eT.eT.eT.eT.eT.eT.eT.eT.eT.eT.eT.eT.eT.eT.eT.eT.eT.eT.eT.eT.eT.eT.eT.eT.eT.eT.eT.eT.eT.eT.eT.eT.eT.eT.eT.eT.eT.eT.eT.eZ.eT.eT.eT.eT.eT.eT.eT.eT.eT.eT.eT.eT.eT.eT.eT.eT.eT.eT.eT.eT.eT.eT.eT.eT.eT.eT.eT.eT.eT.eT.eT.eT.eT.eT.eT.eT.eT.eT.eT.eT.eT.eT.eT.eT.eT.eT.eT.eT.eT.eT.eT.eT.eT.eT.eT.eT.eT.eT.eT.eT.eT.eT.eT.eT.eT.eT.eT.eT.eT.eT.eT.eT.eT.eT.eT.eT.eT.eT.eT.eT.eT.eT.eT.eT.eT.eT.eT.eT.eT.eT.eT.eT.eT.eT.eT.eT.eT.eT.eT.eT.eT.eT.eT.eT.eZ.eT.eT.eT.eT.eT.eT.eT.eT.eT.eT.eT.eT.eT.eT.eT.eT.eT.eT.eT.eT.eT.eT.eT.eT.eT.eT.eT.eT.eT.eT.eT.eT.eT.eT.eT.eT.eT.eT.eT.eT.eT.eT.eT.eT.eT.eT.eT.eT.eT.eT.eT.eT.eT.eT.eT.eT.eT.eT.eT.eT.eT.eT.eT.eT.eT.eT.eT.eT.eT.eT.eT.eT.eT.eT.eT.eT.eT.eT.eT.eT.eT.eT.eT.eT",
".e0.e1.e2.e2.e3.e4.e5.e6.e7.e8.e8.e9.e9.e9.f..f..f..f#.fa.fa.fb.e9.fc.fc.fc.fc.fc.fd.fd.fd.e6.e6.e6.e6.fd.fd.fc.fc.fc.fc.e9.e9.e9.fb.fa.fa.fa.fa.fa.fa.fa.fa.fa.fa.fa.fa.fa.fa.fa.fa.fa.fa.fe.f#.ff.fg.fh.fi.fi.fi.fi.fi.fi.fi.fj.fi.fi.fi.fi.fi.fi.fi.fi.fi.fj.e7.e7.e7.fj.fi.fi.fi.fi.fi.fi.fj.fi.fi.fi.fi.fi.fj.fi.fi.fi.fi.fi.fi.fi.fi.fi.fi.e7.e7.e7.e7.fi.fi.fi.fi.fi.fi.e7.fi.fi.fi.fi.fi.fi.fj.fi.fi.fi.fi.fi.fi.fi.fj.fk.fl.fm.fn.fo.fc.fc.e9.e9.e9.fb.fa.fa.fa.fa.fa.fa.fa.fa.fa.fa.fa.fa.fa.fa.fa.fa.fa.fa.fe.f#.ff.fg.fh.fi.fi.fi.fi.fi.fi.fi.fj.fi.fi.fi.fi.fi.fi.fi.fi.fi.fj.e7.e7.e7.fj.fi.fi.fi.fi.fi.fi.fj.fi.fi.fi.fi.fi.fj.fi.fi.fi.fi.fi.fi.fi.fi.fi.fi.e7.e7.e7.e7.fi.fi.fi.fi.fi.fi.e7.fi.fi.fi.fi.fi.fi.fj.fi.fi.fi.fi.fi.fi.fi.fj.fk.fl.fm.fn.fo.fo.fo.fo.fo.fo.fo.fo.fo",
".fp.fq.fq.fr.fr.fs.ft.fu.fu.fu.fu.fv.fv.fv.fw.fw.fw.fw.fw.fw.fw.fv.fs.fx.fx.fx.fs.fs.fs.fs.fs.fs.fs.fs.fs.fs.fx.fx.fx.fx.ft.fv.fv.fy.fy.fy.fy.fy.fy.fy.fy.fy.fy.fy.fy.fy.fy.fy.fy.fy.fy.fy.fz.fw.fA.fB.fC.fC.fD.fD.fD.fD.fD.fD.fE.fD.fD.fD.fD.fD.fD.fD.fD.fD.fE.fE.fE.fE.fE.fD.fD.fD.fD.fD.fD.fE.fD.fD.fD.fD.fD.fE.fD.fD.fD.fD.fD.fD.fD.fD.fD.fD.fE.fE.fE.fE.fD.fD.fD.fD.fD.fD.fE.fD.fD.fD.fD.fD.fD.fE.fD.fD.fD.fD.fD.fD.fD.fD.fE.fF.fG.fG.fH.fx.fx.ft.fv.fv.fy.fy.fy.fy.fy.fy.fy.fy.fy.fy.fy.fy.fy.fy.fy.fy.fy.fy.fy.fz.fw.fA.fB.fC.fC.fD.fD.fD.fD.fD.fD.fE.fD.fD.fD.fD.fD.fD.fD.fD.fD.fE.fE.fE.fE.fE.fD.fD.fD.fD.fD.fD.fE.fD.fD.fD.fD.fD.fE.fD.fD.fD.fD.fD.fD.fD.fD.fD.fD.fE.fE.fE.fE.fD.fD.fD.fD.fD.fD.fE.fD.fD.fD.fD.fD.fD.fE.fD.fD.fD.fD.fD.fD.fD.fD.fE.fF.fG.fG.fH.fH.fH.fH.fH.fH.fH.fH.fH",
".fI.fI.fJ.fJ.fK.fL.fL.fM.fN.fO.fP.fQ.fR.fR.fS.fS.fT.fU.fU.fS.fV.fW.fX.fY.fY.fY.fZ.f0.f0.f0.f1.f1.f1.f1.f0.f0.fY.fY.fY.f2.f3.f4.fW.fV.fS.fS.fS.fS.fS.fS.fS.fS.fS.fS.fS.fS.fS.fS.fS.fS.fS.fS.f5.f6.f7.f8.f9.g..g#.g#.g#.ga.ga.ga.gb.gb.ga.g#.g#.g#.g#.ga.ga.ga.gb.gc.gc.gc.gb.ga.gd.ga.ga.ga.gb.gb.ga.gd.ga.ga.ga.gb.gb.ga.g#.g#.g#.g#.ga.ga.ga.gb.gc.gc.gc.gc.gb.ga.gd.ga.ga.gb.gc.gb.ga.ga.ga.ga.gb.gb.ga.gd.g#.g#.g#.g#.ga.gc.gb.ge.gf.fX.gg.fY.f2.f3.f4.fW.fV.fS.fS.fS.fS.fS.fS.fS.fS.fS.fS.fS.fS.fS.fS.fS.fS.fS.fS.f5.f6.f7.f8.f9.g..g#.g#.g#.ga.ga.ga.gb.gb.ga.g#.g#.g#.g#.ga.ga.ga.gb.gc.gc.gc.gb.ga.gd.ga.ga.ga.gb.gb.ga.gd.ga.ga.ga.gb.gb.ga.g#.g#.g#.g#.ga.ga.ga.gb.gc.gc.gc.gc.gb.ga.gd.ga.ga.gb.gc.gb.ga.ga.ga.ga.gb.gb.ga.gd.g#.g#.g#.g#.ga.gc.gb.ge.gf.fX.gg.gg.gg.gg.gg.gg.gg.gg.gg",
".gh.gi.gj.gj.gk.gl.gl.gl.gm.gm.gn.gn.gn.gn.go.go.gp.gp.gp.gq.gr.gs.gt.gu.gu.gu.gv.gw.gw.gw.gx.gx.gx.gx.gw.gw.gu.gu.gu.gv.gy.gz.gA.gq.gB.gB.gB.gB.gB.gB.gB.gB.gB.gB.gB.gB.gB.gB.gB.gB.gB.gC.gD.gC.gE.gF.gG.gH.gI.gI.gI.gJ.gJ.gJ.gK.gJ.gL.gI.gI.gI.gI.gJ.gJ.gJ.gK.gM.gM.gM.gK.gJ.gL.gL.gJ.gJ.gN.gK.gJ.gL.gJ.gJ.gJ.gK.gN.gJ.gI.gI.gI.gI.gL.gJ.gJ.gN.gM.gM.gM.gM.gJ.gL.gL.gJ.gJ.gJ.gM.gJ.gL.gL.gJ.gJ.gJ.gK.gJ.gL.gI.gI.gI.gI.gL.gM.gO.gE.gP.gQ.gR.gu.gv.gy.gz.gA.gq.gB.gB.gB.gB.gB.gB.gB.gB.gB.gB.gB.gB.gB.gB.gB.gB.gB.gC.gD.gC.gE.gF.gG.gH.gI.gI.gI.gJ.gJ.gJ.gK.gJ.gL.gI.gI.gI.gI.gJ.gJ.gJ.gK.gM.gM.gM.gK.gJ.gL.gL.gJ.gJ.gN.gK.gJ.gL.gJ.gJ.gJ.gK.gN.gJ.gI.gI.gI.gI.gL.gJ.gJ.gN.gM.gM.gM.gM.gJ.gL.gL.gJ.gJ.gJ.gM.gJ.gL.gL.gJ.gJ.gJ.gK.gJ.gL.gI.gI.gI.gI.gL.gM.gO.gE.gP.gQ.gR.gS.gS.gS.gS.gS.gS.gS.gS",
".gT.gU.gV.gV.gV.gV.gV.gV.gW.gX.gX.gX.gX.gX.gY.gY.gY.gY.gY.gZ.g0.g1.g2.g3.g3.g3.g4.g5.g5.g6.g5.g5.g5.g5.g4.g4.g3.g3.g3.g3.g7.g8.g9.h..h#.h#.h#.h#.h#.h#.h#.h#.h#.h#.h#.h#.h#.h#.h#.h#.h#.h#.ha.hb.hc.hd.he.hf.hf.hf.hf.hg.hg.hg.hh.hg.hf.hf.hf.hf.hf.hg.hg.hg.hh.hh.hh.hh.hg.hf.hf.hf.hg.hg.hh.hh.hg.hf.hf.hf.hf.hg.hg.hf.hi.hj.hf.hf.hf.hg.hg.hh.hh.hh.hh.hh.hf.hf.hf.hg.hg.hg.hk.hg.hf.hf.hf.hf.hf.hg.hf.hl.hi.hf.hf.hf.hf.hm.hn.ho.hp.hq.hr.g3.g3.g7.g8.g9.h..h#.h#.h#.h#.h#.h#.h#.h#.h#.h#.h#.h#.h#.h#.h#.h#.h#.h#.ha.hb.hc.hd.he.hf.hf.hf.hf.hg.hg.hg.hh.hg.hf.hf.hf.hf.hf.hg.hg.hg.hh.hh.hh.hh.hg.hf.hf.hf.hg.hg.hh.hh.hg.hf.hf.hf.hf.hg.hg.hf.hi.hj.hf.hf.hf.hg.hg.hh.hh.hh.hh.hh.hf.hf.hf.hg.hg.hg.hk.hg.hf.hf.hf.hf.hf.hg.hf.hl.hi.hf.hf.hf.hf.hm.hn.ho.hp.hq.hr.hs.hs.hs.hs.hs.hs.hs.hs",
".ht.ht.hu.hv.hv.hv.gZ.hw.hx.hy.hz.hr.hr.hr.hv.hA.hA.hA.hA.hA.hB.hC.hD.hE.hE.hE.hE.hF.hF.hG.hE.hE.hE.hE.hE.hE.hE.hE.hE.hH.hI.hJ.hB.hB.hB.hB.hB.hB.hB.hB.hB.hB.hB.hB.hB.hB.hB.hB.hB.hB.hB.hB.hB.hK.hL.hM.hJ.hJ.hJ.hJ.hJ.hJ.hJ.hJ.hJ.hJ.hJ.hJ.hJ.hJ.hJ.hJ.hJ.hJ.hJ.hG.hG.hG.hG.hG.hG.hJ.hJ.hJ.hJ.hJ.hJ.hJ.hG.hG.hG.hG.hG.hG.hG.hJ.hJ.hJ.hJ.hJ.hJ.hJ.hG.hG.hG.hG.hG.hG.hJ.hJ.hJ.hJ.hJ.hJ.hJ.hG.hG.hG.hG.hG.hG.hG.hJ.hJ.hJ.hJ.hJ.hJ.hN.hO.hP.hB.hB.hE.hH.hI.hJ.hB.hB.hB.hB.hB.hB.hB.hB.hB.hB.hB.hB.hB.hB.hB.hB.hB.hB.hB.hB.hB.hK.hL.hM.hJ.hJ.hJ.hJ.hJ.hJ.hJ.hJ.hJ.hJ.hJ.hJ.hJ.hJ.hJ.hJ.hJ.hJ.hJ.hG.hG.hG.hG.hG.hG.hJ.hJ.hJ.hJ.hJ.hJ.hJ.hG.hG.hG.hG.hG.hG.hG.hJ.hJ.hJ.hJ.hJ.hJ.hJ.hG.hG.hG.hG.hG.hG.hJ.hJ.hJ.hJ.hJ.hJ.hJ.hG.hG.hG.hG.hG.hG.hG.hJ.hJ.hJ.hJ.hJ.hJ.hN.hO.hP.hB.hB.hB.hB.hB.hB.hB.hB.hB.hB",
".hQ.hQ.hQ.hv.hR.hv.hS.hT.hv.hS.hT.hr.hr.hr.hv.hR.hA.hA.hA.hA.hB.hB.hU.hV.hV.hV.hV.hV.hV.hV.hU.hU.hU.hU.hU.hU.hB.hV.hV.hW.hP.hV.hV.hB.hB.hB.hB.hB.hB.hB.hB.hB.hB.hB.hB.hB.hB.hB.hB.hB.hB.hB.hB.hB.hP.hB.hV.hV.hV.hV.hV.hV.hV.hV.hV.hU.hV.hV.hV.hV.hV.hV.hV.hV.hB.hU.hU.hU.hU.hU.hU.hX.hV.hV.hV.hV.hV.hV.hU.hU.hU.hU.hU.hU.hU.hV.hV.hV.hV.hV.hV.hX.hU.hU.hU.hU.hU.hU.hB.hV.hV.hV.hV.hV.hV.hB.hU.hU.hU.hU.hU.hU.hV.hV.hV.hV.hV.hV.hY.hZ.hZ.hV.hV.hV.hW.hP.hV.hV.hB.hB.hB.hB.hB.hB.hB.hB.hB.hB.hB.hB.hB.hB.hB.hB.hB.hB.hB.hB.hB.hP.hB.hV.hV.hV.hV.hV.hV.hV.hV.hV.hU.hV.hV.hV.hV.hV.hV.hV.hV.hB.hU.hU.hU.hU.hU.hU.hX.hV.hV.hV.hV.hV.hV.hU.hU.hU.hU.hU.hU.hU.hV.hV.hV.hV.hV.hV.hX.hU.hU.hU.hU.hU.hU.hB.hV.hV.hV.hV.hV.hV.hB.hU.hU.hU.hU.hU.hU.hV.hV.hV.hV.hV.hV.hY.hZ.hZ.hV.hV.hV.hV.hV.hV.hV.hV.hV.hV",
".h0.h1.h2.h3.h4.h5.h6.h7.hy.h8.h8.h9.h9.h9.hK.hR.hA.hA.hA.hR.hv.hv.hv.hK.hK.hK.hK.hK.hK.hK.hv.hv.hv.hv.hv.hv.hv.hK.hK.hv.hv.hv.hv.hv.hv.hv.hv.hv.hv.hv.hv.hv.hv.hv.hv.hv.hv.hv.hv.hv.hv.hv.hv.hv.i..i..i#.i#.i#.i#.i#.i#.i..i..i..ia.i#.i#.ib.i#.i#.i#.i#.i#.ia.ia.ia.ia.ia.ia.ia.i#.i#.i#.i#.i#.i#.i#.ia.ic.ia.ia.ia.ia.ia.i#.i#.i#.i#.i#.i#.i#.ia.ia.ia.ia.ia.ia.ia.i#.i#.i#.i#.i#.i#.ia.ia.ia.ia.ia.ia.ia.i#.i#.i#.i#.i#.i#.id.hZ.hV.hV.hV.hK.hv.hv.hv.hv.hv.hv.hv.hv.hv.hv.hv.hv.hv.hv.hv.hv.hv.hv.hv.hv.hv.hv.hv.hv.hv.i..i..i#.i#.i#.i#.i#.i#.i..i..i..ia.i#.i#.ib.i#.i#.i#.i#.i#.ia.ia.ia.ia.ia.ia.ia.i#.i#.i#.i#.i#.i#.i#.ia.ic.ia.ia.ia.ia.ia.i#.i#.i#.i#.i#.i#.i#.ia.ia.ia.ia.ia.ia.ia.i#.i#.i#.i#.i#.i#.ia.ia.ia.ia.ia.ia.ia.i#.i#.i#.i#.i#.i#.id.hZ.hV.hV.hV.ie.hV.hV.hV.hV.hV.hV.hV",
".h0.if.ig.ih.ii.ij.ik.il.im.in.io.h8.h8.h8.hK.hR.hA.hA.hA.hR.hv.hv.hv.hv.hv.hv.hv.hv.hK.hK.hv.hv.hv.hv.hv.hv.hv.hv.hv.hv.hv.hv.hv.hv.hv.hv.hv.hv.hv.hv.hv.hv.hv.hv.hv.hv.hv.hv.hv.hv.hv.hv.hv.hv.hB.hB.hV.hV.hV.hV.hV.hV.hB.hB.hB.hU.hV.hV.ip.hV.ie.ie.ie.ie.ie.ie.hB.hB.hB.hB.hW.hY.hV.hV.hB.hV.hY.hV.hB.iq.hB.hV.hB.hB.hB.hV.hV.hV.hV.hV.hV.hV.hU.hU.hB.hB.hB.hW.hB.ir.hY.hV.hV.hV.hV.hB.hB.hB.hU.hB.hB.hB.hV.hV.hV.hV.hV.hV.hV.hV.hB.hV.hB.hv.hv.hv.hv.hv.hv.hv.hv.hv.hv.hv.hv.hv.hv.hv.hv.hv.hv.hv.hv.hv.hv.hv.hv.hv.hv.hB.hB.hV.hV.hV.hV.hV.hV.hB.hB.hB.hU.hV.hV.ip.hV.ie.ie.ie.ie.ie.ie.hB.hB.hB.hB.hW.hY.hV.hV.hB.hV.hY.hV.hB.iq.hB.hV.hB.hB.hB.hV.hV.hV.hV.hV.hV.hV.hU.hU.hB.hB.hB.hW.hB.ir.hY.hV.hV.hV.hV.hB.hB.hB.hU.hB.hB.hB.hV.hV.hV.hV.hV.hV.hV.hV.hB.hV.hB.ie.hB.ip.hV.hV.hV.hV.hV",
".h0.is.is.it.iu.iv.iw.ix.iy.iz.h0.h8.g0.g0.hK.hA.hA.iA.iB.iC.iD.hW.hv.hv.hv.hv.hv.hv.hP.ia.iE.iF.hR.hv.hv.hv.hv.hv.hv.hR.iG.iH.hR.hv.hv.hv.hv.hv.hv.hv.hv.hv.hv.hv.hv.hv.hv.hv.hv.hv.hv.hv.hv.hR.hB.hB.hV.hV.hV.hV.hV.hV.hB.hB.hU.iI.iJ.iK.iL.hV.iM.iM.iM.iM.iM.iM.hB.hB.hU.iN.g0.ir.hV.hB.iO.iP.hU.iQ.iR.hB.ip.hV.iS.iF.iT.iU.iI.hX.hV.hB.ie.iV.iW.iF.iX.iq.iY.g0.iZ.ir.ie.hV.hV.hB.hV.i0.i1.i2.i3.iR.i4.i5.iL.iN.hV.iP.i6.hV.ip.hV.hB.iQ.iO.hv.hR.iG.iH.hR.hv.hv.hv.hv.hv.hv.hv.hv.hv.hv.hv.hv.hv.hv.hv.hv.hv.hv.hv.hv.hR.hB.hB.hV.hV.hV.hV.hV.hV.hB.hB.hU.iI.iJ.iK.iL.hV.iM.iM.iM.iM.iM.iM.hB.hB.hU.iN.g0.ir.hV.hB.iO.iP.hU.iQ.iR.hB.ip.hV.iS.iF.iT.iU.iI.hX.hV.hB.ie.iV.iW.iF.iX.iq.iY.g0.iZ.ir.ie.hV.hV.hB.hV.i0.i1.i2.i3.iR.i4.i5.iL.iN.hV.iP.i6.hV.ip.hV.hB.iQ.iO.g0.hB.iQ.iK.iP.hX.iN.iN",
".h0.h0.i7.i7.i7.i7.i8.i9.j..j#.h0.h9.hU.hB.hX.iI.iI.ja.jb.jc.jd.je.hB.hv.hv.hv.hv.hR.jf.jg.jh.ji.jj.hR.hv.hv.hv.hv.iq.jk.jl.jm.jn.jo.hv.hv.hv.hv.hv.hR.hR.hv.hv.hv.hv.hv.hR.hv.hv.hv.hv.hv.hv.hA.hv.hv.hB.hB.hB.hB.hB.iI.hU.hB.iI.jp.jq.iX.iL.hV.hV.hV.hV.hV.hB.hB.hU.hU.iI.jr.js.jt.ju.iI.jv.jw.js.jx.jy.hX.jz.jA.jB.jC.jD.jE.h7.jF.i6.jG.jH.jI.jJ.jK.jL.jM.jN.hP.jO.i6.hP.i..jP.j#.hP.ic.jQ.jR.i1.jS.jT.jU.jx.jM.jA.hB.hP.jV.iM.hB.iZ.jy.jW.iq.jk.jl.jm.jn.jo.hv.hv.hv.hv.hv.hR.hR.hv.hv.hv.hv.hv.hR.hv.hv.hv.hv.hv.hv.hA.hv.hv.hB.hB.hB.hB.hB.iI.hU.hB.iI.jp.jq.iX.iL.hV.hV.hV.hV.hV.hB.hB.hU.hU.iI.jr.js.jt.ju.iI.jv.jw.js.jx.jy.hX.jz.jA.jB.jC.jD.jE.h7.jF.i6.jG.jH.jI.jJ.jK.jL.jM.jN.hP.jO.i6.hP.i..jP.j#.hP.ic.jQ.jR.i1.jS.jT.jU.jx.jM.jA.hB.hP.jV.iM.hB.iZ.jy.jW.h9.iQ.jX.jY.hP.ic.jW.hU",
".jZ.h0.h0.jZ.jZ.jZ.h4.j0.j1.j1.hU.h9.iI.hU.hB.iI.iI.j2.j3.j4.j5.iY.hB.hv.hv.hv.hv.hA.j6.j7.j8.j9.k..hR.hv.hv.hv.hv.k#.ka.kb.kc.kd.jo.hv.hv.hv.hv.hv.hR.hR.hv.hv.hv.hv.hv.hR.hv.hv.hv.hv.hv.hv.hA.hv.hv.hB.hB.hB.hB.hB.iI.hU.hB.i1.ke.kf.kg.hB.iN.iN.iN.iN.iN.iN.iN.hU.hU.iI.hq.kh.ki.kj.i3.jk.kk.kl.km.kn.kg.ko.kp.kq.kr.ks.kt.ku.kv.kw.kx.ky.kz.kA.jk.kB.kC.kD.kE.kF.kG.hV.kH.kI.kJ.kq.kK.kL.kM.iz.kN.kO.kP.kQ.kR.kS.iV.kT.kU.kg.jp.kV.kW.kX.k#.ka.kb.kc.kd.jo.hv.hv.hv.hv.hv.hR.hR.hv.hv.hv.hv.hv.hR.hv.hv.hv.hv.hv.hv.hA.hv.hv.hB.hB.hB.hB.hB.iI.hU.hB.i1.ke.kf.kg.hB.iN.iN.iN.iN.iN.iN.iN.hU.hU.iI.hq.kh.ki.kj.i3.jk.kk.kl.km.kn.kg.ko.kp.kq.kr.ks.kt.ku.kv.kw.kx.ky.kz.kA.jk.kB.kC.kD.kE.kF.kG.hV.kH.kI.kJ.kq.kK.kL.kM.iz.kN.kO.kP.kQ.kR.kS.iV.kT.kU.kg.jp.kV.kW.kX.kY.iZ.kZ.k0.k1.k2.iz.i2",
".ie.ie.ie.ie.iM.iM.k3.iM.ip.hV.k4.k4.iI.jp.hB.hB.hB.iA.k5.kt.iA.k4.hB.hv.hv.hv.hv.hv.k6.jX.k7.k8.hA.hv.hv.hv.hv.hv.hA.k9.l..l#.la.hR.hv.hv.hv.hv.hv.hR.hR.hv.hv.hv.hv.hv.hR.hv.hv.hv.hv.hv.hv.hA.hA.hA.hB.hB.hB.hB.hB.iI.iI.iI.jP.lb.co.lc.h8.hv.hu.hu.hu.hu.hv.hv.hv.hv.hA.gY.ld.le.lf.lg.lh.li.lj.lk.ll.lm.ln.lo.lp.lq.lr.ls.dp.lt.lu.lv.lw.lx.ly.lz.lA.lB.lC.lD.cs.lE.lF.lG.lH.lI.lJ.lK.lL.lM.lN.lO.dp.lP.lQ.kb.lR.lS.lT.lU.lV.lW.lX.lY.lZ.hA.k9.l..l#.la.hR.hv.hv.hv.hv.hv.hR.hR.hv.hv.hv.hv.hv.hR.hv.hv.hv.hv.hv.hv.hA.hA.hA.hB.hB.hB.hB.hB.iI.iI.iI.jP.lb.co.lc.h8.hv.hu.hu.hu.hu.hv.hv.hv.hv.hA.gY.ld.le.lf.lg.lh.li.lj.lk.ll.lm.ln.lo.lp.lq.lr.ls.dp.lt.lu.lv.lw.lx.ly.lz.lA.lB.lC.lD.cs.lE.lF.lG.lH.lI.lJ.lK.lL.lM.lN.lO.dp.lP.lQ.kb.lR.lS.lT.lU.lV.lW.lX.lY.lZ.l0.l1.l2.ca.l3.l4.l5.iN",
".h0.h0.h0.h0.h0.h0.kh.h9.hX.l6.l7.h9.iI.hw.hB.hB.hB.i1.l8.l9.m..hU.hB.hv.hv.hv.hv.hv.hB.iJ.m#.kX.hA.hv.hv.hv.hv.hv.hR.ma.jD.mb.hA.hR.hv.hv.hv.hv.hv.hR.hR.hv.hv.hv.hv.hv.hR.hv.hv.hv.hv.hv.hR.hA.hA.mc.k4.k4.k4.hB.hB.iI.iI.iI.jj.md.me.mf.mg.mh.mi.mj.mk.mk.hA.hA.hR.ml.iO.hq.mm.mn.mo.mp.mq.mr.ms.mt.mu.mv.mw.mx.my.mz.mA.mB.mC.mD.mE.mF.mG.mH.mI.mJ.mK.mL.mM.mN.mO.mP.lF.mQ.mR.mS.mT.mU.mV.mW.mX.mY.mZ.m0.m1.m2.m3.m4.m5.m6.m7.m8.m9.n..n#.hR.ma.jD.mb.hA.hR.hv.hv.hv.hv.hv.hR.hR.hv.hv.hv.hv.hv.hR.hv.hv.hv.hv.hv.hR.hA.hA.mc.k4.k4.k4.hB.hB.iI.iI.iI.jj.md.me.mf.mg.mh.mi.mj.mk.mk.hA.hA.hR.ml.iO.hq.mm.mn.mo.mp.mq.mr.ms.mt.mu.mv.mw.mx.my.mz.mA.mB.mC.mD.mE.mF.mG.mH.mI.mJ.mK.mL.mM.mN.mO.mP.lF.mQ.mR.mS.mT.mU.mV.mW.mX.mY.mZ.m0.m1.m2.m3.m4.m5.m6.m7.m8.m9.n..n#.lS.na.nb.nc.nd.ne.nf.iN",
".iI.iI.iI.iI.ng.hB.ju.iI.nh.ni.nj.k4.nk.nl.hB.hB.hB.hB.hr.hA.ml.hv.hv.hv.hv.hv.hv.hv.hv.hA.hv.hA.hA.hA.hA.nm.iI.lF.lF.lF.iU.i3.i0.mc.hU.hB.jv.ia.ic.kY.jr.ic.ic.jW.ib.nn.no.jK.jK.np.nn.nn.jK.iD.iI.jW.k6.iq.g0.hB.hB.hB.hB.hB.jo.la.nq.jJ.nr.iO.ns.nt.jK.hT.jI.nu.nv.nw.nx.jE.ny.nz.nA.nB.nC.nD.nE.hw.j5.nF.nG.nH.nI.nJ.kT.nK.nL.nM.nN.nO.no.kX.nP.h0.jD.nQ.nR.nE.nS.nT.nU.kM.nV.nW.nX.nY.nZ.n0.n1.n2.n3.n4.n5.n6.n7.n8.n9.o..iF.jx.m..o#.oa.lF.lF.iU.i3.i0.mc.hU.hB.jv.ia.ic.kY.jr.ic.ic.jW.ib.nn.no.jK.jK.np.nn.nn.jK.iD.iI.jW.k6.iq.g0.hB.hB.hB.hB.hB.jo.la.nq.jJ.nr.iO.ns.nt.jK.hT.jI.nu.nv.nw.nx.jE.ny.nz.nA.nB.nC.nD.nE.hw.j5.nF.nG.nH.nI.nJ.kT.nK.nL.nM.nN.nO.no.kX.nP.h0.jD.nQ.nR.nE.nS.nT.nU.kM.nV.nW.nX.nY.nZ.n0.n1.n2.n3.n4.n5.n6.n7.n8.n9.o..iF.jx.m..o#.oa.jW.k4.ob.oc.od.oe.of.iN",
".hB.hB.hU.hU.hB.iN.ng.hP.k6.og.jW.k4.k3.oh.hB.hB.iN.iN.hv.hv.hu.hu.hu.hu.hu.hv.hv.hv.hv.hv.hu.ht.hA.hA.hA.oi.oj.ok.ok.ol.om.om.om.on.oo.op.op.oq.or.os.ot.oq.or.ou.ov.ow.ox.oy.oz.ow.ot.oA.oB.oC.i#.hV.jx.jv.iN.hX.hB.hB.hB.hB.hv.jo.oD.oD.ju.h8.oE.oF.oG.k4.nk.oH.oI.oJ.oK.oL.oM.oN.ib.oO.oP.oQ.oR.ie.hZ.kZ.oS.oT.oU.i..hY.hZ.jV.jV.hZ.hP.hP.jo.jo.ie.hP.jV.jV.hZ.oV.oW.iM.jH.oX.oY.oZ.jQ.j#.o0.o1.o2.o3.o4.o5.o6.iQ.iL.hu.ie.nk.ju.o7.i..iN.ok.ol.om.om.om.on.oo.op.op.oq.or.os.ot.oq.or.ou.ov.ow.ox.oy.oz.ow.ot.oA.oB.oC.i#.hV.jx.jv.iN.hX.hB.hB.hB.hB.hv.jo.oD.oD.ju.h8.oE.oF.oG.k4.nk.oH.oI.oJ.oK.oL.oM.oN.ib.oO.oP.oQ.oR.ie.hZ.kZ.oS.oT.oU.i..hY.hZ.jV.jV.hZ.hP.hP.jo.jo.ie.hP.jV.jV.hZ.oV.oW.iM.jH.oX.oY.oZ.jQ.j#.o0.o1.o2.o3.o4.o5.o6.iQ.iL.hu.ie.nk.ju.o7.i..iN.hU.o8.ie.o9.p..p#.iN.iN",
".hB.hB.hB.o8.k3.iT.pa.pb.pc.o5.hu.pd.pd.k6.ip.ip.ip.ip.hv.hv.hu.hu.hu.hu.hu.hu.hu.hu.hu.hu.hu.iO.iI.pe.pf.pg.ph.pi.pj.pk.pl.pl.pl.pm.pn.po.pp.pq.pp.po.pr.pr.ps.pt.pu.pv.pw.px.px.py.py.pz.pA.pB.jY.o6.pC.pD.pE.pF.pG.pG.oC.oC.hw.hw.hw.hw.pG.pH.pI.pJ.pK.pL.hw.pM.pN.pO.pP.pQ.pR.pS.pT.pU.pV.pW.hA.pX.pY.pZ.p0.p1.nS.p2.kQ.p3.p3.p3.p3.iT.iT.pY.pY.iT.iT.p3.p3.p3.p4.nT.nT.p5.p6.p7.p8.nM.p9.q..q#.qa.qb.qc.qd.qe.qf.qg.qh.qi.qj.qk.ql.jx.qm.pj.pk.pl.pl.pl.pm.pn.po.pp.pq.pp.po.pr.pr.ps.pt.pu.pv.pw.px.px.py.py.pz.pA.pB.jY.o6.pC.pD.pE.pF.pG.pG.oC.oC.hw.hw.hw.hw.pG.pH.pI.pJ.pK.pL.hw.pM.pN.pO.pP.pQ.pR.pS.pT.pU.pV.pW.hA.pX.pY.pZ.p0.p1.nS.p2.kQ.p3.p3.p3.p3.iT.iT.pY.pY.iT.iT.p3.p3.p3.p4.nT.nT.p5.p6.p7.p8.nM.p9.q..q#.qa.qb.qc.qd.qe.qf.qg.qh.qi.qj.qk.ql.jx.qm.jv.iY.ie.qn.qo.qp.qq.iN",
".ir.ir.ir.qr.qs.qt.qu.qv.qw.hR.gW.pd.pd.qx.qy.qy.i6.i6.hK.qz.qz.qz.qz.qz.qz.ip.ip.ip.ip.ip.qz.qA.qB.qC.qB.ng.qD.qE.qF.qF.qF.qG.qG.qG.qH.qI.qJ.qJ.qK.qL.qM.qM.qN.qO.qP.qQ.qR.qS.pz.pz.pz.qT.qU.qV.qW.qX.qY.qZ.qZ.q0.q1.q1.q2.q2.q3.q4.q5.q5.q0.q6.q7.q8.q9.r..q1.r#.ra.rb.r..rc.rd.re.rf.rg.rh.ri.rj.rk.rl.rm.rn.rn.ro.rp.rq.rr.rs.rs.rs.rt.rt.ru.ru.rt.rt.rs.rs.rs.rv.rw.ro.rx.ry.rw.rw.rw.rr.rz.rA.rB.rC.rD.fw.fH.rE.rE.rF.rG.rH.rI.rJ.rK.rL.qF.qF.qF.qG.qG.qG.qH.qI.qJ.qJ.qK.qL.qM.qM.qN.qO.qP.qQ.qR.qS.pz.pz.pz.qT.qU.qV.qW.qX.qY.qZ.qZ.q0.q1.q1.q2.q2.q3.q4.q5.q5.q0.q6.q7.q8.q9.r..q1.r#.ra.rb.r..rc.rd.re.rf.rg.rh.ri.rj.rk.rl.rm.rn.rn.ro.rp.rq.rr.rs.rs.rs.rt.rt.ru.ru.rt.rt.rs.rs.rs.rv.rw.ro.rx.ry.rw.rw.rw.rr.rz.rM.rB.rC.rD.fw.fH.rE.rE.rF.rG.rH.rI.rJ.rK.rL.rN.jM.rO.rP.rQ.rR.rA.rA",
".hS.hS.hS.rS.rT.rU.rV.rW.rX.rY.rZ.hS.rZ.hy.r0.r1.r2.r2.r3.r4.r4.r4.r4.r4.r3.r5.r3.r3.r3.r3.r6.r7.r8.r9.s..n9.mh.qA.s#.s#.s#.sa.sa.sa.o7.hX.hX.nm.sb.sc.sd.je.se.sf.sg.sh.si.sj.sk.sl.sl.sk.sm.sn.pl.pn.so.ro.rw.rn.q5.q1.qU.sp.sl.qV.sq.sr.qX.qX.q2.ss.r..st.su.sv.sw.sx.sy.sz.sA.sB.sC.sD.sE.sF.pw.sG.sH.sI.sJ.sK.sL.sF.sM.sN.sO.sO.sO.sP.sP.sQ.sQ.sP.sP.sO.sO.sO.sR.sS.sT.sU.sV.rA.rA.sW.sX.sY.rA.rA.rA.sZ.s0.s1.cm.cm.cm.cv.cz.cw.s2.s3.s4.s#.s#.s#.sa.sa.sa.o7.hX.hX.nm.sb.sc.sd.je.se.sf.sg.sh.si.sj.sk.sl.sl.sk.sm.sn.pl.pn.so.ro.rw.rn.q5.q1.qU.sp.sl.qV.sq.sr.qX.qX.q2.ss.r..st.su.sv.sw.sx.sy.sz.sA.sB.sC.sD.sE.sF.pw.sG.sH.sI.sJ.sK.sL.sF.sM.sN.sO.sO.sO.sP.sP.sQ.sQ.sP.sP.sO.sO.sO.sR.sS.sT.sU.sV.s5.pu.sW.sX.sY.s6.s7.s8.sZ.s0.s1.cm.cm.cm.cv.cz.cw.s2.s3.s4.s4.s9.t..t#.sT.ta.tb.rA",
".tc.tc.td.nX.te.jd.tf.jd.tg.th.ti.tj.tj.kX.tk.tk.sT.sT.tl.px.px.px.px.px.tm.qT.tm.qS.qS.qS.px.tn.to.tp.tq.tr.ts.nn.nn.nn.tt.tu.tv.tw.tw.p7.oU.tx.ty.tz.tA.tB.tC.tD.tE.tF.tF.tw.tw.tG.tw.tw.ts.tH.tI.tJ.tK.tL.tM.tN.tO.nJ.tP.tQ.tR.tS.tT.tU.tV.tW.tX.tu.nX.tN.tY.tZ.t0.t1.t2.px.t3.t4.pp.pu.t5.t5.s6.t6.t7.t8.t4.t9.u..u#.u#.ua.ua.ua.ub.t4.t4.t4.t4.t4.t4.ua.ua.ua.ua.uc.t4.ud.rA.rA.rA.rA.po.ue.rA.rA.rA.rA.uf.uf.sE.sE.sE.sX.t5.pu.sC.ps.ub.ug.nn.tt.tu.tv.tw.tw.p7.oU.tx.ty.tz.tA.tB.tC.tD.tE.tF.tF.tw.tw.tG.tw.tw.ts.tH.tI.tJ.tK.tL.tM.tN.tO.nJ.tP.tQ.tR.tS.tT.tU.tV.tW.tX.tu.nX.tN.tY.tZ.t0.t1.t2.px.t3.t4.pp.pu.t5.t5.s6.t6.t7.t8.t4.t9.u..u#.u#.ua.ua.ua.ub.t4.t4.t4.t4.t4.t4.ua.ua.ua.ua.uc.t4.ud.ud.uh.ui.uj.po.ue.uk.ul.um.un.uf.uf.sE.sE.sE.sX.t5.pu.sC.ps.ub.sT.pp.pj.t4.sY.rA.uo.rA",
".up.up.up.uq.up.ot.or.ur.us.ut.uu.uv.uv.uw.t8.t8.ux.ux.pw.uy.py.py.py.py.t3.uz.tk.tk.tk.tk.u..uA.uB.uC.uD.uE.uF.ug.ug.up.up.uG.uH.uI.uI.uJ.uK.uL.uM.uN.uO.uP.uP.uQ.uR.uR.uR.uS.uS.uS.uS.uS.us.ug.uT.uU.uw.uV.uV.uW.uW.ot.uX.uY.ut.uR.uZ.u0.ug.u0.uR.uq.up.u1.or.u2.u3.u4.u5.u6.u6.u7.u8.u9.v..v..v#.pv.va.vb.t4.t9.u..u#.u#.ua.ua.ua.ub.t4.t4.t4.t4.t4.t4.ua.ua.ua.ua.uc.t4.vc.rA.rA.rA.rA.vd.t5.ve.sC.pr.ps.ps.ps.t9.t9.t9.u..py.py.ub.vf.ve.ug.up.up.uG.uH.uI.uI.uJ.uK.uL.uM.uN.uO.uP.uP.uQ.uR.uR.uR.uS.uS.uS.uS.uS.us.ug.uT.uU.uw.uV.uV.uW.uW.ot.uX.uY.ut.uR.uZ.u0.ug.u0.uR.uq.up.u1.or.u2.u3.u4.u5.u6.u6.u7.u8.u9.v..v..v#.pv.va.vb.t4.t9.u..u#.u#.ua.ua.ua.ub.t4.t4.t4.t4.t4.t4.ua.ua.ua.ua.uc.t4.vc.vg.vh.vi.vj.vd.t5.ve.sC.pr.ps.ps.ps.t9.t9.t9.u..py.py.ub.vf.ve.vk.vb.vl.vm.ua.vn.vo.sN",
".ub.ub.ub.sT.ux.vp.vp.vp.sS.vq.vq.ux.ux.t#.t4.t4.t4.t4.sS.pq.t4.t4.t4.t4.t4.uj.t4.t4.t4.t4.t4.pi.vr.vs.sK.r#.vt.ub.ub.ub.t9.sT.sY.tk.tk.ub.ub.t3.sT.sY.u6.vu.ue.ue.vp.vp.vp.vp.vp.vp.vp.vp.ub.ub.ps.t4.pq.u6.t8.t8.u6.u6.u6.t4.ub.ub.ub.ub.ub.u..u..py.py.py.ux.vv.vw.vx.t4.vy.vz.vA.vB.vC.vD.vD.vE.vF.vo.ud.t4.ub.u#.u#.u#.u#.u#.u#.u..sT.sT.sT.sT.sT.sT.u#.u#.u#.vG.rA.u..rA.rA.rA.rA.rA.vH.vI.vJ.vJ.vE.vK.vK.vE.vL.vL.vL.vM.vK.vK.vK.vE.vN.ub.ub.t9.sT.sY.tk.tk.ub.ub.t3.sT.sY.u6.vu.ue.ue.vp.vp.vp.vp.vp.vp.vp.vp.ub.ub.ps.t4.pq.u6.t8.t8.u6.u6.u6.t4.ub.ub.ub.ub.ub.u..u..py.py.py.ux.vv.vw.vx.t4.vy.vz.vA.vB.vC.vD.vD.vE.vF.vo.ud.t4.ub.u#.u#.u#.u#.u#.u#.u..sT.sT.sT.sT.sT.sT.u#.u#.u#.vG.rA.u..sF.vO.dr.vP.v..vH.vI.vJ.vJ.vE.vK.vK.vE.vL.vL.vL.vM.vK.vK.vK.vE.vN.vQ.vR.vS.sS.sQ.rA.rA.rA",
".ua.ua.ua.ua.va.sS.sS.sS.uo.uc.vT.vT.ua.vm.sT.sT.sT.sT.ux.sT.sT.t4.t4.t4.t4.uj.t4.t4.t4.t4.ua.vU.sN.va.sS.vV.vW.ub.vm.ua.vT.ua.vm.t4.t4.ue.sL.vX.sT.ua.sS.vY.t5.sS.sS.sS.sS.sS.sS.sS.sS.sS.vZ.ua.v0.v1.ub.t4.uj.t8.t8.t4.t4.t4.va.ua.ua.ua.ua.v2.u#.v2.u#.u#.vf.v3.v4.v5.v6.v7.v8.v9.v9.rH.rG.rG.w..w#.wa.wb.t4.ub.u#.u#.u#.u#.u#.u#.u..sT.sT.sT.u..sT.sT.u#.u#.u#.vG.rA.rA.rA.rA.rA.wc.wd.we.wf.wf.wg.wf.wh.wf.wf.wi.wi.wi.wf.wf.wj.wk.wk.wl.vm.ua.vT.ua.vm.t4.t4.ue.sL.vX.sT.ua.sS.vY.t5.sS.sS.sS.sS.sS.sS.sS.sS.sS.vZ.ua.v0.v1.ub.t4.uj.t8.t8.t4.t4.t4.va.ua.ua.ua.ua.v2.u#.v2.u#.u#.vf.v3.v4.v5.v6.v7.v8.v9.v9.rH.rG.rG.w..w#.wa.wb.t4.ub.u#.u#.u#.u#.u#.u#.u..sT.sT.sT.u..sT.sT.u#.u#.u#.vG.rA.sQ.pw.wm.wn.wc.wd.we.wf.wf.wg.wf.wh.wf.wf.wi.wi.wi.wf.wf.wj.wk.wk.wl.wl.wo.wp.wq.wr.rA.rA.rA",
".ua.ua.ua.sS.sS.sS.t5.uo.ws.wt.uc.ua.ua.ua.qZ.wu.wv.wv.rm.ry.rp.ww.ps.ps.t4.t8.u6.u6.ue.ue.sS.wx.vo.uc.uc.wy.vZ.uM.sL.wz.wA.uo.sC.u6.t4.pp.ue.u#.u#.u#.wB.sQ.sQ.wB.wB.u#.u#.u#.u#.sT.u..u#.sT.wC.wD.wE.vb.vb.vb.sL.wF.sS.sS.sS.sS.sS.vZ.sS.sS.pw.sM.sV.sU.wG.wH.wI.wJ.wK.wL.wM.wN.wO.cJ.wP.wQ.cM.dj.wR.wS.r#.ub.ub.u..v2.v2.u#.u#.u#.pw.pw.sY.sT.wT.uy.pw.sQ.vX.pw.pw.pw.rA.rA.wU.wV.wW.wX.cG.wY.wY.wY.wZ.wZ.wZ.wZ.cG.cG.wY.w..w..w0.w1.w1.w2.sL.wz.wA.uo.sC.u6.t4.pp.ue.u#.u#.u#.wB.sQ.sQ.wB.wB.u#.u#.u#.u#.sT.u..u#.sT.wC.wD.wE.vb.vb.vb.sL.wF.sS.sS.sS.sS.sS.vZ.sS.sS.pw.sM.sV.sU.wG.wH.wI.wJ.wK.wL.wM.wN.wO.cJ.wP.wQ.cM.dj.wR.wS.r#.ub.ub.u..v2.v2.u#.u#.u#.pw.pw.sY.sT.wT.uy.pw.sQ.vX.pw.pw.pw.vG.va.wU.wV.wW.wX.cG.wY.wY.wY.wZ.wZ.wZ.wZ.cG.cG.wY.w..w..w0.w1.w1.w2.w3.w4.w5.w6.t8.rA.rA.u#",
".sS.sS.sS.sS.sS.pu.w7.w7.w8.w9.x..x#.x#.xa.xb.p2.xc.xc.tM.tM.xd.uU.u6.t8.t8.uj.sY.tk.sQ.sP.xe.xf.vn.vn.vn.xg.xh.vX.xi.xj.xk.sS.pp.t4.t4.t4.t4.u#.u#.u#.wB.rA.rA.rA.wB.u#.u..u..u..sT.sT.u..uz.v#.xl.xm.sI.vq.u#.sQ.sP.vn.vn.xf.xf.xf.xf.xe.vn.wT.xn.xo.xp.xp.xq.xr.xs.xt.qR.xu.xv.xw.xx.xx.xy.xy.xz.xA.xB.xC.wB.wB.xD.xE.xE.xE.xE.xE.xF.xF.xG.xG.xH.xE.xF.tl.xG.xG.xG.xG.xG.xG.xI.xJ.xK.xL.xz.xM.xM.xN.xM.xO.xO.xM.xP.xQ.xR.xS.xT.xU.xV.xW.xX.xi.xj.xk.sS.pp.t4.t4.t4.t4.u#.u#.u#.wB.rA.rA.rA.wB.u#.u..u..u..sT.sT.u..uz.v#.xl.xm.sI.vq.u#.sQ.sP.vn.vn.xf.xf.xf.xf.xe.vn.wT.xn.xo.xp.xp.xq.xr.xs.xt.qR.xu.xv.xw.xx.xx.xy.xy.xz.xA.xB.xC.wB.wB.xD.xE.xE.xE.xE.xE.xF.xF.xG.xG.xH.xE.xF.tl.xG.xG.xG.xG.xG.xG.xI.xJ.xK.xL.xz.xM.xM.xN.xM.xO.xO.xM.xP.xQ.xR.xS.xT.xU.xV.xW.xX.xY.xZ.x0.x1.x2.wB.rA.u#",
".sS.sS.sS.sS.sS.pu.x3.x4.x5.x5.x6.x7.ix.x8.rm.x9.x9.y..y#.ya.yb.yc.pp.pp.t4.uM.yd.up.oq.op.op.op.ye.ye.yf.yg.yh.yi.yj.yk.yl.wb.sY.sT.sT.sT.sT.u#.u#.u#.wB.rA.rA.rA.wB.u#.uy.sT.sT.sT.ux.ym.yn.yo.yp.yq.yr.up.up.ug.ug.ug.ot.uS.ys.yt.yt.yu.u0.ot.uS.yv.yv.op.yw.yx.yy.yz.ol.yA.yB.yC.yD.yD.yE.yE.yF.yG.yH.yI.yJ.yx.yx.oA.u0.yK.uS.yL.yL.or.yM.oo.yN.yO.yP.yQ.yR.yS.uN.yT.yT.yU.oA.oA.yu.u0.ot.yV.yV.yV.yV.yW.yV.yV.ot.oA.yX.uJ.yY.u..pq.pq.u..sQ.yk.yl.wb.sY.sT.sT.sT.sT.u#.u#.u#.wB.rA.rA.rA.wB.u#.uy.sT.sT.sT.ux.ym.yn.yo.yp.yq.yr.up.up.ug.ug.ug.ot.uS.ys.yt.yt.yu.u0.ot.uS.yv.yv.op.yw.yx.yy.yz.ol.yA.yB.yC.yD.yD.yE.yE.yF.yG.yH.yI.yJ.yx.yx.oA.u0.yK.uS.yL.yL.or.yM.oo.yN.yO.yP.yQ.yR.yS.uN.yT.yT.yU.oA.oA.yu.u0.ot.yV.yV.yV.yV.yW.yV.yV.ot.oA.yX.uJ.yY.u..pq.pq.u..sT.ue.yZ.ve.y0.y1.rA.u#",
".sS.sS.sS.sS.sS.sS.vV.y2.y3.iu.y4.y5.y6.y7.t4.sT.py.py.py.py.ux.u6.pp.pp.pp.vr.y8.y9.z..z#.z#.z#.za.zb.zc.zd.ze.zf.zg.zh.zi.zj.sT.u..sT.sT.vq.u#.u#.u#.wB.rA.rA.rA.wB.u#.uy.sT.sT.sT.tl.zk.zl.tF.zm.zn.j5.j5.j5.zo.zp.zq.sf.zr.pP.zs.zs.zs.zs.pP.zt.zu.zv.zv.zu.zw.zx.nv.zy.zz.zA.zB.zC.zC.zC.zD.z#.tU.zE.zF.zG.zH.zI.zJ.zK.zL.nO.zM.zC.zN.zO.zP.zQ.zR.zS.zT.zm.zU.zV.zW.zX.zY.zZ.jq.z0.jd.z1.tE.tE.z2.tE.z3.z3.tE.z1.z4.zp.z5.z6.xD.sQ.sQ.wB.sQ.zh.zi.zj.sT.u..sT.sT.vq.u#.u#.u#.wB.rA.rA.rA.wB.u#.uy.sT.sT.sT.tl.zk.zl.tF.zm.zn.j5.j5.j5.zo.zp.zq.sf.zr.pP.zs.zs.zs.zs.pP.zt.zu.zv.zv.zu.zw.zx.nv.zy.zz.zA.zB.zC.zC.zC.zD.z#.tU.zE.zF.zG.zH.zI.zJ.zK.zL.nO.zM.zC.zN.zO.zP.zQ.zR.zS.zT.zm.zU.zV.zW.zX.zY.zZ.jq.z0.jd.z1.tE.tE.z2.tE.z3.z3.tE.z1.z4.zp.z5.z6.xD.sQ.sQ.wB.wB.vq.pw.pq.vZ.y1.rA.u#",
".sS.sS.sS.sS.sS.pq.pq.z7.z8.z9.z9.A..A#.Aa.u..xG.py.sT.sT.sT.t4.u6.ue.ue.ue.Ab.Ac.Ad.Ae.ss.ss.ss.ss.Af.Ag.Ah.Ai.Aj.Ak.Al.Am.An.sU.ub.vb.sT.xk.va.u#.u#.vZ.Ao.vG.u..pp.u..u#.sY.vd.sY.po.Ap.Aq.Ar.As.At.Au.Au.Av.Aw.Ax.Ay.Az.AA.AB.uN.yP.oz.AC.AD.AE.AF.AG.AH.AH.AF.AF.AI.oA.yE.AJ.AK.AL.AM.AN.AO.AG.AP.AQ.AR.AS.AT.yC.AU.AV.AW.AX.AY.AZ.A0.A1.A2.AH.A3.A4.A5.A6.A7.A8.tJ.uY.uY.A8.u5.A9.B..AO.B..B..B#.B..B..B..B..Ba.Ba.Ba.tJ.Bb.u..uy.uy.u..sQ.Al.Am.An.sU.ub.vb.sT.xk.va.u#.u#.vZ.Ao.vG.u..pp.u..u#.sY.vd.sY.po.Ap.Aq.Ar.As.At.Au.Au.Av.Aw.Ax.Ay.Az.AA.AB.uN.yP.oz.AC.AD.AE.AF.AG.AH.AH.AF.AF.AI.oA.yE.AJ.AK.AL.AM.AN.AO.AG.AP.AQ.AR.AS.AT.yC.AU.AV.AW.AX.AY.AZ.A0.A1.A2.AH.A3.A4.A5.A6.A7.A8.tJ.uY.uY.A8.u5.A9.B..AO.B..B..B#.B..B..B..B..Ba.Ba.Ba.tJ.Bb.u..uy.uy.u..vq.sV.sV.ux.ub.wB.wB.u#",
".sS.sS.sS.sS.sS.t4.sT.u#.sC.xk.xk.ve.y0.vZ.xE.tl.tl.tl.tl.px.ue.ux.sT.sT.sT.sT.sT.ub.xG.xG.xG.xG.xG.px.uy.ve.uy.Bc.Bd.Be.Bf.Bg.Bh.Bi.Bj.Bk.vW.Bl.Bm.Bn.Bo.Bp.sK.ue.Bq.Br.u..ve.vQ.Bk.Bs.Bt.vr.Bu.Bv.wU.Bw.Bx.sJ.By.xI.Bz.vd.x2.BA.BB.BC.BD.vO.BE.yl.vk.t#.vX.vX.vq.BF.BG.BH.BI.BJ.BK.r#.sT.BL.BM.BN.vG.v2.v2.xG.xG.sC.BO.BP.BQ.BR.py.xG.BS.bO.BT.BU.BV.BW.BX.pi.t9.t9.sT.qS.tm.BY.BZ.B0.po.u6.B1.B1.B1.B1.B1.B1.B1.xG.xG.xG.xG.pw.u#.u#.u#.u#.sQ.Be.Bf.Bg.Bh.Bi.Bj.Bk.vW.Bl.Bm.Bn.Bo.Bp.sK.ue.Bq.Br.u..ve.vQ.Bk.Bs.Bt.vr.Bu.Bv.wU.Bw.Bx.sJ.By.xI.Bz.vd.x2.BA.BB.BC.BD.vO.BE.yl.vk.t#.vX.vX.vq.BF.BG.BH.BI.BJ.BK.r#.sT.BL.BM.BN.vG.v2.v2.xG.xG.sC.BO.BP.BQ.BR.py.xG.BS.bO.BT.BU.BV.BW.BX.pi.t9.t9.sT.qS.tm.BY.BZ.B0.po.u6.B1.B1.B1.B1.B1.B1.B1.xG.xG.xG.xG.pw.u#.u#.u#.u#.u#.u#.u#.u#.u#.pw.pw.pw",
".sS.sS.sS.sS.sS.t4.sT.py.py.sT.sT.vX.u#.u#.xE.tl.tl.tl.tl.px.vX.sT.sT.sT.sT.sT.t4.vm.u#.u#.u#.u#.pw.vX.vX.sF.B2.B3.cn.B4.B5.B6.B7.B8.B9.C..C#.Ca.Cb.Cc.Cd.Ce.Cf.Cg.Ch.Ci.Cj.Ck.Cl.Cm.Cn.Co.wb.Cp.Cq.Cr.Cs.Ct.Cu.sD.Cv.cr.Cw.Cx.Cy.cf.Cz.CA.do.CB.CC.CD.vl.ue.ue.ue.CE.CF.CG.CH.CI.CJ.CK.uj.CL.CM.CN.vm.ua.ua.u#.Ao.sC.CO.CP.CQ.CR.t9.vo.sQ.CS.CT.CU.u6.CV.wF.CW.ua.vm.t4.t3.sw.CX.CY.CX.CZ.xG.u#.xE.xE.xE.xE.xE.xE.pw.pw.pw.pw.pw.u#.u#.u#.u#.cn.B4.B5.B6.B7.B8.B9.C..C#.Ca.Cb.Cc.Cd.Ce.Cf.Cg.Ch.Ci.Cj.Ck.Cl.Cm.Cn.Co.wb.Cp.Cq.Cr.Cs.Ct.Cu.sD.Cv.cr.Cw.Cx.Cy.cf.Cz.CA.do.CB.CC.CD.vl.ue.ue.ue.CE.CF.CG.CH.CI.CJ.CK.uj.CL.CM.CN.vm.ua.ua.u#.Ao.sC.CO.CP.CQ.CR.t9.vo.sQ.CS.CT.CU.u6.CV.wF.CW.ua.vm.t4.t3.sw.CX.CY.CX.CZ.xG.u#.xE.xE.xE.xE.xE.xE.pw.pw.pw.pw.pw.u#.u#.u#.u#.u#.u#.u#.u#.u#.pw.pw.pw",
".sS.sS.sS.sS.sS.t4.t4.sT.sT.sT.sT.vX.u#.u#.xE.xE.xE.xE.xE.xE.xE.xE.xE.xE.xE.xE.u#.u#.u#.u#.u#.u#.pw.vX.vX.sF.pp.C0.C1.C2.C3.C4.C5.C6.C7.C8.po.C9.D..D#.x5.Da.u9.Db.Dc.Dd.sD.De.Df.Dg.Dh.Di.Dj.Bu.Dk.Dl.Dm.Dn.Do.Dp.Dq.Dr.Ds.tn.Dt.Du.Dv.Dw.Dx.Dy.Dz.DA.uj.vX.vX.vX.vy.DB.DC.DD.DE.CJ.DF.uj.DG.DH.DI.t9.u#.u#.u#.u#.pw.Dp.pt.DJ.sB.ua.uc.uc.Dp.DK.DL.ub.DM.vZ.DN.ua.vm.t4.qS.DO.DP.DQ.DP.DR.t4.t9.u#.u#.u#.u#.pw.pw.pw.pw.pw.pw.pw.u#.u#.u#.u#.C1.C2.C3.C4.C5.C6.C7.C8.po.C9.D..D#.x5.Da.u9.Db.Dc.Dd.sD.De.Df.Dg.Dh.Di.Dj.Bu.Dk.Dl.Dm.Dn.Do.Dp.Dq.Dr.Ds.tn.Dt.Du.Dv.Dw.Dx.Dy.Dz.DA.uj.vX.vX.vX.vy.DB.DC.DD.DE.CJ.DF.uj.DG.DH.DI.t9.u#.u#.u#.u#.pw.Dp.pt.DJ.sB.ua.uc.uc.Dp.DK.DL.ub.DM.vZ.DN.ua.vm.t4.qS.DO.DP.DQ.DP.DR.t4.t9.u#.u#.u#.u#.pw.pw.pw.pw.pw.pw.pw.u#.u#.u#.u#.u#.u#.u#.u#.u#.pw.pw.pw",
".sS.DS.DT.DU.DT.DV.DV.sC.t3.sT.sT.vX.u#.u#.xE.xE.xE.xE.xE.xE.xE.xE.xE.xE.xE.xE.u#.u#.u#.u#.u#.u#.pw.vX.ue.vX.vv.DW.DX.DY.DZ.D0.D1.Bf.D2.vy.xG.D3.D4.vF.D5.D6.sL.vu.D7.D8.pq.D9.E..E#.Ea.Eb.Ec.sR.Ed.Ee.Ef.Eg.sJ.Eh.t5.Ei.sz.qR.Ej.Ek.vk.El.Em.En.Eo.Ep.vX.vX.vp.w7.Eq.Er.Es.Et.Eu.Ev.vd.pq.wF.Ew.Ep.vG.u#.u#.u#.pw.pw.v2.ux.Ex.vs.Bu.uc.Ey.Ez.DL.EA.u..EB.DM.ub.u#.u..t4.t3.Eh.qS.u7.vd.B0.t4.u#.u#.u#.u#.u#.pw.pw.pv.EC.w7.vc.wx.u#.u#.u..u..DX.DY.DZ.D0.D1.Bf.D2.vy.xG.D3.D4.vF.D5.D6.sL.vu.D7.D8.pq.D9.E..E#.Ea.Eb.Ec.sR.Ed.Ee.Ef.Eg.sJ.Eh.t5.Ei.sz.qR.Ej.Ek.vk.El.Em.En.Eo.Ep.vX.vX.vp.w7.Eq.Er.Es.Et.Eu.Ev.vd.pq.wF.Ew.Ep.vG.u#.u#.u#.pw.pw.v2.ux.Ex.vs.Bu.uc.Ey.Ez.DL.EA.u..EB.DM.ub.u#.u..t4.t3.Eh.qS.u7.vd.B0.t4.u#.u#.u#.u#.u#.pw.pw.pv.EC.w7.vc.wx.u#.u#.u..u..u#.u#.u#.u#.u#.pv.sO.pw",
".sS.sS.ED.EE.EE.ED.EF.EG.ui.EH.uy.sT.sT.sT.v2.u#.u#.u#.u#.u#.u#.v2.pw.xq.xE.xE.sM.sQ.sQ.sQ.pw.pw.t9.EI.EJ.EK.EL.EM.Ep.xp.EN.EO.EP.sF.t4.u6.uy.px.vW.sy.u..vv.sC.pu.pu.u..pr.ps.ua.EQ.ER.ES.pq.ET.EU.ri.sM.wB.vG.u6.BY.vd.Dp.Dp.EV.pj.EW.ps.u7.EX.EY.v3.EZ.E0.E1.E2.E3.E4.Bu.ps.pr.E5.E6.wx.vq.E7.vp.sF.pw.pw.pw.pw.va.vT.E8.E9.F..F#.B0.s5.Fa.Fb.D6.wF.sP.Fc.vp.xG.u..BK.t#.tk.qR.Fd.vl.Fe.Ff.pw.u#.u#.u#.u#.u#.sP.oM.Fg.Fh.Fi.Fj.Fk.Fl.tl.vq.Ep.xp.EN.EO.EP.sF.t4.u6.uy.px.vW.sy.u..vv.sC.pu.pu.u..pr.ps.ua.EQ.ER.ES.pq.ET.EU.ri.sM.wB.vG.u6.BY.vd.Dp.Dp.EV.pj.EW.ps.u7.EX.EY.v3.EZ.E0.E1.E2.E3.E4.Bu.ps.pr.E5.E6.wx.vq.E7.vp.sF.pw.pw.pw.pw.va.vT.E8.E9.F..F#.B0.s5.Fa.Fb.D6.wF.sP.Fc.vp.xG.u..BK.t#.tk.qR.Fd.vl.Fe.Ff.pw.u#.u#.u#.u#.u#.sP.oM.Fg.Fh.Fi.Fj.Fk.Fl.tl.vq.sF.pw.Ao.sQ.Fm.Fn.Fo.u8",
".sS.sS.Fp.Fq.Fr.Fs.Ft.Fu.EL.sU.Fv.u..vq.vq.t9.v2.v2.v2.u#.u#.u#.ua.sV.xt.Fw.Fw.Fx.Fy.Fy.Fy.Fz.Bg.sD.FA.FB.FC.Fm.y1.rA.rA.ET.FD.FE.xi.v1.FF.FG.FH.FI.Fv.sU.wx.Fv.Fv.pv.vU.uc.uc.wx.FJ.FK.FL.D7.FM.FN.FO.FP.FQ.FR.FS.FT.FU.Ff.ue.FV.FW.FX.EL.BL.sC.v3.vn.BL.FY.FZ.F0.F1.ve.F2.F3.F4.F5.F6.rA.F7.F8.F9.G..G#.Ga.Ga.Gb.Ef.Gc.Gd.Ge.Gf.Gg.sA.wb.rA.w7.Gh.Gi.Gj.Bg.Gk.vG.py.sT.sT.t3.uj.sY.sT.ue.BK.pw.pw.u#.u#.u#.u#.sR.Gl.Gm.Gn.Go.Gp.Gq.vu.EY.Gr.rA.rA.ET.FD.FE.xi.v1.FF.FG.FH.FI.Fv.sU.wx.Fv.Fv.pv.vU.uc.uc.wx.FJ.FK.FL.D7.FM.FN.FO.FP.FQ.FR.FS.FT.FU.Ff.ue.FV.FW.FX.EL.BL.sC.v3.vn.BL.FY.FZ.F0.F1.ve.F2.F3.F4.F5.F6.rA.F7.F8.F9.G..G#.Ga.Ga.Gb.Ef.Gc.Gd.Ge.Gf.Gg.sA.wb.rA.w7.Gh.Gi.Gj.Bg.Gk.vG.py.sT.sT.t3.uj.sY.sT.ue.BK.pw.pw.u#.u#.u#.u#.sR.Gl.Gm.Gn.Go.Gp.Gq.vu.EY.Gr.DX.Gs.vC.Gt.Gu.Gv.Gw.Cp",
".Gx.sS.sS.Gy.Gz.GA.GB.GC.vd.wy.GD.ET.sR.sR.GE.vU.ua.ua.va.va.va.GF.GG.GH.GI.GJ.a#.GK.a#.a#.GL.GM.GN.GO.GP.sW.uc.y1.uo.vn.GQ.GR.GS.Bh.vU.EJ.ad.GT.GU.GV.sO.GW.Bi.GX.E4.GY.GY.GY.D3.GZ.G0.an.G1.af.a#.GK.aj.an.G1.#7.#7.G2.vD.G3.GJ.G4.G5.G6.G7.xj.y1.G8.vV.G9.H..H#.Ha.Hb.#6.#6.Hc.Hd.He.Hf.Hg.Hh.Hh.Hi.ad.Hi.Hj.Hk.Hl.DT.Hm.Hn.Ho.Hp.t#.pu.rA.Hq.Hr.Hs.Ht.Hu.Hv.sP.Hw.Ao.pq.sB.vf.u7.xF.uy.t3.Ao.Ao.v2.v2.v2.v2.q9.Hx.Hy.Hz.HA.HB.ub.wA.HC.HD.uo.vn.GQ.GR.GS.Bh.vU.EJ.ad.GT.GU.GV.sO.GW.Bi.GX.E4.GY.GY.GY.D3.GZ.G0.an.G1.af.a#.GK.aj.an.G1.#7.#7.G2.vD.G3.GJ.G4.G5.G6.G7.xj.y1.G8.vV.G9.H..H#.Ha.Hb.#6.#6.Hc.Hd.He.Hf.Hg.Hh.Hh.Hi.ad.Hi.Hj.Hk.Hl.DT.Hm.Hn.Ho.Hp.t#.pu.rA.Hq.Hr.Hs.Ht.Hu.Hv.sP.Hw.Ao.pq.sB.vf.u7.xF.uy.t3.Ao.Ao.v2.v2.v2.v2.q9.Hx.Hy.Hz.HA.HB.ub.wA.HC.HD.HE.HF.HF.HG.HH.HI.HJ.HK",
".HL.HM.HN.HO.EX.HP.HQ.HR.HS.HT.HU.HV.HW.HW.HX.HY.HS.HS.HZ.HZ.HZ.H0.H1.H2.Ht.H3.H4.H5.H6.H6.H7.H8.H9.I..I#.Ia.DY.Ib.Ic.Id.Ie.If.Ig.Ih.Ih.Ii.Ij.Ik.Il.Im.In.Hr.Io.HW.Ip.Iq.Ir.Ir.Is.It.Iu.Iv.Iw.Ix.Iy.HF.HF.HF.HF.HF.Iz.IA.IB.IC.Iz.ID.IE.IF.IG.IH.vw.II.IJ.IK.IL.IM.IN.IO.IP.IQ.IR.Iz.IS.IT.IR.IU.IV.IW.IU.IX.IY.a..IZ.I0.Bu.DS.sJ.u9.sL.va.rA.uo.I1.I2.#R.I3.I4.I5.wt.I6.I7.xi.I8.I9.J..uy.sT.ua.ua.ua.ua.ua.ua.sB.J#.Ja.w7.wC.Jb.sT.wB.Jc.Jd.Ic.Id.Ie.If.Ig.Ih.Ih.Ii.Ij.Ik.Il.Im.In.Hr.Io.HW.Ip.Iq.Ir.Ir.Is.It.Iu.Iv.Iw.Ix.Iy.HF.HF.HF.HF.HF.Iz.IA.IB.IC.Iz.ID.IE.IF.IG.IH.vw.II.IJ.IK.IL.IM.IN.IO.IP.IQ.IR.Iz.IS.IT.IR.IU.IV.IW.IU.IX.IY.a..IZ.I0.Bu.DS.sJ.u9.sL.va.rA.uo.I1.I2.#R.I3.I4.I5.wt.I6.I7.xi.I8.I9.J..uy.sT.ua.ua.ua.ua.ua.ua.sB.J#.Ja.w7.wC.Jb.sT.wB.Jc.Jd.Je.Jf.Jf.Jf.IY.Jg.Jh.Ji",
".Jj.Jk.wS.q6.Jl.Jm.Jn.Jo.Jp.Jq.Jr.Js.Jr.Jr.Jt.Ju.Jv.Jw.Jw.Jx.Jy.Jz.JA.JB.Jr.JC.JD.HG.IX.JE.JF.JG.JH.JI.Iw.JJ.JK.JL.ak.JM.JN.JO.HH.JP.IE.IE.JQ.JR.JS.JT.JU.JV.JW.JX.JY.JZ.JZ.J0.J1.J2.J3.Jy.J2.J2.J4.J5.ap.J6.J6.J7.J8.J9.K..K#.Ka.Kb.Kc.Kd.Ke.Kf.Kg.Kh.Il.Iz.Ki.Kj.Kk.Kl.Km.JU.JQ.JP.Kn.Ko.Hk.IX.H3.JG.H6.a#.Kp.Kq.E#.Kr.DT.Ks.Fk.Fe.x3.x3.uo.Fb.Kt.Ku.Ku.Kv.Kw.a#.Kx.Ky.J#.Kz.Jw.KA.KB.uf.sS.Bu.x3.x3.x3.sI.Fm.DT.KC.KD.sK.KE.u8.KF.Ff.sX.sK.ak.JM.JN.JO.HH.JP.IE.IE.JQ.JR.JS.JT.JU.JV.JW.JX.JY.JZ.JZ.J0.J1.J2.J3.Jy.J2.J2.J4.J5.ap.J6.J6.J7.J8.J9.K..K#.Ka.Kb.Kc.Kd.Ke.Kf.Kg.Kh.Il.Iz.Ki.Kj.Kk.Kl.Km.JU.JQ.JP.Kn.Ko.Hk.IX.H3.JG.H6.a#.Kp.Kq.E#.Kr.DT.Ks.Fk.Fe.x3.x3.uo.Fb.Kt.Ku.Ku.Kv.Kw.a#.Kx.Ky.J#.Kz.Jw.KA.KB.uf.sS.Bu.x3.x3.x3.sI.Fm.DT.KC.KD.sK.KE.u8.KF.Ff.sX.sK.KG.FF.KH.KH.ul.KI.KJ.KK",
".Jj.KL.KM.KN.KO.KP.KQ.KR.KS.KR.aC.aC.Ix.Ix.KT.KU.KV.KW.JZ.KX.KY.KZ.K0.K1.K2.K3.K4.K5.K6.K7.K8.K9.#Y.L..L#.cb.La.Lb.JP.Lc.ah.Ld.Le.Lf.Lg.Lh.Li.Lj.Lk.Ll.Lm.Lm.Ln.Lo.Lp.JP.Lq.Lr.Ls.Lt.Lu.Lv.Lw.Lx.Ly.Lz.LA.LA.LA.LB.LB.LC.LD.LE.LF.LG.LF.LH.LI.LJ.LK.aC.JG.LL.LM.LM.Jv.LN.JF.LO.LO.ID.IP.LP.Iu.IX.H3.H3.JG.H4.LQ.LR.LS.EP.LT.LT.LU.LV.LW.LX.LT.LY.LZ.L0.L1.L2.L3.L4.L5.L6.#F.L7.L8.L9.M..M#.EP.Ma.L0.Mb.Mc.Md.Me.L1.Mf.Mg.Mh.Mh.L0.Mi.M#.Mj.Me.JP.Lc.ah.Ld.Le.Lf.Lg.Lh.Li.Lj.Lk.Ll.Lm.Lm.Ln.Lo.Lp.JP.Lq.Lr.Ls.Lt.Lu.Lv.Lw.Lx.Ly.Lz.LA.LA.LA.LB.LB.LC.LD.LE.LF.LG.LF.LH.LI.LJ.LK.aC.JG.LL.LM.LM.Jv.LN.JF.LO.LO.ID.IP.LP.Iu.IX.H3.H3.JG.H4.LQ.LR.LS.EP.LT.LT.LU.LV.LW.LX.LT.LY.LZ.L0.L1.L2.L3.L4.L5.L6.#F.L7.L8.L9.M..M#.EP.Ma.L0.Mb.Mc.Md.Me.L1.Mf.Mg.Mh.Mh.L0.Mi.M#.Mj.Me.Mk.Ml.Mm.Me.Mn.Mo.Mp.Mq",
".ID.J0.Hk.Kn.Jr.Iu.JP.Mr.JQ.Ms.IF.IF.IF.IF.Mt.Mu.L6.J0.L9.Mv.Mw.Mx.My.Mz.MA.MB.lH.MC.MD.Ls.ME.MF.LP.MG.MH.c9.bG.KS.Jp.MI.LP.Ld.MJ.MK.ML.MM.MN.MO.MP.MQ.MQ.MR.MS.MT.MU.MV.JQ.JZ.MW.MX.MY.MR.MS.MZ.MR.MQ.MO.M0.M0.M0.MR.MZ.MZ.M0.M0.MP.M1.M1.M2.M3.M4.M5.M6.M7.aF.M7.M8.Lr.M9.N..N#.ID.IP.LP.Iu.IX.H3.JG.H3.Hk.Ko.Jq.MI.Na.Nb.Nc.Nb.J1.Nd.Ko.Ne.Ne.KS.Nf.Ng.Kn.Kn.IP.IW.JG.aB.MH.Nh.Ni.Nj.Nk.aS.Nl.Nm.JZ.KA.Jw.Nn.No.No.Np.J0.J0.Nb.J0.Nq.Nr.Np.Jp.MI.LP.Ld.MJ.MK.ML.MM.MN.MO.MP.MQ.MQ.MR.MS.MT.MU.MV.JQ.JZ.MW.MX.MY.MR.MS.MZ.MR.MQ.MO.M0.M0.M0.MR.MZ.MZ.M0.M0.MP.M1.M1.M2.M3.M4.M5.M6.M7.aF.M7.M8.Lr.M9.N..N#.ID.IP.LP.Iu.IX.H3.JG.H3.Hk.Ko.Jq.MI.Na.Nb.Nc.Nb.J1.Nd.Ko.Ne.Ne.KS.Nf.Ng.Kn.Kn.IP.IW.JG.aB.MH.Nh.Ni.Nj.Nk.aS.Nl.Nm.JZ.KA.Jw.Nn.No.No.Np.J0.J0.Nb.J0.Nq.Nr.Np.No.Jw.Jw.No.Jq.Jp.Ns.Nt",
".Jj.Nu.Nv.Nw.Nx.vw.Ny.Nz.NA.NB.NC.NC.NC.NC.ND.NE.NF.rb.NG.NH.NI.NJ.NK.NK.NL.NM.NN.NO.CD.NB.Hr.NP.Bv.NQ.NA.NR.NS.NT.Jo.NU.NV.aC.MH.NW.NX.NY.NZ.MO.MP.MR.MQ.N0.N1.N2.N3.N4.N5.N6.N7.N8.Lh.N9.O..O#.Oa.Ob.Oc.Od.Oe.Of.Og.Oh.Oi.Oj.Oj.Ok.Ol.Om.On.Oo.Op.Oq.Or.Os.Ot.Ou.Ov.Ow.Ox.Oy.Oz.OA.IP.IX.LP.LP.Nq.J0.J1.JU.OB.JW.JY.JY.OC.J0.J0.KS.OD.Ik.ID.ID.ID.ID.ID.HF.HF.LP.Iw.KR.OE.OF.OG.OH.OI.OJ.OK.dy.dg.OL.IV.Jr.JG.JG.IX.Iu.LP.OD.LP.J0.Nq.LP.Hk.Jo.NU.NV.aC.MH.NW.NX.NY.NZ.MO.MP.MR.MQ.N0.N1.N2.N3.N4.N5.N6.N7.N8.Lh.N9.O..O#.Oa.Ob.Oc.Od.Oe.Of.Og.Oh.Oi.Oj.Oj.Ok.Ol.Om.On.Oo.Op.Oq.Or.Os.Ot.Ou.Ov.Ow.Ox.Oy.Oz.OA.IP.IX.LP.LP.Nq.J0.J1.JU.OB.JW.JY.JY.OC.J0.J0.KS.OD.Ik.ID.ID.ID.ID.ID.HF.HF.LP.Iw.KR.OE.OF.OG.OH.OI.OJ.OK.dy.dg.OL.IV.Jr.JG.JG.IX.Iu.LP.OD.LP.J0.Nq.LP.Hk.OM.IX.IX.LN.KS.ID.Ik.ON",
".OO.OP.Ko.a..OQ.OR.OS.OT.OU.xA.GP.GP.CD.CD.OV.OW.OX.OY.OZ.O0.O1.O2.O3.O4.O5.O6.O7.O8.O9.P..P#.Pa.Pb.O0.Pc.Pd.Pe.Pf.Pg.Ph.NV.NV.Pi.Pj.Pk.Pl.Pm.Pn.Pn.Po.Pp.Pq.Pr.Ps.Pt.Pu.Pv.Pw.Px.Pt.Py.Pz.PA.PB.ax.PC.PD.PE.PF.PG.Pi.PH.J8.KS.ID.PI.JT.J3.IP.PJ.Ms.PK.PL.PM.PN.B9.PO.K3.PP.PQ.PR.J8.Ik.IX.LP.LP.Nq.Nq.J0.KS.Ik.ID.J1.J0.PS.PS.Iw.Il.Iz.Iu.LP.KS.ID.LP.LP.HF.HF.LP.Iw.JZ.PT.PU.PV.cS.PW.OJ.PX.PY.PZ.P0.P1.JG.JG.JG.IX.IR.LP.LP.LP.Nq.Nq.LP.Iu.Pg.Ph.NV.NV.Pi.Pj.Pk.Pl.Pm.Pn.Pn.Po.Pp.Pq.Pr.Ps.Pt.Pu.Pv.Pw.Px.Pt.Py.Pz.PA.PB.ax.PC.PD.PE.PF.PG.Pi.PH.J8.KS.ID.PI.JT.J3.IP.PJ.Ms.PK.PL.PM.PN.B9.PO.K3.PP.PQ.PR.J8.Ik.IX.LP.LP.Nq.Nq.J0.KS.Ik.ID.J1.J0.PS.PS.Iw.Il.Iz.Iu.LP.KS.ID.LP.LP.HF.HF.LP.Iw.JZ.PT.PU.PV.cS.PW.OJ.PX.PY.PZ.P0.P1.JG.JG.JG.IX.IR.LP.LP.LP.Nq.Nq.LP.Iu.IX.IX.IX.LP.Il.P2.P3.P4",
".P1.P1.P5.Ju.Iz.Il.JO.P6.IR.Iz.Iz.Iz.Iz.Iz.JZ.P7.HE.P8.aw.P9.Il.JO.P9.P9.Iy.Il.Iw.Iw.Iz.Q..Q#.Qa.Qb.bE.Qc.Qd.Qe.Qf.ME.Qg.P5.Qh.JF.MH.Qi.JQ.MH.PI.K3.Qj.Qk.Ls.Ql.Qm.Qn.Qo.Pj.JQ.Qp.Qq.Qr.Qs.Qt.K7.Qu.PD.Qv.Qw.PA.Qx.Qu.Qy.JD.JD.JT.JW.Qz.QA.IQ.MA.KS.aA.QB.QC.QD.Nk.QE.M8.QF.QG.Ms.JP.ID.IX.LP.Iz.PS.Nq.Nq.Js.IR.QH.QI.QI.QJ.QK.aB.H6.IR.H6.H6.H3.J0.PS.Js.QL.QL.IR.LP.Nq.QM.QN.QO.QP.QQ.QR.QR.QS.QT.KW.H6.Jr.QL.QU.QV.LN.Iz.Iz.LP.Nq.Nq.LP.LP.ME.Qg.P5.Qh.JF.MH.Qi.JQ.MH.PI.K3.Qj.Qk.Ls.Ql.Qm.Qn.Qo.Pj.JQ.Qp.Qq.Qr.Qs.Qt.K7.Qu.PD.Qv.Qw.PA.Qx.Qu.Qy.JD.JD.JT.JW.Qz.QA.IQ.MA.KS.aA.QB.QC.QD.Nk.QE.M8.QF.QG.Ms.JP.ID.IX.LP.Iz.PS.Nq.Nq.Js.IR.QH.QI.QI.QJ.QK.aB.H6.IR.H6.H6.H3.J0.PS.Js.QL.QL.IR.LP.Nq.QM.QN.QO.QP.QQ.QR.QR.QS.QT.KW.H6.Jr.QL.QU.QV.LN.Iz.Iz.LP.Nq.Nq.LP.LP.Iu.Iu.Iu.LP.IR.QW.QX.QY",
".P1.P1.HH.Iu.ID.LP.LP.JG.Js.Nq.Nq.J1.J1.J1.QZ.Q0.Py.Q1.Lw.Q2.Q3.Iw.Iz.Nq.Nq.Nq.Nb.QJ.aB.Q4.Q5.Mv.MV.Q6.lU.Q7.Q8.Q9.R..Oo.K6.R#.Ra.PI.NV.PS.Iw.Hs.Ix.Rb.Rc.JW.Rd.Re.Rf.LP.OD.JZ.LN.JF.KS.Jx.Rg.Nh.Rh.Ri.Rj.Rk.Rl.Rm.LE.NZ.LB.Rn.Ro.Rp.ID.Jj.Jj.JE.LP.NV.JZ.LP.Nq.Nq.J1.J1.J1.Rq.ID.ID.ID.IX.Iu.Iz.J0.Nq.Nq.PS.QH.JO.Q9.Rr.Rs.KQ.J1.H8.KA.Rt.JG.Js.Jr.Nq.LN.Ru.Rv.Ik.KR.Nq.Nq.Nq.J0.OC.Lq.JU.ID.JD.JQ.aC.PS.LM.Rw.Rx.Ry.JC.Iz.P9.LP.Nq.Nq.LP.LP.R..Oo.K6.R#.Ra.PI.NV.PS.Iw.Hs.Ix.Rb.Rc.JW.Rd.Re.Rf.LP.OD.JZ.LN.JF.KS.Jx.Rg.Nh.Rh.Ri.Rj.Rk.Rl.Rm.LE.NZ.LB.Rn.Ro.Rp.ID.Jj.Jj.JE.LP.NV.JZ.LP.Nq.Nq.J1.J1.J1.Rq.ID.ID.ID.IX.Iu.Iz.J0.Nq.Nq.PS.QH.JO.Q9.Rr.Rs.KQ.J1.H8.KA.Rt.JG.Js.Jr.Nq.LN.Ru.Rv.Ik.KR.Nq.Nq.Nq.J0.OC.Lq.JU.ID.JD.JQ.aC.PS.LM.Rw.Rx.Ry.JC.Iz.P9.LP.Nq.Nq.LP.LP.LP.LP.LP.LP.IR.QW.Rz.RA",
".P1.P1.PC.LP.ID.LP.LP.H3.Iw.Nq.Nq.J1.J1.J1.RB.RC.M0.RD.RE.RF.Jn.Iz.Iz.Nq.Nq.Nq.J0.J1.KR.P5.Qu.JP.J1.IE.RG.aJ.RH.RI.RJ.Q8.RK.RL.RM.RN.aG.PS.H3.IU.RO.zh.RP.RQ.Oi.RR.RS.Nu.QK.Nk.Nd.OC.ND.RT.RU.RV.RW.RX.KK.Gm.RY.RZ.R0.R1.R1.R2.RE.Fq.MV.ID.ID.Mr.aC.NV.PS.LP.Nq.Nq.J1.J1.J1.J1.ID.ID.ID.Iu.KS.Pr.OA.Nq.Nq.NV.R3.Pj.R4.R5.R6.R7.R8.R9.S..S#.Sa.Sb.Jr.Jx.Sc.Sd.Se.Sf.Sg.JZ.PS.PS.PS.J0.KR.OA.OA.Sh.Mr.aC.Si.Ht.Oo.Sj.Sk.RJ.Ju.QH.aC.Nq.Nq.LP.LP.RJ.Q8.RK.RL.RM.RN.aG.PS.H3.IU.RO.zh.RP.RQ.Oi.RR.RS.Nu.QK.Nk.Nd.OC.ND.RT.RU.RV.RW.RX.KK.Gm.RY.RZ.R0.R1.R1.R2.RE.Fq.MV.ID.ID.Mr.aC.NV.PS.LP.Nq.Nq.J1.J1.J1.J1.ID.ID.ID.Iu.KS.Pr.OA.Nq.Nq.NV.R3.Pj.R4.R5.R6.R7.R8.R9.S..S#.Sa.Sb.Jr.Jx.Sc.Sd.Se.Sf.Sg.JZ.PS.PS.PS.J0.KR.OA.OA.Sh.Mr.aC.Si.Ht.Oo.Sj.Sk.RJ.Ju.QH.aC.Nq.Nq.LP.LP.LP.LP.LP.LP.Iz.HH.Qa.Sl",
".P1.aB.Sm.aB.Mr.LP.LP.LP.Iz.LP.LP.ID.ID.ID.Sn.So.Sp.Sq.Sr.Ss.OD.Iz.Iz.LP.LP.Nq.KS.ID.Ik.GH.St.KV.LP.JO.JO.PC.IQ.Su.Sv.Sw.Sx.Sy.Sz.Ob.SA.PS.Hk.SB.SC.Rj.SD.SE.SF.SG.SH.SI.SJ.SK.SL.SM.SN.SO.SP.SQ.SR.SS.ST.SU.SV.SW.SX.SY.SZ.S0.S1.S2.K#.J8.JQ.ay.Pi.M6.NV.Js.Nq.Nq.KR.KR.MH.MH.J1.J1.J0.Iw.S3.S4.bt.HH.Nq.NV.S5.S6.S7.S8.S9.T..T#.Ta.Tb.PE.Tc.Td.Te.Tf.Tg.Th.Ti.Tj.Tk.Pi.Si.Si.Si.M6.M6.QK.QK.aC.aC.NV.Tl.Ix.Tm.Tn.bl.JE.Iu.aC.aC.Nq.Nq.LP.LP.Sv.Sw.Sx.Sy.Sz.Ob.SA.PS.Hk.SB.SC.Rj.SD.SE.SF.SG.SH.SI.SJ.SK.SL.SM.SN.SO.SP.SQ.SR.SS.ST.SU.SV.SW.SX.SY.SZ.S0.S1.S2.K#.J8.JQ.ay.Pi.M6.NV.Js.Nq.Nq.KR.KR.MH.MH.J1.J1.J0.Iw.S3.S4.bt.HH.Nq.NV.S5.S6.S7.S8.S9.T..T#.Ta.Tb.PE.Tc.Td.Te.Tf.Tg.Th.Ti.Tj.Tk.Pi.Si.Si.Si.M6.M6.QK.QK.aC.aC.NV.Tl.Ix.Tm.Tn.bl.JE.Iu.aC.aC.Nq.Nq.LP.LP.LP.LP.LP.aC.aC.OD.To.Tp",
".Js.Tq.R3.aC.Mr.LP.LP.LP.Iz.LP.LP.ID.ID.ID.KQ.JW.JY.JW.JV.Jj.LN.Iu.IR.IR.IR.Js.Kn.L9.Tr.IQ.Sw.OB.KS.au.Ts.Ow.JQ.Km.Tt.Tu.Ik.J2.Sh.Hk.Js.PS.KS.Tv.Tw.Tx.Ty.MP.Tz.MP.TA.TB.TC.TD.TE.TF.TG.TH.TI.TJ.TK.TL.TM.TN.TO.TP.TQ.SZ.Tz.TR.TS.aN.TT.TU.TV.TT.Qn.aX.NW.TW.TX.TY.TZ.Oc.T0.Qi.JY.Qr.T1.Nr.T2.T3.T4.Jx.T5.MH.T6.T7.T8.T9.U..U..U#.Ua.Ub.Uc.Ud.Ue.Uf.Ug.Uh.Ui.M1.Uj.Uk.Rd.Ul.Um.Um.Un.Uo.Uo.Uo.Ob.MH.NV.Js.Up.Nf.Uq.K6.Nf.LP.LP.ID.Rq.Ng.Kn.LP.Tt.Tu.Ik.J2.Sh.Hk.Js.PS.KS.Tv.Tw.Tx.Ty.MP.Tz.MP.TA.TB.TC.TD.TE.TF.TG.TH.TI.TJ.TK.TL.TM.TN.TO.TP.TQ.SZ.Tz.TR.TS.aN.TT.TU.TV.TT.Qn.aX.NW.TW.TX.TY.TZ.Oc.T0.Qi.JY.Qr.T1.Nr.T2.T3.T4.Jx.T5.MH.T6.T7.T8.T9.U..U..U#.Ua.Ub.Uc.Ud.Ue.Uf.Ug.Uh.Ui.M1.Uj.Uk.Rd.Ul.Um.Um.Un.Uo.Uo.Uo.Ob.MH.NV.Js.Up.Nf.Uq.K6.Nf.LP.LP.ID.Rq.Ng.Kn.LP.LP.LP.LP.aC.aC.LP.Iz.Ur",
".Iz.aC.aC.LP.LP.LP.LP.LP.LP.LP.LP.LP.LP.LP.OA.K7.Us.Ut.Uu.Uu.Uu.Uv.Uw.Uw.Uw.Qm.Uv.Ux.Uy.RK.Uz.UA.UB.UC.UD.UE.UF.UG.UH.UI.as.ap.UJ.Q8.IP.PS.MH.UK.Ls.UL.UM.MO.M1.MR.RC.UN.UO.UP.UQ.UR.US.UT.UU.O..UV.M1.MQ.MQ.UW.M1.M0.M1.M0.RD.M0.UX.UY.UZ.U0.MZ.MZ.U1.U2.U3.U4.U5.U1.UZ.U6.U7.U8.U9.V..V#.a4.Va.Vb.Vc.Vd.Ve.Vf.Vg.Vh.ML.Vi.MK.Vj.Vk.Vl.TI.Vm.Vn.Ty.Vo.Vp.Vq.MP.MR.MM.Vr.Vs.MZ.MZ.Vs.Vt.Vt.Vs.Vu.Ss.P9.LN.Ng.JC.Ld.Ld.Nf.LP.OD.Ik.Vv.Vw.Jw.Js.UH.UI.as.ap.UJ.Q8.IP.PS.MH.UK.Ls.UL.UM.MO.M1.MR.RC.UN.UO.UP.UQ.UR.US.UT.UU.O..UV.M1.MQ.MQ.UW.M1.M0.M1.M0.RD.M0.UX.UY.UZ.U0.MZ.MZ.U1.U2.U3.U4.U5.U1.UZ.U6.U7.U8.U9.V..V#.a4.Va.Vb.Vc.Vd.Ve.Vf.Vg.Vh.ML.Vi.MK.Vj.Vk.Vl.TI.Vm.Vn.Ty.Vo.Vp.Vq.MP.MR.MM.Vr.Vs.MZ.MZ.Vs.Vt.Vt.Vs.Vu.Ss.P9.LN.Ng.JC.Ld.Ld.Nf.LP.OD.Ik.Vv.Vw.Jw.Js.Nq.Nq.Nq.Nq.Nq.Nq.LN.QK",
".LP.LP.LP.LP.LP.LP.LP.LP.LP.LP.LP.LP.LP.LP.Vx.Vy.Vz.VA.VB.VC.VC.VD.VE.VE.VF.VG.VH.VC.VC.Vz.VI.VJ.VK.VL.VM.VN.VO.VP.J4.as.as.ap.UJ.QV.IP.LN.J1.Lq.KR.Qk.VQ.MR.VR.VR.VS.VT.VU.TE.VV.VW.VX.VY.VZ.V0.V1.V2.V3.V4.V5.V6.V6.V7.V8.V8.SF.V9.MQ.MO.MO.MO.MO.MP.MP.W..R0.W#.Wa.R2.Wb.JQ.Qk.Wc.Ok.Wd.We.Wf.Wg.Wh.Wi.Wj.Wk.MP.Wl.Wm.Wn.V0.Lh.Wo.Vd.UV.Wp.Wq.Wp.R0.Wp.Wp.Wq.R2.Wr.Ws.Wr.Wt.MR.VR.Wu.RE.RE.Wv.Ww.P9.PS.Ko.Ik.Ld.Ld.J2.aC.aA.aC.Iw.PS.Js.Jr.J4.as.as.ap.UJ.QV.IP.LN.J1.Lq.KR.Qk.VQ.MR.VR.VR.VS.VT.VU.TE.VV.VW.VX.VY.VZ.V0.V1.V2.V3.V4.V5.V6.V6.V7.V8.V8.SF.V9.MQ.MO.MO.MO.MO.MP.MP.W..R0.W#.Wa.R2.Wb.JQ.Qk.Wc.Ok.Wd.We.Wf.Wg.Wh.Wi.Wj.Wk.MP.Wl.Wm.Wn.V0.Lh.Wo.Vd.UV.Wp.Wq.Wp.R0.Wp.Wp.Wq.R2.Wr.Ws.Wr.Wt.MR.VR.Wu.RE.RE.Wv.Ww.P9.PS.Ko.Ik.Ld.Ld.J2.aC.aA.aC.Iw.PS.Js.Jr.Nq.Nq.Nq.Nq.Nq.J0.J1.J1",
".LP.LP.LP.LP.LP.LP.LP.LP.LP.LP.LP.LP.LP.LP.Wx.Wy.Wz.WA.WB.WC.WC.WC.WC.WC.WC.WD.WD.WD.WD.WD.WD.WE.WF.WG.WH.WI.WJ.ci.WK.as.as.ap.UJ.QV.IP.LN.J1.Lr.RU.PI.WL.Vs.RE.WM.WN.eh.WO.WP.VR.VR.VR.RD.WQ.WR.WS.WT.WU.WV.WW.WX.WY.WZ.W0.W1.W2.W3.MQ.MO.MP.MO.MQ.MP.R2.R2.MO.MO.MO.MQ.W4.Oo.RN.W5.W6.W7.KR.W8.W9.MP.WM.X..X#.Wp.Xa.Xb.Ns.Ow.Xc.Xc.Xd.U1.MQ.MQ.MQ.MQ.MQ.MQ.MQ.MQ.MR.VR.MR.MQ.MQ.MR.VR.MQ.Xe.Xf.Xg.JZ.PS.Kn.Ik.Ik.Ik.ID.Mr.aA.MA.JU.Nk.Jr.Js.WK.as.as.ap.UJ.QV.IP.LN.J1.Lr.RU.PI.WL.Vs.RE.WM.WN.eh.WO.WP.VR.VR.VR.RD.WQ.WR.WS.WT.WU.WV.WW.WX.WY.WZ.W0.W1.W2.W3.MQ.MO.MP.MO.MQ.MP.R2.R2.MO.MO.MO.MQ.W4.Oo.RN.W5.W6.W7.KR.W8.W9.MP.WM.X..X#.Wp.Xa.Xb.Ns.Ow.Xc.Xc.Xd.U1.MQ.MQ.MQ.MQ.MQ.MQ.MQ.MQ.MR.VR.MR.MQ.MQ.MR.VR.MQ.Xe.Xf.Xg.JZ.PS.Kn.Ik.Ik.Ik.ID.Mr.aA.MA.JU.Nk.Jr.Js.Nq.Nq.Nq.Nq.J0.J1.J1.J1",
".LP.LP.LP.LP.LP.LP.LP.KS.KS.LP.LP.LP.LP.LP.Xh.Xi.Xj.Xj.Xj.Xj.Xj.Xk.Xk.Xk.Xk.Xj.Xj.Xj.Xj.Xj.Xj.Xl.Xm.Xn.Xo.Xp.Xq.Xr.Xs.HE.Xt.ap.Xu.Xv.Km.Rq.J1.Lr.Lr.Lr.Xw.Xx.Xy.Xz.XA.XB.XC.Vg.XD.XE.XF.Wp.MQ.XG.XH.XI.XJ.XK.XL.XM.XM.XN.XN.XO.XP.W3.XQ.MO.MP.MP.MO.MO.MO.XR.XS.XT.XU.XV.XW.XX.XY.XZ.X0.V2.XM.X1.X2.X3.X4.X5.TM.X6.X7.N0.X8.X9.X9.Y..Y#.Ya.Yb.Q2.Q2.Q2.Q2.Q2.Yc.Yd.Ye.Yf.N9.Yg.Yg.Yg.Yh.Yi.Yj.Yk.Yl.Ym.Nd.Ik.Ld.UI.UI.UI.JD.Yn.Yo.Yp.Yq.KS.Jr.Xs.HE.Xt.ap.Xu.Xv.Km.Rq.J1.Lr.Lr.Lr.Xw.Xx.Xy.Xz.XA.XB.XC.Vg.XD.XE.XF.Wp.MQ.XG.XH.XI.XJ.XK.XL.XM.XM.XN.XN.XO.XP.W3.XQ.MO.MP.MP.MO.MO.MO.XR.XS.XT.XU.XV.XW.XX.XY.XZ.X0.V2.XM.X1.X2.X3.X4.X5.TM.X6.X7.N0.X8.X9.X9.Y..Y#.Ya.Yb.Q2.Q2.Q2.Q2.Q2.Yc.Yd.Ye.Yf.N9.Yg.Yg.Yg.Yh.Yi.Yj.Yk.Yl.Ym.Nd.Ik.Ld.UI.UI.UI.JD.Yn.Yo.Yp.Yq.KS.Jr.LP.LP.JZ.LP.KS.ID.Rq.Ko",
".LP.LP.LP.Iu.Iu.Iu.Iu.JE.L9.Tr.Iu.Ix.Ix.Il.Yr.Ys.Ys.Ys.Ys.Yt.Yu.Yu.Xj.Xk.Xk.Xj.Yv.Yw.Yx.Yy.Yz.YA.YB.YC.YD.YE.YF.LO.Ix.Hs.Qb.YG.YH.YI.YJ.PB.YK.Qi.JX.Jz.PJ.Nf.YL.Sw.YM.YN.X4.Wq.YO.YP.XF.X5.YQ.VZ.WQ.RD.MQ.M0.YR.RC.WM.YS.Wp.MP.MQ.MQ.MQ.MQ.MO.MP.MQ.R2.MP.Lg.YT.YU.YV.YW.YX.YY.Qv.O..TF.WQ.Wp.R0.R1.YZ.Vn.Y0.Y1.Y2.Y3.Y4.UX.UY.VZ.Qv.Y5.Y6.Y7.Y8.VL.VL.VL.RJ.J4.ON.Y7.Y9.Z..IE.IE.IE.Nt.JS.JT.Z#.Za.MU.Zb.Zc.Zd.Ze.Zf.Zg.Zh.Zi.Zj.Zk.Zl.Zm.Nr.Ix.Hs.Qb.YG.YH.YI.YJ.PB.YK.Qi.JX.Jz.PJ.Nf.YL.Sw.YM.YN.X4.Wq.YO.YP.XF.X5.YQ.VZ.WQ.RD.MQ.M0.YR.RC.WM.YS.Wp.MP.MQ.MQ.MQ.MQ.MO.MP.MQ.R2.MP.Lg.YT.YU.YV.YW.YX.YY.Qv.O..TF.WQ.Wp.R0.R1.YZ.Vn.Y0.Y1.Y2.Y3.Y4.UX.UY.VZ.Qv.Y5.Y6.Y7.Y8.VL.VL.VL.RJ.J4.ON.Y7.Y9.Z..IE.IE.IE.Nt.JS.JT.Z#.Za.MU.Zb.Zc.Zd.Ze.Zf.Zg.Zh.Zi.Zj.Zk.Zl.Zm.Nr.Zn.Zo.Zp.Zq.Zr.Zs.Zt.QW",
".LP.LP.LP.Iu.IX.IX.IX.Iu.Zu.Zv.IX.QH.QH.Il.Zw.Zw.Zx.Zx.Ys.Zw.Zy.Zz.Zw.Ys.Ys.Ys.ZA.ZB.ZC.ZD.ZE.ZF.ZG.ZH.ZI.Zf.ZJ.RV.Op.Ht.ah.ZK.ZL.ZM.ZN.VK.ZO.Mr.Rg.Jv.Kj.Rg.ID.MA.Ve.ZP.Tz.MQ.W3.ZQ.VR.ZR.ZS.ZT.ZU.ZV.ZW.Qo.Qo.ZX.ZY.ZZ.Wr.R2.R2.R2.R2.R2.R2.Wp.Wq.R2.MR.WQ.Z0.Z1.Z2.Z3.Z4.Z5.WW.Z6.Z7.Z8.Z9.M1.MP.MP.MP.U2.PD.0..0#.0a.0b.0c.0d.0e.0f.Ms.Qr.0g.Lq.Lq.Lq.Lq.Lq.JQ.KS.IX.Nq.Iv.Iv.MH.Ns.U7.U7.JQ.0h.0i.0j.0k.0l.0m.0n.0o.0p.0q.0r.0s.0t.0u.0v.Op.Ht.ah.ZK.ZL.ZM.ZN.VK.ZO.Mr.Rg.Jv.Kj.Rg.ID.MA.Ve.ZP.Tz.MQ.W3.ZQ.VR.ZR.ZS.ZT.ZU.ZV.ZW.Qo.Qo.ZX.ZY.ZZ.Wr.R2.R2.R2.R2.R2.R2.Wp.Wq.R2.MR.WQ.Z0.Z1.Z2.Z3.Z4.Z5.WW.Z6.Z7.Z8.Z9.M1.MP.MP.MP.U2.PD.0..0#.0a.0b.0c.0d.0e.0f.Ms.Qr.0g.Lq.Lq.Lq.Lq.Lq.JQ.KS.IX.Nq.Iv.Iv.MH.Ns.U7.U7.JQ.0h.0i.0j.0k.0l.0m.0n.0o.0p.0q.0r.0s.0t.0u.0v.0w.0x.0y.0q.0z.0A.0B.0C",
".LP.LP.LP.Iu.IX.IX.IX.LP.Iw.H3.0D.0D.0E.0F.0G.0H.0I.0I.Yw.Zw.Zy.0J.0K.Yw.Yw.Zw.0L.0M.0N.0O.0P.0Q.0R.0S.0T.0U.0V.P2.PC.Hu.ao.0W.0X.0Y.0Z.00.01.02.KS.LM.Up.Up.ID.Nu.03.04.05.06.07.Px.08.09.1..1#.1a.1b.1c.1d.1e.1f.1g.MS.RE.Wa.Wa.Wa.Wt.XQ.XQ.Wp.1h.MQ.1i.1j.1k.1l.1m.1n.1o.1p.1q.1r.1s.1t.WQ.1u.1v.1w.1x.1y.Jx.1z.1A.1B.1C.1D.1E.1F.1G.1H.LN.Ko.Hk.Hk.Hk.Js.Iw.M6.az.aC.Nq.Nq.Nq.J1.ID.JW.JW.JQ.JQ.JP.1I.1J.1K.1L.1M.1N.1O.1P.1Q.1R.1S.1T.1U.PC.Hu.ao.0W.0X.0Y.0Z.00.01.02.KS.LM.Up.Up.ID.Nu.03.04.05.06.07.Px.08.09.1..1#.1a.1b.1c.1d.1e.1f.1g.MS.RE.Wa.Wa.Wa.Wt.XQ.XQ.Wp.1h.MQ.1i.1j.1k.1l.1m.1n.1o.1p.1q.1r.1s.1t.WQ.1u.1v.1w.1x.1y.Jx.1z.1A.1B.1C.1D.1E.1F.1G.1H.LN.Ko.Hk.Hk.Hk.Js.Iw.M6.az.aC.Nq.Nq.Nq.J1.ID.JW.JW.JQ.JQ.JP.1I.1J.1K.1L.1M.1N.1O.1P.1Q.1R.1S.1T.1U.1V.1W.1X.1Y.1Z.10.11.Uy",
".LP.LP.LP.Iu.IX.IX.IX.Iz.Nm.12.13.12.14.15.Yt.16.16.16.Ys.Ys.Ys.Ys.Ys.Ys.Zx.Zw.Ys.17.18.18.19.2..2#.2a.2b.2b.2c.2d.2e.2f.JG.IE.2g.2h.2i.2j.2k.2l.2m.2n.2o.2o.2p.2q.Ni.QJ.2e.2r.2s.2t.2u.2v.2w.2x.2y.2z.2A.2z.2B.2C.2D.2E.M1.MO.MO.MP.M0.M0.M0.MR.MO.M1.2F.2G.2H.2I.2J.2K.2L.WE.WB.2M.2N.2O.2P.2Q.2R.2S.2T.2U.2V.2W.2X.2Y.2Z.20.21.22.23.24.25.26.27.28.29.3..3#.3a.Pr.PK.aF.M6.M6.NV.Mr.JQ.JQ.JQ.JQ.J4.3b.3c.3d.3e.3f.3g.3g.3h.3i.3j.3k.3l.3m.2e.2f.JG.IE.2g.2h.2i.2j.2k.2l.2m.2n.2o.2o.2p.2q.Ni.QJ.2e.2r.2s.2t.2u.2v.2w.2x.2y.2z.2A.2z.2B.2C.2D.2E.M1.MO.MO.MP.M0.M0.M0.MR.MO.M1.2F.2G.2H.2I.2J.2K.2L.WE.WB.2M.2N.2O.2P.2Q.2R.2S.2T.2U.2V.2W.2X.2Y.2Z.20.21.22.23.24.25.26.27.28.29.3..3#.3a.Pr.PK.aF.M6.M6.NV.Mr.JQ.JQ.JQ.JQ.J4.3b.3c.3d.3e.3f.3g.3g.3h.3i.3j.3k.3l.3m.3n.3o.3p.3q.3r.T9.K7.H3",
".QH.aC.Iz.IX.H5.P5.Ht.HE.3s.3t.3u.3v.3u.3w.ZA.3x.3y.3y.ZA.ZA.ZA.ZA.ZA.ZA.ZA.3z.3A.3B.3C.18.19.2..2#.3D.2b.2b.2b.2b.3E.3F.3G.L5.3H.3I.3J.3K.3L.3M.3N.3O.3P.3P.3Q.3R.3S.3T.3U.3V.3W.3X.3Y.3Z.30.Zx.Zx.31.31.32.33.34.35.36.37.38.39.4..4#.4a.4b.4c.4d.4e.4f.4g.4h.4i.4j.4k.4l.4m.4n.4o.4p.4q.4r.4s.4t.4t.4u.4v.4w.4x.Yt.Yv.4y.4z.4A.4B.4C.4D.4v.4E.4F.4G.4H.4I.4J.4K.4L.Ql.R3.aG.aG.4M.LO.Ow.QD.Ns.Ns.Uq.4N.4O.4P.4Q.4R.4S.4T.4U.4V.4W.4X.4Y.4Z.3E.3F.3G.L5.3H.3I.3J.3K.3L.3M.3N.3O.3P.3P.3Q.3R.3S.3T.3U.3V.3W.3X.3Y.3Z.30.Zx.Zx.31.31.32.33.34.35.36.37.38.39.4..4#.4a.4b.4c.4d.4e.4f.4g.4h.4i.4j.4k.4l.4m.4n.4o.4p.4q.4r.4s.4t.4t.4u.4v.4w.4x.Yt.Yv.4y.4z.4A.4B.4C.4D.4v.4E.4F.4G.4H.4I.4J.4K.4L.Ql.R3.aG.aG.4M.LO.Ow.QD.Ns.Ns.Uq.4N.4O.4P.4Q.4R.4S.4T.4U.4V.4W.4X.4Y.4Z.40.41.42.43.aS.Rd.Lr.Ix",
".PC.aA.P9.Ju.IQ.QT.44.45.46.47.48.49.5..5#.3D.3D.5a.5b.5c.5d.5d.5d.5d.5e.3D.5f.2#.5g.5g.5g.5h.5h.5h.5h.5i.5j.5k.5l.5m.5n.5o.5p.PO.0u.5q.5r.5s.5t.5u.5v.5w.5x.5y.5z.5A.5B.5C.5D.5E.2y.2y.5F.5G.5H.Zx.Yt.5I.32.Yx.5J.5K.5L.5M.5N.5O.5P.5Q.5R.OA.M9.Qs.5S.5T.5U.2y.2y.5V.WA.5V.5W.5X.5Y.5Z.50.51.52.53.5x.5x.Xl.Xl.Xk.4B.4y.4y.4y.4y.4y.Xk.Xi.54.54.55.55.5x.5x.Xl.56.57.58.59.6..6#.6a.6b.6c.6c.6d.6d.6e.6f.Yv.Ys.5x.2Y.6g.6h.6i.6j.2w.6k.6l.6m.5m.5n.5o.5p.PO.0u.5q.5r.5s.5t.5u.5v.5w.5x.5y.5z.5A.5B.5C.5D.5E.2y.2y.5F.5G.5H.Zx.Yt.5I.32.Yx.5J.5K.5L.5M.5N.5O.5P.5Q.5R.OA.M9.Qs.5S.5T.5U.2y.2y.5V.WA.5V.5W.5X.5Y.5Z.50.51.52.53.5x.5x.Xl.Xl.Xk.4B.4y.4y.4y.4y.4y.Xk.Xi.54.54.55.55.5x.5x.Xl.56.57.58.59.6..6#.6a.6b.6c.6c.6d.6d.6e.6f.Yv.Ys.5x.2Y.6g.6h.6i.6j.2w.6k.6l.6m.6n.6o.Nt.Kj.L8.TW.Ix.Ix",
".P5.IP.IF.6p.6q.6r.6s.6t.6u.6v.6w.6x.6y.6z.3D.3D.6A.6B.6C.6D.6D.6D.6D.6E.6B.6F.6G.5g.5g.5g.5h.5h.5h.5h.3D.2#.6H.6H.6I.6J.6K.6L.6M.6N.6O.6P.IF.6Q.6R.6S.6T.6U.6V.6W.6X.6Y.6Z.60.61.62.63.YA.64.0I.YC.YC.65.66.67.68.69.7..7#.7a.7b.7c.7d.Uz.L#.Tl.Gv.7e.7f.6w.7g.7h.7i.7j.3c.50.7k.7l.Zx.7m.7n.7o.7p.Ys.16.Xl.Xl.Xl.Xl.Xj.Ys.Ys.16.64.64.7q.18.7r.7s.0J.7t.0I.7u.7v.7w.7x.7y.7y.7y.7z.7A.7B.7B.7B.7B.7C.7D.Xj.16.7E.6y.6y.7F.7G.7H.7I.7J.7K.7L.6I.6J.6K.6L.6M.6N.6O.6P.IF.6Q.6R.6S.6T.6U.6V.6W.6X.6Y.6Z.60.61.62.63.YA.64.0I.YC.YC.65.66.67.68.69.7..7#.7a.7b.7c.7d.Uz.L#.Tl.Gv.7e.7f.6w.7g.7h.7i.7j.3c.50.7k.7l.Zx.7m.7n.7o.7p.Ys.16.Xl.Xl.Xl.Xl.Xj.Ys.Ys.16.64.64.7q.18.7r.7s.0J.7t.0I.7u.7v.7w.7x.7y.7y.7y.7z.7A.7B.7B.7B.7B.7C.7D.Xj.16.7E.6y.6y.7F.7G.7H.7I.7J.7K.7L.7M.Xv.7N.7O.Ix.Ix.Ix.Ix",
".7P.7Q.7R.7S.7T.7U.7V.7W.7X.7Y.7Z.70.71.72.73.74.75.76.77.78.79.79.79.8..8#.8a.6G.5g.3D.3D.8b.8c.8d.5c.2#.5a.8e.8f.8g.8h.8i.8j.8k.8l.8m.8n.8o.8p.8q.8r.8s.8t.8u.8v.8w.8x.8y.8z.8A.8B.8C.8D.8E.8F.8G.8G.8G.8H.8I.8J.8K.8L.Yx.4z.4y.8M.8N.8O.8P.5O.8Q.8R.8S.8T.5i.5i.8U.8V.8W.8X.8Y.8Z.80.81.82.83.84.85.0I.0I.0I.86.87.88.8G.89.9..9#.9a.5h.9b.9c.9d.9e.9#.9f.8W.9g.9h.0H.86.Yx.Yr.9i.9j.9k.9l.9m.9m.9n.9o.9p.9q.9r.9s.9t.9u.9v.9w.9x.9y.9z.9A.8g.8h.8i.8j.8k.8l.8m.8n.8o.8p.8q.8r.8s.8t.8u.8v.8w.8x.8y.8z.8A.8B.8C.8D.8E.8F.8G.8G.8G.8H.8I.8J.8K.8L.Yx.4z.4y.8M.8N.8O.8P.5O.8Q.8R.8S.8T.5i.5i.8U.8V.8W.8X.8Y.8Z.80.81.82.83.84.85.0I.0I.0I.86.87.88.8G.89.9..9#.9a.5h.9b.9c.9d.9e.9#.9f.8W.9g.9h.0H.86.Yx.Yr.9i.9j.9k.9l.9m.9m.9n.9o.9p.9q.9r.9s.9t.9u.9v.9w.9x.9y.9z.9A.9B.9C.9D.9E.Ix.Ix.Ix.Ix",
".9F.9G.9H.9I.9J.9K.9L.9M.9N.9O.9P.9Q.9R.9S.5g.6H.9T.5g.5i.3D.5h.5h.5h.5i.5i.3D.9U.3D.3D.2#.6C.9V.5c.9c.5g.9W.9X.9Y.3C.9Z.90.91.92.93.94.95.96.97.98.Kb.99#..#.##.a#.b#.c#.d#.e#.f#.g#.h#.i#.j#.k#.l#.l#.m.5e#.n#.o.8f#.p#.q#.r#.s#.t#.u#.v#.w#.x#.y#.z#.A#.B#.C#.D#.E.5e#.F#.G#.H#.I#.J#.K#.L#.M#.N#.O.Zx.0I.Zx#.P#.Q#.R#.S#.T.9e#.U#.V#.W.2a.2a.9d.2a.5e#.X#.R#.Y#.Z.4Y#.0#.1#.2#.3#.4#.5#.6#.7#.7#.8.0M#.9##.##..75#####a##b##c##d##e##f##g.3C.9Z.90.91.92.93.94.95.96.97.98.Kb.99#..#.##.a#.b#.c#.d#.e#.f#.g#.h#.i#.j#.k#.l#.l#.m.5e#.n#.o.8f#.p#.q#.r#.s#.t#.u#.v#.w#.x#.y#.z#.A#.B#.C#.D#.E.5e#.F#.G#.H#.I#.J#.K#.L#.M#.N#.O.Zx.0I.Zx#.P#.Q#.R#.S#.T.9e#.U#.V#.W.2a.2a.9d.2a.5e#.X#.R#.Y#.Z.4Y#.0#.1#.2#.3#.4#.5#.6#.7#.7#.8.0M#.9##.##..75#####a##b##c##d##e##f##g##h.2k##g.Ix.Ix.Ix.Ix.Ix",
"##i##j##k.6E##l##m##n##o##p##q##r##s##t##u##v##w##x##x##y##z##A##A##A##A##A##A##B##C##D##E##F##G##H##I##J##x##K##L##L##M##N##O##P##Q##R##S##T##U##V##W##X##Y##Z##0##1##2##3.19##4##5##6##7##8##9#a.#a.#a##aa#.S#ab#ac.8e#.p.67#ad#ae#af#ag#ah#ai#aj#ak#al#am#an#an#ao#ao#ap#aq#ar#as.9d.2a#at#au#av#aw#ax#ay#az#aA#.C#aB#aC#aD#aE#aF#aG#aH#aI#aJ#aK#aI#aK#aL#aM#aN#aO#aP#aQ#aQ#aQ#aR#aS#aT#aU#.R.5f#aV#aW#aX#aY#aZ#a0#a1#a2#au#a3#a4#a5.7r#a6##L##M##N##O##P##Q##R##S##T##U##V##W##X##Y##Z##0##1##2##3.19##4##5##6##7##8##9#a.#a.#a##aa#.S#ab#ac.8e#.p.67#ad#ae#af#ag#ah#ai#aj#ak#al#am#an#an#ao#ao#ap#aq#ar#as.9d.2a#at#au#av#aw#ax#ay#az#aA#.C#aB#aC#aD#aE#aF#aG#aH#aI#aJ#aK#aI#aK#aL#aM#aN#aO#aP#aQ#aQ#aQ#aR#aS#aT#aU#.R.5f#aV#aW#aX#aY#aZ#a0#a1#a2#au#a3#a4#a5.7r#a6#a7#a8#a9#b.#b##ba.Ix.Ix",
"#bb#bc#bd#be#bf#bg#bg#bg#bh#bi#bg#bj#bk#bk#bl#bm#bm#bn#bo#bp#bp#bp#bp#bq#bq#bq#br#bs#bs#bt#bu#bp#bv#bw#bx#by#bz#bA#bB#bC#bD#bC#bE#bF#bF#bG#bH#aj#bI#bJ#bJ#bJ#bJ#aj#bK#bL#bM#as#as#as#as#bN#bO#bP#bQ#bQ#bR#bS#.V#bT#bU#bP#bP#bR#bV#bW#bX#bY#a1#bZ#b0#b1#as#b1#as#b2#b2#b2#b2#bM#as#as#as#as#as#as#b3#b4#b5#b5#b5#b5#as#b2#as#b6#b7#b8#b9#c.#c.#c.#c.#c.#c.#bX#bD#bD#c##ca#.8#.5#.5#.5#.5.ZE#cb.9U#.p#cc#cd#cd#ce#cf#bF#cg#b9#ch#ci#cj#ck#cl#cm#bB#bC#bD#bC#bE#bF#bF#bG#bH#aj#bI#bJ#bJ#bJ#bJ#aj#bK#bL#bM#as#as#as#as#bN#bO#bP#bQ#bQ#bR#bS#.V#bT#bU#bP#bP#bR#bV#bW#bX#bY#a1#bZ#b0#b1#as#b1#as#b2#b2#b2#b2#bM#as#as#as#as#as#as#b3#b4#b5#b5#b5#b5#as#b2#as#b6#b7#b8#b9#c.#c.#c.#c.#c.#c.#bX#bD#bD#c##ca#.8#.5#.5#.5#.5.ZE#cb.9U#.p#cc#cd#cd#ce#cf#bF#cg#b9#ch#ci#cj#ck#cl#cm#cn#co#cp#cq#cr#cr#cs.Ix",
"#ct#cu#cv#cw#cx#cy#cz#cz#cA#cB#cC#cD#cE#cF#cD#cG#cH#cI#cJ#cK#cL#cL#cL#cM#cM#cM#cN#cO#cO#cP#cQ#cQ#cR#cR#cR#cR#cS#cT#cU#cV#cV#cU#cW.9P#cX#b0#b7#cY#cY#cY#cY#cY#cY#cZ#c0.8a#c1#c1#c1#c1.8a.8##c2#c2#c3#c3#c2#c2#c3.77#c4#c2#c2#c2.78#c5#c6#c7#c6#a2#bz#c8#c4#c9#c4.78.78.78.78.78#c0.76.78#c0.78#d.#d#.78#c4#c4#c4#c4#c4.78.77#cp#da#c9#c9#c9#c9#c9#c9#c9#c9#db#db#.H#dc#dd#de#df#df#df#dg#dh#di#dj#dk#dl#dm#dn#dn#bF#bF#do#dp#dq#dr#ds#dt#du#dv#cU#cV#cV#cU#cW.9P#cX#b0#b7#cY#cY#cY#cY#cY#cY#cZ#c0.8a#c1#c1#c1#c1.8a.8##c2#c2#c3#c3#c2#c2#c3.77#c4#c2#c2#c2.78#c5#c6#c7#c6#a2#bz#c8#c4#c9#c4.78.78.78.78.78#c0.76.78#c0.78#d.#d#.78#c4#c4#c4#c4#c4.78.77#cp#da#c9#c9#c9#c9#c9#c9#c9#c9#db#db#.H#dc#dd#de#df#df#df#dg#dh#di#dj#dk#dl#dm#dn#dn#bF#bF#do#dp#dq#dr#ds#dt#du#dv#dw#dx##p#dy#dy#dz#dA#dA",
"#dB#dB#dC#dD#dE#dF#dG#dG#dG#dG#dH#dI#dJ#dK#dL#dM#dN#dO#dN#dP#dQ#dQ#dQ#dR#dR#dS#dT#dU#dV#dW#dX#dW#dY#dW#dZ#d0#d1#d1#d2#d2#d2#d2#d3#d4#d5#d6#d7#d8#d8#d8#d8#d8#d8#d9#e.#e##e##e##e##e##e##e.#ea#ea#eb#eb#ec#ea#ed#ee#ee#ec#ec#ec#ef#eg#d2#eh#ei#ej#ek#el#em#en#en#en#en#en#en#en#en#em#en#en#en#em#eo#ep#eq#en#en#en#en#em#em#er#e.#d9#d9#d9#d9#d9#d9#d9#d9#es#es#es#et#eu#ev#ev#ev#eu#ew#ex#ey#ez#eA#dn#dn#dn#dn#dn#eB#eC#eD#eE#eF#eG#eG#eH#eI#d2#d2#d2#d2#d3#d4#d5#d6#d7#d8#d8#d8#d8#d8#d8#d9#e.#e##e##e##e##e##e##e.#ea#ea#eb#eb#ec#ea#ed#ee#ee#ec#ec#ec#ef#eg#d2#eh#ei#ej#ek#el#em#en#en#en#en#en#en#en#en#em#en#en#en#em#eo#ep#eq#en#en#en#en#em#em#er#e.#d9#d9#d9#d9#d9#d9#d9#d9#es#es#es#et#eu#ev#ev#ev#eu#ew#ex#ey#ez#eA#dn#dn#dn#dn#dn#eB#eC#eD#eE#eF#eG#eG#eH#eI#eJ#eK#eL#eK#eK#eK#eK#d7",
"#eM#eM#eN#eO#eP#eQ#eR#eR#eR#eR#eS#eT#eU#eV#eW#eX#eY#eZ#eY#e0#eY#eY#eY#e1#e1#e1#e2#e3#e3#e4#e4#e4#e5#e6#e7#e8#e9#f.#f##f##f##f##fa#fb#fc#fc#fc#fd#fd#fd#fd#fd#fd#fe#ff#fg#fh#fh#fg#fg#fi#fj#fk#fl#fm#fm#fn#fn#fo#fp#fp#fn#fn#fq#fr#fs#ft#fu#fv#fw#fx#fe#e8#fy#fy#fy#fz#fz#fz#fy#fy#e8#fy#fy#fy#e8#fA#fB#fC#fD#fz#fy#fz#fB#fB#fe#fE#fF#fk#fk#fk#fk#fk#fk#fG#fH#fH#fI#fJ#fK#fL#fL#fM#fH#fN#fO#fP#fQ#fR#fS.9M#bz#fT#bz#c9#fU#fV#fh#fW#fX#fX#f##fY#f##f##f##f##fa#fb#fc#fc#fc#fd#fd#fd#fd#fd#fd#fe#ff#fg#fh#fh#fg#fg#fi#fj#fk#fl#fm#fm#fn#fn#fo#fp#fp#fn#fn#fq#fr#fs#ft#fu#fv#fw#fx#fe#e8#fy#fy#fy#fz#fz#fz#fy#fy#e8#fy#fy#fy#e8#fA#fB#fC#fD#fz#fy#fz#fB#fB#fe#fE#fF#fk#fk#fk#fk#fk#fk#fG#fH#fH#fI#fJ#fK#fL#fL#fM#fH#fN#fO#fP#fQ#fR#fS.9M#bz#fT#bz#c9#fU#fV#fh#fW#fX#fX#f##fY#fZ#f0#f1#fa#fa#fa#f2#f2",
"#f3#f3#f4#f4#f4#f5#f6#f6#f6#f6#f7#f8#f9#g.#g##ga#gb#gc#gd#ge#gf#gg#gh#gi#gg#gj#gj#gj#gj#gk#gk#gk#gl#gl#e0#gm#gn#go#gp#gq#gp#gp#gr#gp#gs#gt#gu#gv#gw#gx#gy#gy#gy#gy#gz#gz#gA#gB#gz#gz#gz#gC#gD#gD#gC#gC#gD#gC#gz#gE#dS#gF#gG#gH#gI#gJ#gK#gL#gM#gN#gO#gP#gQ#gR#gR#gS#gS#gS#gT#gS#gU#gV#gW#gR#gR#gX#gY#gZ#g0#g1#g2#g3#g4#g4#g4#g5#g6#g7#g8#g9#h.#h##dV#dU#ha#ha#gw#dK#h.#fz#hb#hc#hd#hd#hd#he#hf#hg#hh#hi#hj#hk#hl#hm#hn#ho#hp#fB#hq#hr#hr#gC#hs#hs#hs#gp#gp#gr#gp#gs#gt#gu#gv#gw#gx#gy#gy#gy#gy#gz#gz#gA#gB#gz#gz#gz#gC#gD#gD#gC#gC#gD#gC#gz#gE#dS#gF#gG#gH#gI#gJ#gK#gL#gM#gN#gO#gP#gQ#gR#gR#gS#gS#gS#gT#gS#gU#gV#gW#gR#gR#gX#gY#gZ#g0#g1#g2#g3#g4#g4#g4#g5#g6#g7#g8#g9#h.#h##dV#dU#ha#ha#gw#dK#h.#fz#hb#hc#hd#hd#hd#he#hf#hg#hh#hi#hj#hk#hl#hm#hn#ho#hp#fB#hq#hr#hr#gC#ht#hu#hu#hu#gx#hv#hv#hv#hw",
"#hx#hy#hz#hz#hA#hB#hB#hB#hC#hD#hE#hF#hG#e5#hH#hI#hJ#hK#hL#hM#hN#hO#hP#hQ#hR#hS#hT#hU#hU#e6#e6#e6#hV#hV#hW#hX#hY#hZ#h0#h1#h2#h3#h4#h5#h6#hu#gD#h7#hq#h8#h8#h8#h8#fC#h9#h9#i.#dR#h9#h9#h9#h8#h8#h8#h8#h8#h8#gD#h9#dR#i##i##ia#ib#ic#id#e6#ie#if#ig#ih#ii#ij#ik#il#im#in#in#io#im#ip#iq#ir#ik#ik#is#it#iu#iv#iw#ix#iy#iz#iz#iz#iz#iA#iB#iC#iD#gC#h.#hr#gC#ht#iE#iE#iF#iG#iH#iI#iI#hw#iJ#iJ#iJ#hw#iK#iK#iL#iM#iN#iO#iP#iQ#fx#ff#fe#h7#iR#iR#gD#hs#hs#hs#h2#h3#h4#h5#h6#hu#gD#h7#hq#h8#h8#h8#h8#fC#h9#h9#i.#dR#h9#h9#h9#h8#h8#h8#h8#h8#h8#gD#h9#dR#i##i##ia#ib#ic#id#e6#ie#if#ig#ih#ii#ij#ik#il#im#in#in#io#im#ip#iq#ir#ik#ik#is#it#iu#iv#iw#ix#iy#iz#iz#iz#iz#iA#iB#iC#iD#gC#h.#hr#gC#ht#iE#iE#iF#iG#iH#iI#iI#hw#iJ#iJ#iJ#hw#iK#iK#iL#iM#iN#iO#iP#iQ#fx#ff#fe#h7#iR#iR#gD#gx#gx#gx#gx#iS#iS#iS#iT#iS",
"#iU#iV#iW#hA#hA#hB#hB#hB#iX#iY#hB#iZ#i0#i1#i2#i3#i4#i5#i6#i7#i8#i9#j.#j.#j.#i3#j.#j.#j.#j.#j.#j##ja#i4#jb#jc#jd#je#jf#jg#jh#jh#ji#jj#jk#jl#jm#iz#jn#jo#jo#jo#g1#g1#gQ#jp#jp#jp#jp#jp#g1#g1#g1#g1#g1#g1#g1#g1#gV#jp#jq#jr#js#jt#ju#jv#jw#jx#jy#jz#jA#jB#jC#jD#jA#jE#jF#jG#jH#jF#jI#hQ#jJ#jK#jK#jL#jM#jN#jO#jP#jQ#jR#jS#jS#jT#jU#jV#jW#jX#jY#jZ#j0#j1#j2#j3#j4#j4#j5#j6#j5#gO#gP#gP#j7#j8#j3#j3#j9#k.#k##ka#kb#kc#kd#ke#j9#j4#kf#kg#iR#iR#iR#hs#h4#h4#h4#jh#ji#jj#jk#jl#jm#iz#jn#jo#jo#jo#g1#g1#gQ#jp#jp#jp#jp#jp#g1#g1#g1#g1#g1#g1#g1#g1#gV#jp#jq#jr#js#jt#ju#jv#jw#jx#jy#jz#jA#jB#jC#jD#jA#jE#jF#jG#jH#jF#jI#hQ#jJ#jK#jK#jL#jM#jN#jO#jP#jQ#jR#jS#jS#jT#jU#jV#jW#jX#jY#jZ#j0#j1#j2#j3#j4#j4#j5#j6#j5#gO#gP#gP#j7#j8#j3#j3#j9#k.#k##ka#kb#kc#kd#ke#j9#j4#kf#kg#iR#iR#iR#hs#hs#hs#hs#kh#kh#kh#ki#kh",
"#kj#kj#kk#kk#kk#hB#hB#iX#iX#kl#km#kn#ko#kp#kq#kr#ks#kt#i8#ku#kv#kw#kx#iX#hB#ky#hz#hx#hx#hx#hx#kz#kA#kA#kq#kB#kC#kD#kE#kF#kG#iZ#kH#iZ#kI#kJ#kK#kL#kM#kN#kO#kO#kP#kQ#kR#iB#kS#kT#kT#kU#kV#kP#kP#kP#kP#kP#kP#kW#kX#kU#kY#kZ#k0#k1#k2#hR#k3#k4#k5#k6#k7#k8#k9#l.#l##la#lb#lc#ld#le#lf#lg#lh#li#li#lj#lk#ll#hC#lm#ky#ln#ky#ky#lo#lp#lq#lr#kB#ls#lt#lu#lv#lw#lx#lx#lx#ly#ly#lz#lA#lB#lC#lD#is#kT#lE#lF#lF#lG#lH#lI#lJ#lK#lA#is#lL#eP#lM#lN#lN#iI#h4#h4#h4#kG#iZ#kH#iZ#kI#kJ#kK#kL#kM#kN#kO#kO#kP#kQ#kR#iB#kS#kT#kT#kU#kV#kP#kP#kP#kP#kP#kP#kW#kX#kU#kY#kZ#k0#k1#k2#hR#k3#k4#k5#k6#k7#k8#k9#l.#l##la#lb#lc#ld#le#lf#lg#lh#li#li#lj#lk#ll#hC#lm#ky#ln#ky#ky#lo#lp#lq#lr#kB#ls#lt#lu#lv#lw#lx#lx#lx#ly#ly#lz#lA#lB#lC#lD#is#kT#lE#lF#lF#lG#lH#lI#lJ#lK#lA#is#lL#eP#lM#lN#lN#iI#hs#hs#hs#hs#lO#lO#lO#ki#lO",
"#lP#lP#kG#hB#hB#hB#hB#hC#hC#iX#lQ#lR#lS#lT#kG#kk#lU#lV#lW#lX#lY#lZ#hB#kk#hB#lm#l0#l0#l0#l0#l0#kn#l1#l2#l3#l4#l5#l6#l7#kl#kl#kx#l8#iX#l9#m.#iZ#m##kG#ma#mb#mc#md#md#me#mf#mg#mf#mf#mh#mh#md#md#md#md#md#md#md#mh#mh#mi#mj#mk#ml#mm#mn#mo#mp#mq#mr#mr#ms#mt#mu#mv#mw#hR#mx#hO#e1#my#mz#mA#mB#mC#mD#mA#kE#iX#kF#mE#mE#mE#mE#mE#lm#l8#mF#mG#mH#mI#i3#mJ#mK#jL#jL#jB#jz#mL#mM#mN#mO#mP#mQ#mR#mS#mT#mU#mU#mV#mW#mX#mY#mZ#lG#m0#m1#m2#j1#eN#m3#m4#h4#hz#hz#kl#kx#l8#iX#l9#m.#iZ#m##kG#ma#mb#mc#md#md#me#mf#mg#mf#mf#mh#mh#md#md#md#md#md#md#md#mh#mh#mi#mj#mk#ml#mm#mn#mo#mp#mq#mr#mr#ms#mt#mu#mv#mw#hR#mx#hO#e1#my#mz#mA#mB#mC#mD#mA#kE#iX#kF#mE#mE#mE#mE#mE#lm#l8#mF#mG#mH#mI#i3#mJ#mK#jL#jL#jB#jz#mL#mM#mN#mO#mP#mQ#mR#mS#mT#mU#mU#mV#mW#mX#mY#mZ#lG#m0#m1#m2#j1#eN#m3#m4#m5#m5#m5#m5#m6#m6#m6#m7#m8",
"#kL#kL#kq#kG#hB#hB#hB#hC#hC#hC#m9#n.#n##na#hB#hB#hB#nb#nc#nd#ne#mr#nf#lU#ng#hB#hB#hB#hB#hB#hB#kk#lU#ng#l3#nh#ni#hK#nj#hB#hB#nk#hB#hB#hB#hB#hB#lU#lU#hz#nl#nm#nm#nm#mk#kq#kq#kG#kG#kq#kq#nm#nm#nm#nm#nm#nm#nm#kq#kq#kq#kq#kq#kq#mk#nn#mT#kj#hB#hB#hB#hB#hB#no#np#nq#nr#ns#ns#nt#nu#nv#nw#nx#ny#l3#nz#nA#lU#ng#mE#mE#mE#mE#mE#lm#lm#hB#hB#hB#hC#nB#nC#nD#nE#nE#nF#nG#l5#na#nH#lV#nI#nI#nJ#nK#nL#hC#hC#hB#hB#hB#hz#hA#nM#nN#nO#nO#nO#hz#hz#hz#hz#hz#hB#hB#nk#hB#hB#hB#hB#hB#lU#lU#hz#nl#nm#nm#nm#mk#kq#kq#kG#kG#kq#kq#nm#nm#nm#nm#nm#nm#nm#kq#kq#kq#kq#kq#kq#mk#nn#mT#kj#hB#hB#hB#hB#hB#no#np#nq#nr#ns#ns#nt#nu#nv#nw#nx#ny#l3#nz#nA#lU#ng#mE#mE#mE#mE#mE#lm#lm#hB#hB#hB#hC#nB#nC#nD#nE#nE#nF#nG#l5#na#nH#lV#nI#nI#nJ#nK#nL#hC#hC#hB#hB#hB#hz#hA#nM#nN#nO#nO#nO#nP#nQ#nR#nR#nR#nR#nR#nS#nS#nS#nS#nT",
"#nU#nU#lS#nV#hD#hC#hC#hC#hC#hC#nW#nX#nY#e1#hB#hB#kq#kq#j##hS#nZ#mr#n0#lU#ng#hB#hB#hB#hB#hB#hB#kk#lU#ng#l3#nh#n1#n2#n3#n4#n5#hB#hB#hB#hB#hB#hB#lU#ng#hB#nk#kq#kq#kq#mk#kq#kG#hB#hB#hB#kG#kq#kq#kq#kq#kq#kq#kG#hB#hB#hB#hB#hB#kq#kq#nk#nL#nL#hB#hB#hB#hB#hB#hB#kL#mj#n6#ko#ko#mG#n7#n8#n9#mp#o.#hC#o##lU#lU#lU#hB#hB#hB#hB#hB#hB#hB#hB#hB#kG#mB#oa#l7#m.#nk#ob#kG#oc#od#oe#of#n6#og#oh#nl#hB#nL#hB#hB#hB#hB#hB#hz#hz#mh#oi#mh#mh#hz#hz#iW#hz#hz#hz#hz#hz#hB#hB#hB#hB#hB#hB#lU#ng#hB#nk#kq#kq#kq#mk#kq#kG#hB#hB#hB#kG#kq#kq#kq#kq#kq#kq#kG#hB#hB#hB#hB#hB#kq#kq#nk#nL#nL#hB#hB#hB#hB#hB#hB#kL#mj#n6#ko#ko#mG#n7#n8#n9#mp#o.#hC#o##lU#lU#lU#hB#hB#hB#hB#hB#hB#hB#hB#hB#kG#mB#oa#l7#m.#nk#ob#kG#oc#od#oe#of#n6#og#oh#nl#hB#nL#hB#hB#hB#hB#hB#hz#hz#mh#oi#mh#mh#mh#ob#iW#iW#iW#iW#iW#iW#kL#kL#kL#kL#nL",
"#oj#ok#ol#om#hC#hC#iY#hC#hC#nV#on#oo#op#mG#hB#hB#kq#kq#oq#or#os#mr#n0#ot#ng#hB#hB#hB#hB#hB#hB#kk#lU#ng#l3#nh#ou#n2#ov#nc#lT#kk#hB#hB#hB#hB#hB#lU#lU#lU#ow#ox#kq#kq#mk#kq#kG#hB#hB#hB#kG#kq#kq#kq#kq#kq#kq#kG#hB#hB#hB#hB#hB#hB#hB#hB#hB#hB#hB#hB#hB#hB#hB#hB#nL#oy#l0#hz#hz#m.#oz#oA#eZ#oB#oC#l8#ky#lU#lU#lU#hB#hB#hB#hB#hB#hB#hB#hB#hB#iZ#oD#oE#oF#oG#lp#lp#lp#oH#mA#nZ#oI#oJ#oK#kL#kG#hB#hB#hB#hB#hB#hB#hB#hz#hz#oL#oM#oL#oL#oL#hz#hz#hz#hz#hz#hz#hz#kk#hB#hB#hB#hB#hB#lU#lU#lU#ow#ox#kq#kq#mk#kq#kG#hB#hB#hB#kG#kq#kq#kq#kq#kq#kq#kG#hB#hB#hB#hB#hB#hB#hB#hB#hB#hB#hB#hB#hB#hB#hB#hB#nL#oy#l0#hz#hz#m.#oz#oA#eZ#oB#oC#l8#ky#lU#lU#lU#hB#hB#hB#hB#hB#hB#hB#hB#hB#iZ#oD#oE#oF#oG#lp#lp#lp#oH#mA#nZ#oI#oJ#oK#kL#kG#hB#hB#hB#hB#hB#hB#hB#hz#hz#oL#oM#oL#oL#oL#hz#hz#hz#hz#hz#hz#hz#kq#kq#kq#kq#hB",
"#oN#oO#oP#oQ#m.#oR#oS#iZ#iZ#n5#oT#oU#oV#nl#hB#hB#kq#kq#o.#lP#oW#lZ#kF#ot#ng#hB#hB#hB#hB#hB#hB#kk#lU#ng#l3#mU#mv#n2#oX#oY#oZ#kG#hC#iX#hB#hB#hB#lU#lU#lU#ow#ox#kq#kq#mk#kq#kG#hB#hB#hB#kG#kq#kq#kq#kq#kq#kq#kG#hB#hB#hB#lm#lm#lm#lm#lm#lm#lm#hB#hB#hB#hB#hB#hB#o0#o1#iX#kq#kq#o2#oQ#nD#o3#o4#o5#o6#ky#lU#lU#lU#hB#hB#hB#hB#hB#hB#hB#hB#hB#hC#n5#o7#o8#o9#kl#kl#kF#m##nV#p.#lk#p##pa#oJ#mI#kk#kk#kk#kk#kk#kk#kk#lp#lp#pb#oL#nm#nm#nm#hz#hz#hz#hz#hz#hz#oZ#kG#hC#iX#hB#hB#hB#lU#lU#lU#ow#ox#kq#kq#mk#kq#kG#hB#hB#hB#kG#kq#kq#kq#kq#kq#kq#kG#hB#hB#hB#lm#lm#lm#lm#lm#lm#lm#hB#hB#hB#hB#hB#hB#o0#o1#iX#kq#kq#o2#oQ#nD#o3#o4#o5#o6#ky#lU#lU#lU#hB#hB#hB#hB#hB#hB#hB#hB#hB#hC#n5#o7#o8#o9#kl#kl#kF#m##nV#p.#lk#p##pa#oJ#mI#kk#kk#kk#kk#kk#kk#kk#lp#lp#pb#oL#nm#nm#nm#kk#kk#hz#hz#hz#hz#hz#kq#kq#nk#nk#hB",
"#pc#pd#pe#pf#pg#ph#pi#pj#pk#pk#pl#pm#j##iZ#hB#hB#hB#kG#iZ#oq#pn#po#pp#pq#kl#hB#hB#hB#hB#hB#hB#ln#ot#nz#pr#ps#n9#pt#pu#pu#l5#pv#pw#m.#nL#hB#hB#px#py#n0#ng#ng#lU#lU#lU#lU#lU#lU#lU#lm#lm#hB#o.#oE#o.#iX#hB#hB#hB#hB#hB#hC#hC#hC#hC#hC#hC#iX#hB#hB#hB#hB#hB#hB#lm#pz#ng#ng#ng#ln#no#pA#pB#pC#pD#pw#l8#iX#ot#ot#hC#iX#hB#hB#hB#nL#nL#hB#hB#hB#hB#kk#pE#nf#ky#ky#ng#ot#n4#pF#pG#kD#pH#pI#pJ#o.#pK#pK#pK#ow#lU#pL#n0#pL#lU#m##m##m##no#ot#ot#ky#hz#hz#pu#l5#pv#pw#m.#nL#hB#hB#px#py#n0#ng#ng#lU#lU#lU#lU#lU#lU#lU#lm#lm#hB#o.#oE#o.#iX#hB#hB#hB#hB#hB#hC#hC#hC#hC#hC#hC#iX#hB#hB#hB#hB#hB#hB#lm#pz#ng#ng#ng#ln#no#pA#pB#pC#pD#pw#l8#iX#ot#ot#hC#iX#hB#hB#hB#nL#nL#hB#hB#hB#hB#kk#pE#nf#ky#ky#ng#ot#n4#pF#pG#kD#pH#pI#pJ#o.#pK#pK#pK#ow#lU#pL#n0#pL#lU#m##m##m##no#ot#ot#ky#lR#lm#hB#hB#pM#hC#mE#mE#mE",
"#pN#pO#pP#pQ#pR#pS#pT#pu#pU#pV#pW#lc#pX#pY#hB#hB#hB#hB#pM#i0#hV#eY#pZ#mE#kl#hB#hB#hB#hB#hB#hB#ln#ot#nz#iY#p0#p1#pt#pS#pT#pS#p2#p3#p4#p5#p6#lR#p7#l1#l1#nf#nf#lU#lU#lU#lU#px#lU#lU#hB#hB#nk#l0#kk#kk#kk#hB#hB#hB#hB#hB#hC#hC#hC#hC#hC#hC#iX#hB#hB#hB#hB#hB#hB#ng#ng#lU#lU#lU#ng#p8#kG#p9#q.#q##qa#qb#kl#py#py#iX#hB#hB#hB#hB#nL#nL#hB#hB#hB#hB#kk#lU#lU#lU#lU#nf#lU#ko#qc#n2#qd#qe#qf#qg#qh#qi#qi#qi#i1#qj#i0#qk#qk#qk#qk#i0#i0#i0#i0#ql#qm#hz#pS#pT#pS#p2#p3#p4#p5#p6#lR#p7#l1#l1#nf#nf#lU#lU#lU#lU#px#lU#lU#hB#hB#nk#l0#kk#kk#kk#hB#hB#hB#hB#hB#hC#hC#hC#hC#hC#hC#iX#hB#hB#hB#hB#hB#hB#ng#ng#lU#lU#lU#ng#p8#kG#p9#q.#q##qa#qb#kl#py#py#iX#hB#hB#hB#hB#nL#nL#hB#hB#hB#hB#kk#lU#lU#lU#lU#nf#lU#ko#qc#n2#qd#qe#qf#qg#qh#qi#qi#qi#i1#qj#i0#qk#qk#qk#qk#i0#i0#i0#i0#ql#qm#kp#o7#mf#qn#kq#mI#iX#iX#iX",
"#pk#pk#n8#qo#qp#pT#pT#kv#i8#hM#qq#qr#qs#qt#hB#hB#hB#hB#hB#i0#nZ#e1#qu#lS#kl#hB#hB#hB#hB#hB#hB#ln#ot#nz#iZ#lS#qv#pt#qw#qx#qw#qy#qy#qz#qA#kx#kF#nz#o7#ow#ow#qB#kr#kr#kr#kr#kG#qC#qD#qE#qF#qF#qG#pE#qH#lp#kk#kk#kk#kk#kk#kF#kF#kF#kF#kF#kF#ln#kk#hB#hB#hB#hB#hB#ng#ng#ng#ng#lU#ng#p8#qI#qJ#ld#mx#qK#qL#mI#qM#qN#kG#o7#kk#hB#hB#nL#nL#hB#hB#hB#hB#kk#lU#lU#lU#lU#pE#pE#qO#l8#qP#o3#qQ#qR#qS#qR#pt#pt#pt#qQ#qQ#qQ#l5#qR#qR#qR#qT#qT#qT#qT#pR#pR#pR#qw#qx#qw#qy#qy#qz#qA#kx#kF#nz#o7#ow#ow#qB#kr#kr#kr#kr#kG#qC#qD#qE#qF#qF#qG#pE#qH#lp#kk#kk#kk#kk#kk#kF#kF#kF#kF#kF#kF#ln#kk#hB#hB#hB#hB#hB#ng#ng#ng#ng#lU#ng#p8#qI#qJ#ld#mx#qK#qL#mI#qM#qN#kG#o7#kk#hB#hB#nL#nL#hB#hB#hB#hB#kk#lU#lU#lU#lU#pE#pE#qO#l8#qP#o3#qQ#qR#qS#qR#pt#pt#pt#qQ#qQ#qQ#l5#qR#qR#qR#qT#qT#qT#qT#qU#qV#qW#qX#qX#qY#qZ#qE#qM#q0#q0",
"#oW#q1#q2#q3#qp#qw#pT#kv#i8#hM#q4#hM#q5#q6#hB#hB#hB#hB#ln#i0#q7#nu#pO#q8#kl#hB#hB#hB#hB#hB#hB#ln#ot#ot#q9#r.#r##pt#qp#qp#qp#ra#rb#pt#rc#rd#lk#re#qg#rf#rg#rg#rh#oz#re#re#re#ri#rj#rk#rl#rl#rm#rn#mW#n0#nf#lU#lU#lU#lU#ot#ot#ot#ot#ot#ot#n0#lU#kk#hB#hB#hB#hB#hB#hB#hB#hB#lU#ng#p8#qI#nC#ro#hN#rp#pi#rq#rr#rs#kq#ng#lU#hB#hB#hB#hB#hB#hB#hB#ky#lU#lU#lU#lU#lU#pE#nf#pK#rt#pG#o3#qV#qQ#ru#ro#rv#rv#rv#kv#kv#kv#rw#qy#qy#qy#pR#pR#pR#pR#pS#rx#pR#pR#qp#qp#ra#rb#pt#rc#rd#lk#re#qg#rf#rg#rg#rh#oz#re#re#re#ri#rj#rk#rl#rl#rm#rn#mW#n0#nf#lU#lU#lU#lU#ot#ot#ot#ot#ot#ot#n0#lU#kk#hB#hB#hB#hB#hB#hB#hB#hB#lU#ng#p8#qI#nC#ro#hN#rp#pi#rq#rr#rs#kq#ng#lU#hB#hB#hB#hB#hB#hB#hB#ky#lU#lU#lU#lU#lU#pE#nf#pK#rt#pG#o3#qV#qQ#ru#ro#rv#rv#rv#kv#kv#kv#rw#qy#qy#qy#pR#pR#pR#pR#pS#rx#ry#rz#lu#lu#rA#rB#qa#rC#rD",
"#gg#ge#pT#qx#pl#qp#qp#i8#qw#qp#q6#pV#rE#rF#kj#nL#lS#n4#rG#qh#qQ#qV#rH#rI#rJ#hB#hB#hB#hB#hB#hB#ln#o##rK#rL#rM#rN#lb#ru#ru#rO#rP#rQ#rb#pR#rR#rS#rT#qV#rU#rV#rW#rX#rX#rY#rZ#r0#r1#r2#r3#r3#r4#r5#hP#r6#r7#mp#kp#r8#r8#kp#r9#r9#rJ#s.#pK#ox#nf#pE#lp#kk#hB#hB#hB#o7#hy#lp#lp#nf#m##s##rJ#sa#rv#sb#kv#sb#hN#ro#pm#mC#mp#sc#oE#o.#nb#mI#sd#hB#mU#r8#s##s##r8#sc#sc#rL#se#sf#sg#rp#o3#o3#o3#sh#gh#gh#sh#gl#qQ#nu#lb#lY#rP#rP#rW#rP#si#sj#sk#rP#sl#sm#ru#ru#rO#rP#rQ#rb#pR#rR#rS#rT#qV#rU#rV#rW#rX#rX#rY#rZ#r0#r1#r2#r3#r3#r4#r5#hP#r6#r7#mp#kp#r8#r8#kp#r9#r9#rJ#s.#pK#ox#nf#pE#lp#kk#hB#hB#hB#o7#hy#lp#lp#nf#m##s##rJ#sa#rv#sb#kv#sb#hN#ro#pm#mC#mp#sc#oE#o.#nb#mI#sd#hB#mU#r8#s##s##r8#sc#sc#rL#se#sf#sg#rp#o3#o3#o3#sh#gh#gh#sh#gl#qQ#nu#lb#lY#rP#rP#rW#rP#si#sj#sk#rP#sl#sm#pu#e2#sn#so#sp#rv#rv#sq",
"#sr#ss#st#lY#su#sv#pl#rU#rU#rU#rO#sw#sx#sy#sz#sA#qg#sB#sC#qU#qw#sD#pu#sl#pH#kk#hz#kk#kq#n5#n5#sE#sF#rL#sG#hN#sH#sI#pU#sJ#i8#sK#sL#sM#sN#sO#sP#sQ#sR#sS#sT#sU#sV#sW#sX#sY#sZ#s0#s1#hN#s0#s2#q7#s3#n2#s4#n2#pB#n7#n7#n7#pj#qt#h2#qj#s5#s6#s7#s7#s8#oL#oL#oL#oL#s9#s7#t.#t##ta#tb#re#tc#td#gg#sb#sb#sb#sb#i6#q6#te#h4#n8#tf#tg#th#r8#ow#ti#tj#tk#tk#pm#tl#tm#qR#tn#to#tp#rU#sH#gg#o3#nu#nu#tq#tr#ts#si#sk#l##tt#tu#tv#tw#tx#tx#ty#tz#tA#tB#tC#tD#pU#sJ#i8#sK#sL#sM#sN#sO#sP#sQ#sR#sS#sT#sU#sV#sW#sX#sY#sZ#s0#s1#hN#s0#s2#q7#s3#n2#s4#n2#pB#n7#n7#n7#pj#qt#h2#qj#s5#s6#s7#s7#s8#oL#oL#oL#oL#s9#s7#t.#t##ta#tb#re#tc#td#gg#sb#sb#sb#sb#i6#q6#te#h4#n8#tf#tg#th#r8#ow#ti#tj#tk#tk#pm#tl#tm#qR#tn#to#tp#rU#sH#gg#o3#nu#nu#tq#tr#ts#si#sk#l##tt#tu#tv#tw#tx#tx#ty#tz#tA#tB#tC#tD#tE#hN#tF#e2#tG#i6#hN#sb",
"#tH#tI#tJ#tK#tL#tM#tN#tO#tP#tQ#ra#tR#tS#tT#tU#tV#qR#tW#qr#i6#ru#sD#sj#r0#n2#mV#tX#kG#hB#kl#iX#iX#kE#tY#je#tZ#t0#t1#t2#t2#t3#sy#t4#t5#t6#t7#t8#t9#u.#u##ua#ub#uc#ud#ud#ue#uf#rP#qy#ug#uh#ui#uj#uj#uk#ul#um#sJ#ru#ru#q6#rU#qQ#un#uo#up#tg#rL#rL#uq#ol#lT#ur#mq#r8#r8#kp#rL#oc#us#ut#pn#uu#e1#rp#sb#sb#sb#sb#s1#uv#uw#uv#hJ#ux#uy#uz#rJ#uA#pt#uB#uC#uB#tM#uD#uE#uF#hU#uG#uH#rv#gg#o3#lW#l5#sl#uI#uJ#uK#uL#uM#uN#uO#t8#uP#uQ#t8#uR#uS#uT#uU#uV#uW#t2#t2#t3#sy#t4#t5#t6#t7#t8#t9#u.#u##ua#ub#uc#ud#ud#ue#uf#rP#qy#ug#uh#ui#uj#uj#uk#ul#um#sJ#ru#ru#q6#rU#qQ#un#uo#up#tg#rL#rL#uq#ol#lT#ur#mq#r8#r8#kp#rL#oc#us#ut#pn#uu#e1#rp#sb#sb#sb#sb#s1#uv#uw#uv#hJ#ux#uy#uz#rJ#uA#pt#uB#uC#uB#tM#uD#uE#uF#hU#uG#uH#rv#gg#o3#lW#l5#sl#uI#uJ#uK#uL#uM#uN#uO#t8#uP#uQ#t8#uR#uS#uT#uU#uV#uW#uX#uY#uD#uD#sH#sb#sb#sb",
"#uZ#ue#u0#u1#u2#u3#u4#u5#u6#u6#u7#u8#si#r2#u9#v.#rU#hM#q6#v##l.#l.#sj#rx#os#va#vb#rK#lq#vc#vd#j##ve#tk#qo#vf#sy#vg#vh#vi#vj#vk#sL#vl#vm#vn#vo#vp#vq#vr#ua#vs#vt#vu#vv#vw#vx#vy#vz#vA#vB#vi#vC#vD#vE#vF#vG#t3#rb#vH#vH#vH#sm#sD#vI#h3#qe#vJ#v.#vK#vL#vM#vN#vO#vP#v.#qe#rN#oe#eX#gd#gg#gg#sb#sb#sb#sb#hN#rU#vQ#vR#vS#hF#mx#pl#pl#vT#vU#s1#vV#t9#vW#vX#vY#vZ#v0#v1#sk#ne#v2#v2#v2#o3#lW#vJ#v3#v4#v5#v6#v6#v7#v8#v9#vC#w.#w##wa#wb#v8#vC#wc#v7#wd#vh#vi#vj#vk#sL#vl#vm#vn#vo#vp#vq#vr#ua#vs#vt#vu#vv#vw#vx#vy#vz#vA#vB#vi#vC#vD#vE#vF#vG#t3#rb#vH#vH#vH#sm#sD#vI#h3#qe#vJ#v.#vK#vL#vM#vN#vO#vP#v.#qe#rN#oe#eX#gd#gg#gg#sb#sb#sb#sb#hN#rU#vQ#vR#vS#hF#mx#pl#pl#vT#vU#s1#vV#t9#vW#vX#vY#vZ#v0#v1#sk#ne#v2#v2#v2#o3#lW#vJ#v3#v4#v5#v6#v6#v7#v8#v9#vC#w.#w##wa#wb#v8#vC#wc#v7#wd#u0#uV#vB#we#wf#wg#wg#wg",
"#wh#wi#wb#wj#wk#wl#wm#wn#wo#wo#wp#wq#wr#ws#sb#gg#rp#i6#o4#pt#l.#sD#sj#qV#wt#i9#vK#nr#nr#wu#p3#n7#wv#qU#pT#ww#wx#wy#wz#wA#wx#vt#wB#wC#tD#wD#wE#wF#wG#wH#wI#vs#v5#vv#wz#wJ#wK#wL#wM#ww#wz#wA#v5#wN#wO#sM#wP#wP#wQ#wQ#wQ#wQ#wR#wS#wT#lW#ru#q6#wU#ry#sa#wV#h0#sb#sJ#wW#wX#gg#vI#wY#si#si#si#si#gf#sb#sb#sb#i6#lW#wZ#w0#w1#hN#w2#w2#hN#um#w3#w4#vt#sL#w5#w6#w7#w8#w9#x.#x##xa#xb#v2#o3#lW#qR#xc#xd#xe#xf#xg#xh#xi#xj#xk#xl#xm#xn#xo#xp#xq#xr#xs#xt#wz#wA#wx#vt#wB#wC#tD#wD#wE#wF#wG#wH#wI#vs#v5#vv#wz#wJ#wK#wL#wM#ww#wz#wA#v5#wN#wO#sM#wP#wP#wQ#wQ#wQ#wQ#wR#wS#wT#lW#ru#q6#wU#ry#sa#wV#h0#sb#sJ#wW#wX#gg#vI#wY#si#si#si#si#gf#sb#sb#sb#i6#lW#wZ#w0#w1#hN#w2#w2#hN#um#w3#w4#vt#sL#w5#w6#w7#w8#w9#x.#x##xa#xb#v2#o3#lW#qR#xc#xd#xe#xf#xg#xh#xi#xj#xk#xl#xm#xn#xo#xp#xq#xr#xs#xt#xu#xv#vC#wx#xw#wP#xx#xx",
"#vm#xy#xz#xA#xz#xj#xB#xC#xB#xD#xE#xF#xG#xH#r2#xI#sk#lY#pT#qx#xJ#xK#xL#xM#gj#nZ#gi#sp#rv#rv#rv#xN#xO#w2#xP#xQ#xR#xS#xS#v7#v7#v5#v9#xT#t7#xU#xV#xW#xX#xY#xZ#x0#x1#xT#wO#x2#x3#w.#x4#x5#x6#x1#xv#x7#x8#x9#y.#y##uc#y##ya#ya#uV#yb#yc#sI#yd#lY#lf#lf#gl#ye#yf#r1#yg#yh#yi#yj#ls#yk#sj#wW#wX#wX#gl#lb#lb#s0#q6#i6#sH#rv#hN#ug#lY#yl#gf#ym#yn#yo#xj#yp#yq#yr#yr#xz#ys#yt#yu#yv#yw#r1#qV#pT#yx#yy#yz#yA#yA#yB#yC#yD#yE#yF#yG#x9#ub#yH#xo#xr#xr#yq#yI#xS#v7#v7#v5#v9#xT#t7#xU#xV#xW#xX#xY#xZ#x0#x1#xT#wO#x2#x3#w.#x4#x5#x6#x1#xv#x7#x8#x9#y.#y##uc#y##ya#ya#uV#yb#yc#sI#yd#lY#lf#lf#gl#ye#yf#r1#yg#yh#yi#yj#ls#yk#sj#wW#wX#wX#gl#lb#lb#s0#q6#i6#sH#rv#hN#ug#lY#yl#gf#ym#yn#yo#xj#yp#yq#yr#yr#xz#ys#yt#yu#yv#yw#r1#qV#pT#yx#yy#yz#yA#yA#yB#yC#yD#yE#yF#yG#x9#ub#yH#xo#xr#xr#yq#yI#yH#xr#yr#xs#yJ#vw#xB#y.",
"#yK#yL#yr#xr#xA#vt#v5#v5#x5#yM#yN#w8#yO#yP#yQ#yR#vr#ty#yS#yT#yU#yV#yW#yX#yY#yZ#y0#y1#y2#y3#y3#vz#y4#y5#vA#y6#wj#wL#y7#y8#v5#v5#v5#y9#xv#z.#z##x4#xB#xD#za#xr#xr#wb#zb#zc#x2#xR#xR#xz#wO#x1#zd#ze#xv#ub#xR#z##wb#wb#zf#zg#t7#sN#xF#zh#zi#zj#zk#zl#zm#tu#y2#zn#rx#qQ#qQ#ye#qe#ye#zo#rR#sj#xL#zp#qQ#qQ#l.#qw#qw#rV#zq#zr#zs#zt#zu#zv#zw#zx#zy#w6#yp#wJ#zz#xr#xr#yr#zA#y8#zB#zC#zD#sN#zE#wO#zF#v9#vs#zG#zH#zI#zJ#zK#zL#zM#y##vw#zN#xv#xr#xr#wJ#yq#y7#y8#v5#v5#v5#y9#xv#z.#z##x4#xB#xD#za#xr#xr#wb#zb#zc#x2#xR#xR#xz#wO#x1#zd#ze#xv#ub#xR#z##wb#wb#zf#zg#t7#sN#xF#zh#zi#zj#zk#zl#zm#tu#y2#zn#rx#qQ#qQ#ye#qe#ye#zo#rR#sj#xL#zp#qQ#qQ#l.#qw#qw#rV#zq#zr#zs#zt#zu#zv#zw#zx#zy#w6#yp#wJ#zz#xr#xr#yr#zA#y8#zB#zC#zD#sN#zE#wO#zF#v9#vs#zG#zH#zI#zJ#zK#zL#zM#y##vw#zN#xv#xr#xr#wJ#yq#zO#zP#xr#xr#xr#xr#zz#zQ",
"#zR#xT#xn#xr#xA#xB#vt#zS#zT#wx#ww#zU#zV#zW#wn#wn#vk#zX#tv#zY#vW#zZ#vk#v8#xz#v5#yE#vs#u1#z0#z1#z2#w9#z3#yY#z4#z5#z6#z7#wO#wb#xB#uQ#xl#zd#zK#zK#uP#vD#vD#yr#zz#wJ#yp#z8#x2#x2#xR#xR#xR#z9#zA#zQ#A.#zH#yA#xR#xR#xR#xR#A##Aa#w.#wj#wj#xV#wj#wj#Ab#Ab#Ab#Ac#Ad#Ae#Af#Ag#Ah#Ai#Aj#Ak#tK#t3#y3#Al#Al#uh#Am#lY#zo#rF#uY#y2#y2#uK#An#Ao#Ap#Aq#xt#Ar#As#yp#wJ#zz#xr#xr#xr#wI#At#vD#xm#Au#Av#xr#xR#uQ#v9#zK#xv#xv#xv#zK#zK#v9#Aw#v4#vw#zH#xv#xr#xr#wJ#x3#z7#wO#wb#xB#uQ#xl#zd#zK#zK#uP#vD#vD#yr#zz#wJ#yp#z8#x2#x2#xR#xR#xR#z9#zA#zQ#A.#zH#yA#xR#xR#xR#xR#A##Aa#w.#wj#wj#xV#wj#wj#Ab#Ab#Ab#Ac#Ad#Ae#Af#Ag#Ah#Ai#Aj#Ak#tK#t3#y3#Al#Al#uh#Am#lY#zo#rF#uY#y2#y2#uK#An#Ao#Ap#Aq#xt#Ar#As#yp#wJ#zz#xr#xr#xr#wI#At#vD#xm#Au#Av#xr#xR#uQ#v9#zK#xv#xv#xv#zK#zK#v9#Aw#v4#vw#zH#xv#xr#xr#wJ#x3#Ax#Ax#xs#xr#xr#xr#xr#xr",
"#Ay#Az#yr#xr#xA#AA#AB#AC#z##v5#xr#AD#AE#AF#wj#AG#AH#AI#xU#vt#vt#zF#AJ#AK#xU#AL#AM#wL#x9#v5#v5#wb#vt#wo#wx#AN#AO#AP#Ab#xR#xR#yA#AQ#AR#AS#zK#xv#zz#yq#wJ#yq#zz#AT#AU#AV#x2#xo#xR#xR#xR#xR#xA#xr#AW#Av#yq#A##yp#xR#xR#xR#AX#yr#xo#xo#xo#xf#xg#xg#xq#xo#zb#xR#AX#AY#y.#y9#uc#AZ#xE#t7#A0#w8#A1#A2#A3#A4#A5#A6#A7#uO#wk#v6#A8#x4#xB#v6#wb#yC#A9#wo#yp#wJ#zz#xr#xr#z.#B.#B##Ba#Ba#Bb#Bc#yB#xR#vD#vt#Bd#Be#zK#zK#zK#xv#xB#Bf#Bg#xv#xv#xv#xr#xr#wJ#wJ#Ab#xR#xR#yA#AQ#AR#AS#zK#xv#zz#yq#wJ#yq#zz#AT#AU#AV#x2#xo#xR#xR#xR#xR#xA#xr#AW#Av#yq#A##yp#xR#xR#xR#AX#yr#xo#xo#xo#xf#xg#xg#xq#xo#zb#xR#AX#AY#y.#y9#uc#AZ#xE#t7#A0#w8#A1#A2#A3#A4#A5#A6#A7#uO#wk#v6#A8#x4#xB#v6#wb#yC#A9#wo#yp#wJ#zz#xr#xr#z.#B.#B##Ba#Ba#Bb#Bc#yB#xR#vD#vt#Bd#Be#zK#zK#zK#xv#xB#Bf#Bg#xv#xv#xv#xr#xr#wJ#wJ#wJ#yq#xr#xr#xr#xr#xr#xr",
"#Bh#Bi#yr#xr#xr#Bj#Bk#AU#z.#xv#Bl#Bm#Bn#Bo#Bp#wb#Bq#w5#zK#z.#wJ#Br#Bs#Bt#Bu#Bv#Bw#Bx#By#xr#xr#xr#xr#wa#y9#Bz#w5#BA#BB#xR#xr#BC#BD#BE#xv#zK#xv#xr#x0#Bk#BF#x0#BG#BH#BI#BJ#xo#xr#xr#xr#yp#xA#x0#yH#xr#BK#Bk#Av#BF#x0#yq#wJ#yI#AW#AW#BL#BM#BN#BO#zN#zN#zQ#z##sr#A##AC#AC#zS#sU#xv#y9#Bq#AQ#xB#uQ#xW#Ab#sX#uU#BP#BQ#yz#AC#yp#yr#Ba#x1#xs#x2#tv#yJ#wJ#wJ#yH#AW#xr#zQ#BR#BS#w.#w.#w.#z9#z9#xr#xm#zJ#BT#zK#zK#zK#zK#xv#x4#BU#z6#x1#xv#xv#xr#xr#wJ#wJ#BB#xR#xr#BC#BD#BE#xv#zK#xv#xr#x0#Bk#BF#x0#BG#BH#BI#BJ#xo#xr#xr#xr#yp#xA#x0#yH#xr#BK#Bk#Av#BF#x0#yq#wJ#yI#AW#AW#BL#BM#BN#BO#zN#zN#zQ#z##sr#A##AC#AC#zS#sU#xv#y9#Bq#AQ#xB#uQ#xW#Ab#sX#uU#BP#BQ#yz#AC#yp#yr#Ba#x1#xs#x2#tv#yJ#wJ#wJ#yH#AW#xr#zQ#BR#BS#w.#w.#w.#z9#z9#xr#xm#zJ#BT#zK#zK#zK#zK#xv#x4#BU#z6#x1#xv#xv#xr#xr#wJ#wJ#wJ#xr#xr#xr#xr#xr#xr#xr",
"#z5#z9#xA#xo#xo#BV#BW#zz#xr#BX#BY#BZ#BM#B0#B1#zz#B2#BM#B3#x3#AT#B4#B4#B5#Br#zc#xA#By#yr#zz#wJ#xr#xr#zz#xv#B6#v5#B5#xo#Ba#yq#B7#B8#zQ#yr#zz#wa#z9#yr#B9#C.#yr#BG#C##Ca#Cb#xt#xr#yq#Cc#Cc#Ba#Cd#Ba#Ce#Cf#Cg#BK#B1#Ch#Ci#x2#B4#BG#Cj#yC#BG#Ck#Cl#Cm#Cm#B3#ub#Cn#Co#Cp#Cq#Ar#Cr#yL#xv#ub#vt#xB#xC#Cs#By#t8#zf#zb#wb#uP#Ct#Cu#zQ#BK#Cv#Cw#A9#Cx#x8#wJ#wJ#yH#AW#xr#xr#yr#xs#wF#Cy#Cz#CA#wF#xr#yr#xr#Ba#Ba#xr#xs#z.#xR#xR#CB#CC#xR#xr#xr#xr#xr#wJ#wJ#xo#Ba#yq#B7#B8#zQ#yr#zz#wa#z9#yr#B9#C.#yr#BG#C##Ca#Cb#xt#xr#yq#Cc#Cc#Ba#Cd#Ba#Ce#Cf#Cg#BK#B1#Ch#Ci#x2#B4#BG#Cj#yC#BG#Ck#Cl#Cm#Cm#B3#ub#Cn#Co#Cp#Cq#Ar#Cr#yL#xv#ub#vt#xB#xC#Cs#By#t8#zf#zb#wb#uP#Ct#Cu#zQ#BK#Cv#Cw#A9#Cx#x8#wJ#wJ#yH#AW#xr#xr#yr#xs#wF#Cy#Cz#CA#wF#xr#yr#xr#Ba#Ba#xr#xs#z.#xR#xR#CB#CC#xR#xr#xr#xr#xr#wJ#wJ#wJ#xr#xr#wJ#xr#yq#wJ#wJ",
"#xR#xR#xA#xo#yC#CD#CE#AW#AW#CF#CG#BN#B0#B2#CH#zz#CI#CJ#CK#yD#CL#yC#yC#xo#xo#x2#xr#Ba#CM#CN#zz#yq#xr#zz#CO#CP#CQ#zJ#B4#CR#CS#CT#CU#A.#B1#Bk#CV#CW#xr#CX#BO#CY#CL#CZ#C0#Cm#CF#AW#BL#C1#B9#Bk#Ba#Ba#B7#C2#C.#C3#Cm#BO#AW#BG#C4#C5#C6#C7#BG#C8#C9#D.#CJ#D##Da#Db#Dc#wP#Dd#zU#vl#B6#De#wd#y7#Df#Dg#Dh#Di#Dj#BP#sL#v5#x1#yE#xo#xq#Dk#x0#xr#wF#zE#Dl#xt#xt#AW#AW#xr#xr#xr#xA#z9#Dm#Dn#Do#wj#AW#AW#AW#Ba#Ba#xr#xp#x2#z##Dp#Dq#Dr#wj#xr#xr#xr#xr#yq#wJ#B4#CR#CS#CT#CU#A.#B1#Bk#CV#CW#xr#CX#BO#CY#CL#CZ#C0#Cm#CF#AW#BL#C1#B9#Bk#Ba#Ba#B7#C2#C.#C3#Cm#BO#AW#BG#C4#C5#C6#C7#BG#C8#C9#D.#CJ#D##Da#Db#Dc#wP#Dd#zU#vl#B6#De#wd#y7#Df#Dg#Dh#Di#Dj#BP#sL#v5#x1#yE#xo#xq#Dk#x0#xr#wF#zE#Dl#xt#xt#AW#AW#xr#xr#xr#xA#z9#Dm#Dn#Do#wj#AW#AW#AW#Ba#Ba#xr#xp#x2#z##Dp#Dq#Dr#wj#xr#xr#xr#xr#yq#wJ#wJ#xr#Av#Ds#CV#yq#CY#Dt",
"#xR#xR#xA#xg#BJ#BG#BG#Du#yC#Dv#xu#Dw#Cs#B0#Cd#zz#Dx#Dy#CI#Cm#C5#C5#Dz#yB#xg#xq#x0#Cd#Cf#DA#Av#BK#Cd#DB#DC#DD#DE#zG#Dz#DF#DG#D##BM#zH#DH#DB#DI#DJ#DK#AT#DL#DM#C5#yC#CL#AW#CF#AW#AW#DN#DO#DP#xg#BK#DQ#Di#wJ#CY#BM#CU#Dz#C5#DR#BH#DS#C7#yD#DT#C9#DU#C9#C9#DV#DW#Bq#DX#Bi#DY#DZ#xU#ua#vx#D0#Az#ue#D1#D2#D3#xB#uQ#uc#x9#B##D4#D5#D6#By#wb#BB#wb#AW#D7#D8#AW#AW#xr#xr#xr#xA#z9#Df#Df#xB#yq#AW#AW#AW#xr#xr#xr#xo#yB#uP#D9#Bq#xR#xR#xR#xA#zz#Ba#yr#xr#Dz#DF#DG#D##BM#zH#DH#DB#DI#DJ#DK#AT#DL#DM#C5#yC#CL#AW#CF#AW#AW#DN#DO#DP#xg#BK#DQ#Di#wJ#CY#BM#CU#Dz#C5#DR#BH#DS#C7#yD#DT#C9#DU#C9#C9#DV#DW#Bq#DX#Bi#DY#DZ#xU#ua#vx#D0#Az#ue#D1#D2#D3#xB#uQ#uc#x9#B##D4#D5#D6#By#wb#BB#wb#AW#D7#D8#AW#AW#xr#xr#xr#xA#z9#Df#Df#xB#yq#AW#AW#AW#xr#xr#xr#xo#yB#uP#D9#Bq#xR#xR#xR#xA#zz#Ba#yr#xr#xr#xr#BK#E.#Ch#wJ#Bk#E#",
"#xR#xR#xA#Ea#Eb#C##C##Ec#BG#Ed#BM#Ee#Ef#Eg#B1#Av#D7#Cm#Eh#DG#C##Ei#C8#E##Dt#xf#xg#B1#Ej#Cd#zz#DQ#B7#Cd#Ek#El#Em#yr#Bc#En#DM#BO#BM#BX#Cd#zz#yr#Eo#Ep#Eq#Er#Er#Eq#yC#BL#AW#CF#AW#AW#C8#Es#Et#Eu#DB#BF#BK#BK#Ev#Ew#CK#C1#Eb#Ex#C7#Ey#BG#Bc#Ez#Ez#Ez#Ez#D8#EA#w.#EB#sL#EC#ED#EE#xC#EF#tH#v9#y8#x9#EG#EH#vv#EI#xT#EJ#uc#yA#Av#EK#EL#EM#EN#uP#zK#EO#EP#D.#xt#AW#xr#xr#xr#xr#xs#EQ#DV#ER#Ez#AW#AW#AW#xr#xr#xr#xr#Av#ES#ET#zb#xR#xR#xR#xA#EU#CN#Ba#yr#Bc#En#DM#BO#BM#BX#Cd#zz#yr#Eo#Ep#Eq#Er#Er#Eq#yC#BL#AW#CF#AW#AW#C8#Es#Et#Eu#DB#BF#BK#BK#Ev#Ew#CK#C1#Eb#Ex#C7#Ey#BG#Bc#Ez#Ez#Ez#Ez#D8#EA#w.#EB#sL#EC#ED#EE#xC#EF#tH#v9#y8#x9#EG#EH#vv#EI#xT#EJ#uc#yA#Av#EK#EL#EM#EN#uP#zK#EO#EP#D.#xt#AW#xr#xr#xr#xr#xs#EQ#DV#ER#Ez#AW#AW#AW#xr#xr#xr#xr#Av#ES#ET#zb#xR#xR#xR#xA#EU#CN#Ba#yr#xr#xr#yq#Av#yr#yq#Ba#Av",
"#zA#AB#Cd#CH#EK#Eu#DP#CT#yB#EV#EW#B2#EX#EY#Ds#Ba#D7#yH#EZ#E0#E1#E2#DQ#Da#E1#BW#xr#Cf#E3#Av#Av#Cf#E4#Cd#Da#E5#BK#yq#xq#AT#EW#BK#DB#EY#Ba#xs#wJ#yq#xr#E6#E7#DT#EP#yB#yI#yI#yH#yB#Av#E8#BI#xg#E1#CM#xr#xr#BK#E9#F.#CX#CM#F##Bc#CH#Fa#AT#EW#CY#yH#yH#yH#yH#zK#wb#BB#Br#tw#w5#AX#AB#Fb#Fc#Cd#Cd#Di#CY#Fd#xT#Az#B6#Fe#wO#Ff#Fg#Dt#Fh#Df#wM#xv#Fi#B3#Cf#DQ#CY#yI#wJ#wJ#zz#xr#CV#Fj#Fk#EP#B3#yB#B3#Fl#BK#wJ#yr#xv#vs#B1#yr#xA#xA#xR#By#za#Cf#E5#Cd#yr#xq#AT#EW#BK#DB#EY#Ba#xs#wJ#yq#xr#E6#E7#DT#EP#yB#yI#yI#yH#yB#Av#E8#BI#xg#E1#CM#xr#xr#BK#E9#F.#CX#CM#F##Bc#CH#Fa#AT#EW#CY#yH#yH#yH#yH#zK#wb#BB#Br#tw#w5#AX#AB#Fb#Fc#Cd#Cd#Di#CY#Fd#xT#Az#B6#Fe#wO#Ff#Fg#Dt#Fh#Df#wM#xv#Fi#B3#Cf#DQ#CY#yI#wJ#wJ#zz#xr#CV#Fj#Fk#EP#B3#yB#B3#Fl#BK#wJ#yr#xv#vs#B1#yr#xA#xA#xR#By#za#Cf#E5#Cd#yr#xr#x0#Bk#E5#BF#Av#x0#xz",
"#xv#Fb#CN#yr#yr#xo#B5#Cc#wJ#yr#xr#xr#xr#xr#yr#wJ#Av#zz#x2#x2#xr#yq#wJ#xr#x0#Fm#DI#BK#Ba#x0#Av#zz#zz#xr#Av#Fn#Cf#zz#wa#xr#Ba#yr#E4#DH#Av#Av#x0#xr#wJ#yr#yr#yr#Ba#Ba#x0#xr#xr#xr#xr#Fo#x2#xr#wJ#wJ#xr#xr#xr#xr#Fm#Di#Fp#Fq#Cd#yq#x2#yq#Ba#x0#xr#xr#xr#xr#xr#w.#z9#sL#Fr#z9#w.#Ba#xr#Ba#Ba#CM#DH#yB#Ds#Fs#xA#v8#Ft#Fu#Fv#Fw#Fx#EA#ub#wb#Fy#Fz#EY#yr#zz#Cd#yr#xr#xr#xr#BK#DH#DQ#BK#yr#xs#xr#Di#Fm#BK#yq#xr#yr#zQ#yr#zz#Ba#xz#xA#Ba#xr#xr#yr#Ba#yr#wa#xr#Ba#yr#E4#DH#Av#Av#x0#xr#wJ#yr#yr#yr#Ba#Ba#x0#xr#xr#xr#xr#Fo#x2#xr#wJ#wJ#xr#xr#xr#xr#Fm#Di#Fp#Fq#Cd#yq#x2#yq#Ba#x0#xr#xr#xr#xr#xr#w.#z9#sL#Fr#z9#w.#Ba#xr#Ba#Ba#CM#DH#yB#Ds#Fs#xA#v8#Ft#Fu#Fv#Fw#Fx#EA#ub#wb#Fy#Fz#EY#yr#zz#Cd#yr#xr#xr#xr#BK#DH#DQ#BK#yr#xs#xr#Di#Fm#BK#yq#xr#yr#zQ#yr#zz#Ba#xz#xA#Ba#xr#xr#yr#Ba#yr#xo#FA#FB#Cg#Ch#yr#BK#yr",
"#zQ#FC#CM#Fy#Ds#xf#FD#DB#CN#BF#x0#yr#xr#xr#Ds#E3#xr#Cf#E6#FE#BF#Ba#x0#yr#Ba#Di#Cd#E5#Bk#Fp#FF#Da#B7#Di#Av#Bk#BK#BK#E5#yr#Ba#Ba#BF#E4#xr#Cf#Cf#xr#Av#FA#Da#Cf#Cd#DB#FA#Fp#yA#Av#CV#xf#FD#xr#DB#E4#DI#xr#xr#x0#E4#CV#BF#CM#zz#xr#BI#Di#x0#xr#yq#xr#xr#xr#x0#FG#EU#EU#FH#FI#FJ#DI#B7#Fy#E4#Da#Ch#Bb#Bk#FJ#yq#zQ#FK#sr#Ff#FL#BW#EA#FM#FN#zz#Di#Av#Da#FO#FP#CV#Cf#E4#xr#xr#Di#Cd#wJ#yq#yq#yq#BK#E5#zz#E5#x0#wJ#zz#wJ#xr#x0#FQ#FR#x0#E5#E5#BK#yr#zQ#E5#yr#Ba#Ba#BF#E4#xr#Cf#Cf#xr#Av#FA#Da#Cf#Cd#DB#FA#Fp#yA#Av#CV#xf#FD#xr#DB#E4#DI#xr#xr#x0#E4#CV#BF#CM#zz#xr#BI#Di#x0#xr#yq#xr#xr#xr#x0#FG#EU#EU#FH#FI#FJ#DI#B7#Fy#E4#Da#Ch#Bb#Bk#FJ#yq#zQ#FK#sr#Ff#FL#BW#EA#FM#FN#zz#Di#Av#Da#FO#FP#CV#Cf#E4#xr#xr#Di#Cd#wJ#yq#yq#yq#BK#E5#zz#E5#x0#wJ#zz#wJ#xr#x0#FQ#FR#x0#E5#E5#BK#yr#zQ#x3#BF#FA#FS#zz#FA#B1#x0",
"#wJ#Ba#xr#Cd#E.#FT#xq#Di#FU#BF#Ba#Ba#xr#xr#Fn#FV#BK#CN#FW#FX#x0#yr#xr#wJ#wJ#wJ#yq#CN#CN#FY#FZ#DV#Cg#FV#BK#yr#zz#Di#C2#Av#Ba#Ba#Ba#Ba#xr#Da#Da#xr#DB#FV#F0#Dt#Cd#Ba#Dt#B7#Ba#Cd#FF#F1#Fx#BF#Cd#FF#FS#zz#xr#Cd#x0#yr#x0#BK#xr#xr#E3#B1#xr#Av#x0#xr#xr#xr#xr#FS#F2#F3#F4#DA#Ds#DI#Fn#Cd#Dt#CN#xs#EA#yr#BF#BK#yB#BO#CY#yD#F5#F6#F7#F8#FV#x0#Cc#F9#DH#G.#G##CM#Da#CN#Ba#Ba#Ba#Av#Av#wJ#xr#Ba#yr#yr#Cd#FU#CM#wJ#yr#Ga#yr#yr#DB#C2#Ba#B1#B7#za#Ci#Cd#C2#Av#Ba#Ba#Ba#Ba#xr#Da#Da#xr#DB#FV#F0#Dt#Cd#Ba#Dt#B7#Ba#Cd#FF#F1#Fx#BF#Cd#FF#FS#zz#xr#Cd#x0#yr#x0#BK#xr#xr#E3#B1#xr#Av#x0#xr#xr#xr#xr#FS#F2#F3#F4#DA#Ds#DI#Fn#Cd#Dt#CN#xs#EA#yr#BF#BK#yB#BO#CY#yD#F5#F6#F7#F8#FV#x0#Cc#F9#DH#G.#G##CM#Da#CN#Ba#Ba#Ba#Av#Av#wJ#xr#Ba#yr#yr#Cd#FU#CM#wJ#yr#Ga#yr#yr#DB#C2#Ba#B1#B7#za#Ci#Cd#xr#wJ#wJ#wJ#wJ#Ds#Fn#yr",
"#Cc#Ba#yr#x0#x0#Ba#yr#yI#BK#zz#Ba#Ba#xr#xr#Cf#E.#Av#yB#xg#Gb#wa#yr#xr#Cc#wJ#wJ#wJ#za#DI#C2#Gc#yB#DQ#FU#Fn#FV#E4#BF#Cd#wJ#wa#Ch#Fq#Fm#DB#Av#Av#Cd#Fm#Ch#BK#Av#Ba#Av#wJ#Av#Cd#x0#Ba#Ep#Fx#Cf#Gd#Fp#Cc#xs#x0#Da#CM#yq#CV#E##BK#zz#Av#Ba#xr#x0#Dt#B7#xr#xr#yq#wJ#Ep#Ep#Fy#Cd#E4#E##Av#yr#x0#Cd#CM#E##CV#E4#Ge#Cm#Gf#D.#Gg#C5#Gh#Fc#zA#Da#Da#BK#Av#x0#Ch#E5#DB#yr#zQ#wa#yr#xs#Gi#Gj#yq#zz#Fm#C2#Fy#E.#BF#Ba#BF#DI#Fn#Fc#zJ#zA#Cd#za#Av#Ba#xs#yr#Dt#Cd#wJ#wa#Ch#Fq#Fm#DB#Av#Av#Cd#Fm#Ch#BK#Av#Ba#Av#wJ#Av#Cd#x0#Ba#Ep#Fx#Cf#Gd#Fp#Cc#xs#x0#Da#CM#yq#CV#E##BK#zz#Av#Ba#xr#x0#Dt#B7#xr#xr#yq#wJ#Ep#Ep#Fy#Cd#E4#E##Av#yr#x0#Cd#CM#E##CV#E4#Ge#Cm#Gf#D.#Gg#C5#Gh#Fc#zA#Da#Da#BK#Av#x0#Ch#E5#DB#yr#zQ#wa#yr#xs#Gi#Gj#yq#zz#Fm#C2#Fy#E.#BF#Ba#BF#DI#Fn#Fc#zJ#zA#Cd#za#Av#Ba#xs#yr#Dt#Ch#yq#wJ#wJ#yr#Av#yr#wJ",
"#BK#x0#x0#BK#Fh#EA#x0#Av#E5#yr#Ba#Ba#xr#yq#DQ#FF#DI#BF#FT#Gk#Gl#xg#Av#BK#DB#x0#Fa#FT#BI#DP#Gm#xr#Cf#CN#CN#FF#FS#Bk#xr#yr#x0#Fy#C2#DT#BF#Fy#DB#Cd#E##Gn#Av#Ba#Fy#yr#DB#Cd#Ba#xr#xr#xo#Ep#F1#Go#DI#wJ#yr#xr#Ds#CM#yq#DB#CJ#CY#Cm#BM#AW#BM#CY#CM#FN#xr#xo#FT#xf#xo#xo#xr#yq#DB#Ds#Ba#BK#Ba#DB#Bk#Gp#DI#E3#Fn#BK#Gj#Da#Cc#DB#Gq#FN#Gr#E5#Fm#Di#CH#Cd#yr#Av#EL#xr#Ba#CV#Cc#Cd#Gs#Gi#Gt#DB#DH#Da#E5#E##yr#Cd#DB#xr#Da#Fc#Fh#Fy#BF#DI#DI#Gl#Ep#zz#Cf#xr#yr#x0#Fy#C2#DT#BF#Fy#DB#Cd#E##Gn#Av#Ba#Fy#yr#DB#Cd#Ba#xr#xr#xo#Ep#F1#Go#DI#wJ#yr#xr#Ds#CM#yq#DB#CJ#CY#Cm#BM#AW#BM#CY#CM#FN#xr#xo#FT#xf#xo#xo#xr#yq#DB#Ds#Ba#BK#Ba#DB#Bk#Gp#DI#E3#Fn#BK#Gj#Da#Cc#DB#Gq#FN#Gr#E5#Fm#Di#CH#Cd#yr#Av#EL#xr#Ba#CV#Cc#Cd#Gs#Gi#Gt#DB#DH#Da#E5#E##yr#Cd#DB#xr#Da#Fc#Fh#Fy#BF#DI#DI#Gl#Ep#zz#Cf#BF#CM#Da#DQ#BF#yq#xr#CV",
"#Fm#CV#xg#Bk#Gu#Gv#Gw#Fp#E##xs#Ba#Ba#xr#DI#E##DB#C2#DI#BW#Gx#FW#Gy#Ds#Gz#Fm#Av#GA#GB#GC#xf#GD#CV#yr#x0#BK#wJ#Da#C2#yr#wJ#yr#yr#yr#Cd#xr#FB#Dt#zz#DB#yr#za#Fp#GE#BF#DQ#CV#yr#xr#xr#xo#xo#xg#xg#yq#xr#xr#xs#BF#Ba#xr#zz#Ez#xu#C8#D.#xu#BM#Bb#x0#x0#yq#xf#GF#FX#GG#xo#xs#yq#yq#By#Ba#Ci#Ch#Gs#Fq#Av#Gt#Dt#Fn#yq#Ba#zz#Cc#Cd#FU#GH#FC#x3#DB#F4#DA#E9#yA#Ba#E##Cf#DQ#FU#yr#Fm#DQ#za#BC#Fq#Fy#Bk#C2#Av#yr#DH#C2#Cc#x2#GI#GJ#F3#GK#GL#GM#GN#GO#xp#xo#yr#wJ#yr#yr#yr#Cd#xr#FB#Dt#zz#DB#yr#za#Fp#GE#BF#DQ#CV#yr#xr#xr#xo#xo#xg#xg#yq#xr#xr#xs#BF#Ba#xr#zz#Ez#xu#C8#D.#xu#BM#Bb#x0#x0#yq#xf#GF#FX#GG#xo#xs#yq#yq#By#Ba#Ci#Ch#Gs#Fq#Av#Gt#Dt#Fn#yq#Ba#zz#Cc#Cd#FU#GH#FC#x3#DB#F4#DA#E9#yA#Ba#E##Cf#DQ#FU#yr#Fm#DQ#za#BC#Fq#Fy#Bk#C2#Av#yr#DH#C2#Cc#x2#GI#GJ#F3#GK#GL#GM#GN#GO#xp#xo#AU#CN#G.#GP#Da#yq#Fp#Gs",
"#GQ#FE#DK#Ba#CO#GR#Gw#x0#FS#Gi#Fy#yr#Ba#DB#Di#Cf#Da#Da#BW#Et#FE#Ep#GD#GD#Gy#yr#EZ#GS#GT#GU#GD#Eu#GV#Av#wJ#GW#Gp#CN#BK#Cg#Gp#B7#Di#BK#xr#E5#DQ#BW#BF#DQ#BK#Fp#Gs#x0#C2#E3#Cc#x0#yq#AD#E6#BI#F1#BJ#GU#Dv#DT#Ep#B5#Gy#GX#GY#C7#C##Eq#DL#GZ#E2#DI#DI#Ds#AD#GS#BV#E6#Et#G0#G0#FA#DQ#Cd#FU#C2#E5#E5#Av#E5#Ds#FY#Cf#x0#Cf#Bk#DB#FA#Fm#FA#yr#z.#Ch#E4#Fp#Ba#Ba#G1#Da#Fy#DQ#zz#FV#Fn#CM#BK#FU#CV#Fy#C2#DQ#yr#BK#FU#G2#Gs#Fn#FS#G3#B7#FS#FS#FS#Cf#yq#B7#BK#Cg#Gp#B7#Di#BK#xr#E5#DQ#BW#BF#DQ#BK#Fp#Gs#x0#C2#E3#Cc#x0#yq#AD#E6#BI#F1#BJ#GU#Dv#DT#Ep#B5#Gy#GX#GY#C7#C##Eq#DL#GZ#E2#DI#DI#Ds#AD#GS#BV#E6#Et#G0#G0#FA#DQ#Cd#FU#C2#E5#E5#Av#E5#Ds#FY#Cf#x0#Cf#Bk#DB#FA#Fm#FA#yr#z.#Ch#E4#Fp#Ba#Ba#G1#Da#Fy#DQ#zz#FV#Fn#CM#BK#FU#CV#Fy#C2#DQ#yr#BK#FU#G2#Gs#Fn#FS#G3#B7#FS#FS#FS#Cf#yq#B7#Ba#B1#G4#DA#Av#Ci#CM#DQ",
"#G5#G6#x2#wJ#zK#G7#Gw#yr#E5#G8#Cf#wJ#Ba#Ba#DI#Cg#yr#E9#G0#Gc#Gl#xo#GF#GI#x0#yr#x0#BW#GC#Ep#DP#G9#H.#Cc#z.#Ci#Gp#Dt#Bk#H##Ha#DH#Da#wJ#Av#Cd#Ds#Gx#xm#Fq#Di#Fy#C2#yr#Fm#Dt#BF#Av#yq#GT#GF#GD#GA#Hb#yC#Hc#Hd#EW#GG#Fj#He#Er#Er#Hf#Ey#Hg#C##He#FT#E4#Hh#Hi#Hj#GQ#GQ#GQ#Hk#G5#Gs#FF#x0#Hl#Gq#zz#xn#xs#Gp#Di#Ba#E##x0#Da#Gp#yr#Ba#Fn#FA#zz#Av#zz#xs#yr#Ba#BK#Hm#C2#yr#BK#z.#Fm#F0#C2#x0#Fm#Bk#wJ#Fp#Fn#Fp#Cc#FB#Hn#Ho#F8#xA#xr#xs#DK#xo#DK#xg#DI#FV#Bk#H##Ha#DH#Da#wJ#Av#Cd#Ds#Gx#xm#Fq#Di#Fy#C2#yr#Fm#Dt#BF#Av#yq#GT#GF#GD#GA#Hb#yC#Hc#Hd#EW#GG#Fj#He#Er#Er#Hf#Ey#Hg#C##He#FT#E4#Hh#Hi#Hj#GQ#GQ#GQ#Hk#G5#Gs#FF#x0#Hl#Gq#zz#xn#xs#Gp#Di#Ba#E##x0#Da#Gp#yr#Ba#Fn#FA#zz#Av#zz#xs#yr#Ba#BK#Hm#C2#yr#BK#z.#Fm#F0#C2#x0#Fm#Bk#wJ#Fp#Fn#Fp#Cc#FB#Hn#Ho#F8#xA#xr#xs#DK#xo#DK#xg#DI#FV#Cd#E.#Hm#BK#BK#Ba#Ba#zz",
"#CV#xo#EZ#CN#Ba#F7#Ds#FV#Hp#Hq#E9#FS#xr#yB#Hr#Fl#yH#B3#Fa#GU#GU#E6#Hs#Ht#Hu#E##Hv#GU#Gk#Ht#Hw#Hx#F6#Ep#FV#B5#x0#xr#yq#DA#CM#zz#Av#x0#GE#DV#Hy#Hz#Hy#Gi#DQ#Av#Ep#yB#Hy#EP#F8#HA#BK#E9#Dt#F1#C##Ei#DM#HB#HC#HD#Hs#Es#Hs#HE#HE#Hf#HF#HG#Hb#Ey#HH#HI#E.#G5#GD#GQ#F6#Hw#Fx#HJ#HK#Hy#Ht#E2#Gn#yq#xg#HL#DA#FS#HM#HI#B4#HN#HO#HP#F##GE#BV#Hy#E6#yB#Da#HQ#x0#HR#HS#EQ#DI#E9#x0#DV#EK#Ep#EW#DV#HI#yq#x3#FT#yr#EQ#EK#E4#EQ#B4#HT#HU#HV#HW#HX#HY#GA#DV#F4#yq#DA#CM#zz#Av#x0#GE#DV#Hy#Hz#Hy#Gi#DQ#Av#Ep#yB#Hy#EP#F8#HA#BK#E9#Dt#F1#C##Ei#DM#HB#HC#HD#Hs#Es#Hs#HE#HE#Hf#HF#HG#Hb#Ey#HH#HI#E.#G5#GD#GQ#F6#Hw#Fx#HJ#HK#Hy#Ht#E2#Gn#yq#xg#HL#DA#FS#HM#HI#B4#HN#HO#HP#F##GE#BV#Hy#E6#yB#Da#HQ#x0#HR#HS#EQ#DI#E9#x0#DV#EK#Ep#EW#DV#HI#yq#x3#FT#yr#EQ#EK#E4#EQ#B4#HT#HU#HV#HW#HX#HY#GA#DV#F4#Fp#wJ#CM#BK#Ds#E5#Ci#Ci",
"#xr#yq#Bk#FF#x0#AU#FS#GD#GS#xo#HZ#G6#xo#Gc#H0#Gy#Gc#GT#Fx#FX#H1#DB#Ep#xo#Gc#GV#H2#xg#Hq#FT#Cf#Gp#x0#Cd#D.#H3#Hb#H4#H5#H6#H7#H8#H9#I.#I##Ia#H8#H7#Ib#Ic#Id#H9#Ie#Ie#If#Ig#Ih#Ig#Ii#Ij#Ik#Ij#Il#Im#In#Im#Ib#If#Ii#I.#Io#Ip#Iq#Iq#Ir#Im#Is#It#If#Is#Is#Is#Iu#CD#Is#Iv#Iw#Ix#Iy#Iz#IA#IB#IC#If#ID#IE#C6#I.#IF#Is#Gh#C##Er#Ei#Gh#IG#Ei#IH#If#Ii#II#H9#Er#IJ#IK#DM#Er#DM#Ey#HG#Bc#Ez#Cm#BG#CL#IL#Ei#C##C7#C5#Er#BH#CL#Fa#Ey#Eb#IM#Hk#xf#GT#Gy#xf#xq#EW#CN#Fp#Fy#Cd#GU#Ey#IN#IO#HG#Ei#BY#CK#Ez#C5#IP#Cl#CR#Cb#IQ#DI#DQ#Hq#GU#IO#Hf#C7#IK#Hf#IR#IS#Er#Hf#GK#IT#Eb#Ei#IU#IV#HF#IK#Fa#GD#GS#GI#DP#IW#Ei#CL#Er#IX#IJ#Ei#IY#FD#xo#GV#IZ#BV#HZ#BH#IV#BH#Ey#Ei#HF#Ei#GF#GI#FW#I0#xr#Fb#I1#yq#xr#Da#F1#F1#DP#F1#Ey#I2#BG#C5#Ei#DM#B4#Ep#Gl#FT#FX#Et#x2#GU#DM#I3#I4#I5#BH#Ez#EZ#Fn#DH#FB#CN#BK#Cc#yr#B1#Bk#xo#Hv",
"#yr#zz#zz#DB#Cd#Ba#xo#F1#GS#xg#Gc#xq#Gl#GI#GD#GV#xp#xg#xp#I6#I7#I8#GF#Fx#I9#J.#J##Ja#Jb#AD#Cc#BK#Av#E9#Jc#BY#Jd#BG#Je#Jf#I.#ID#Jg#Jh#Ji#Is#I.#Ix#Jj#Jk#Jl#Jm#xh#Jn#Jo#Bl#Is#I4#IC#Jf#Jp#Ij#ID#Is#Ix#Jq#Ib#If#Ib#H6#ID#Ii#Is#I.#ID#ID#Ig#If#If#If#If#II#Jr#Ia#Is#Is#Js#Ie#H8#Ir#Jt#Ij#Is#Is#If#If#Ij#If#Is#ID#Ju#C##Hf#Hc#Ey#Eb#yC#IP#Jv#IE#Jw#Jk#C##E0#Hb#Er#Jx#En#C7#HG#D8#C9#Jy#GY#Hg#Ei#BG#CL#BG#C5#Er#Ei#Hf#Eb#CL#CL#Gk#Ep#GG#FD#IZ#F3#Et#x2#Av#C2#FU#Ds#Jz#BG#BG#IP#IP#yC#BL#xt#C1#C##BG#Bc#JA#zN#JB#Ci#DI#FT#B4#C5#Er#I5#JC#JD#HF#C##JE#Ia#GK#I##JF#BG#BG#yC#JG#JH#HU#BV#FE#BV#AD#B4#BG#CL#CL#IK#Er#DM#JI#Hk#Gy#FZ#Gl#xo#Hz#H4#C5#C##Hb#Hb#Ei#C5#GS#FE#JJ#J##DI#yq#zA#xr#x3#BF#FT#Gl#Gy#Hs#BH#Ey#JK#IV#Ei#Hg#GX#GQ#GD#FW#GV#xo#x2#B4#Eq#I.#Ix#Ia#IJ#JL#zz#wJ#x0#yq#JM#JM#zz#Ba#Cd#BF#Gy#Hk",
"#zz#E1#Da#Ba#FA#BW#Fx#Gl#HZ#Gy#FT#FT#Eu#FW#FW#HZ#Gl#Hv#BV#x2#BV#G5#E6#G6#G5#JN#JO#JO#JP#F1#xo#GV#xf#GT#Ey#C7#IK#C7#JQ#Ie#II#ID#Iw#JR#Ip#If#Is#Is#Id#JS#Jj#Iv#Iv#Ig#Ig#JS#Ii#JT#Id#Ix#Ip#Jf#Is#If#ID#H7#Jf#Is#JR#JU#Jf#ID#ID#Is#Is#If#If#If#If#If#Ig#Ic#JV#Ix#JW#Jf#Id#II#JX#Jh#Ix#Is#Ij#JT#Jv#I.#Jp#JY#I.#Jo#CZ#Ec#Er#Ey#IK#IK#Hb#JZ#JT#Id#Jj#JS#Er#J0#BH#Er#Jp#Ij#I##IU#AW#C7#Ju#Eb#Hc#C##IK#Hc#Ec#C7#JK#Ei#Hf#IU#yC#Hb#J1#F1#xf#xo#BI#E6#AD#FT#yr#Fm#Fn#E4#HI#BG#Hb#J2#IC#yC#yC#C5#IK#Er#IK#E0#CG#AW#wJ#CV#Gl#BI#He#GX#J3#ID#Ii#J4#Ii#Is#JR#J5#J6#J7#IE#J8#Iv#Jj#Ip#Jp#J9#FX#Ep#BW#Gc#B4#CL#DM#BG#DM#C7#yC#K.#Et#GV#GA#Fj#E6#BV#Is#It#IK#Hb#E0#Eb#yC#K##Ka#IY#F6#xg#AU#yq#xr#F1#BW#BI#Gy#xf#C4#Hc#Ey#C7#C7#IX#Hb#Kb#GK#He#IW#Fj#BW#Gc#Kc#Eb#Jv#If#Kd#Hr#C5#Gk#Ep#xr#E4#FB#FF#x0#F1#Fx#Gy#DP#Hi",
"#Gt#Ke#Kf#Av#F.#HF#C7#x2#Ep#BV#GV#DP#Kg#Hi#FW#Hi#Et#BI#Kh#Gy#Gl#xg#x2#H0#Hv#Ki#JJ#Kj#FT#Ki#AD#IZ#xf#Gl#CL#Kk#CL#Er#Hf#IB#Kl#I##I.#ID#ID#Is#Is#ID#Jf#Ia#Ia#ID#I.#If#Is#Ii#If#ID#Ia#Jf#Km#JR#Is#If#If#Ie#Is#ID#Is#ID#Is#Is#ID#Is#Is#If#If#If#If#If#Is#I##ID#Jf#In#JX#Jj#I4#Iy#Kn#IE#ID#Jo#Jg#Jv#Ko#JV#Kp#Ij#IC#Jk#BH#Eb#IS#Hb#DM#C##IP#JT#Kq#Ia#I5#Jd#J0#BH#Er#HF#Kr#IA#C7#Ks#yD#Eb#JD#Hf#Hf#Er#Er#HF#Er#yC#Eb#Hf#Eq#C5#Er#Hw#FW#GC#xo#Ki#Kt#AD#F##Ba#Fm#B7#AB#HO#BH#Eb#Hf#H9#yC#CL#IK#Hf#Er#Hf#Ku#CI#xt#Ba#FV#Ep#GD#Kv#HF#Kw#ID#JV#Kx#Ky#Is#JU#H7#Kz#KA#If#HE#Hf#Er#Ei#Hf#Ht#FD#xo#xq#B4#CL#CL#Jd#KB#Kc#Dz#C5#Fx#x2#F1#FW#Hf#Hf#C7#KC#Ii#KD#IU#Hf#Eb#yC#Ig#JS#KE#Gk#xq#x2#wJ#EW#Hs#Ja#Hi#GD#xf#GU#Ei#Hc#C5#KF#KG#Cl#Iw#ID#KH#yC#Eb#KI#Eb#yC#Eb#Ik#Jr#Js#BG#KJ#KB#Es#BF#FB#Di#zz#Dz#Hf#Hg#C7#HF#Hf",
"#yr#E5#Gy#BG#BH#C5#yD#HZ#KK#Ea#FX#Fj#J0#Ec#DM#KL#JF#Eb#Es#Eq#Ei#Ed#xi#Ii#Ie#Jo#Js#Kq#Ig#KM#HG#Eb#GT#FX#Eq#C4#KN#Ij#C6#Iw#Jj#Jl#Jv#I##JT#I4#If#ID#Iu#IB#ID#If#If#ID#Is#If#Is#JT#IE#Is#Jf#Is#Is#If#If#H9#Il#Ix#Iv#If#Is#If#I##Is#Io#Ig#Is#Is#Is#If#Is#ID#Is#If#JT#If#If#Is#KO#KP#Ib#ID#Jp#KQ#It#I.#KR#JV#H9#Jv#Jv#Ie#Ii#I.#Ij#Ij#Is#H9#Ei#Er#Kd#Er#Hf#Ei#Ei#C##Hb#KS#Eq#BH#Hr#yC#Eb#HF#Hf#Er#Er#Er#Hf#Er#C7#Hf#Eq#BH#CL#DM#Eu#Hp#BW#KT#Gc#BI#C##Jc#Ck#Eh#KU#KV#Hw#GV#Fa#Hv#KW#JX#KX#KE#Hc#Er#Er#KY#FW#yq#CU#C9#C5#JS#KZ#ID#Is#Is#Ii#K0#K1#K2#K3#K4#Js#Ik#BH#BH#En#BH#Hb#Ei#K5#K6#Gk#GX#Ei#Ey#yC#Hg#yC#Ht#K7#GT#Hu#Hb#Eq#Ju#Is#Is#If#Ig#Is#K8#K9#L.#K2#L##Kn#JS#Ei#Ii#Ey#C5#BH#Ie#Eb#DM#La#Hc#C7#GU#GF#Es#DP#IT#JR#Lb#Lc#I##C5#Kk#Eb#C##C##Eb#Ei#KO#Ix#Ld#Jm#Le#Gh#HP#DB#Gy#C5#DM#Ed#C##Eb#C##HE#Is",
"#Ba#xr#GU#DM#KE#yC#CL#IW#Lf#xf#AD#BW#C5#yC#yC#yC#Ey#JC#BH#Eb#Er#IU#It#ID#If#If#Is#Is#Is#Er#Er#Er#Hw#FW#Er#Ei#J8#Is#Io#JY#Ig#Lg#If#Kq#JY#Io#Lh#Is#I4#Iv#ID#If#Js#Ix#Jf#If#Is#Lg#Io#Jf#Is#Is#Is#If#If#Ig#H7#KO#Ik#Ij#If#Is#Jf#Is#Jr#Jo#Is#ID#Jf#Jf#Is#Is#Is#Ig#Kl#II#IF#ID#Jp#H6#Ip#Ia#H8#Ir#IE#Is#Iq#Ii#H9#H9#Ig#If#Is#Is#Is#Is#Is#I##Er#Er#Er#Er#C##Hf#Er#Er#Li#D##Hc#J2#Er#C5#Cl#C##C##Ei#Ei#C##Er#HF#KI#Lj#C7#BG#DM#KE#Lk#FE#G6#Ll#E6#IW#Ju#Lm#DN#xu#Ku#Ln#GE#Gy#Ea#DK#Lo#Lp#Lq#Lr#Hb#C##He#Ls#Hi#yq#Lt#Lu#BH#J2#Ih#Is#Is#Is#I.#J3#K1#K2#Lv#Lv#I.#CD#yD#CY#Ez#AW#Bc#Hr#Lw#Lx#Ly#C7#Jd#JC#DM#C5#yC#FZ#Lz#FW#GX#Eq#Er#LA#K2#K2#LB#LC#LD#LE#LF#LG#LH#LI#LJ#LK#LL#LA#HF#C0#DS#Is#Jo#DM#BH#IK#Er#Fa#BV#FW#GD#LM#If#LN#LO#LP#LQ#LR#IO#LE#LL#C##Ei#Il#Il#LS#KC#K0#HF#HP#Cm#EW#xi#LT#LU#LV#Jd#J3#LA#Ky",
"#xA#FX#LW#C##J3#LA#Iw#BG#DM#xp#GU#IK#Ei#BG#KJ#Eq#Er#Hf#C##BG#LX#Ie#Ij#Is#If#Ii#H9#Ii#Is#I##I##I##HE#F6#Ii#If#H9#Is#Is#ID#I.#Jf#Iy#KP#Js#If#If#If#Il#JX#If#If#If#LY#Il#If#If#LZ#Ig#Is#Is#Is#Is#Is#Is#If#KO#Jf#Ij#Ij#If#Ij#LY#L0#If#If#Is#Is#Ix#L1#JR#Is#Is#Is#Ig#If#If#Ij#Jp#Ix#ID#If#Ij#I.#Ij#Ig#I.#Ij#H9#H9#Ig#If#ID#ID#Is#Is#Is#I##DG#IK#BG#DM#Eq#C##Er#HF#L2#C0#BH#C7#C5#I5#Kd#IK#C5#BG#DM#IV#Eb#L3#L4#L5#C##DM#Ei#IV#B4#FD#xq#FT#DP#Es#C##Eq#BG#L6#Dv#CE#GU#BV#FW#GD#L7#ID#Ky#L8#Ij#Er#C##I0#AD#GG#Jz#Bc#IK#Ju#Ix#Is#Is#Is#Is#I.#Ky#K2#LB#K2#LH#I5#L9#yD#Du#Ed#Hg#Ed#Es#xo#x2#Ey#IJ#Jd#C##Ei#JC#JJ#Gl#GS#Eb#IJ#Er#LA#K2#LC#M.#K2#K2#K1#K2#LI#M##Ma#Mb#LH#LD#Mc#Iq#L4#Md#Lh#I##Jo#I5#Er#KI#Es#FW#GD#GD#Me#Mf#Mg#Mh#Mi#Mj#Mk#LV#Ml#Mm#IJ#Er#ID#Mn#Mo#Ig#LH#Er#Er#Gh#He#He#C##J3#K1#LI#LH#LH#LI",
"#GA#H0#IT#Hf#JQ#Jp#II#KB#Hc#Hc#IK#HC#IX#Lu#Hb#Eq#Gh#Hf#Hf#IK#Mp#Ib#Is#Is#If#If#Ii#KQ#Ia#Is#Is#Is#Mq#Mr#Ix#Ix#KQ#I##Is#Is#Is#ID#Ji#KZ#If#If#If#If#Ms#Mt#Is#If#Ig#Ib#JX#Js#If#If#Is#Is#Is#Is#Is#Is#ID#JW#Ia#Is#Is#If#If#Ig#Mu#Ji#Ii#Is#Is#Is#ID#Jt#Mv#ID#Is#Is#Is#Is#H8#Ip#Jp#Is#If#Jf#KQ#KQ#KQ#KQ#Mw#KP#KP#KP#KP#Mx#Jf#ID#Is#Is#Is#I##Er#Ei#Eb#JC#Lj#IX#Lj#KF#My#Er#HF#Hf#Hc#I##ID#Hf#Eq#BH#J0#Hc#HF#Mz#MA#MB#Ei#C7#C##Hc#JF#Et#Et#AD#GD#He#C##Ei#Hc#BH#C5#yC#Gb#JJ#GD#H0#Mo#Is#MC#Jv#IB#IO#JE#MD#DP#Et#GX#IO#C##Ju#Is#Is#Is#Is#Is#Is#Ky#K2#K2#K2#LH#L8#Cl#Hc#IK#Er#IK#I5#FW#ME#G6#Lm#IJ#IJ#C##C##Er#DP#FE#MF#Hw#Er#Er#LA#K2#MG#M##K2#K2#K2#M##MG#MH#MI#MG#MJ#LH#I.#LY#MK#KO#Ih#ID#Mt#ML#MM#IX#KI#FW#GD#GD#Me#Is#MN#MO#MP#MO#MQ#LE#LE#J3#IJ#Er#Is#Ko#Mf#Is#LH#Er#Er#Er#Hw#Hw#Er#J3#K2#MR#MS#MT#Lv",
"#MU#MV#Js#HE#Kd#Js#I5#LA#Kd#Jx#Hf#ML#MW#KG#Jx#JH#I5#HE#Jx#Kd#KR#IA#I.#Is#Is#If#KZ#MX#Jf#Is#If#If#Js#MY#Mt#Mt#Ir#Jf#Is#Is#Is#Is#Jf#MZ#Is#If#If#If#Is#Is#Ii#If#If#Ij#ID#ID#If#If#I.#Ii#Is#Is#Is#Is#Jf#L1#Mt#Is#Is#If#If#If#Is#I.#Ij#I##Is#If#I.#If#If#Is#Is#Is#Is#Is#KQ#Iy#ID#If#Ig#Mt#M0#M1#Iz#M0#Km#Km#Km#M0#Iz#MX#I.#If#If#If#Is#I##JE#M2#M3#M4#M5#M5#M6#Kd#Ju#MA#M3#M7#Mp#Ia#Is#M8#M9#KS#Hf#H4#N.#I5#HE#Ju#HE#HE#HE#JE#JE#GN#F6#N##H0#F6#JE#JE#C##C##Ey#CL#HW#Gb#IZ#F6#Mf#I##MC#Iw#I3#CD#Js#IT#Na#Nb#Lj#Kr#Nc#Ie#Is#Is#Is#If#Is#Is#M.#M.#LB#Ky#Nd#Ne#I5#JE#Er#HF#C##C##Hw#IT#IT#HE#Ju#L8#I5#I5#HE#He#Nf#H0#JE#JE#C##LA#LH#MI#Ng#LB#LB#M.#Ng#Nh#M.#K2#H8#Ky#LC#If#If#Is#Ii#Is#Ix#Ir#Iz#M4#Kr#Ia#JE#JH#JH#Mf#Is#MZ#Ky#LB#LP#Ky#Kw#Kw#LA#L8#Ju#Is#Ko#Mf#Is#Ky#Ju#Ju#Ju#JE#JE#Ju#LA#Ky#LC#Ng#Ma#K3",
"#Mt#I.#Is#Jf#M2#My#KF#K2#LB#ID#Is#Ix#Ni#Mi#MK#Ix#If#ID#ID#Kq#Nj#ID#If#Is#If#Ib#IA#Mv#Is#Is#Ix#Il#If#JR#ID#Is#Ms#Nk#Mv#ID#ID#ID#ID#ID#Is#Is#Is#If#Mt#MX#Nk#ID#If#JR#KP#Is#Is#If#Ib#LY#If#Is#Is#Is#ID#KQ#Ix#KA#Jp#Il#ID#If#KQ#MK#Ia#Ii#KQ#KQ#ID#JU#Jf#KZ#Jt#Jt#JU#JR#Jf#Ix#If#If#If#ID#KZ#KZ#Jh#Mt#Ip#Ip#Jh#Nl#Nm#Ip#MK#JU#H7#Il#Is#Is#Is#JR#JX#Ip#Jh#KZ#KP#Nn#Is#H8#Ib#JR#Ih#Jf#JX#Jt#Mt#LZ#If#Ip#JR#Is#LY#No#Is#Np#Nq#Il#Il#Jt#Nr#Is#Is#Ip#H7#Ns#HF#Er#C##C7#Nt#Iv#Jv#KZ#JX#Ie#Is#Ig#Id#If#JX#MC#I.#Is#Jp#Nu#Jh#If#Is#Is#Il#Nk#LY#ID#LY#Ix#Is#Ix#Jt#Jt#Ix#C##Er#Hf#Er#Er#Nv#JU#Il#K4#Is#If#If#Ij#Jh#Ip#Is#Is#Nw#Ib#Nx#Is#Is#Ib#Ib#ID#ID#Is#Ix#Ix#Is#Is#Jf#Is#Is#Is#If#Is#If#Mu#H7#Jh#JR#Mt#Ip#ID#Is#If#If#Is#Is#Is#Is#Is#Is#Is#Is#Is#Is#If#If#Is#Is#Is#ID#Is#Is#Is#Is#Is#Is#Is#Is#Is#Is#ID#Mu#ID",
"#MZ#Jp#Is#Jf#Ny#M4#Nm#Nz#LB#ID#ID#If#MQ#MX#NA#Ib#Is#Jf#Kq#Kq#I.#I.#Is#Is#Is#JX#MX#If#Is#If#Ip#Jq#ID#Is#Is#Is#I.#M0#JR#ID#Jf#ID#ID#ID#Is#Is#ID#I##Ji#NB#Jq#Jf#ID#Ji#Nk#Jf#Is#Is#JX#Im#ID#Is#Is#Is#ID#Ii#NC#ID#KO#H6#ID#Ig#KP#Im#H8#Is#ND#Mg#KO#Iq#Jh#Mt#NA#Kr#Km#LY#I.#Is#If#If#Is#Jf#Ig#H9#Is#Is#Is#Is#If#I.#Is#Jp#Im#Im#Jq#NE#ID#Is#Is#I##Jf#Is#If#Ig#Ip#NF#ID#If#If#ID#Jf#I.#Ns#KR#Ix#If#If#If#Ij#Jp#Im#JR#If#JW#Iz#NG#NH#Iz#MX#ID#I##Nq#Iz#NI#HF#Er#Hf#HF#Jx#Jf#If#KZ#Nk#Is#If#Is#If#Ib#L1#Ip#Is#If#Jp#Iq#Jh#If#If#I##MK#Im#JU#H8#NA#Ip#ID#JR#Ir#Jq#Jh#Ei#Hf#NJ#Hf#Er#Mx#NF#Jq#KZ#Is#If#If#KA#Mg#JU#Is#Is#Ij#Nr#Jt#Is#Is#Is#Is#ID#ID#If#If#H9#If#Is#Jf#ID#Is#Is#If#Is#Is#JR#H6#Ii#If#Is#If#ID#Is#If#If#ID#ID#Is#Is#Is#ID#Is#Is#Is#Is#If#If#Is#Is#I.#ID#ID#Is#Is#Is#Is#Is#Is#ID#Is#Is#Is#Is#Is",
"#NK#NL#Lh#Ij#NJ#NA#NM#LH#K2#K2#K2#MZ#ID#Jf#Kq#Ii#JW#NE#MX#JR#Ii#I.#ID#ID#ID#Kq#Ia#Ig#Js#Is#Ip#Im#Jf#If#ID#Is#I.#Iz#Ix#KQ#Il#If#If#If#H9#H8#Jq#KO#If#Ip#NH#Jq#Jq#M0#NF#H6#ID#If#Is#JR#I##Is#Is#Is#Is#If#Nk#LY#Is#Is#Is#Is#ID#Ib#Ir#Ix#H7#Mg#Js#Ix#ID#I.#I.#ID#Jf#Is#LY#ND#Js#If#LY#Nk#Is#ID#H7#NN#Mt#ND#KZ#H7#Il#ID#Ix#ID#Ia#Jh#Iy#KO#Is#LY#MX#Is#ID#Ig#Ip#Im#ID#ID#ID#Mt#NO#H8#I.#JX#Nk#Is#Kq#Ic#Id#Is#Ia#ID#If#Ib#M0#Iz#Ip#Is#Is#Ii#ID#IA#NG#MX#ID#Ig#JX#JU#ID#Im#JW#Ia#Kq#ID#Is#Ig#Jv#Is#Im#KQ#I##Is#Jp#H8#Jf#Ia#Ia#Jp#H8#I.#Is#Is#ID#Is#Is#Is#ID#ID#If#JR#L1#Iq#Mv#Ig#I.#H8#Ix#ID#Jf#If#Is#I##Jf#ID#If#If#I.#Jf#NC#Is#Is#If#ID#ID#ID#Ig#Is#Is#Is#ID#NE#JX#If#Is#Is#Is#Is#Is#Jf#Is#Is#I.#Jp#MX#JW#KA#If#Jf#Mg#KZ#I##KZ#Im#I.#If#If#If#If#If#Ii#Id#Is#Jf#Ns#KP#If#Is#Is#Is#Mt#Nk#ID#ID#Is#Is#Is",
"#ID#NP#NQ#Ib#M8#L1#NM#LH#K2#K2#MG#LC#Is#Is#ID#If#Jh#NE#Jq#Mv#JR#Jf#ID#ID#ID#If#I##JR#Kq#Is#KQ#NA#Mt#Ib#Jf#ID#H8#KR#Jf#H7#NR#JR#JR#Ib#Jf#I##Il#Ix#If#JR#Iy#ND#Nk#H7#Ns#NS#Mt#Jf#Is#If#Is#Is#Is#Ii#Jh#Is#JU#Jh#Ij#Is#Is#Is#ID#Kq#ND#Ib#Ip#Md#I##If#Is#Mv#Kq#If#If#Is#Ib#Mg#I.#If#Ip#LY#If#Is#Nr#Jh#Jp#MK#Jp#LY#JU#Mv#Is#KQ#Mu#Ip#KR#Jp#Is#Ib#Il#Is#Is#Ix#Nr#Il#Jf#ID#ID#JR#Ji#Jh#KZ#Mt#Il#Is#Jf#KZ#Jp#Jf#H8#Ia#Jf#LY#Iy#Iz#NT#KQ#KO#Is#ID#LY#H6#H7#ID#H9#JX#H7#If#H7#Mt#KO#JW#KO#Jp#Ix#KO#KQ#Iy#KP#KZ#JW#JR#KO#KO#JR#JR#JR#Ib#Jf#H8#Ix#JR#Ix#Np#Np#JR#JR#H8#Nr#NU#Iy#Jp#ID#JR#H8#Mv#ID#H8#KZ#Ib#JR#ID#Jf#Ib#Ib#Jf#ID#Is#Is#Is#Ix#Jf#ID#ID#Ib#ID#Is#Is#ID#KR#Ip#If#Is#Is#Is#Is#Is#Is#Is#Is#I.#Mp#MX#Mu#If#If#Jf#H7#JR#Js#Mv#Ns#ID#If#If#If#If#If#I##JR#Ix#Ii#Nx#Nr#Ib#Is#Is#Is#KO#Jt#ID#ID#Is#Is#Is",
"#Is#Is#Il#Iz#Km#L1#Mt#LH#Ky#NV#MX#NM#If#Is#Ij#If#ID#KO#L1#Ia#IA#Ns#If#ID#ID#Is#Mt#MX#H8#If#Mt#NH#NF#M0#Jh#Ii#I.#Jf#If#NW#NH#NA#M0#NH#JU#Mf#Ii#Kq#Is#If#Is#Is#Is#ID#ID#Ia#Jq#Ip#Is#Is#Is#Is#If#Ip#Iy#Jf#Is#If#If#If#If#Ig#Ij#Is#Ia#ID#ID#ID#If#H9#Js#Ji#Nk#Jf#Is#Jf#ID#ID#Is#Is#Jv#ID#Is#If#Js#Ij#I.#Ii#If#Ii#Mt#Ir#ID#MX#NF#ND#ID#If#Is#I##ID#Is#Is#Nq#MK#Ij#If#Is#Ia#ID#ID#Iy#NG#Il#Is#If#Ii#Nk#Jt#ID#Jq#Mt#Nq#Nk#KO#NF#Jq#NG#Nk#I.#Is#If#If#ID#H9#NV#Nx#ND#Is#IF#H7#M0#M0#Jq#Ir#Jq#L1#L1#NX#M0#L1#NX#L1#Km#Km#Km#Km#Im#Im#Im#NA#Km#M0#M0#NA#NA#M0#Iz#NY#Nq#Is#ID#If#Jt#NG#L1#NX#JW#KQ#NH#NZ#NF#Ib#Ip#NF#Jq#Mu#If#Is#Is#If#JU#Ji#If#Jp#NF#Mt#Ig#If#If#If#H9#I.#Is#Is#Is#Is#Is#If#Is#Is#ID#I##ID#Is#H9#Jo#Js#Is#Is#If#If#Ij#Ii#If#Is#Jp#If#If#Il#Iz#Im#Jf#Jf#Nr#Nk#If#Is#Is#ID#Jf#ID#ID#ID#ID#ID",
"#Ju#I5#Ix#Nx#N0#Mt#K4#K2#Ky#Is#Ip#Ia#N1#ID#LY#Ji#Nr#Il#NF#Is#Il#Iy#Il#Jt#Jt#KQ#I.#Ib#Is#Is#Jf#Ip#Nr#Ir#H7#H7#Nk#Il#Kq#H8#JU#In#LY#Ib#Nr#MK#Jt#Ix#If#Ib#LY#Il#Il#JR#ID#ID#Ib#Il#MK#JX#If#Is#KA#KO#Ip#ID#Is#If#If#If#Ij#KP#Mx#Is#Is#Is#Is#ID#Jf#Il#IA#MX#Im#LY#Ia#ID#ID#Is#Is#Is#JR#JX#Is#If#Mt#Jt#Jt#JX#I.#If#ID#Mx#Ii#NE#L1#Iq#Il#IA#IA#KR#MK#JU#JU#Iq#Km#Il#Il#Ns#Mx#Is#ID#Ib#Jh#Kq#ID#MK#Ix#JR#Nq#Jt#JX#Jf#JW#JR#If#Ib#Mx#Ms#KZ#Is#LY#KR#Jh#Is#KP#Jf#H8#Ib#ID#Is#JU#NG#Km#JX#Mx#Ms#Ms#KP#Ms#Ms#KP#Ms#KP#KP#KP#KP#KP#Mx#Mt#Mt#Mx#KP#KQ#KQ#JW#JW#KQ#KP#KP#Ix#If#Is#Is#KZ#KP#Ms#Ms#Jf#JR#LY#KP#KQ#ID#H8#Mt#Mt#ID#Is#Is#Is#Is#Mt#JR#Jf#Nq#NF#N2#LY#LY#JX#Il#Mv#Ix#JU#JU#JU#JU#JU#Il#I##ID#ID#ID#Is#If#Ib#JX#If#If#If#Ib#LY#Nq#Ii#If#Ig#ID#LY#ID#KO#Il#Im#Jf#LY#H7#J5#Is#Is#Is#ID#ID#Is#Ms#Ip#ID#ID",
"#Er#NJ#Is#ID#Is#Lh#Lh#LB#LD#Ko#ID#If#Mo#Mn#NA#Km#NA#Jq#Km#JR#JU#Iz#L4#L1#NG#JU#Ij#Jp#Is#ID#If#Ig#Is#Mg#Iq#L1#NF#Im#JW#Ig#JR#H6#Mv#Ig#Ip#Ir#Km#JR#If#Mt#Im#NF#NF#Mt#Is#ID#Ij#H7#M0#Ir#ID#Jf#Jp#Is#ID#ID#ID#Is#Is#I##Is#ND#H7#Is#Is#ID#Ii#Is#Kq#Im#NX#Km#Iq#Ir#Mu#ID#ID#Is#ID#Is#Il#Mg#Ig#ID#KR#Iz#Iz#Iz#JR#ID#ID#Is#Is#In#NX#L1#M0#M0#M0#Iz#M0#NA#M0#L1#NA#Km#L1#NA#KQ#ID#Ii#I##If#NV#Ix#Jq#KO#H9#Ip#Im#Jf#I##Ix#Jf#ID#If#Is#Is#ID#ID#Nk#NF#Nr#ID#In#KO#Js#If#If#If#Il#NF#In#ID#Is#ID#ID#I##I##I##I##I##I##I##I##I##I##Is#Is#Is#I##Is#Jp#Is#Ij#N1#Is#ID#ID#If#Is#Jp#ID#Is#Ii#Is#Ij#If#Is#I.#If#If#Is#Is#Ii#I##Is#Is#Is#Is#Is#Is#If#KO#Ir#Im#Km#Jq#Km#Im#L1#LY#KZ#M0#Iz#Iz#M0#Km#Iy#Ia#I##Ix#Jf#Jp#H9#KP#JU#Is#Is#If#LY#Im#NF#Jp#If#Ig#ID#H6#JR#If#KZ#In#KO#Mg#Jt#ID#Jp#Jp#ID#I.#Ii#Is#Nk#JU#Jp#ID",
"#IU#N3#In#N4#NE#Ih#N5#MJ#Mb#ND#Jf#Mo#N6#Mo#Ix#KO#Ix#H8#Kd#ID#JR#Ib#JR#Ib#MX#Iy#Iy#H7#ID#ID#If#If#Id#Ia#JR#JR#H8#Kq#ID#Ig#Ix#NF#MX#Ix#ID#Ix#KZ#ID#Is#Is#Jf#H8#Jf#KA#If#ID#Jt#Ms#Nr#Im#ID#MK#Mx#Ib#MX#In#In#H6#H6#NE#N7#Ns#JU#Is#If#JU#Mt#If#Ko#H8#Iy#H7#I.#KZ#KR#JR#Is#JR#NE#NE#Im#Jt#Is#KR#NF#M0#M0#N8#Im#NE#Iy#In#In#Mt#Ia#Jp#H8#H8#H8#H8#Jp#I##Jp#Ia#Ia#Jp#I.#Ia#ID#ID#Ij#MK#Mg#ND#MX#In#I.#Il#H7#KO#Jp#Jt#Iq#Ir#NE#IF#Nx#Jq#Mg#Ii#KO#JR#ID#Jv#H8#ID#Is#If#Ig#Ig#Ig#Nr#Iz#MX#In#Im#Im#In#In#In#In#In#In#In#In#In#In#In#Im#Im#Im#In#NE#H8#KQ#Mg#Im#Jq#Jq#Im#Im#MX#Ib#Is#Is#If#Ig#If#Is#KA#Is#ID#Is#Ib#NE#KR#Ix#If#Is#KA#If#Is#Is#Is#Jf#JR#JR#JR#JR#JR#Mv#I.#ID#JR#KO#KO#JR#Ix#Jx#Is#Nr#Im#H6#MX#Ii#If#I##Is#If#Is#ID#Jp#Jp#If#If#If#NV#Mv#ID#Is#Ib#Km#In#Ir#Ir#Ir#Nk#Jp#JX#LY#If#Is#Jf#Is#Ii#Is",
"#JD#M2#Ir#NE#Mg#N9#O.#M##KQ#Nk#Jh#JR#Mn#Na#If#Ix#Ix#Ia#KO#Ix#Ix#Jf#Is#ID#Nk#In#Kr#NA#JR#JR#JR#JR#Ix#Jf#Jf#Jf#Kq#H8#JR#Ix#Mx#Im#NE#Ms#JR#JR#Jp#Jf#ID#ID#JR#Kq#Ix#JR#Ix#Is#Ir#JX#Nq#Jq#JR#MX#Nr#JX#NG#Jq#NA#Ny#L1#Iq#Ib#IA#Il#O##N9#Ns#LY#KZ#JR#ID#Iq#M6#Jf#Ix#Jq#IA#Ix#Ib#NF#NZ#NF#JU#ID#Jq#Ir#Ir#Km#Iy#Im#Ny#NA#In#NF#Mx#Is#Jf#Mu#KO#Mv#Ix#H8#Ia#Ix#ID#Ig#If#Jf#Ix#KZ#KZ#KO#NA#Im#In#M0#In#Ib#Il#Iq#JR#Jh#Iy#Km#Iy#Iy#Jp#Il#Im#JU#If#Is#Is#Ia#KZ#Ix#I.#If#Is#Jf#Jf#Ig#Jh#MX#Iy#Iy#Ir#Im#Ir#Im#Im#Im#Im#Im#Im#Im#Im#Im#Im#Jq#Jq#Jq#Ir#MX#Kq#Ip#Iy#NE#In#Iq#H6#Iq#Ir#Mt#ID#ID#Ix#Ix#Is#ID#Ix#Ix#Ib#JR#Mx#Nk#Jq#Mx#I.#ID#Ix#JR#ID#Jf#Ib#JR#Jf#Jf#Jf#Ix#Jf#I.#ID#JR#Kq#Jf#Jf#No#Ix#JR#Ix#Mg#NG#Km#In#Mt#Ix#Ix#KO#JR#Is#Ix#JW#KO#H8#NK#JR#JR#Mv#ID#Is#JR#Km#Ir#Km#Iz#Iz#NE#Jh#M7#NE#Mu#Ix#Ix#JR#JR#Ib",
"#Iz#KQ#Ig#Ii#Ii#Ir#Km#M0#In#I##M9#NH#NF#H6#Js#H7#JU#KO#Jq#Km#M0#JU#Ic#Ig#H6#KQ#Mu#NH#M0#Jq#Iz#Iz#NF#Jq#Jq#Ir#M0#M0#M0#L1#L1#Im#Is#IA#Iz#Iz#Km#M0#KO#KO#M0#M0#Iz#NG#NE#NQ#NE#NH#NF#Iz#Oa#Iz#M0#L1#NH#Iz#M0#M0#NA#NA#NG#JR#Jh#Km#NA#Ia#Ji#Ob#M0#Km#M0#NX#Iz#Iz#M0#NX#Jq#Km#NZ#NZ#Iz#IA#If#In#Ix#JX#KR#I.#Mg#L1#JU#Jf#Im#NX#Im#Ir#Jq#Oc#NH#Od#Jq#Im#L1#Mx#Ig#Mp#NA#M0#NH#NF#L1#NH#Mu#KZ#Jq#In#NX#NX#L1#L1#M0#M0#Nr#Jo#Ii#Is#Ii#Is#Js#If#H9#Id#Jh#NF#NF#KZ#Jv#Ix#NH#Oc#Ib#I.#If#If#Ig#If#Ij#Ij#Ij#Ij#Ij#Ij#Ij#Ij#Ij#Ij#Ij#Ij#Ii#Ii#Ii#Ij#NV#Js#Js#Ie#Ie#Js#Ii#Ij#Ii#ID#Iy#Ip#JR#Jq#NF#O##KQ#Jq#Jq#Iz#Iz#Il#ID#M0#NF#Mt#Jh#NH#Oe#KZ#Nx#Iz#M0#M0#Jq#Jq#M0#Jq#H8#LY#NF#Im#Km#M0#NX#Iz#M0#Km#NA#L1#H6#Ix#H6#M0#Jq#NF#M0#Ix#Il#NX#M0#M0#Of#Oa#L1#Iz#Jp#If#Mt#Jq#I##H7#Iz#Lp#Is#H6#Og#NA#Km#M0#NH#NZ#NH#L1",
"#Iz#H7#JX#Ji#Oh#Im#Mg#H7#Jq#JX#Km#Nk#JU#NF#Nq#Im#JU#KO#Km#Iz#MX#Ms#Ji#Nx#Iy#Nk#Nr#Il#Jq#M0#NG#Ir#LY#NF#H7#Mg#L1#KP#Iy#L1#Iq#Ji#Ia#Il#M0#M0#M0#Oc#KR#Nq#NG#Iz#Iz#Ob#Km#JU#Km#Ji#Nk#Km#Nr#In#Iz#Iy#LY#JX#NE#Iz#Km#Nq#NA#JU#Mg#Iz#M0#JX#NE#NF#M0#M0#ND#ND#M0#M0#Iz#JU#H7#NE#Oh#JX#NE#Iy#JX#M0#JU#Nk#Ir#Nr#H6#NA#Nk#JX#JX#NU#JU#JU#Im#Nq#NE#NH#M0#NA#L1#Mt#Ix#IA#NA#M0#Mg#IA#L1#NH#Nr#ND#Oi#In#IA#H6#M0#M0#Iz#Iz#Mg#Mt#LY#LY#IA#Mt#Jf#JX#Ip#KP#Mg#Im#Il#Ms#KP#JU#L1#Jt#Jp#H8#Il#Il#LY#Il#Nq#LY#Ip#Ip#Ip#Ip#JX#Ip#Ip#Ip#Ip#Ms#Nx#Nx#JX#JX#JX#JX#JX#JX#JX#LY#LY#JX#LY#LY#Im#H7#MK#NX#NH#Jt#Nk#MX#Nx#Km#Iz#NE#JU#Jq#NZ#H7#JU#Im#Km#Nq#Nq#Jq#M0#M0#M0#M0#Km#JX#H8#KZ#Ns#Km#M0#M0#Iy#H7#NF#M0#L1#Ir#KP#Is#MX#Km#Iq#LY#NF#H7#Nk#L1#M0#Iz#MX#JU#L1#Im#LY#JX#JU#Km#Nq#Iq#M0#Iq#Nn#NA#Km#NA#Km#Km#KR#Ms#H7#Jq",
"#Jq#NA#NZ#NZ#NF#Iq#Mt#Ip#Im#In#NF#Nr#Ib#Iz#Oj#NH#Il#KO#Jq#Iz#Ms#Mu#Iz#NF#Km#Iz#Mg#Ix#NE#M0#NF#Im#Jp#Im#KQ#Jh#NE#Is#Mg#Km#N4#Ig#Ij#Jt#NF#M0#M0#M0#L1#Im#Jq#Im#Km#Iz#Iz#M0#M0#Ix#KP#Km#Jp#MX#Iz#JU#ID#Is#Nk#NG#NE#Ib#NE#In#In#Km#M0#M0#M0#Ir#Im#L1#Jh#Nq#Iz#Km#Im#KZ#Ip#Iy#Ii#Jv#Nq#NG#Iz#NF#NH#Im#NA#Km#NA#NA#L1#MX#Jp#Iy#KQ#Ix#Im#Ix#KR#NG#M0#Im#Jq#Mu#Mt#NH#Jq#Iq#JW#Ix#NF#NF#NA#Iz#Km#NA#KO#Ok#NX#Jq#NE#L1#Iz#NG#NH#M0#Iz#Nq#Jp#Km#L1#M0#Iz#Ir#Is#MK#Iz#L1#Ir#H8#Is#Ib#Og#Im#In#In#Oj#NH#Iq#NA#NF#NH#NH#Km#M0#M0#M0#M0#L1#L1#NX#NH#M0#L1#Jq#L1#Iz#NF#Km#M0#Iz#Km#Km#M0#Iz#NH#NR#Im#M0#KR#Is#Ir#Km#Jq#L1#L1#Iz#M0#Km#In#Im#In#M0#M0#M0#M0#M0#M0#Ir#ID#I.#Ig#JR#Km#M0#Km#Nq#KZ#Km#M0#L1#H6#Jv#Is#Nk#Iz#MX#Jf#Km#L1#NA#NA#M0#Iz#Mt#LY#L1#In#In#Im#Im#Km#NH#Im#NA#NA#NR#Im#NF#L1#Ny#NE#Jf#H9#KO#Im",
"#Oa#Km#Mg#JX#Km#Im#NE#NE#Iq#In#KQ#Il#H6#Im#Jh#Nk#Jq#In#M0#M0#Iy#Nx#Ip#Oi#NX#Jt#Jh#Nk#Iq#L4#MX#KZ#Ii#Ir#Ir#Iy#NG#MX#Im#Iz#Iz#H6#NE#Km#M0#M0#M0#M0#NA#L1#Iy#JR#In#NG#Iz#M0#NG#Mg#NE#M0#MX#Km#M0#H6#Mg#Ns#NA#Iz#M0#In#In#In#In#Im#Km#M0#M0#Nk#J5#Iq#NE#In#M0#Jq#Mx#Is#Mt#NX#MK#KR#Im#Ob#Jq#JR#Iy#M0#NA#NA#NA#NA#Km#Km#Nk#Jq#Ir#MK#Iq#H7#Ir#NG#Ol#Nj#Iy#MX#Mg#Jq#Mt#NE#H6#Mg#Ir#NA#NA#M0#L1#NA#MX#Km#N4#Jh#NE#Jq#NW#Nq#M0#M0#M0#In#Nk#Km#NA#Km#M0#Ir#If#MK#M0#NA#NA#NE#H6#Iy#Km#Im#In#In#H7#Mt#Iq#NA#M0#In#JR#Ir#M0#M0#M0#M0#M0#M0#Iy#Ip#Iq#NA#NA#NA#NF#Ip#Nk#Iz#Ir#KO#In#Iz#Jt#Ib#In#NA#M0#Km#NS#M0#Nr#H8#Jh#M0#M0#M0#NA#Km#Km#Ip#MK#Iz#M0#M0#M0#M0#NF#Mg#H7#JU#MX#NF#M0#Nr#KQ#MX#M0#L1#Ny#Im#H7#Nk#Im#Iz#MX#Jf#Km#NA#NA#NA#M0#Iz#Im#Ir#NA#In#In#In#In#H6#Ip#Nk#NA#NA#In#L1#Ns#JX#Km#NA#In#KZ#Kq#Im",
"#Ns#M0#MK#Kq#Nk#Jq#Iz#M0#NA#Im#Nr#JU#L1#Ir#Mt#KR#M0#Iz#M0#M0#Iz#H7#JW#Om#L1#Ji#Mt#Ir#Iq#Km#KR#Kq#KZ#Km#Iz#Iz#M4#Iz#M0#Iz#NF#Ir#Km#L1#Km#Km#Km#Km#NA#Km#Km#KO#Mg#Iz#M0#Km#On#Im#Jq#M0#Iz#M0#M0#NA#L1#NX#M0#M0#M0#Iz#Im#Iq#NE#MX#Km#Km#Km#H6#JX#Ir#Jq#Km#Km#Iq#KO#I##KQ#Jq#Km#Og#M0#M0#NF#Jh#ND#L1#NA#NA#NA#NA#Km#M0#M0#M0#Iz#M0#M0#Iz#M0#M0#Ir#JR#Jq#L1#Km#In#JW#In#M0#NF#Ir#Nk#Im#Km#NA#NA#NX#NF#Mg#KZ#Oo#Km#Ns#Ji#Km#Km#NA#Iz#Iz#M0#NF#MX#In#Ir#Ib#Iy#L1#NA#NA#L1#L1#NA#ND#Il#NE#Iq#ND#KQ#NA#NA#Km#H6#JW#Km#M0#M0#M0#M0#M0#Iz#H7#Jp#Im#L1#NA#NA#NA#KQ#Nk#Iz#Ir#Ix#MX#Iz#Nk#JR#NE#Iq#Km#M0#NF#M0#Nx#ID#JR#Op#NA#Km#NA#Km#L1#Ib#Ip#NA#M0#M0#M0#M0#Iz#M0#NA#NA#L1#M0#NA#Mt#JX#NF#M0#M0#NA#Km#L1#M0#M0#L1#Iy#Ib#NU#NA#NA#Im#Im#Ir#Km#L1#NA#In#In#In#In#Iy#KQ#H6#NA#NA#In#Jq#M2#Ip#In#NA#Km#Nr#JX#M0",
"#ID#KR#NG#NS#Ia#Iq#M0#M0#NX#NA#NX#NX#NA#Km#NF#Ib#LY#M0#M0#M0#M0#Km#NE#NA#NA#Km#NA#Iq#In#NA#Km#Oa#NF#NX#M0#M0#M0#M0#M0#M0#Oq#H8#Iq#NA#NA#NA#NA#NA#NA#NA#M0#Ir#Ir#M0#M0#NA#Jf#Ns#NA#Km#M0#M0#M0#NA#NA#M0#M0#M0#M0#M0#NA#M0#IA#Ix#Iq#NA#NA#NA#Km#M0#M0#NA#NA#Iy#Ir#Jq#In#NA#NA#NA#L1#Iz#Iz#M0#M0#L1#NA#NA#L1#NA#Km#M0#M0#M0#M0#Iz#Km#M0#M0#L1#M0#Ir#L1#NA#NA#NA#M0#NZ#NA#Km#Im#Jp#JU#L1#NA#NA#L1#Iz#Iz#Iy#NA#NA#NA#NA#NA#NA#Km#M0#M0#M0#NG#Jh#Mt#NF#NF#M0#NA#NA#NA#NA#NA#L1#NE#Jf#MX#L1#NA#In#NA#NA#NA#Jq#Km#M0#M0#M0#M0#M0#M0#Iz#H7#H8#Jq#Iz#L1#Og#NA#Kr#M0#Iz#M0#NA#NA#M0#M0#NA#In#In#NA#L1#M0#NA#NA#Km#Jq#NA#NA#NA#NA#NA#NA#Jq#Il#JR#Km#M0#M0#M0#M0#M0#NA#NA#NA#NA#NA#Ir#Im#M0#M0#M0#NA#NA#NA#Km#M0#Jq#Im#Oi#Im#NA#NA#Jq#Jq#Ix#H7#NH#NA#In#In#In#Im#Jq#Ir#NA#NA#NA#In#Ir#Iy#MX#Im#Im#Mv#Il#Iz#Iz",
"#Nx#NE#Iz#H6#Ms#Iy#M0#In#KR#NA#L1#Ir#NA#NA#L1#Jt#H7#Iz#M0#M0#M0#M0#NA#NA#NA#NX#In#Ip#H6#L1#Km#Iy#MK#Iq#L1#L1#L1#L1#L1#M0#H6#Il#NA#NA#H6#ND#Km#Km#NA#NA#L1#Km#L1#L1#Jq#Im#Ji#MX#NA#Km#L1#L1#L1#NA#NA#L1#L1#L1#L1#L1#NA#NA#H7#Ms#Ir#NA#M0#Im#Km#M0#L1#NA#NA#Im#NA#Oc#M0#NA#NA#NA#ND#Jt#MK#Km#L1#L1#NA#NA#Ns#H6#Km#M0#M0#M0#Iy#MX#NA#Km#M1#ND#JU#Km#L1#NA#ND#IA#Im#NA#NA#Km#Im#Ms#Iq#L1#NA#NA#KR#Iy#Jq#Jq#NA#NA#Im#NA#NA#L1#ND#Iy#M0#L1#NF#Jt#MK#Iz#NF#NA#NA#NA#NA#NA#NA#L1#NA#Jh#Km#NH#NA#NA#NA#NA#NA#Km#M0#Jq#M0#M0#M0#M0#M0#Iz#NE#KQ#JU#MK#JU#KR#NA#M0#Mg#Mg#NG#Ir#H6#L1#M0#L1#Im#Iq#NA#L1#Km#NA#NA#Km#NA#NA#NA#NA#NA#NA#NA#L1#Mg#Nx#Ir#M0#M0#M0#M0#M0#Km#MX#ND#L1#Km#NA#Km#L1#L1#L1#NA#NA#NA#Ir#MK#In#Km#NA#L1#NA#NA#NA#Ir#Nr#Nk#NA#NA#In#Iq#Iq#In#H7#NA#NA#NA#NA#In#In#Im#In#Im#LY#KP#MX#Iz#M0",
"#L1#Km#M0#Km#L1#Km#Km#Ji#Jf#NF#Jq#M0#Km#Km#M0#Iz#M0#M0#M0#M0#M0#M0#NA#NA#NA#Jq#JU#Ia#MX#M0#NX#H7#Is#KR#NA#NA#NA#NA#NA#L1#M0#Iz#L1#L1#JX#Jp#Or#M0#NA#NA#NA#NA#NA#NA#Im#In#Jq#NA#NA#NA#NA#NA#NA#NA#NA#NA#NA#NA#NA#NA#NA#NA#NA#NX#L1#NA#L1#M0#Od#M0#NA#NA#NA#NA#NA#L1#M0#NA#NA#L1#JX#Ig#ID#Ir#NA#NA#NA#Iq#I##IA#NG#M0#M0#M0#KP#Ib#Im#NA#M0#JX#K4#M0#Km#L1#JX#Jf#In#NA#NA#NA#Km#L1#NA#NA#NA#L1#Kq#JU#Iz#L1#NA#NA#NA#NA#NA#NH#Jh#KP#NF#NA#NA#Km#Os#M0#M0#NA#NA#NA#NA#NA#NA#NA#L1#Iz#Iz#NF#L1#NA#NA#NA#NA#NA#Iz#NH#M0#NA#L1#M0#M0#M0#Iz#Im#ID#Mf#I.#Mu#NA#L1#Jf#KQ#NF#In#Iq#NA#L1#M0#NA#Im#NH#NH#NA#NA#NA#NA#NA#NA#NA#NA#NA#NA#NA#L1#NF#Iz#Iz#NA#NA#L1#M0#Jq#NF#Jt#Mx#M0#M0#NA#NA#NA#NA#NA#NA#NA#NA#H6#MZ#Ot#L1#NA#NA#NA#NA#NA#M0#Iz#NA#NA#NA#Iq#NA#L1#Mg#Ix#H6#NA#NA#NA#In#In#Iq#In#H6#ID#Mg#Iz#M0#L1",
"#NA#Km#M0#Km#NA#NA#L1#Km#KR#Im#Ib#NE#NA#Km#M0#M0#M0#M0#M0#M0#M0#M0#NA#NA#NA#L1#In#JU#Iq#M0#Km#Ir#MX#NF#Km#NA#NA#NA#NA#L1#M0#M0#L1#NA#NE#MK#L1#M0#NA#NA#NA#NA#NA#NA#Im#In#Im#NA#NA#NA#NA#NA#NA#NA#NA#NA#NA#NA#NA#NA#NA#NA#NA#L1#M0#M0#Ns#Ji#N8#M0#NA#NA#NA#NA#NA#L1#M0#NA#NA#NA#H6#Ib#Mn#Ir#NA#NA#NA#Iq#KR#ND#Jq#M0#M0#M0#In#MK#In#Iq#NA#Iq#Mg#Km#NA#NA#H6#NE#NA#NA#NA#NA#NA#NA#NA#NA#NA#NA#ND#NE#M0#L1#NA#NA#NA#NA#NA#M0#Mg#MX#NA#NA#NA#Km#M0#M0#M0#NA#NA#NA#NA#NA#NA#L1#MX#Jf#Im#Iz#M0#NA#NA#NA#NA#NA#L1#Ms#MX#L1#NA#L1#M0#M0#M0#NA#Ns#Ns#KR#ND#NA#NA#Nk#Iy#In#In#Iq#NA#L1#M0#NA#L1#H7#MK#NA#NA#NA#NA#NA#NA#NA#NA#NA#NA#NA#JU#Mt#Jh#KQ#Ir#L1#NA#M0#M0#Km#In#MX#NX#M0#NA#NA#NA#NA#NA#NA#NA#NA#NA#NE#H6#NA#NA#NA#NA#NA#NA#M0#M0#NA#NA#NA#Iq#NA#Km#Ir#H7#L1#NA#NA#NA#In#In#In#In#Iq#Il#Km#Os#M0#NA",
"#NA#NA#NA#NA#NA#NA#NA#M0#Iz#Im#Ix#MK#L1#NA#NA#NA#NA#NA#NA#NA#NA#NA#NA#NA#NA#NA#NA#NA#NA#M0#M0#Iz#M0#M0#NA#NA#NA#NA#NA#NA#NA#NA#NA#NA#NA#NA#NA#NA#NA#NA#NA#NA#NA#NA#NA#NA#NA#NA#NA#NA#NA#NA#NA#NA#NA#NA#NA#NA#NA#NA#NA#NA#NA#NA#NA#NX#Ms#Ib#NA#NA#NA#NA#NA#NA#NA#NA#NA#NA#NA#NA#L1#Mg#ID#In#NA#NA#NA#NA#NA#NA#NA#NA#NA#NA#M0#M0#NA#Km#M0#NA#NA#NA#NA#NA#NA#NA#NA#NA#NA#NA#NA#NA#NA#NA#NA#NA#NA#NA#NA#NA#NA#NA#NA#NA#NA#Km#NA#NA#NA#NA#NA#NA#NA#NA#NA#NA#NA#NA#NA#NA#NA#L1#In#Ou#Ir#Iz#M0#NA#NA#NA#NA#NA#M0#Is#Jt#L1#NA#NA#NA#NA#NA#NA#NA#L1#L1#NA#NA#NA#NA#NA#NA#NA#NA#NA#NA#NA#NA#NF#LY#Ib#Im#NA#NA#NA#NA#NA#NA#NA#NA#NA#NA#JW#If#If#Is#Jq#M0#NA#NA#NA#Km#Km#M0#M0#M0#NA#NA#NA#NA#NA#NA#NA#NA#NA#NA#NA#NA#NA#NA#NA#NA#NA#NA#NA#NA#NA#NA#NA#NA#NA#NA#NA#NA#NA#NA#NA#NA#NA#NA#NA#L1#M1#M0#Km#NA#NA"};
