/* XPM */
static char *dummy[]={
"128 128 2084 2",
".o c #6ba7f0",
"pr c #6c9ffb",
"h0 c #6ca3e3",
"nb c #6ca7f7",
".q c #6caafd",
".j c #6da6f7",
"xg c #6da9ff",
".i c #6daafa",
"C5 c #6daafd",
"wX c #6dacfb",
"eX c #6ea5f8",
"nc c #6ea7f6",
"zR c #6ea9f7",
"kg c #6eabfe",
"AM c #6fa4f4",
"Eg c #6fa6f9",
"eV c #6fa9e9",
"z# c #6fa9fb",
"y8 c #6faaee",
"r7 c #6faaf8",
".p c #6fadfa",
"z. c #6faff7",
"#v c #6fb1ff",
"mJ c #70a0ea",
"#s c #70a3f4",
"pg c #70a5ff",
"C. c #70a7f7",
"k2 c #70a7fa",
"op c #70a8fd",
".h c #70a9f8",
"iE c #70a9fa",
"#c c #70a9ff",
"CM c #70aafe",
"kh c #70abf9",
"aM c #70abfb",
"nQ c #70acff",
"q4 c #70adfd",
"zu c #70adff",
"y9 c #70aff6",
"pd c #719cd3",
"p3 c #719ce0",
"iC c #71a6f4",
"wR c #71a6f6",
"kU c #71a7fd",
"k3 c #71a8f8",
"iA c #71a8fa",
"D5 c #71a9f4",
"q5 c #71a9f6",
"kn c #71a9fc",
"bV c #71a9fe",
"qD c #71a9ff",
"#y c #71aaf1",
"eW c #71aaf7",
"kD c #71aaf9",
"oo c #71aafb",
"pf c #71abf5",
"o4 c #71acf8",
"p6 c #71acfa",
"ld c #71acfc",
"zE c #71adff",
"o1 c #71aff8",
"Ep c #72a4fb",
"tl c #72a5f8",
"C7 c #72a6f2",
"EA c #72a7ed",
"pe c #72a7f5",
".P c #72a7f7",
"Al c #72a8e8",
"lc c #72a8ee",
"lf c #72a8f0",
"dI c #72a8fe",
"ko c #72a9f9",
"iz c #72a9fb",
"or c #72a9fc",
"kF c #72aaf4",
"CL c #72aaf5",
"ki c #72aaf7",
"le c #72abf8",
".C c #72abfa",
"jZ c #72abfb",
"n7 c #72abfc",
"q3 c #72abff",
"tj c #72acf5",
"n6 c #72acf6",
"b# c #72acfe",
"oq c #72acff",
"pI c #72adf9",
"jO c #72adfb",
"ci c #72adfd",
"o0 c #72aef6",
"kK c #72aef7",
"pH c #72aff2",
"#w c #72b2fc",
"E. c #72b3ff",
"#d c #739cde",
"za c #73a3ef",
"#r c #73a4f0",
"zt c #73a5ea",
"bT c #73a5fa",
"yy c #73a6e7",
"yv c #73a7f0",
"Ez c #73a7f3",
"zY c #73a7fb",
"gM c #73a7fd",
"eZ c #73a7ff",
"mM c #73a8ec",
"yL c #73a8ee",
"C6 c #73a8f6",
"#t c #73a8f8",
"e8 c #73a8f9",
"wY c #73a9f1",
".e c #73a9ff",
"zU c #73aaed",
"fj c #73aafa",
"e1 c #73aafc",
"oY c #73aafd",
".9 c #73aaff",
"EG c #73abf5",
"id c #73abf6",
"eY c #73abf8",
"j0 c #73abfc",
".y c #73abfe",
"jB c #73abff",
"Em c #73acf3",
"jL c #73acf9",
".z c #73acfb",
".x c #73acfd",
"kp c #73acff",
".B c #73adf6",
".W c #73adf7",
"kI c #73adf8",
"ek c #73aef0",
"rK c #73aef4",
"#A c #73aefe",
"am c #73b1fa",
"an c #73b1fe",
"lq c #74a4e6",
"BJ c #74a4ec",
"Ea c #74a5e8",
"mN c #74a5f1",
"En c #74a5f4",
"lt c #74a6ed",
"hj c #74a7e8",
"Bb c #74a7e9",
"EH c #74a7f6",
"p4 c #74a7ff",
"oF c #74a8f1",
"kT c #74a8f3",
"bw c #74a8fb",
"AW c #74a8fc",
"kl c #74a8fe",
"n3 c #74a9ef",
"et c #74a9f0",
"iB c #74a9f5",
"e0 c #74a9f7",
"kk c #74a9f9",
"ku c #74a9fc",
"gZ c #74a9fd",
"dJ c #74a9ff",
"Ex c #74aaf0",
"yM c #74aaf2",
"ch c #74aaff",
"su c #74abec",
"e3 c #74abfa",
".t c #74abfb",
"dK c #74abfc",
".R c #74abfd",
"aH c #74abfe",
"#. c #74acf6",
".u c #74acf7",
"aK c #74acf9",
"e4 c #74acfa",
"i2 c #74acff",
"ei c #74adf0",
"b. c #74adf2",
"tm c #74adf4",
"iy c #74adfa",
"kC c #74adfc",
"ke c #74adfe",
"ej c #74aeee",
"tu c #74aef7",
".r c #74aeff",
"eh c #74afe9",
"no c #74aff5",
"Ak c #74afff",
"mK c #75a2e6",
"#S c #75a5ed",
"wS c #75a5ef",
"BW c #75a6f2",
"zl c #75a6f3",
"DL c #75a6f5",
"EC c #75a7ec",
"yw c #75a7ee",
"kA c #75a7fc",
"xE c #75a7fe",
"km c #75a7ff",
"EB c #75a8ea",
"Df c #75a8f7",
"uF c #75a8f9",
"kz c #75a8fb",
"bU c #75a8ff",
"oI c #75a9f2",
"kE c #75a9f4",
"al c #75a9f5",
"bv c #75a9fc",
"kM c #75a9fd",
"zX c #75a9ff",
"El c #75aaec",
"oG c #75aaee",
"da c #75aaf0",
"e2 c #75aaf6",
"fP c #75aaf8",
"qm c #75aafa",
"kd c #75aafb",
"ks c #75aafc",
"kt c #75aafd",
"Ek c #75abeb",
"iF c #75abf3",
"ic c #75abf5",
"kv c #75abf8",
"e9 c #75abf9",
"e5 c #75abfa",
"el c #75abfb",
"em c #75abfc",
".Q c #75abff",
"bx c #75acfc",
"db c #75acfe",
"dc c #75acff",
"yd c #75adf8",
"mt c #75adfa",
"BV c #75adff",
"lp c #75aef5",
"o2 c #75aefb",
"tk c #75aefd",
"#z c #75aff9",
"Cy c #76a4e2",
"wW c #76a7e1",
"lu c #76a7e9",
"yN c #76a7ea",
"ED c #76a7ec",
"nP c #76a7f6",
"o. c #76a8ed",
"iO c #76a8ef",
"jK c #76a8fd",
"of c #76a9ea",
"kN c #76a9f8",
"l4 c #76a9fa",
"f5 c #76a9fb",
"cL c #76a9fc",
"bt c #76a9ff",
"f. c #76aaf3",
"sW c #76aaf5",
"n5 c #76aaf6",
"ix c #76aaf7",
"kc c #76aaf9",
"hh c #76aafa",
"ev c #76aafc",
".# c #76aafd",
".U c #76aafe",
".v c #76aaff",
"Ej c #76abed",
"xG c #76abf1",
"kr c #76abf6",
".w c #76abf7",
"df c #76abf8",
".S c #76abf9",
"cK c #76abfa",
"Qt c #76abfb",
"eu c #76abfc",
"Ei c #76acec",
"f# c #76acf1",
"bu c #76acf2",
"a8 c #76acf4",
".T c #76acf6",
"oU c #76acf7",
"e6 c #76acf8",
"wO c #76acff",
"a9 c #76adee",
"Ct c #76adfd",
"iD c #76adff",
"Dq c #76aeeb",
"kB c #76aef9",
"ul c #76aefb",
"ro c #76afff",
"ba c #76b1ff",
".E c #779ee1",
"#p c #77a2cf",
"wZ c #77a5e1",
"y5 c #77a6f8",
"oe c #77a7e5",
"bS c #77a7e7",
"iG c #77a7e9",
"tY c #77a7f9",
"C4 c #77a7fc",
"og c #77a8ea",
"ia c #77a8eb",
"n9 c #77a8ed",
"ib c #77a8f4",
"ky c #77a8f5",
"yc c #77a8f7",
"de c #77a8ff",
"lF c #77a9e4",
"oh c #77a9e8",
"ie c #77a9ea",
".O c #77a9ee",
"j7 c #77a9f0",
"iw c #77a9f1",
"ef c #77a9f2",
"j2 c #77a9f3",
"#U c #77a9fe",
"#u c #77a9ff",
"zV c #77aaec",
"j1 c #77aaf7",
".d c #77aaf9",
"kL c #77aafa",
"ak c #77aafb",
"aL c #77aafd",
"pJ c #77aaff",
"dd c #77abf4",
"aj c #77abf6",
".c c #77abf7",
"oV c #77abf8",
"en c #77abf9",
"kJ c #77abfb",
"hi c #77abfe",
"#T c #77abff",
"eg c #77acee",
"E# c #77acf0",
"oH c #77acf2",
"dj c #77acf4",
"ye c #77acf8",
"kf c #77acfa",
"i3 c #77acfc",
"sv c #77acff",
"fh c #77adf1",
"tn c #77adf3",
".k c #77adf7",
"xF c #77adff",
"r6 c #77aeff",
"ve c #77affc",
"tt c #77b0fd",
"i1 c #77b0ff",
"#x c #77b3fb",
"nm c #789cd6",
"th c #78a1cf",
"bY c #78a1d7",
"wT c #78a3e7",
"aN c #78a7eb",
"on c #78a7ed",
"jP c #78a7f5",
"uG c #78a7f9",
"lv c #78a8e8",
"#q c #78a8ea",
"sZ c #78a8f2",
"Cg c #78a8f4",
"pG c #78a8fa",
"p5 c #78a8fc",
"C3 c #78a8fd",
"kq c #78a8ff",
"zW c #78a9eb",
"zT c #78a9ec",
"zS c #78a9ee",
"kb c #78a9f4",
"eU c #78a9f5",
"jY c #78a9f6",
"oD c #78aaf1",
".s c #78aaf3",
"jh c #78aaf7",
"oX c #78aaf9",
"oW c #78aafa",
"kw c #78aafb",
"Eh c #78aaff",
"by c #78abec",
"yx c #78abed",
"g0 c #78abf9",
"gW c #78abfa",
"gY c #78abfc",
"gX c #78abfe",
"ai c #78abff",
".V c #78acf5",
"kG c #78acf7",
"bW c #78acf8",
"fi c #78acf9",
"dH c #78acff",
"mQ c #78adf3",
"q2 c #78adf9",
"fO c #78adfb",
"Ey c #78adfd",
"BX c #78aeec",
".A c #78aeee",
"kH c #78aef6",
"cN c #78aef8",
"sV c #79a3ed",
"pF c #79a4e9",
"hZ c #79a5ee",
"bR c #79a5f0",
"cf c #79a6dd",
"ph c #79a6f7",
"Cu c #79a7e3",
"oZ c #79a7ff",
"fJ c #79a8e0",
"AX c #79a8f0",
"w6 c #79a8f8",
"aJ c #79a8ff",
"sY c #79a9e9",
"mI c #79a9eb",
"fN c #79a9f1",
"gV c #79a9f3",
".a c #79a9fb",
"#b c #79a9fd",
"aI c #79a9fe",
"wV c #79aae2",
"Ai c #79aae4",
"wU c #79aae5",
"j6 c #79aaed",
"iQ c #79aaef",
"jM c #79aaf6",
"jN c #79aaf7",
"kx c #79aaf8",
".b c #79aaf9",
"vT c #79abf0",
".n c #79abf2",
"cj c #79abf4",
"lb c #79aced",
".g c #79acfb",
"np c #79acfd",
"e7 c #79adf3",
"k4 c #79adf8",
".D c #79adf9",
"Cf c #79adff",
"iZ c #79aef0",
"iP c #79aefe",
"ls c #79aff9",
"tZ c #7aa1e2",
"hs c #7aa3e1",
"At c #7aa6ed",
"gL c #7aa7eb",
"y6 c #7aa7ff",
"lr c #7aa8e4",
"zv c #7aa8e6",
"w5 c #7aa8f3",
"eT c #7aa8f6",
"mO c #7aa8fd",
"rL c #7aa8fe",
"mP c #7aa8ff",
"dh c #7aa9e8",
"hW c #7aa9ed",
"hV c #7aa9ef",
"jg c #7aa9f7",
"uI c #7aa9f9",
"Eo c #7aa9ff",
"Cx c #7aaaea",
"hX c #7aaaec",
"hk c #7aaaf2",
".m c #7aaaf4",
"bX c #7aaaf6",
".f c #7aaafc",
"wQ c #7aaafe",
"xD c #7aaaff",
"mL c #7aabe3",
"uk c #7aabe5",
"iR c #7aabe6",
".l c #7aabf0",
".8 c #7aabf7",
"oE c #7aabfa",
"di c #7aaceb",
"n4 c #7aacf3",
"na c #7aacf5",
"r5 c #7aade6",
"A# c #7aadef",
"lG c #7aadfc",
"l5 c #7aadff",
"y7 c #7aaefa",
"zk c #7aaeff",
"Ef c #7aaff3",
"## c #7aaffb",
"wP c #7aafff",
"i0 c #7ab0fa",
"o3 c #7ab2ff",
"oJ c #7b9bcc",
"rM c #7ba4d2",
"zZ c #7ba4e2",
"g2 c #7ba5e2",
"BK c #7ba5ed",
"eS c #7ba6f4",
"hU c #7ba7e6",
"C# c #7ba7f0",
"CK c #7ba7fe",
"AN c #7ba8eb",
"kj c #7ba8f9",
"rm c #7ba9e5",
"zD c #7ba9f6",
"D3 c #7baaee",
"dL c #7baaef",
"wN c #7baaf0",
"hl c #7baaf2",
"rJ c #7babe9",
"g1 c #7babf2",
"l3 c #7babf7",
"pq c #7babff",
"zQ c #7bace4",
"xC c #7bacef",
"to c #7bacf1",
"ms c #7bacfb",
"Do c #7badea",
"ti c #7badec",
"dP c #7badef",
"nd c #7badf4",
"n8 c #7badf6",
"#a c #7baeff",
"yf c #7bb1fb",
"bQ c #7ca4ec",
"o5 c #7ca4f9",
"zb c #7ca5f4",
"pQ c #7ca5f5",
"zm c #7ca6e2",
"w7 c #7ca7ec",
"BM c #7ca8e5",
"we c #7ca8e7",
"wf c #7ca8e9",
"yK c #7ca9ec",
"hY c #7ca9ed",
"uH c #7ca9fa",
"DR c #7caae6",
"dg c #7cabee",
"y4 c #7cabf1",
"jJ c #7cacf8",
"Aj c #7cadef",
"DY c #7cadf2",
"aG c #7caef7",
"nr c #7cafee",
"oT c #7cb1f7",
"BS c #7da5d8",
"ss c #7da5d9",
"C8 c #7da5ea",
"hm c #7da6e4",
"iY c #7da6e8",
"r8 c #7da7f3",
"h1 c #7da9d6",
"fM c #7da9e8",
"qE c #7da9f0",
".X c #7daae3",
"sX c #7daaeb",
"yI c #7daaed",
"yJ c #7daaee",
"fI c #7dabf9",
"AO c #7dace4",
"lL c #7dadeb",
"D9 c #7daded",
"zP c #7daed6",
"Bc c #7daef0",
"AL c #7daef3",
"l6 c #7daefa",
"fH c #7daefd",
"j8 c #7daff2",
"D6 c #7daff6",
"rn c #7db1fa",
"zf c #7db1fc",
"hG c #7ea5e8",
"Ch c #7ea7e5",
"wg c #7ea7e7",
"BL c #7ea7e9",
"fK c #7ea9e0",
"ze c #7eaae9",
"i. c #7eabee",
"DS c #7eace7",
"yu c #7eadf1",
"ah c #7eaeec",
"lo c #7eafe9",
"DQ c #7eaff2",
"D4 c #7eaff4",
"nq c #7eb0f5",
"cM c #7eb0f7",
"nu c #7eb1f0",
"ns c #7eb2ec",
"nt c #7eb2ee",
"BI c #7eb2fd",
"zc c #7fa3f7",
"pK c #7fa6f3",
"pp c #7fa9e3",
"zg c #7fabdc",
"st c #7fabea",
"tv c #7fade8",
"nK c #7fade9",
"jC c #7faef4",
"nN c #7fafed",
"ee c #7faff1",
"i# c #7faff7",
"nO c #7fb1f0",
"n# c #7fb1f8",
".M c #80a4d4",
"Ab c #80a5dc",
"fL c #80a7ea",
"h9 c #80a9e1",
"lH c #80a9e9",
".N c #80aae4",
"yt c #80aae6",
"um c #80abe2",
"yb c #80aceb",
"nL c #80adf0",
"xf c #80aeea",
"D8 c #80aeec",
"k1 c #80b0f2",
"ps c #80b0f8",
"nw c #80b1eb",
"fS c #80b1ef",
"xH c #80b1f4",
"DK c #80b1f6",
"cg c #80b1fd",
"Dp c #80b3f4",
"aO c #81a5d9",
"qn c #81a7f0",
"nn c #81a9f1",
"zj c #81aae2",
"ql c #81aae8",
"lM c #81abe5",
"ne c #81adea",
"fT c #81aeea",
"nM c #81aeef",
"D2 c #81aef2",
"hg c #81aff4",
"n2 c #81b0dc",
"xh c #81b0f4",
"Dr c #81b1f3",
"nv c #81b5f1",
".F c #82a0d4",
"Aa c #82a9e4",
"eR c #82aaef",
"sw c #82acf4",
"vf c #82aeeb",
"Ec c #82aeed",
"Dn c #82b0eb",
"gN c #82b0fd",
"xy c #82b1f5",
"mr c #82b2fc",
"De c #82b5f4",
"ya c #83aae1",
"#V c #83abe9",
"fQ c #83adec",
"tT c #83b0e7",
"xz c #83b0f3",
"jI c #83b1ec",
"om c #83b1ed",
"os c #83b1fc",
"#R c #83b2e8",
"iv c #83b3f0",
"jf c #83b3f5",
"ji c #83b6f4",
"#e c #84a1cb",
"zd c #84abee",
"p7 c #84abf6",
"s0 c #84accf",
"xx c #84adeb",
"xA c #84aded",
"w4 c #84aeea",
"gU c #84b0ed",
"xB c #84b0f1",
"r4 c #84b6db",
"jk c #84b6f3",
"lg c #84b6f5",
"jj c #84b7f0",
"ot c #85a5d6",
"zF c #85abda",
"Dh c #85ace5",
"uJ c #85b3f1",
"f4 c #85b5f6",
"jA c #85b7f7",
"mR c #85baff",
"cn c #86a9d3",
".7 c #86aee1",
"zO c #86afe3",
"D7 c #86b1f5",
"jy c #86b2f3",
"jX c #86b3ee",
"jz c #86b4f0",
"jl c #86bbf4",
"wy c #87afe3",
"CN c #87aff4",
"qC c #87b2f6",
"jD c #87b3f0",
"wh c #87b3f4",
"hH c #87b4ef",
"DB c #87b5e7",
"dG c #87b5f1",
"DZ c #87b7f5",
"DX c #87b9f4",
"mS c #87bcff",
"zC c #88b2dc",
"Dg c #88b2ee",
"jQ c #88b2fa",
"wM c #88b5f0",
"BG c #88b6f2",
"Eq c #88b8f6",
"l2 c #88b8f8",
"BH c #88b8fa",
"hF c #89b0eb",
"Ah c #89b2e8",
"BN c #89b4eb",
"#B c #89b5dc",
"jF c #89b5f6",
"BE c #89b6ed",
"jG c #89b6ef",
"jH c #89b7eb",
"D1 c #89b7f5",
"ka c #89b9f8",
"n. c #89bbfa",
"Au c #8ab2ed",
"ck c #8ab3f1",
"AK c #8ab6f3",
"Ca c #8ab6f5",
"mu c #8ab8f6",
"tV c #8ab9e5",
"mT c #8abcf9",
"DT c #8bb1e2",
"cm c #8bb2eb",
"jR c #8bb3f0",
"jT c #8bb6e9",
"BF c #8bb9ed",
"gO c #8cadda",
"pi c #8caeeb",
"sU c #8cb1e5",
"jU c #8cb4f2",
"jV c #8cb5e9",
"jE c #8cb5ed",
"jW c #8cb6e8",
"vd c #8cb6f2",
"wn c #8cb8e7",
"xb c #8cbaee",
"kS c #8cbcfa",
"tX c #8cbcfe",
"DP c #8cbfff",
"wx c #8db5e6",
"jS c #8db5e9",
"zs c #8db8e5",
"cJ c #8dbbec",
"tW c #8dbbed",
"DC c #8dbbef",
"w1 c #8eb1d9",
"l7 c #8eb7f5",
"w0 c #8eb8ea",
"xc c #8eb9ee",
"xe c #8eb9f0",
"m9 c #8ebcf7",
"tU c #8ebdeb",
"DM c #8ebdff",
"wk c #8fb7eb",
"wj c #8fb8ee",
"gK c #8fb8f8",
"wi c #8fb9f5",
"mq c #8fbbfa",
"jx c #8fbdf6",
"nJ c #8fbef6",
"DJ c #8fbffd",
"DI c #8fc1f6",
"oC c #8fc1ff",
"wm c #90b6e5",
"hr c #90b8ec",
"iN c #90b9f7",
"Ba c #90c2ff",
"ts c #91b0df",
"gT c #91b6ea",
"wl c #91b6eb",
"Av c #91b7e6",
"xd c #91baf2",
"wo c #91bce7",
"w8 c #92baee",
"ww c #92bce6",
"dl c #92bcee",
"Bh c #92c3ff",
"j3 c #92c5fd",
"Ce c #93bafb",
"tS c #93bdf9",
"Be c #93c3ff",
"oi c #93c4ff",
"Bd c #93c5ff",
"t4 c #94a9c4",
"f7 c #94bbf6",
"lK c #94c1fa",
"je c #94c3f7",
"Bf c #94c5ff",
"jc c #95baef",
"jd c #95bffb",
"Ee c #95c3ff",
"iS c #95c4f8",
"Bg c #95c5ff",
"o# c #95c8ff",
"#0 c #96b0eb",
"f8 c #96bdf8",
"j4 c #96c7fd",
"k# c #96c7fe",
"pO c #97b0cf",
"tp c #97b8eb",
"rG c #97b9dc",
"Br c #97bbf5",
"cl c #97bcf1",
"iW c #97bef5",
"f6 c #97c2f9",
"kR c #97c4fb",
"fg c #97c5f9",
"k. c #97c7fd",
"EF c #97c7ff",
"j5 c #97c8fd",
"xa c #98b6ea",
"pP c #98bcfa",
"k5 c #98c4ff",
"mU c #98c5fc",
"Ew c #98c9ff",
"iH c #99bef2",
"iV c #99c0f7",
"iU c #99c0f9",
"iT c #99c0fb",
"fa c #99c2fa",
"wL c #99c5f6",
"Ds c #99c7ff",
"B# c #99c8fe",
"j9 c #99c9fe",
"mH c #99c9ff",
"wz c #9abcec",
"xI c #9ac6ff",
"DN c #9ac8fc",
"fG c #9acdff",
"zN c #9bbcdb",
"f9 c #9bc0f7",
"iX c #9bc1ff",
"eQ c #9bc2fb",
"C2 c #9bc4fa",
"q1 c #9bc5eb",
"kQ c #9bc6f9",
"kP c #9bc6fd",
"Bi c #9bc7ff",
"B9 c #9bc9ff",
"y3 c #9bccff",
"rY c #9cb8ce",
"yY c #9cc6ff",
"wD c #9cc7f4",
"kO c #9cc8ff",
"d# c #9ccbff",
"Cs c #9ccdff",
"Es c #9cceff",
"o6 c #9db3d8",
"wI c #9dbde3",
"wd c #9dc1f5",
"w9 c #9dc2ee",
"Cb c #9dc5f9",
"dk c #9dc5ff",
"DV c #9dc7f7",
"Dt c #9dc8fd",
"Er c #9dcaff",
"DU c #9dcbff",
"od c #9dccff",
"gn c #9ebbe5",
"yF c #9ec1eb",
"wp c #9ec2e6",
"Bj c #9ec2f4",
"gE c #9ec2fc",
"gJ c #9ec2fe",
"gD c #9ec3f7",
"gH c #9ec3f8",
"gI c #9ec3fa",
"wJ c #9ec4f1",
"yZ c #9ec7ff",
"DG c #9ec9ff",
"DO c #9ecbf2",
"yO c #9eccff",
"Et c #9ecdff",
"yz c #9ed2ff",
"yG c #9fbeea",
"pR c #9fbef5",
"gp c #9fc1ee",
"gc c #9fc1ef",
"gG c #9fc2fa",
"gF c #9fc2fc",
"wK c #9fc4f1",
"eO c #9fc5ea",
"BU c #9fc5f6",
"hn c #9fc6fd",
"BT c #9fc7fb",
"hI c #9fc8f4",
"AJ c #9fc8fc",
"DF c #9fc8ff",
"y0 c #9fc9ff",
"Dd c #9fcafd",
"mG c #9fccff",
"nD c #9fcdfe",
"ny c #9fcefc",
"oj c #9fceff",
"DH c #9fcfff",
"ft c #a0bcd4",
"pL c #a0c0f9",
"BR c #a0c2ef",
"Du c #a0c2f2",
"wc c #a0c4f6",
"vR c #a0c5ef",
"wC c #a0c5f1",
"vQ c #a0c6eb",
"hT c #a0c8fc",
"Cr c #a0c9fd",
"y2 c #a0c9ff",
"y1 c #a0caff",
"B. c #a0cbfe",
"DD c #a0cbff",
"yi c #a0ccfb",
"A9 c #a0ccfd",
"nE c #a0ceff",
"oc c #a0cfff",
"Eb c #a0d0ff",
"fs c #a1bfdb",
"wb c #a1c1f2",
"fn c #a1c2e3",
"xw c #a1c2f5",
"gb c #a1c3e9",
"hu c #a1c3f1",
"gh c #a1c5e9",
"ht c #a1c6fa",
"hq c #a1c7f4",
"lm c #a1c9fc",
"yn c #a1caf6",
"Ed c #a1cbff",
"jm c #a1ccfe",
"B8 c #a1ccff",
"BD c #a1cdfa",
"nF c #a1cdfc",
"jq c #a1cffe",
"lE c #a1cfff",
"EE c #a1d0ff",
"oa c #a1d3ff",
"i4 c #a1d4ff",
"AU c #a2bddb",
"hw c #a2c0e6",
"hv c #a2c3ee",
"wB c #a2c4ea",
"vS c #a2c4f4",
"A. c #a2c6e6",
"hp c #a2c7f3",
"hE c #a2c7f4",
"nB c #a2cafb",
"kV c #a2caff",
"ff c #a2cbfb",
"lY c #a2ccfc",
"yA c #a2cdf8",
"BC c #a2cdfa",
"ln c #a2cdff",
"jn c #a2cefc",
"nC c #a2ceff",
"yP c #a2cfff",
"nz c #a2d0ff",
"Dm c #a2d1fb",
"ol c #a2d1ff",
"l1 c #a2d2ff",
"v# c #a3bad9",
"Bn c #a3bedc",
"iI c #a3bfe7",
"vc c #a3c4e7",
"Bk c #a3c4ed",
"iM c #a3c4ef",
"hD c #a3c5f2",
"x7 c #a3c6ee",
"Cd c #a3c6fe",
"Cc c #a3c7fb",
"nH c #a3cbfc",
"AY c #a3cbff",
"ym c #a3ccf8",
"nG c #a3ccfa",
"jr c #a3cdfa",
"BA c #a3cdfd",
"nx c #a3cdff",
"CZ c #a3cef9",
"m6 c #a3cefb",
"mp c #a3ceff",
"yT c #a3cffc",
"l0 c #a3cffe",
"iu c #a3cfff",
"C1 c #a3d0fa",
"m8 c #a3d0ff",
"yW c #a3d1ff",
"ok c #a3d2ff",
"ob c #a3d3ff",
"yg c #a3d6ff",
"fv c #a4bed9",
"h6 c #a4bfdd",
"yr c #a4c0e5",
"fy c #a4c2e4",
"w3 c #a4c2e8",
"eN c #a4c4dd",
"xq c #a4c4ea",
"Bq c #a4c4eb",
"g. c #a4c4f3",
"go c #a4c4f5",
"x. c #a4c5e8",
"x8 c #a4c6ec",
"hC c #a4c6f3",
"hJ c #a4c6f6",
"bb c #a4c7ff",
"mw c #a4caf7",
"eP c #a4caf9",
"DA c #a4cafb",
"it c #a4ccfa",
"jo c #a4ccfd",
"nI c #a4ccff",
"yo c #a4cdf9",
"mF c #a4cdfb",
"hc c #a4cdfe",
"im c #a4cdff",
"DE c #a4cef8",
"is c #a4cefd",
"hd c #a4cefe",
"ir c #a4ceff",
"yS c #a4cffa",
"m0 c #a4cffc",
"yj c #a4cfff",
"yB c #a4d0f7",
"f3 c #a4d0ff",
"yV c #a4d1ff",
"yU c #a4d2ff",
"D0 c #a4d3ff",
"yh c #a4d4ff",
"q6 c #a5bcee",
"vE c #a5bddf",
"e. c #a5bde3",
"cY c #a5bedd",
"gd c #a5c1e6",
"y. c #a5c1e9",
"gf c #a5c2e0",
"h7 c #a5c2e4",
"hL c #a5c2ec",
"xs c #a5c3e5",
"xr c #a5c3e7",
"ni c #a5c3e9",
"BO c #a5c4f2",
"xZ c #a5c5ee",
"ho c #a5c5f4",
"hK c #a5c5f6",
"x4 c #a5c6f1",
"Bm c #a5c7ed",
"nj c #a5c7f5",
"x3 c #a5c8f0",
"m4 c #a5caff",
"CJ c #a5cbfa",
"Dz c #a5cbfc",
"yl c #a5ccf7",
"ij c #a5ccfa",
"yX c #a5ccff",
"ik c #a5cdfb",
"jv c #a5cdfc",
"hb c #a5cdfe",
"mD c #a5cdff",
"h# c #a5cefa",
"mE c #a5cefc",
"il c #a5ceff",
"BB c #a5cff7",
"mn c #a5cff9",
"hf c #a5cfff",
"mo c #a5d0fb",
"C0 c #a5d0fd",
"yk c #a5d0ff",
"f2 c #a5d1fe",
"la c #a5d3ff",
"sl c #a6bbda",
"u7 c #a6bceb",
"eJ c #a6bee0",
"ub c #a6bfdd",
"tG c #a6bfde",
"u# c #a6c0db",
"v6 c #a6c0e3",
"va c #a6c1dc",
"gi c #a6c2e7",
"g# c #a6c2ea",
"u4 c #a6c3e5",
"i9 c #a6c3eb",
"x# c #a6c3ed",
"cz c #a6c4e0",
"vH c #a6c4e8",
"nh c #a6c4ea",
"gq c #a6c5e2",
"ga c #a6c5e4",
"wa c #a6c6ef",
"lD c #a6cbf7",
"m3 c #a6cbff",
"jt c #a6ccf9",
"m2 c #a6ccfb",
"ip c #a6ccfd",
"mk c #a6cdf8",
"he c #a6cdfa",
"ha c #a6cdfb",
"jp c #a6cdfc",
"iq c #a6cefb",
"ju c #a6cefc",
"jw c #a6cefe",
"mm c #a6ceff",
"m7 c #a6cffb",
"nA c #a6cffd",
"DW c #a6cfff",
"f1 c #a6d0fd",
"m1 c #a6d0ff",
"Ev c #a6d1ff",
"es c #a6d2ff",
"AS c #a7bedd",
"t# c #a7bfd9",
"cv c #a7bfe1",
"d2 c #a7bfe3",
"tL c #a7bfe5",
"cX c #a7c0de",
"cw c #a7c0df",
"ng c #a7c0e8",
"bG c #a7c1d8",
"ua c #a7c1da",
"tc c #a7c1dc",
"gk c #a7c1e2",
"vK c #a7c2ed",
"x9 c #a7c3e8",
"vG c #a7c3ea",
"fk c #a7c4e2",
"hz c #a7c4e4",
"v9 c #a7c4e6",
"gr c #a7c5e1",
"ys c #a7c5e9",
"xt c #a7c6e5",
"gC c #a7c7f0",
"Bl c #a7c9ef",
"mZ c #a7caf4",
"CY c #a7cbfb",
"m5 c #a7cbfd",
"ew c #a7ccdc",
"x0 c #a7ccf8",
"g5 c #a7ccf9",
"Cp c #a7ccff",
"lX c #a7cdfa",
"h. c #a7cdfc",
"ml c #a7cdfe",
"io c #a7cdff",
"Bz c #a7cef7",
"CC c #a7cef9",
"k0 c #a7cfff",
"BY c #a7d0ff",
"yC c #a7d1f7",
"lZ c #a7d1ff",
"if c #a7d2ff",
"rp c #a8bddc",
"w# c #a8bde8",
"b3 c #a8c0dc",
"d7 c #a8c0e2",
"d6 c #a8c0e4",
"sI c #a8c1df",
"e# c #a8c1e0",
"vJ c #a8c1e9",
"td c #a8c2db",
"dx c #a8c2dd",
"gm c #a8c2e3",
"vI c #a8c2e5",
"xu c #a8c2e7",
"gg c #a8c3e1",
"xX c #a8c3ee",
"rX c #a8c4da",
"wH c #a8c4e9",
"y# c #a8c4ec",
"vL c #a8c5e3",
"wF c #a8c5e5",
"fx c #a8c5e7",
"hB c #a8c5ef",
"u9 c #a8c6e0",
"xv c #a8c7f3",
"xQ c #a8caf7",
"CX c #a8cbf5",
"B7 c #a8ccfc",
"CI c #a8ccfe",
"Cq c #a8ccff",
"x1 c #a8cdf7",
"yq c #a8cdf9",
"mA c #a8cdfa",
"yR c #a8cdff",
"CD c #a8cef5",
"mC c #a8cefb",
"mB c #a8cefd",
"in c #a8ceff",
"g9 c #a8cff7",
"A8 c #a8cffa",
"ii c #a8cffb",
"mV c #a8d2ff",
"mv c #a8d3ff",
"AV c #a9bdd6",
"u6 c #a9bfe4",
"u5 c #a9c0df",
"bz c #a9c0e0",
"uy c #a9c0e2",
"eE c #a9c1dd",
"d8 c #a9c1e3",
"fw c #a9c1e5",
"dB c #a9c1e7",
"eL c #a9c1ef",
"b9 c #a9c2e0",
"dy c #a9c2e1",
"fl c #a9c2ea",
"fz c #a9c3e4",
"cA c #a9c3e6",
"v8 c #a9c3e8",
"ja c #a9c4df",
"v. c #a9c4e1",
"iL c #a9c4e2",
"xY c #a9c4ef",
"v5 c #a9c5ea",
"yH c #a9c5ed",
"u8 c #a9c6e4",
"vM c #a9c6e6",
"wE c #a9c6ee",
"fm c #a9c7ed",
"x5 c #a9cbf8",
"x2 c #a9ccf6",
"f0 c #a9ccfa",
"yp c #a9cdfd",
"Dy c #a9cefa",
"m# c #a9cefb",
"mz c #a9cffc",
"ma c #a9cffe",
"Eu c #a9cfff",
"uz c #aabee3",
"xo c #aac0e5",
"gA c #aac0e7",
"BP c #aac1e3",
"rB c #aac1ea",
"sm c #aac2da",
"gy c #aac2de",
"dz c #aac2e4",
"cB c #aac2e6",
"eK c #aac2e8",
"b8 c #aac3e1",
"fr c #aac3e2",
"hR c #aac3ec",
"tb c #aac4dd",
"c4 c #aac4df",
"hQ c #aac4e5",
"w. c #aac4e7",
"eM c #aac5d8",
"gl c #aac5e3",
"dR c #aac7e5",
"hM c #aac7e9",
"bm c #aac9db",
"nf c #aacafb",
"yD c #aacbee",
"yE c #aacbf4",
"Dl c #aacbfe",
"x6 c #aaccf9",
"lW c #aaccfa",
"g6 c #aacdfa",
"oB c #aacef2",
"xi c #aacfff",
"js c #aad0fd",
"yQ c #aad0ff",
"pM c #abbedc",
"j. c #abbfe0",
"xp c #abbfe4",
"iK c #abc1e6",
"v7 c #abc1e8",
"sh c #abc1ea",
"hy c #abc2e1",
"hA c #abc2e2",
"gz c #abc2e4",
"gs c #abc2eb",
"j# c #abc3dd",
"dA c #abc3e5",
"c3 c #abc3e7",
"tM c #abc3e9",
"xW c #abc3ef",
"ux c #abc4da",
"eI c #abc4e2",
"c6 c #abc4e3",
"BQ c #abc4ec",
"tJ c #abc5de",
"ri c #abc5e0",
"hx c #abc5e6",
"hO c #abc5e8",
"hN c #abc5ea",
"vb c #abc6db",
"hP c #abc6e4",
"hS c #abc6f5",
"fB c #abc8e6",
"xL c #abcbf4",
"jb c #abccf5",
"xP c #abccf7",
"fC c #abcde6",
"CH c #abcdfb",
"mh c #abd0fa",
"uj c #abd2f3",
"mj c #abd2fd",
"rI c #abdbff",
"gu c #acc0e1",
"eD c #acc1de",
"Bo c #acc1e0",
"vP c #acc2e9",
"gv c #acc3e3",
"fA c #acc3e5",
"gx c #acc4de",
"gw c #acc4e0",
"gB c #acc4e6",
"d5 c #acc4e8",
"d9 c #acc4ea",
"xV c #acc4f0",
"sJ c #acc5e4",
"Aq c #acc6dd",
"t. c #acc6df",
"AT c #acc6eb",
"dY c #acc7e4",
"ge c #acc7e5",
"g7 c #accbf4",
"#W c #acccfb",
"my c #accdf6",
"CB c #accdf8",
"mY c #accef4",
"Aw c #accefc",
"A5 c #accff9",
"mg c #acd2f7",
"D# c #acd2ff",
"AI c #acd5ff",
"wG c #adc0ea",
"vF c #adc1e2",
"wA c #adc2e1",
"vN c #adc3e8",
"vO c #adc3ea",
"iJ c #adc4e4",
"si c #adc4e6",
"ut c #adc5e7",
"rC c #adc5e9",
"te c #adc6e4",
"rz c #adc6e5",
"sH c #adc7e2",
"#X c #adc9ee",
"xn c #adcbf1",
"xM c #adcdf4",
"A6 c #add0f8",
"A7 c #add0fa",
"mW c #add2fc",
"Bp c #aec2e3",
"gt c #aec4e9",
"uu c #aec4eb",
"uw c #aec5e4",
"gj c #aec5e7",
"rA c #aec6e8",
"us c #aec6ec",
"#Z c #aec6f2",
"tK c #aec7e5",
"tI c #aec8df",
"eH c #aec8e1",
"du c #aec8e3",
"tF c #aec9de",
"vw c #aecadf",
"rD c #aecae2",
"g4 c #aecff5",
"B6 c #aecff8",
"CG c #aecffa",
"A4 c #aed0f6",
"mX c #aed1f9",
"mi c #aed3ff",
"AH c #aed4ff",
"Cj c #aed8ff",
"bs c #aedaff",
"uv c #afc3e8",
"rW c #afc5dd",
"d4 c #afc7e9",
"d3 c #afc7eb",
"dw c #afc9e4",
"i8 c #afc9ea",
"ex c #afc9ec",
"uc c #afcae5",
"g8 c #afccf4",
"xR c #afccf8",
"Dw c #afd1f6",
"Dx c #afd1fe",
"xj c #afd1ff",
"rl c #afd4f1",
"CU c #afd4ff",
"mf c #afd5f9",
"eo c #afd6ff",
"ag c #afe0ff",
"ey c #b0c3eb",
"tN c #b0cae5",
"vx c #b0cbe0",
"vz c #b0cbe6",
"vv c #b0cce4",
"lR c #b0d0f6",
"mc c #b0d0f9",
"Co c #b0d1fc",
"ll c #b0d2ff",
"Ad c #b0d3fb",
"CV c #b0d5ff",
"#Y c #b1c8e8",
"vA c #b1cce7",
"m. c #b1d1f7",
"AZ c #b1d2fb",
"AF c #b1d3f9",
"By c #b1d4fc",
"AG c #b1d4fe",
"bP c #b1d5f7",
"sT c #b1d6f3",
"lN c #b1d6ff",
"rE c #b2cde2",
"lC c #b2d2fb",
"lV c #b2d2ff",
"Cz c #b2d3ff",
"mb c #b2d4ff",
"l# c #b2d5ff",
"xJ c #b2d7ff",
"s9 c #b3cde4",
"qY c #b3cee3",
"BZ c #b3d0fa",
"Ac c #b3d2fe",
"fW c #b3d3f9",
"Ae c #b3d3fa",
"Af c #b3d3fc",
"Db c #b3d4fd",
"gS c #b3d5ff",
"mx c #b3d6ff",
"Ci c #b3d8ff",
"xU c #b4ccf8",
"vC c #b4cdeb",
"vB c #b4cee7",
"d1 c #b4cee9",
"md c #b4d0f7",
"Dv c #b4d0f8",
"A3 c #b4d4fa",
"Dk c #b4d4fb",
"fe c #b4d4fc",
"lQ c #b4d5fe",
"Dc c #b4d5ff",
"CE c #b4d6fc",
"lO c #b4d6ff",
"C9 c #b4d7ff",
"lw c #b4d8ff",
"dO c #b4d9ff",
"Ar c #b5cdef",
"c5 c #b5cdf1",
"vD c #b5ceed",
"qX c #b5cfe6",
"qW c #b5cfe8",
"c2 c #b5cfea",
"eb c #b5d0e3",
"qV c #b5d0e5",
"lP c #b5d4ff",
"AE c #b5d5fb",
"kZ c #b5d5fc",
"CT c #b5d5fe",
"Ag c #b5d5ff",
"lJ c #b5d6ff",
"xN c #b5d7fd",
"dN c #b5d7ff",
"ig c #b5d8fe",
"fU c #b5d9ff",
"sF c #b6cfe3",
"cC c #b6d0e7",
"ea c #b6d1ee",
"Bu c #b6d2f9",
"fZ c #b6d4ff",
"Bx c #b6d7fa",
"Ax c #b6d7ff",
"fR c #b6d8ff",
"xO c #b6d9ff",
"Cv c #b6dbff",
"vU c #b6e4ff",
"Ap c #b7d1e8",
"me c #b7d1f6",
"CA c #b7d2fd",
"Da c #b7d4fc",
"uf c #b7d5ef",
"CF c #b7d5fb",
"fV c #b7d6ff",
"D. c #b7d7fe",
"l9 c #b7d7ff",
"g3 c #b7d8ff",
"dM c #b7d9ff",
"uE c #b7e1ff",
"dZ c #b8d2ed",
"c1 c #b8d3e8",
"lB c #b8d5fd",
"lU c #b8d5ff",
"Bs c #b8d6fa",
"B5 c #b8d6fc",
"Di c #b8d7ff",
"CO c #b8d8ff",
"nR c #b8deff",
"w2 c #b9d1f3",
"c7 c #b9d3ec",
"kY c #b9d3f6",
"fY c #b9d4fe",
"xS c #b9d4ff",
"xk c #b9d5fa",
"lT c #b9d5fd",
"AD c #b9d6fe",
"Ay c #b9d6ff",
"lh c #b9d7fb",
"xm c #b9d7fd",
"Bt c #b9d8f7",
"ih c #b9d8fd",
"Cw c #b9d8ff",
"l8 c #b9daff",
"z9 c #b9dcf2",
"Ck c #b9dcff",
"po c #b9deff",
"Cm c #bad2ff",
"ec c #bad5e6",
"Az c #bad5ff",
"CW c #bad6fb",
"Cl c #bad6fd",
"A0 c #bad6fe",
"kW c #bad6ff",
"A2 c #bad7f9",
"xl c #bad8fc",
"lk c #bad8fe",
"k6 c #badaff",
"Dj c #badbfe",
"z0 c #bbd1e8",
"l. c #bbd3f7",
"CP c #bbd3ff",
"r9 c #bbd4ea",
"fX c #bbd4fa",
"lS c #bbd4fc",
"cZ c #bbd5ec",
"kX c #bbd5fa",
"fd c #bbd5fc",
"u3 c #bbd6eb",
"er c #bbd6fa",
"fb c #bbd6fd",
"xT c #bbd6ff",
"Cn c #bbd7fe",
"xK c #bbdcff",
"lI c #bbdfff",
"ed c #bbe1ff",
"rH c #bbe7ff",
"Bv c #bcd5fd",
"A1 c #bcd5fe",
"AC c #bcd6f7",
"li c #bcd6f9",
"lj c #bcd6fb",
".L c #bcd8fd",
"lx c #bcd8ff",
"k8 c #bdd0f0",
"B1 c #bdd3f8",
"CQ c #bdd3fc",
"Bw c #bdd4fd",
"lA c #bdd4fe",
"fc c #bdd5fb",
"B2 c #bdd6fe",
"B3 c #bdd7fc",
"c0 c #bdd8eb",
"aF c #bde7ff",
"ly c #bed4f9",
"lz c #bed4fb",
"AA c #bed5fe",
"AB c #bed6fa",
"B4 c #bed6fc",
"dC c #bed9ec",
"v4 c #bedbf9",
"pn c #beddf9",
"p2 c #bee4ff",
"CR c #bfd2fc",
"ep c #bfd5f9",
"B0 c #bfd5fa",
"CS c #bfd6ff",
"rj c #bfd8f6",
"sg c #bfd9f0",
"rk c #bfd9f2",
"ug c #bfdef2",
"pt c #bfdefd",
"dF c #bfe7ff",
"eq c #c0d2f3",
"k9 c #c0d2f6",
"k7 c #c0d8fc",
"dv c #c0daf1",
"pj c #c0dcff",
"i6 c #c0dff1",
"rh c #c1dbf4",
"AR c #c1dcf1",
"pm c #c1ddf3",
"cO c #c1e2ff",
"cc c #c1e3fe",
"qB c #c1e5ff",
"i5 c #c1ebff",
"sj c #c2daf2",
"fu c #c2dcf3",
"pk c #c2ddfb",
"pl c #c2def6",
"p8 c #c2e1ff",
"eC c #c3dbf3",
"oR c #c3e7ff",
"rg c #c4def5",
"dr c #c4dff0",
"dX c #c4e0f8",
"cb c #c4e3f7",
"sr c #c4eaff",
"zw c #c5daed",
"ez c #c5ddf9",
"cE c #c5dfff",
"eF c #c5e0f3",
"dV c #c5e8fb",
"oS c #c6eaff",
"r3 c #c6f7ff",
"cF c #c7e2f5",
"fo c #c7e6fb",
"ao c #c7e7ff",
"ue c #c8e7ff",
"sx c #c8e8ff",
"dQ c #c8ebff",
"#Q c #c8edff",
"nk c #c8f0fa",
"cI c #c8f2ff",
"tO c #c9e3fa",
"u2 c #c9e4f9",
"sQ c #c9e5fd",
"sq c #c9e9f6",
"dE c #c9eafb",
"qK c #c9edfb",
"n1 c #c9eeff",
"uA c #cadef9",
"i7 c #cae3f7",
"rf c #cae5fa",
"wv c #caebfa",
"br c #caecf8",
"cd c #caecff",
"vW c #caeff8",
"a7 c #caf0fb",
"a# c #caf1ff",
"sP c #cbe5ff",
"vy c #cbe7fd",
"sp c #cbe9f4",
"vg c #cbebff",
"bl c #cbecff",
"z4 c #cbedf7",
"ws c #cbf0f8",
"nl c #cbf0ff",
"tR c #cbf3ff",
"vV c #cbf5ff",
"fE c #cbf9ff",
"fF c #cbfaff",
"zM c #cce5ec",
"sK c #cce5ff",
"sL c #cce6ff",
"cy c #cce8fe",
"dD c #cceaf4",
"pc c #ccebff",
"rF c #ccecfb",
"sS c #ccecff",
"wu c #ccf1f7",
"d. c #ccf1ff",
"p9 c #cddfed",
"sM c #cde4ff",
"sO c #cde5ff",
"as c #cde7fe",
"bN c #cde8fd",
"uW c #cdebf6",
"zB c #cdedf8",
"ui c #cdeef5",
"wr c #cdeefd",
"vZ c #cdeffb",
"wt c #cdf0f6",
"qd c #cee0f6",
"sN c #cee6fe",
"dp c #cee7fd",
"qZ c #cee9fc",
"uZ c #ceeaf5",
"cx c #ceeaf6",
"b7 c #ceeaff",
"a3 c #ceebf9",
"ud c #ceebfd",
"c9 c #ceecf4",
"zr c #ceecff",
"q0 c #ceedff",
"aa c #ceefff",
"qk c #cef0fc",
"r0 c #cef0ff",
"#o c #cef1ff",
"uD c #cef2ff",
"aE c #cef3ff",
"fD c #cef4ff",
"Ao c #cfe9f8",
"As c #cfeaf5",
"ta c #cfeafd",
"fq c #cfeaff",
"uX c #cfebf7",
"aW c #cfebf9",
"sR c #cfebff",
"bn c #cfecfe",
"#P c #cfedf8",
"wq c #cfedff",
"a. c #cfeeff",
"oQ c #cfefff",
"aC c #cff0ff",
"dW c #cff1fb",
"pE c #cff1ff",
"r1 c #cff4ff",
"cD c #d0e9ff",
"h5 c #d0eaff",
"qS c #d0ebfc",
"sf c #d0ebfe",
"qF c #d0ebff",
"uY c #d0ecf8",
"re c #d0ecfa",
"v3 c #d0ecff",
"cH c #d0edfd",
"t9 c #d0edff",
"aV c #d0efff",
"p0 c #d0f0fb",
"aB c #d0f0fd",
"d0 c #d0f0ff",
"tP c #d0f1f6",
"uh c #d0f1f8",
"qj c #d0f1fa",
"dq c #d0f1ff",
"a6 c #d0f2f4",
"r2 c #d0f4ff",
"tQ c #d0f6f7",
"qi c #d1e7f4",
"sd c #d1e9f5",
"qT c #d1ebfa",
"dt c #d1ebff",
"rQ c #d1ecf5",
"pZ c #d1ecfd",
"bM c #d1ecff",
"u0 c #d1edf9",
"cV c #d1edfb",
"nS c #d1edff",
"#N c #d1eefc",
"bo c #d1eefe",
"cu c #d1eeff",
"sn c #d1eff7",
"tA c #d1eff9",
"z6 c #d1effa",
"oA c #d1efff",
"tf c #d1f0ff",
"af c #d1f1fc",
"uV c #d1f1fe",
"qA c #d1f2f7",
"eA c #d1f2ff",
"tg c #d1f3ff",
"AP c #d1f5ff",
"ce c #d1f6ff",
"qR c #d2e9f7",
"bj c #d2e9fb",
"sk c #d2eaff",
"s8 c #d2ecf9",
"rV c #d2ecfb",
"qx c #d2ecfd",
"r# c #d2edfe",
"bL c #d2edff",
"zA c #d2eef2",
"ae c #d2eefa",
"bE c #d2eefc",
"bC c #d2eeff",
"so c #d2eff5",
"bI c #d2effd",
"ab c #d2efff",
"p1 c #d2f0fb",
"pD c #d2f1ff",
"z5 c #d2f2fd",
"bk c #d2f3ff",
"eB c #d2f7ff",
"aY c #d3e9f4",
"bh c #d3e9f6",
"ad c #d3eafc",
"rt c #d3ebf7",
"fp c #d3ecff",
"c# c #d3edfa",
"bq c #d3edfc",
"se c #d3edfe",
"v2 c #d3edff",
"nZ c #d3eef7",
"tE c #d3eef9",
"aD c #d3eeff",
"b5 c #d3effa",
"ds c #d3effb",
"a5 c #d3effd",
"vX c #d3f0f6",
"vY c #d3f0f8",
"uU c #d3f0fe",
"b6 c #d3f0ff",
"#O c #d3f1fb",
"qJ c #d3f3ff",
"qz c #d3f4fd",
"qQ c #d4e8f1",
"s3 c #d4eae7",
"aA c #d4eaf5",
"uT c #d4ecf6",
"sE c #d4edff",
"oz c #d4eefb",
"a4 c #d4eefd",
"ac c #d4eeff",
"cU c #d4effa",
"bF c #d4efff",
"pY c #d4f0fb",
"#M c #d4f0fc",
"c8 c #d4f0fe",
"tB c #d4f1f7",
"pb c #d4f1ff",
"zK c #d4f3ff",
"n0 c #d4f5fe",
"h8 c #d4f5ff",
"z3 c #d4f6ff",
"oP c #d5eaff",
"zJ c #d5ebf6",
"cQ c #d5ebf8",
"zI c #d5ecf2",
"pC c #d5edf7",
"rx c #d5edf9",
"b2 c #d5edff",
"c. c #d5eeff",
"u. c #d5effc",
"pa c #d5effe",
"bK c #d5efff",
"pA c #d5f0f9",
"a2 c #d5f0fb",
"eG c #d5f0ff",
"tC c #d5f1f4",
"vt c #d5f1fc",
"vu c #d5f1fd",
"ry c #d5f1ff",
"bp c #d5f2ff",
"rZ c #d5f5ff",
"cs c #d6eaf3",
"rd c #d6eaf5",
"s4 c #d6ebf0",
"a1 c #d6ecf7",
"ct c #d6ecf9",
"zz c #d6ecff",
"qU c #d6edfb",
"qy c #d6edfd",
"bD c #d6edff",
"#n c #d6eef8",
"zL c #d6eff3",
"aU c #d6efff",
"cG c #d6f0fd",
"cW c #d6f0ff",
"bJ c #d6f1ff",
"tD c #d6f2f6",
"aX c #d6f2fe",
"zh c #d6f6ff",
"a0 c #d7e9f5",
"nY c #d7eaf1",
"r. c #d7ebf4",
"aZ c #d7ebf6",
"z8 c #d7ebff",
"vh c #d7ecff",
"bO c #d7edff",
"cS c #d7eef4",
"pB c #d7eff9",
"sG c #d7f0ff",
"ru c #d7f1fe",
"bi c #d7f1ff",
"u1 c #d7f2ff",
"bH c #d7f3ff",
"gQ c #d7f4fc",
"gR c #d7f7ff",
"#m c #d8e9f1",
"t8 c #d8eaf4",
"aT c #d8ebf9",
"dU c #d8ecf3",
"sD c #d8ecf7",
"v1 c #d8edee",
"h4 c #d8eeff",
"pz c #d8effd",
"b4 c #d8f2ff",
"tH c #d8f3ff",
"ca c #d8f4ff",
"s7 c #d9e8ed",
"oy c #d9ebf5",
"tz c #d9edf4",
"uB c #d9edff",
"rU c #d9effc",
"AQ c #d9effd",
"nT c #d9efff",
"rR c #d9f0f8",
"rs c #daecf0",
"cT c #daeef5",
"z7 c #daf1ff",
"cR c #daf2fc",
"#K c #dbe7f5",
"dS c #dbe9f4",
"oO c #dbeaff",
"rw c #dbedf7",
"#L c #dbeffa",
"v0 c #dbf9ff",
"#9 c #dceff6",
"dT c #dde7e6",
"vj c #ddebee",
"uC c #ddf5ff",
"gP c #ddf8ff",
"ap c #deeefe",
"au c #deeff6",
"vk c #def0fa",
"z2 c #def0fc",
"py c #def2f9",
"at c #def4ff",
"aS c #dfecf2",
"qs c #dfecf4",
"vs c #dff0f7",
"sb c #dff0fa",
"vl c #dff1fd",
"h3 c #dff2ff",
"sc c #dff6fe",
"sy c #dff8ff",
"vo c #e0f3fa",
"bc c #e0f3ff",
"dm c #e0f7ff",
"zi c #e0ffff",
"qr c #e1ecf0",
"vp c #e1f2f9",
"An c #e1f4fa",
"p# c #e1f5fc",
"sz c #e1f8ff",
"vm c #e2f0fd",
"ra c #e2f5f9",
"rv c #e2f5fb",
"sA c #e2f8ff",
"tr c #e2feff",
"#l c #e3f0f8",
"uK c #e3f0ff",
"vn c #e3f2f7",
"az c #e3f4fc",
"qo c #e3faff",
"qt c #e4ecf7",
"Am c #e4f5ff",
"zq c #e5f3fc",
"cP c #e5f3fe",
"vi c #e5f4ff",
"vq c #e6f1f5",
"vr c #e6f4f7",
"qc c #e6f7ff",
"pS c #e6fff7",
"h2 c #e6ffff",
"qL c #e7f2f6",
"zy c #e7f3ff",
"qP c #e7f5f6",
"rT c #e7faff",
".G c #e7fdff",
"pX c #e8f5fb",
"ar c #e8f6ff",
"uQ c #e8fbf9",
"uS c #e8fdff",
"tq c #e8feff",
"qe c #e9f5ff",
"uR c #e9fbfd",
".6 c #e9ffff",
"z1 c #eaf4ff",
"av c #eaf8f9",
"rc c #eaf8ff",
"sC c #eaf9ff",
"s1 c #eaffff",
"oN c #ebeffb",
"aP c #ebfbff",
"co c #ebfff5",
".Y c #ebffff",
"tw c #ecfdff",
"zx c #edf7f9",
"q9 c #edf8fc",
"#C c #edffff",
"pu c #eefbff",
"t0 c #eeffff",
"s2 c #eff6ff",
"bg c #effcff",
"#f c #effdff",
"rS c #effffe",
"zn c #efffff",
"#8 c #f0fafb",
"ox c #f0fbff",
"b1 c #f0fdff",
"cr c #f0feff",
"bZ c #f0ffff",
"#J c #f1f6f9",
".H c #f1ffff",
"dn c #f2fcf4",
"qG c #f2fcfd",
"up c #f2fdff",
"ty c #f2fefe",
"p. c #f2fffe",
".K c #f2ffff",
"sB c #f3faff",
"sa c #f3feff",
"t5 c #f3ffff",
"t1 c #f4fbff",
"do c #f4fcfe",
"rP c #f4fcff",
"s6 c #f4feff",
"q7 c #f4fff8",
".I c #f4ffff",
"zo c #f5f5f5",
"zH c #f5faf6",
"t3 c #f5fafe",
".Z c #f5feff",
"s5 c #f5fffe",
".J c #f5ffff",
"#2 c #f6fbff",
"#h c #f6fcee",
"t7 c #f6fdff",
"aR c #f6feff",
"nU c #f6ffff",
"uL c #f7faff",
"#D c #f7fcff",
"nX c #f7fdf9",
"#k c #f7fef7",
"b0 c #f7fff4",
"#j c #f7fff8",
"aw c #f7fffd",
"qh c #f7ffff",
"cq c #f8fcfb",
"ow c #f8fdf9",
"qu c #f8fdff",
"s. c #f8fef2",
"#g c #f8fff5",
"#i c #f8fffc",
".5 c #f8ffff",
"ay c #f9fdff",
"qv c #f9fef8",
"qq c #f9feff",
"qO c #f9fff9",
"q8 c #f9fffb",
"pN c #f9fffd",
"#1 c #f9ffff",
"uM c #fafefd",
"#G c #fafeff",
"rq c #fafffb",
"qb c #faffff",
"pv c #fbfbfb",
"uq c #fbfcf7",
"px c #fbfcfe",
"rb c #fbfdfa",
"aq c #fbfdfc",
"pT c #fbfff8",
".0 c #fbffff",
"zG c #fcfbf6",
"#I c #fcfcfa",
"#7 c #fcfdff",
"rr c #fcfefb",
"qM c #fcfefd",
"qw c #fcfffa",
"qN c #fcfffb",
"o8 c #fcfffd",
"#3 c #fcffff",
".2 c #fdfcf8",
"pw c #fdfdfd",
"#F c #fdfdff",
"qf c #fdfef6",
"ur c #fdfef9",
"qg c #fdfeff",
"#4 c #fdfff9",
"nV c #fdfffa",
"ax c #fdfffe",
"qH c #fefafb",
"qI c #fefcfd",
"t2 c #fefdf8",
"bB c #fefdf9",
"o9 c #fefdfb",
"pU c #fefdff",
"uN c #fefef6",
"rO c #fefefc",
".4 c #fefeff",
"tx c #fefff7",
"bd c #fefffa",
"o7 c #fefffb",
".1 c #fefffd",
"aQ c #feffff",
"be c #fff9f6",
"qa c #fff9ff",
"un c #fffaff",
"t6 c #fffbfa",
"uP c #fffbfc",
"oM c #fffbfd",
"zp c #fffcfb",
"q# c #fffcfc",
"rN c #fffcff",
"bf c #fffdfa",
"#H c #fffdfc",
"qp c #fffdfe",
".3 c #fffdff",
"#E c #fffef8",
"oK c #fffef9",
"pV c #fffefa",
"pW c #fffefb",
"s# c #fffefc",
"uO c #fffefd",
"cp c #fffeff",
"uo c #ffffef",
"bA c #fffff4",
"q. c #fffff5",
"nW c #fffff7",
"ov c #fffff8",
"ou c #fffffa",
"#5 c #fffffb",
"oL c #fffffd",
"#6 c #ffffff",
"QtQtQtQtQtQtQtQtQtQtQtQtQtQtQtQtQtQtQtQtQtQtQtQtQtQtQtQtQtQtQtQtQtQtQtQtQtQtQtQtQtQtQtQtQtQtQtQtQtQtQtQtQtQtQtQtQtQtQtQtQtQtQtQtQtQtQtQtQtQtQtQtQtQtQtQtQtQtQtQtQtQtQtQtQtQtQtQtQtQtQtQtQtQtQtQtQtQtQtQtQtQtQtQtQtQtQtQtQtQtQtQtQtQtQtQtQtQtQtQtQtQtQtQtQtQtQtQt",
"QtQtQtQtQtQtQtQtQtQtQtQtQtQtQtQtQtQtQtQtQtQtQtQtQtQtQtQtQtQtQtQtQtQtQtQtQtQtQtQtQtQtQtQtQtQtQtQtQtQtQtQtQtQtQtQtQtQtQtQtQtQtQtQtQtQtQtQtQtQtQtQtQtQtQtQtQtQtQtQtQtQtQtQtQtQtQtQtQtQtQtQtQtQtQtQtQtQtQtQtQtQtQtQtQtQtQtQtQtQtQtQtQtQtQtQtQtQtQtQtQtQtQtQtQtQtQtQt",
"QtQtQtQtQtQtQtQtQtQtQtQtQtQtQtQtQtQtQtQtQtQtQtQtQtQtQtQtQtQtQtQtQtQtQtQtQtQtQtQtQtQtQtQtQtQtQtQtQtQtQtQtQtQtQtQtQtQtQtQtQtQtQtQtQtQtQtQtQtQtQtQtQtQtQtQtQtQtQtQtQtQtQtQtQtQtQtQtQtQtQtQtQtQtQtQtQtQtQtQtQtQtQtQtQtQtQtQtQtQtQtQtQtQtQtQtQtQtQtQtQtQtQtQtQtQtQtQt",
"QtQtQtQtQtQtQtQtQtQtQtQtQtQtQtQtQtQtQtQtQtQtQtQtQtQtQtQtQtQtQtQtQtQtQtQtQtQtQtQtQtQtQtQtQtQtQtQtQtQtQtQtQtQtQtQtQtQtQtQtQtQtQtQtQtQtQtQtQtQtQtQtQtQtQtQtQtQtQtQtQtQtQtQtQtQtQtQtQtQtQtQtQtQtQtQtQtQtQtQtQtQtQtQtQtQtQtQtQtQtQtQtQtQtQtQtQtQtQtQtQtQtQtQtQtQtQtQt",
"QtQtQtQtQtQtQtQtQtQtQtQtQtQtQtQtQtQtQtQtQtQtQtQtQtQtQtQtQtQtQtQtQtQtQtQtQtQtQtQtQtQtQtQtQtQtQtQtQtQtQtQtQtQtQtQtQtQtQtQtQtQtQtQtQtQtQtQtQtQtQtQtQtQtQtQtQtQtQtQtQtQtQtQtQtQtQtQtQtQtQtQtQtQtQtQtQtQtQtQtQtQtQtQtQtQtQtQtQtQtQtQtQtQtQtQtQtQtQtQtQtQtQtQtQtQtQtQt",
"QtQtQtQtQtQtQtQtQtQtQtQtQtQtQtQtQtQtQtQtQtQtQtQtQtQtQtQtQtQtQtQtQtQtQtQtQtQtQtQtQtQtQtQtQtQtQtQtQtQtQtQtQtQtQtQtQtQtQtQtQtQtQtQtQtQtQtQtQtQtQtQtQtQtQtQtQtQtQtQtQtQtQtQtQtQtQtQtQtQtQtQtQtQtQtQtQtQtQtQtQtQtQtQtQtQtQtQtQtQtQtQtQtQtQtQtQtQtQtQtQtQtQtQtQtQtQtQt",
"QtQtQtQtQtQtQtQtQtQtQtQtQtQtQtQtQtQtQtQtQtQtQtQtQtQtQtQtQtQtQtQtQtQtQtQtQtQtQtQtQtQtQtQtQtQtQtQtQtQtQtQtQtQtQtQtQtQtQtQtQtQtQtQtQtQtQtQtQtQtQtQtQtQtQtQtQtQtQtQtQtQtQtQtQtQtQtQtQtQtQtQtQtQtQtQtQtQtQtQtQtQtQtQtQtQtQtQtQtQtQtQtQtQtQtQtQtQtQtQtQtQtQtQtQtQtQtQt",
"QtQtQtQtQtQtQtQtQtQtQtQtQtQtQtQtQtQtQtQtQtQtQtQtQtQtQtQtQtQtQtQtQtQtQtQtQtQtQtQtQtQtQtQtQtQtQtQtQtQtQtQtQtQtQtQtQtQtQtQtQtQtQtQtQtQtQtQtQtQtQtQtQtQtQtQtQtQtQtQtQtQtQtQtQtQtQtQtQtQtQtQtQtQtQtQtQtQtQtQtQtQtQtQtQtQtQtQtQtQtQtQtQtQtQtQtQtQtQtQtQtQtQtQtQtQtQtQt",
"QtQtQtQtQtQtQtQtQtQtQtQtQtQtQtQtQtQtQtQtQtQtQtQtQtQtQtQtQtQtQtQtQtQtQtQtQtQtQtQtQtQtQtQtQtQtQtQtQtQtQtQtQtQtQtQtQtQtQtQtQtQtQtQtQtQtQtQtQtQtQtQtQtQtQtQtQtQtQtQtQtQtQtQtQtQtQtQtQtQtQtQtQtQtQtQtQtQtQtQtQtQtQtQtQtQtQtQtQtQtQtQtQtQtQtQtQtQtQtQtQtQtQtQtQtQtQtQt",
"QtQtQtQtQtQtQtQtQtQtQtQtQtQtQtQtQtQtQtQtQtQtQtQtQtQtQtQtQtQtQtQtQtQtQtQtQtQtQtQtQtQtQtQtQtQtQtQtQtQtQtQtQtQtQtQtQtQtQtQtQtQtQtQtQtQtQtQtQtQtQtQtQtQtQtQtQtQtQtQtQtQtQtQtQtQtQtQtQtQtQtQtQtQtQtQtQtQtQtQtQtQtQtQtQtQtQtQtQtQtQtQtQtQtQtQtQtQtQtQtQtQtQtQtQtQtQtQt",
"QtQtQtQtQtQtQtQtQtQtQtQtQtQtQtQtQtQtQtQtQtQtQtQtQtQtQtQtQtQtQtQtQtQtQtQtQtQtQtQtQtQtQtQtQtQtQtQtQtQtQtQtQtQtQtQtQtQtQtQtQtQtQtQtQtQtQtQtQtQtQtQtQtQtQtQtQtQtQtQtQtQtQtQtQtQtQtQtQtQtQtQtQtQtQtQtQtQtQtQtQtQtQtQtQtQtQtQtQtQtQtQtQtQtQtQtQtQtQtQtQtQtQtQtQtQtQtQt",
"QtQtQtQtQtQt.#.#.#.#.#.a.b.c.c.d.a.e.#.f.g.h.i.j.k.l.m.n.o.p.q.rQt.s.t.uQt.v.#.wQtQtQtQtQtQtQtQtQtQtQtQtQtQtQtQtQtQtQtQtQtQtQtQtQtQtQtQtQtQtQtQtQtQtQtQtQtQtQtQtQtQtQtQtQtQtQtQtQtQtQtQtQtQtQtQtQtQtQtQtQtQtQtQtQtQtQtQtQtQtQtQtQtQtQtQtQtQtQtQtQtQtQtQtQtQtQtQt",
"QtQtQtQtQtQt.#.#.#.#.#.t.x.x.y.x.z.A.B.C.D.E.F.G.H.I.J.K.L.M.N.O.P.Q.R.tQt.#.#.SQtQtQtQtQtQtQtQtQtQtQtQtQtQtQtQtQtQtQtQtQtQtQtQtQtQtQtQtQtQtQtQtQtQtQtQtQtQtQtQtQtQtQtQtQtQtQtQtQtQtQtQtQtQtQtQtQtQtQtQtQtQtQtQtQtQtQtQtQtQtQtQtQtQtQtQtQtQtQtQtQtQtQtQtQtQtQtQt",
"QtQtQtQtQtQtQtQtQtQtQt.T.wQt.U.S.T.V.W.W.X.Y.Z.0.1.2.3.4.5.K.6.7.8.9.U.#.S.S.#.#QtQtQtQtQtQtQtQtQtQtQtQtQtQtQtQtQtQtQtQtQtQtQtQtQtQtQtQtQtQtQtQtQtQtQtQtQtQtQtQtQtQtQtQtQtQtQtQtQtQtQtQtQtQtQtQtQtQtQtQtQtQtQtQtQtQtQtQtQtQtQtQtQtQtQtQtQtQtQtQtQtQtQtQtQtQtQtQt",
"QtQtQtQtQtQtQtQtQtQtQt#.###a#b.b.T#c#d#e#f#g#h#i#j#k.5.J#l#m#n#o#p#q#r#s#t#..S#uQtQtQtQtQtQtQtQtQtQtQtQtQtQtQtQtQtQtQtQtQtQtQtQtQtQtQtQtQtQtQtQtQtQtQtQtQtQtQtQtQtQtQtQtQtQtQtQtQtQtQtQtQtQtQtQtQtQtQtQtQtQtQtQtQtQtQtQtQtQtQtQtQtQtQtQtQtQtQtQtQtQtQtQtQtQtQtQt",
"QtQtQtQtQtQt.S.S.S.S.S#v#w#x#y#z#A#B#C#D#E#F#G#H#I#J#K#L#M#N#O#P#o#Q#R#S#T.W.w#UQtQtQtQtQtQtQtQtQtQtQtQtQtQtQtQtQtQtQtQtQtQtQtQtQtQtQtQtQtQtQtQtQtQtQtQtQtQtQtQtQtQtQtQtQtQtQtQtQtQtQtQtQtQtQtQtQtQtQtQtQtQtQtQtQtQtQtQtQtQtQtQtQtQtQtQtQtQtQtQtQtQtQtQtQtQtQtQt",
"QtQtQtQtQtQt.S.S.S.S.S#V#W#X#Y#Z#0#1#2#3#4#5#6#7#8#9a.a#aaabacadaeafagahai.zajakQtQtQtQtQtQtQtQtQtQtQtQtQtQtQtQtQtQtQtQtQtQtQtQtQtQtQtQtQtQtQtQtQtQtQtQtQtQtQtQtQtQtQtQtQtQtQtQtQtQtQtQtQtQtQtQtQtQtQtQtQtQtQtQtQtQtQtQtQtQtQtQtQtQtQtQtQtQtQtQtQtQtQtQtQtQtQtQt",
".RQtQt.d.b.balaman.laoap.5aq.1arasatauavawaxayazaAaBaCabaDaDaDaDaDaDaEaFaGaH.UaI.daJaJ.SaKaKQtQtQtQtQtQtQtQtQtQtQtQtQtQtQtQtQtQtQtQtQtQtQtQtQtQtQtQtQtQtQtQtQtQtQtQtQtQtQtQtQtQtQtQtQtQtQtQtQtQtQtQtQtQtQtQtQtQtQtQtQtQtQtQtQtQtQtQtQtQtQtQtQtQtQtQtQtQtQtQtQtQt",
"akakaL.#.#.RaMaNaOaP.4aQ.0aRaSaTaUaVaWaXaYaZa0a1a2a3aba4a5a5a5a5a5a5a6a7aga8.ua9b..u.w.w.U.vQtQtQtQtQtQtQtQtQtQtQtQtQtQtQtQtQtQtQtQtQtQtQtQtQtQtQtQtQtQtQtQtQtQtQtQtQtQtQtQtQtQtQtQtQtQtQtQtQtQtQtQtQtQtQtQtQtQtQtQtQtQtQtQtQtQtQtQtQtQtQtQtQtQtQtQtQtQtQtQtQtQt",
".aakaL.#aHb#babbbcbdbebf#3bgbhbibjbkblbmbnboaDa4a5bpa5a4a4a5a5a5a5a5bqbrbsaIbtbu.u.z.W.T#U#uQtQtQtQtQtQtQtQtQtQtQtQtQtQtQtQtQtQtQtQtQtQtQtQtQtQtQtQtQtQtQtQtQtQtQtQtQtQtQtQtQtQtQtQtQtQtQtQtQtQtQtQtQtQtQtQtQtQtQtQtQtQtQtQtQtQtQtQtQtQtQtQtQtQtQtQtQtQtQtQtQtQt",
"akakaLbvbwbxbybz.5bA#3bB#D#9abbCbDbEbFbGbHbobIababbIbJbKbLbLbLaDbMbNbObFbPbQbRbSbTbUbV.u.dakQtQtQtQtQtQtQtQtQtQtQtQtQtQtQtQtQtQtQtQtQtQtQtQtQtQtQtQtQtQtQtQtQtQtQtQtQtQtQtQtQtQtQtQtQtQtQtQtQtQtQtQtQtQtQtQtQtQtQtQtQtQtQtQtQtQtQtQtQtQtQtQtQtQtQtQtQtQtQtQtQtQt",
".x.t.SbW.8bXbYbZb0#F.5#1b1#LababaDbqb2b3b3b4b5aba5a5b6b7b8b8b8b9b8c.c#cacbcccdcecfcgch.t.c.cQtQtQtQtQtQtQtQtQtQtQtQtQtQtQtQtQtQtQtQtQtQtQtQtQtQtQtQtQtQtQtQtQtQtQtQtQtQtQtQtQtQtQtQtQtQtQtQtQtQtQtQtQtQtQtQtQtQtQtQtQtQtQtQtQtQtQtQtQtQtQtQtQtQtQtQtQtQtQtQtQtQt",
"cib#cjckclcmcncob0cpcqcrcscta5ababcuaDcvcwaDcxa5a5aDcyczcAcBcBcBcBcBcCcDcEcFcGcHcIcJ.w.R.S.d.S.w.SQtaL.#.t.S.S.S.wQtQtQtQtQt.tQtQtQtQtQtQtQtQtQtQtQtQtQtQtQtQtQtQtQtQtQtQtQtQtQtQtQtQtQtQtQtQtQtQtQtQtQtQtQtQtQtQtQtQtQtQtQtQtQtcK.RcKcL.U.S#.QtQtQtQtQtQtQtQtQt",
"cMcNcOcP.5cQbFcRcScT#LcUa5aDaDaDa5cVcWcXcYcZbLc0c1c2cvc3cBcBcBcBcBcBc4b8c5c6c7c8c9d.d#dadbdcch.R.w.Tdd.SaKQtbtde#u.RQtak.S.t.zQtQtQtQtQtQtQtQtQtQtQtQtQtQtQtQtQtQtQtQtQtQtQtQtQtQtQtQtQtQtQtQtQtQtQtQtQtQtQtQtQtQtQtQtQtQtQtQtQtdbdfdgdhdidjaHQtQtQtQtQtQtQtQtQt",
"dkdldmdndodpdqbndracbEb5dsa5aDaDa5cVdtcXc6dudvdwdxdydzc3cBcBcBcBcBcBdydAdBcvdxdCdDdEdFdGdHdI.tchdJdJdJ#Uak#Udedebtb#aH.#QtaKaKQtQtQtQtQtQtQtQtQtQtQtQtQtQtQtQtQtQtQtQtQtQtQtQtQtQtQtQtQtQtQtQtQtQtQtQtQtQtQtQtQtQtQtQtQtQtQtQtQtdKdLdMdNdOdP.QQtQtQtQtQtQtQtQtQt",
"dQdRdSdTdUdVdWdXdYdZd0dsdsa5aDaDaDaDd1cwd2d3d4d5d6c3d7d8cBcBcBcBcBcBdzcBd9e.d8e#eaebecedeeefeg.cQtb.eh.T.#.Seiejekci.yaH.taK.uQtQtQtQtQtQtQtQtQtQtQtQtQtQtQtQtQtQtQtQtQtQtQtQtQtQtQtQtQtQtQtQtQtQtQtQtQtQtQtQtakQtcKelemQtQtQteleneoepeqereseteleuQtQtQtevevQtQt",
"ewexeyezeAeBaeeCeDeEeFbJaDbFaDeGbJeHeIeJeKeKeKeKeKcBdzdzcBcBcBcBcBcBcBcBcBcBcBeKeLdyeMeNeOePeQeReSeTeUeVeWeXeYdIeZ.Ve0e1.R.Se2QtQtQtQtQtQtQtQtQtQtQtQtQtQtQtQtQtQtQtQtQtQtQtQtQtQtQtQtQtQtQtQtQtQtQtQtQtQte3.d.de4e5e6e7e8e9f.f#fafbfcfdfefffgfhfiQtfj.tQtcKQtQt",
"fkflfmfnfofpfqfrc6cYfsftaceGeGfufvd8fwdBeKeKcBcBcBcBd8d8cBcBcBcBcBcBcBcBdzdzcBcBfwfxfyfzfAfAfBfCfDfEfFfGfHfIfJfKfLfMfNfO.R.tfPQtQtQtQtQtQtQtQtQtQtQtQtQtQtQtQtQtQtQtQtQtQtQtQtQtQtQtQtQtQtQtQtQtQtQtQtQtQtcK.#.R.zchfQfRfSfTfUfVfWfXfYfZf0f1f2f3f3f4f5dKdK.tQtQt",
"f6f7f8f9g.g#fzfkgagbgcgde#eIgegfggghgifwgjcBgkglgmgngogpgqgrcAgsgtgugvgwgxgygzgAgBgCgDgEgFgGgHgIgJgKgLgMgNgOgPgQgRgSgTgUgV.SfjgWgXaH.z.WaKQtQtQtQtQtQtQtQtQtQtQtQtQtQtQtQtQtQtQtQtQtQtQtQtQtQtQtQtQtQtQtQtgYgZg0g1g2g3g4g5g6g7g8g9h.h#hahbhchdheh#hfhgeUhhhiQtQt",
"hjhkhlgLhmhnhohphqhrhshthuhvhwhxhyhzfrhAc3hBhChDhEhFhGhHhIhphJhKhLhMhNhOhPhQhRhShChThUhVhVhWhXhYhZgVbWh0h1h2h3h4h5h6h7h8h9i.i#iaibaL.#aKQtQtQtQtQtQtQtQtQtQtQtQtQtQtQtQtQtQtQtQtQtQtQtQtQtQtQtQtQtQtQtQtQticidieifigihiiijikiliminioipiqhdirimishbitiuiviwixQtQt",
"iyizaHiAeYiB.caj.TiCiDiEiFiGiHiIiJiKhAiLiMiNiO.kiFiP.Qbx.w.cajiQiRiSiTiUiViWiXiYiZi0i1i2bxbxbxi3bwe1.xi4i5i6i7i8i9j.j#jajbjcjdjejfjg#baI.#QtQtQtQtQtQtQtQtQtQtQtQtQtQtQtQtQtQtQtQtQtQtQtQtQtQtQtQtQtQtQtQtjhjijjjkjljmjnf3jojpf3jqjrjsjtjujvjwhdhdjxjyjzjAeUQtQt",
".SQtaHaHaH.xb#ci.z.t.RjB.R.SjCjDjEjFjGjHjIjJjKcijL.zch.tjL.z.R.#.#.djMjMcjjMjN.djO.xaHaH.R.#aL.#aL.SakjPjQjRjSjTjTjUjVjWjXjCjYbu.wQt.t.tQtQtQtQtQtQtQtQtQtQtQtQtQtQtQtQtQtQtQtQtQtQtQtQtQtQtQtQtQtQtQtQtQtdbjZj0.ye1j1j2j3j4j5j6j7j8j9k.k#j5kakbkbkc.Ukd.zkeQtQt",
".d.b.dakak.S.w.w.w.TajjN.b.dkfbxfjkgkhkie2akgY.wa8.T.daja8.w.SaL#UaJ.R.R.R.R.R.R.zQt.a.b.d.d.b.S.cjNkj.gkk.#klkmkmknkoe0.RjBkpjB.y.x.zjLQtQtQtQtQtQtQtQtQtQtQtQtQtQtQtQtQtQtQtQtQtQtQtQtQtQtQtQtQtQtQtQtkqkr.b.a#bks.We5ak.S.t#u.#Qt.ScKktku#TkvaK.tkw.bkxkxQtQt",
".y.R.t.tQtQt.dQtQt.t.t.t.tQtQtQthikykzkA.vfjfP#b.c.d.v.R.v.v.#.S.w.T.SQtQtQt.SaK.xQtakak.R.t.tjOci.#aIfOkBkCkDalkEkFkkkzgYkGkH.d.d.dakaLQtQtQtQtQtQtQtQtQtQtQtQtQtQtQtQtQtQtQtQtQtQtQtQtQtQtQtQtQtQtQtQtkI#UQtQtQtkJcK#Uf5aKkKkL.ckL.Ue4jL.zjZkL#U.a.u.tksksQtQt",
"QtQtQtQtQtQtQtQtQtQtQtQtQtQtQtQtQtQtQtQtQtQtQtQtQtQtQtQtQtQtQtQtQtQtjN.d.#.#.a.a.cakaL.U.U.#QtQtQtQtQtQtQtQtQtQtQtQtQtQtQtQtQtQtQtQtQtQtQtQtQtQtQtQtQtQtQtQtQtQtQtQtQtQtQtQtQtQtQtQtQtQtQtQtQtQtQtQtQtQtQtQtQtQtQtQtQtQtQtQtQtQtQtQtQtQtQtQtQtQtQtQtQtQtQtQtQtQt",
"QtQtQtQtQtQtQtQtQtQtQtQtQtQtQtQtQtQtQtQtQtQtQtQtQtQtQtQtQtQtQtQtQtQt.d.S.R.RakakkM.U.#Qt.w.SQtQtQtQtQtQtQtQtQtQtQtQtQtQtQtQtQtQtQtQtQtQtQtQtQtQtQtQtQtQtQtQtQtQtQtQtQtQtQtQtQtQtQtQtQtQtQtQtQtQtQtQtQtQtQtQtQtQtQtQtQtQtQtQtQtQtQtQtQtQtQtQtQtQtQtQtQtQtQtQtQtQt",
"QtQtQtQtQtQtQtQtQtQtQtQtQtQtQtQtQtQtQtQtQtQtQtQtQtQtQtQtQtQtQtQtQtQtQt.R.x.tajjMgYkNal.T#..uQtQtQtQtQtQtQtQtQtQtQtQtQtQtQtQtQtQtQtQtQtQtQtQtQtQtQtQtQtQtQtQtQtQtQtQtQtQtQtQtQtQtQtQtQtQtQtQtQtQtQtQtQtQtQtQtQtQtQtQtQtQtQtQtQtQtQtQtQtQtQtQtQtQtQtQtQtQtQtQtQtQt",
"QtQtQtQtQtQtQtQtQtQtQtQtQtQtQtQtQtQtQtQtQtQtQtQtQtQtQtQtQtQtQtQtQtQtdb.RfP.lkOkPkQkRkSkTkUdIQtQtQtQtQtQtQtQtQtQtQtQtQtQtQtQtQtQtQtQtQtQtQtQtQtQtQtQtQtQtQtQtQtQtQtQtQtQtQtQtQtQtQtQtQtQtQtQtQtQtQtQtQtQtQtQtQtQtQtQtQtQtQtQtQtQtQtQtQtQtQtQtQtQtQtQtQtQtQtQtQtQt",
"QtQtQtQtQtQtQtQtQtQtQtQtQtQtQtQtQtQtQtQtQtQtQtQtQtQtQtQtQtQtQtQtQtQt.Ri3hkkVkWkXkYkZk0k1.Pk2QtQtQtQtQtQtQtQtQtQtQtQtQtQtQtQtQtQtQtQtQtQtQtQtQtQtQtQtQtQtQtQtQtQtQtQtQtQtQtQtQtQtQtQtQtQtQtQtQtQtQtQtQtQtQtQtQtQtQtQtQtQtQtQtQtQtQtQtQtQtQtQtQtQtQtQtQtQtQtQtQtQt",
"QtQtQtQtQtQtQtQtQtQtQtQtQtQtQtQtQtQtQtQtakQtQt.S.S.t.t.RQtQtQtQt.t.tk3k4k5k6k7k8k9l.l#lalblc.S.R.#Qt.SQtQtQtQt.#.#QtQtQtQtQtQtQtQtQtQtQtQtQtQtQtQtQtQtQtQtQtQtQtQtQtQtQtQtQtQtQtQtQtQtQtQtQtQtQtQtQtQtQtQtQtQtQtQtQtQtQtQtQtQtQtQtQtQtQtQtQtQtQtQtQtQtQtQtQtQtQt",
"QtQtQtQtQtQtQtQtQtQtQtQtQtQtQtQtQt.xaL.a.aakQtaj.u.zldcihiaLQt.tjLlelflgdOlhliljlilklllmlnlolp.x.eaH#.fj.R.#.#.U.UQtQtQtQtQtQtQtQtQtQtQtQtQtQtQtQtQtQtQtQtQtQtQtQtQtQtQtQtQtQtQtQtQtQtQtQtQtQtQtQtQtQtQtQtQtQtQtQtQtQtQtQtQtQtQtQtQtQtQtQtQtQtQtQtQtQtQtQtQtQtQt",
"QtQtQtQtQtQtQtQtQtQtQtQtQtQtQtQtQt.u.w.c.S.S.zaH.tjMlqlrkGfOlsltlulviUlwlxlylzlAlBlClDhbiulElFhjltkTlGfj.taKaKaKaKQtQtQtQtQtQtQtQtQtQtQtQtQtQtQtQtQtQtQtQtQtQtQtQtQtQtQtQtQtQtQtQtQtQtQtQtQtQtQtQtQtQtQtQtQtQtQtQtQtQtQtQtQtQtQtQtQtQtQtQtQtQtQtQtQtQtQtQtQtQtQt",
"QtQtQtQtQtQtQtQtQtQtQtQtQtQtQtQtQt.SQt.#.R.x.xch.blHlIlJlKlLlMlNlOlPlQlRljlSlTlUlVlWlXiflYeslZl0l1l2l3l4.R.t.t.R.zQtQtQtQtQtQtQtQtQtQtQtQtQtQtQtQtQtQtQtQtQtQtQtQtQtQtQtQtQtQtQtQtQtQtQtQtQtQtQtQtQtQtQtQtQtQtQtQtQtQtQtQtQtQtQtQtQtQtQtQtQtQtQtQtQtQtQtQtQtQtQt",
"QtQtQtQtQtQtQtQtQtQtQtQtQtQtQtQtQtl5#T.Q.UlGl6hVl7l8l9m.m#mambmcmdmemfmgmhmimjmkipmlmmhdhdhdlXmnmompmqmrmsgWbv.U.QQtQtQtQtQtQtQtQtQtQtQtQtQtQtQtQtQtQtQtQtQtQtQtQtQtQtQtQtQtQtQtQtQtQtQtQtQtQtQtQtQtQtQtQtQtQtQtQtQtQtQtQtQtQtQt.#QtQtQtQt.dQt.#.R.R.R.S.SaK.SQt",
"QtQtQtQtQtQtQtQtQtQtQtQtQtQtQtQtQt.kmt.Scjmumvmwmxk6mylXmzmAh.mBmBinmCmamDk0hbjtk0mmhdiririrmEmEjojomFmGmHmIiOale0QtQtQtQtQtQtQtQtQtQtQtQtQtQtQtQtQtQtQtQtQtQtQtQtQtQtQtQtQtQtQtQtQtQtQtQtQtQtQtQtQtQtQtQtQtQtQtQtQtQtQtQtQtQt.#aL.wQt.UQtQte1.R#tmJmKkzbwbw.Ul5",
"mLmMmN.bmOmP.R.#QtQt.d.dQtQtQtQtQtmQmRmSmTmUmVmWmXmYmZm0m1hbjoirmplEm2ipm3m4m5g5m6mEhfmDirirmEhdmmmEm7mpm8m9n.n#naQtQtQtQtQtQtQtQtQtQtQtQtQtQtQtQtQtQtQtQtQtQtQtQtQtQtQtQtQtQtQtQtQtQtQtQtQtQtQtQtQtQtQtQtQtQtQtQtQtQtQtQtQtQtQt.w#..xjBaKnbncndnenfngnhcAcAninj",
"nknlnmnnl6nonpcLjKaL.S.wQtQtQtQtQtibnqnrnsntnunvnwlnnxnynzf3nAmanBnCnDnEnFnGmBmwm7nAnAjonHmmnInClnnJnKnLnMnNnOcjnPQtQtQtQtQtQtQtQtQtQtQtQtQtQtQtQtQtQtQtQtQtQtQtQtQtQtQtQtQtQtQtQtQtQtQtQtQtQtQtQtQtQtQtQtQtQtQtQtQtQtQtQtQtQtQt.SjOnQjB.nlMnRnSnTnU#GnVnWnWnXnY",
"a4nZn0n1n2n3n4n5l4aLQt.wQtQtQtQtQtknkD.Wn6.Cn7#taln8n9o.o#oaobocodoeofogohoinEojokokokojolomonn9#SkT.bcLl4iBeYooopQtQtQtQtQtQtQtQtQtQtQtQtQtQtQtQtQtQtQtQtQtQtQtQtQtQtQtQtQtQtQtQtQtQtQtQtQtQtQtQtQtQtQtQtQtQtQtQtQtQtQtQtQtQtQt.Uoqorosotb1#1#3axouovow#1oxoybo",
"aVboa2ozoAoBoCoDoEaLQt.wQtQtQtQtQt.#QtQtQt.U.vaH.xaK.SQtoFo.oGoH.c.a.t.S.w.ToHoHdaefoIeUajkG.c.SQt.t.R#u#UaLQtQt.#QtQtQtQtQtQtQtQtQtQtQtQtQtQtQtQtQtQtQtQtQtQtQtQtQtQtQtQtQtQtQtQtQtQtQtQtQtQtQtQtQtQtQtQtQtQtQtQtQtQtQtQtQtQtQtQtaKiGoJ.I.0.1#5oKoLaQoMoNoOoPh4",
"aDaDaDa5a5a5oQoRoScJoTiEiybu.faJoUoVoWoX.b.aakQt.S.WaKQtaL.#bx.taH#uQt.#QtQtQtQtdbdcdcoYch.R.TaK.t.t.S.d.d.b.bjNjNQtQtQtQtQtQtQtQtQtQtQtQtQtQtQtQtQtQtQtQtQtQtQtQtQtQtQtQtQtQtQtQtQtQtQtQtQt.SaHoZ.fb.o0o1.WgWgX#Ti2#udHkoo2o3.Bo4o5o6.J#4o7o8.0.0aQo9p.p#paaVbI",
"aDaDaDa5a5a5a2ozpbpcfDpd.apepf.W.U.#QtQtQtQtQtkJQtcK.#aIcLQt.WkK.WakjN.c.dak.U.RjLjL.z.z.Cfj.daL#U.a.b.ujL.t.t.#.#QtQtQtQtQtQtQtQtQtQtQtQtQtQtQtQtQtQtQtQtQtQtQtQtQtQtQtQtQtQtQtQtQtQtQtQtQtQt.#.tid.tchpgphpipjpkplpmpnpopppqprpsptpu#Gpv#6oLoLpwpx#3pypzbFbCaD",
"aDaDaDa5a5a5pApBpCbHpDpEpFpGldo0#u#UQtQtQtQtQtQtQtQtQteuQtQtaKaK.SQt.S.SQtQtQtQtaKQt.tQt.tQtQtQt.#QtakQt.tQtQtQtQtQtQtQtQtQtQtQtQtQtQtQtQtQtQtQtQtQtQtQtQtQtQtQtQtQtQtQtQtQtQtQtQtQtQtQtQtQtaLakpHpIpJmPpKpLpM.5.0#6pN.5#CpOpPpQpRpSpTpUcp#6cppVpW.0pXpYpZabbCaD",
"aDaDaDa5a5a5p0p1dsb5p1dWp2p3p4kee2QtQtQtQtQtQtQtQtQtQtQtQtQtQtQtQtQtQtQtQtQtQtQtQtQtQtQtQtQtQtQtQtQtQtQtQtQtQtQtQtQtQtQtQtQtQtQtQtQtQtQtQtQtQtQtQtQtQtQtQtQtQtQtQtQtQtQtQtQtQtQtQtQtQtQtQtQtaLp5p6.Qp7p8p9.I#gq.q#qa.3.3#6qbqcqdqe#gqfoLoLqgcppV#5qhqiaCaVbCaba5",
"aDaDaDa5a5a5d0abaDa5a5qjqknlql.fmt.SQtQtQtQtQtQtQtQtQtQtQtQtQtQtQtQtQtQtQtQtQtQtQtQtQtQtQtQtQtQtQtQtQtQtQtQtQtQtQtQtQtQtQtQtQtQtQtQtQtQtQtQtQtQtQtQtQtQtQtQtQtQtQtQtQtQtQtQtQtQtQtQtQtQtQtQtQtqmjKqnqo.Jpvqp#5ouo7#3#6qqqrqsqtquqv#F#6ovqwqbqb#1nUaZqxaCabaDaDaD",
"aDaDaDaDaDaDa4a4bDqya4a5qzqAqBqCqD.RQtQtQt.#aL.U.#.S.SQtQtQtQtQtQtQtQtQtQtQtQtQtQtQtQtQtQtQtQtQtQtQtQtQtQtQtQtQtQtQtQtQtQtQtQtQtQtQtQtQtQtQtQtQtQtQtQtQtQtQtQtQtQtQtQtQtQtQtQtQtQtQtQtQtQtQtaK.zqEqFqGqHq#qI.3cpcppWpW.HqJqKpCqLqMaQqNqO.JqhqPqQqRqSqTbIozqUqyaD",
"c8qSbJqVqWqWc2qWqXqYqZpZa3bEq0q1q2dH.RkejL.ua8Qt.w.w.S.U.vQtQtQtQtQtQtQtQtQtQtQtQtQtQtQtQtQtQtQtQtQtQtQtQtQtQtQtQtQtQtQtQtQtQtQtQtQtQtQtQtQtQtQtQtQtQtQtQtQtQtQtQtQtQtQtQtQtQtQtQtq3.U.aak.tq4q5q6q7q8#3aQaQoL#5oL#6q9r.r#b6pYrarb.5rcrdb5bEaDaDaDaDaDa5a5a5c8re",
"rfrgrhrieIeIc3dAdAb9rjrkpbbF#NrlrmrnaKroq4kKekaj.cQt.#aH.R.#.#.#QtQtQtQtQtQtQtQtQtQtQtQtQtQtQtQtQtQtQtQtQtQtQtQtQtQtQtQtQtQtQtQtQtQtQtQtQtQtQtQtQtQtQtQtQtQtQtQtQtQtQtQtQtQtQtQtQtddjMjN.bak.Ro.rprqrraxaQ.1#5#5oLaqrsrtabb6rurv#3.5rwrxdsr#aDaDaDaDaDdsa5a5bEry",
"eIrzrAdzcBcBeKrBeKd2rCggrDrEa4rFrGrHrIrJ.a#UaI.daL.v.ykKrK.U.U.U.#QtQtQtQtQtQtQtQtQtQtQtQtQtQtQtQtQtQtQtQtQtQtQtQtQtQtQtQtQtQtQtQtQtQtQtQtQtQtQtQtQtQtQtQtQtQtQtQtQtQtQtQtQtQtQtQtrL.U.yjLa8cjrMnUrNpW#5#6#5#5rO#3rPrQbEaVaVcWrRrSrTrUrVabr#aDaDaDaDaDdsa5a5pZaD",
"dzcBcBcBcBcBdzdzdzfrfrfrggbzrWa4rXrYrZr0r1r1r2r3r4r5ajr6aH.wqm.U.#QtQtQtQtQtQtQtQtQtQtQtQtQtQtQtQtQtQtQtQtQtQtQtQtQtQtQtQtQtQtQtQtQtQtQtQtQtQtQtQtQtQtQtQtQtQtQtQtQtQtQtQtQtQtqmQtkhr7r7qmp5r8r9s.rNcps#rObd.1qhsasbp1aVaVbCacozscsdseeGabaDaDaDaDaDaDbEqSsfeGsg",
"cBcBdzdzdzdzdzcBcBcBeKcBdBshsisjskslsmaDsnsonZspsq#osrssstsuls.#.#QtQtQtQtQtQtQtQtQtQtQtQtQtQtQtQtQtQtQtQtQtQtQtQtQtQtQtQtQtQtQtQtQtQtQtQtQtQtQtQtQtQtQtQtQtQtQtQtQtQti3i3i3qmQtqmsvswsxsyszsAsBay.5qh#3oL#3#1sCsDpZa5acsEsEaDa5sFsGsGfpacaDaDaDaDaDaDeGbFfusHsI",
"cBcBcBcBdzcBcBcBcBcBeKcBcBeKcBdzdzgBsJeIsKsLsMsNsOsPsQsRsSsTsUsVgYpI.xorbvgYsWbu.S.S.dQtQtQtQtQtQtQtQtQtQtQtQtQtQtQtQtQtQtQtQtQtQtQtQtQtQtQtQtQt.d.S.SaK.t.#Qt.w.SjMsXsYmIsZe1kee2s0s1rr#EpWoLaQs2s3s4#fs5s6s7sDs8a.acbDaca4a5bIs9t.t#sEa4aDaDaDtatabNtbtcb8dzd3",
"cBcBcBcBcBcBcBcBcBcBcBcBcBcBcBcBcBc3d5d7e#e#sItdsId8tebipbtftgthtitjtkbvl5tl#Udc.R.t.SQtQtQtQtQtQtQtQtQtQtQtQtQtQtQtQtQtQtQtQtQtQtQtQtQtQtQtQtQtjNddtm.W.ych.dtntotptqtr.GtstttutvtwnUbdtx#5#3tytzpYtAtBtCtDtEa4a4a4a5aDa5a5a5a5tFb8tGdutHbJeGtItJc4tKcBcBcBcBcB",
"cBcBcBcBcBcBcBcBcBcBcBcBcBcBcBcBcBtLtMd6c3dAc3c6dAc3gBtNtObntPtQtRtStTtUtVtWtXtY.t.z.RQtQtQtQtQtQtQtQtQtQtQtQtQtQtQtQtQtQtQtQtQtQtQtQtQtQtQtQt.RoqjB.vaImOako2tZt0t1.4aqt2t3.Yt4t5aQt6pWoL.4t7t8cWt9abbKu.pafpsEsEacaDaDaDaDaDaDtFfrd6dzu#uafvubsId8d7cBcBcBcBcB",
"cBcBcBcBcBcBcBcBcBcBcBcBcBcBcBcBcBeKeKeKeKeKeKcBcBeKeKdzfrucbMcVudueufuguhuinlujukoGulQtQtQtQtQtQtQtQtQtQtQtQtQtQtQtQtQtQtQtQtQtQtQtQtQtQtQtQt.uek.uQt.Stma8um.HununuopxoLbdqhup#3uquraxaR.Ja0ae#NaVr#bqa5bEaDaDa5a5a5aDaDaDaDaDeHdzgsusd2d7d7d7utcBcBcBcBcBcBcB",
"cBcBcBcBcBcBcBcBcBcBcBcBcBcBcBcBcBcBcBcBeKeKrBcBeKeKeKcBcBhQuuuvuwuxuyuzuAuBuCbLuDuEj6QtQtQtQtQtQtQtQtQtQtQtQtQtQtQtQtQtQtQtQtQtQtQtQtQtQtQtQtQtuFuGuHuIn5uJuKuLbBuM.I#7qIt2uNuOuPuQuRuSuT#MuUuVaBuWuXuYuZu0pZaDbEcVa5a5aDu1u2u3b9d5rBeKeKeKeKeKeKeKeKcBcBcBcBcB",
"cBcBcBcBcBcBcBcBcBcBcBcBcBcBcBcBcBdzfrdzcBcBeKcBcBdzcBeKeKu4sIu5u6u7u8u9v.v#cXvavbvcvdQtQtQtQtQtQtQtQtQtQtQtQtQtQtQtQtQtQtQtQtQtQtQtQtQtQtQtQtQtvevfvgbDvhviaQvjvkvlvmvnvovpvqvrvsvtvubJaDbJbLvvvwvxqZaDcHt9vyucvzvAvBd1vCvDd7vEdzfwcBcBdzcBeKcBcBcBcBcBcBcBcBcB",
"cBcBcBcBcBcBvFeKvGvHfzfrcAcBiKiKeKfrvIvJvKflcBgrgrv.ggvLvMvNvOvNvOvNvOuuvPhNhxczvQvRvSQtQtQtQtQtQtQtQtQtQtQtQtQtQtQtQtQtQtQtQtQtQtQtQtQtQtQtQtvTvUvVvWtPvXvYu0vZnlv0v1cUaDaDbqeGv2v3v4v5v6bzeEd8d8c6dye#dzdziKiKiKv7iKiKiKiKv7eKv8v8cBcBdzgziKv8v8eKv7cAcBcBcBiK",
"cBcBcBcBcBcBgzeKv8v9frhycBdzfzhzhzh7w.w.cAgzgzv8eKshshw#vJfzcAfzcAfzv9gdwawbwcwdwewfwgQtQtQtQtQtQtQtQtQtQtQtQtQtQtQtQtQtQtQtQtQtQtQtQtQtQtQtQtjNwhwiwjwkwlgTwmwnwowpwqwrwswtwutgwvwwwxwywzwav6cvdAd8d8dzcBcAcBcBcBiKfzdzfzfzdzcAcAcAdzdzdzhAhAv8v8eKiKcAcBcBcBiK",
"cBcBcBcBcBcBcBcBcBgzvFwAgvcAwBwCwDwzwEwFtbhywGgahzcBc3wHwIwJwKwJwKwJwDwLwMwNalakdcwOdHQtQtQtQtQtQtQtQtQtQtQtQtQtQtQtQtQtQtQtQtQtQtQtQtQtQtQtQt.#.edbwPgXgXwQgXdbwRwSwTwUwVwVmLwWiRwXkhwYwZw0w1w2d8cvd8dzfzhzhzfzfzfzfkfkfkfkfkhzv9fzfzfrfrhyiLcAcAcAgzcAcAcBcBiK",
"cBcBcBcBcBcBcAcBgzgzeKtMw3gcw4w5w6w7w8w9x.x#xaxbxcwjxdxexfddddddddddajjMQt.Rb#q4.x.RakQtQtQtQtQtQtQtQtQtQtQtQtQtQtQtQtQtQtQtQtQtQtQtQtQtQtQtQtQtjL.t.t.#.#.#aK.taK.T.nak.#.U#Tbvhixgk3xhxixjm.xkxllxxmxnvIfwxoxoiKxpfwcBcBcBcBcAxqvcxrxsxth7wHninhxshzgixuv8v8eK",
"cBcBcBcBcBcBcAdzcBvJxvxwxxxye2.e.vi3fNxzxAxBxCdb#TxDxE.vxF.U.U.U.U.U.#.#.U.U.t.u.w.SQtQtQtQtQtQtQtQtQtQtQtQtQtQtQtQtQtQtQtQtQtQtQtQtQtQtQtQtQt.S.cakaLaLak.#btbt#u#U#U.caj.cn5ddxGxHxIxJxKxLxMxNxOxPxQlWxRxSxTxUxVxWxXxXxYxXxXxZx0x1x2x3x3x4mZx5x6x7x8gix9xuv8eK",
"cBdzcBcBdzcBy.y#hBhKyaybycqmoo.z.k.t.#cL.akfleydydkfkfeYq5.c.b.c.b.c.T.w.daL#b.aaL.R.RQtQtQtQtQtQtQtQtQtQtQtQtQtQtQtQtQtQtQtQtQtQtQtQtQtQtQtQtQtQt.#.U.RaK.ujL.u.uaKaK.SQt.#bwyeyfygyhyihfyjykylymm2hbmDmFh#nGynjtePyomFh#yomFmFhfmFmmhbmCypmlmDmDmEyqwHyrgiv8v8",
"wHyswHgixrgixdytybyu.s.wQtQtQtQtQtQtQtQtQtQtQtQtQtQtQtQtQtQtQtQtQtQtQtQtQtQtQtQtQtQtQtQtQtQtQtQtQtQtQtQtQtQtQtQtQtQtQtQtQtQtQtQtQtQtQtQtQtQtQtQtQt.#.#.#QtQtaK.S.S.SQtQtQtQtQt.S.Syvyvywyxyyyzykf3hfmEmFh#h#h#yoh#h#hbhbhbhbhbhbhbmEmEmEmEhbmEmFyAyByCyDyEyFyGyH",
"yIyIyJhYyKhYyLa8.TeY.RdcQtQtQtQtQtQtQtQtQtQtQtQtQtQtQtQtQtQtQtQtQtQtQtQtQtQtQtQtQtQtQtQtQtQtQtQtQtQtQtQtQtQtQtQtQtQtQtQtQtQtQtQtQtQtQtQtQtQtQtQtQtQtQtQtQtQtQtQtQtQtQtQtQtQtQtQtQtfPqmqmyeyMmMyNmIyOnCm8m8m8m8yPm8m8yQyRmlinyRininmBininmBySyTiumpyPm8yUyVyWesyX",
"QtQtQtQtQtQtQtQtQtQtQtQtQtQtQtQtQtQtQtQtQtQtQtQtQtQtQtQtQtQtQtQtQtQtQtQtQtQtQtQtQtQtQtQtQtQtQtQtQtQtQtQtQtQtQtQtQtQtQtQtQtQtQtQtQtQtQtQtQtQtQtQtQtQtQtQtQtQtQtQtQtQtQtQtQtQtQtQtQtfPqmqm.#kk.PhihikNjNjN.soD.soDoD.syYyZy0y1y2y1y1y1y1y1y1ojy3mHy4jMy5#.ideYkf.c",
"QtQtQtQtQtQtQtQtQtQtQtQtQtQtQtQtQtQtQtQtQtQtQtQtQtQtQtQtQtQtQtQtQtQtQtQtQtQtQtQtQtQtQtQtQtQtQtQtQtQtQtQtQtQtQtQtQtQtQtQtQtQtQtQtQtQtQtQtQtQtQtQtQtQtQtQtQtQtQtQtQtQtQtQtQtQtQtQtQtQtQtQt.#.U.U.y.x.t.taK.t.R.R.R.R.R.w.w.w.w.w.w.T.T.T.T.T.d.b.d.d.S.S.t.#.#.#Qt",
"QtQtQtQtQtQtQtQtQtQtQtQtQtQtQtQtQtQtQtQtQtQtQtQtQtQtQtQtQtQtQtQtQtQtQtQtQtQtQtQtQtQtQtQtQtQtQtQtQtQtQtQtQtQtQtQtQtQtQtQtQtQtQtQtQtQtQtQtQtQtQtQtQtQtQtQtQtQtQtQtQtQtQtQtQtQtQtQtQt.#.S.w.SQt.#QtQt.S.SaKQtQtQtQtQtQtaH.UaHaH.UaH.#.R.#.#.RaLaL.#QtaKaK.t.d.b.bak",
"QtQtQtQtQtQtQtQtQtQtQtQtQtQtQtQtQtQtQtQtQtQtQtQtQtQtQtQtQtQtQtQtQtQtQtQtQtQtQtQtQtQtQtQtQtQtQtQtQtQtQtQtQtQtQtQtQtQtQtQtQtQtQtQtQtQtQtQtQtQtQtQtQtQtQtQtQtQtQtQtQtQtQtQtQtQtQtQtQt.#.S.T.T.SQtaLaLQtQtQt.S.S.S.S.S.Sak#bakak#bak.aak.a.aak.d.d.SQt.R.R.xQt.d.d.t",
"QtQtQtQtQtQtQtQtQtQtQtQtQtQtQtQtQtQtQtQtQtQtQtQtQtQtQtQtQtQtQtQtQtQtQtQtQtQtQtQtQtQtQtQtQtQtQtQtQtQtQtQtQtQtQtQtQtQtQtQtQtQtQtQtQtQtQtQtQtQtQtQtQtQtQtQtQtQtQtQtQtQtQtQtQtQtQtQtQtQtQtQtQtQtQtQtQtQtQtQtQtQtQtQtQtQtQtQtQtQtQtQtQtQtQtQtQtQtQtQtQtQtQtQtQtQtQtQt",
"QtQtQtQtQtQtQtQtQtQtQtQtQtQtQtQtQtQtQtQtQtQtQtQtQtQtQtQtQtQtQtQtQtQtQtQtQtQtQtQtQtQtQtQtQtQtQtQtQtQtQtQtQtQtQtQtQtQtQtQtQtQtQtQtQtQtQtQtQtQtQtQtQtQtQtQtQtQtQtQtQtQtQtQtQtQtQtQtQtQtQtQtQtQtQtQtQtQtQtQtQtQtQtQtQtQtQtQtQtQtQtQtQtQtQtQtQtQtQtQtQtQtQtQtQtQtQtQt",
"QtQtQtQtQtQtQtQtQtQtQtQtQtQtQtQtQtQtQtQtQtQtQtQtQtQtQtQtQtQtQtQtQtQtQtQtQtQtQtQtQtQtQtQtQtQtQtQtQtQtQtQtQtQtQtQtQtQtQtQtQtQtQtQtQtQtQtQtQtQtQtQtQtQtQtQtQtQtQtQtQtQtQtQtQtQtQtQtQtQtQtQtQtQtQtQtQtQtQtQtQtQtQtQtQtQtQtQtQtQtQtQtQtQtQtQtQtQtQtQtQtQtQtQtQtQtQtQt",
"QtQtQtQtQtQtQtQtQtQtQtQtQtQtQtQtQtQtQtQtQtQtQtQtQtQtQtQtQtQtQtQtQtQtQtQtQtQtQtQtQtQtQtQtQtQtQtQtQtQtQtQtQtQtQtQtQtQtQtQtQtQtQtQtQtQtQtQtQtQtQtQtQtQtQtQtQtQtQtQtQtQtQtQtQtQtQtQtQtQtQtQtQtQtQtQtQtQtQtQtQtQtQtQtQtQtQtQtQtQtQtQtQtQtQtQtQtQtQtQtQtQtQtQtQtQtQtQt",
"QtQtQtQtQtQtQtQtQtQtQtQtQtQtQtQtQtQtQtQtQtQtQtQtQtQtQtQtQtQtQtQtQtQtQtQtQtQtQtQtQtQtQtQtQtQtQtQtQtQtQtQtQtQtQtQtQtQtQtQtQtQtQtQtQtQtQtQtQtQtQtQtQtQtQtQtQtQtQtQtQtQtQtQtQtQtQtQtQtQtQtQtQtQtQtQtQtQtQtQtQtQtQtQtQtQtQtQtQtQtQtQtQtQtQtQtQtQtQtQtQtQtQtQtQtQtQtQt",
"QtQtQtQtQtQtQtQtQtQtQtQtQtQtQtQtQtQtQtQtQtQtQtQtQtQtQtQtQtQtQtQtQtQtQtQtQtQtQtQtQtQtQtQtQtQtQtQtQtQtQtQtQtQtQtQtQtQtQtQtQtQtQtQtQtQtQtQtQtQtQtQtQtQtQtQtQtQtQtQtQtQtQtQtQtQtQtQtQtQtQtQtQtQtQtQtQtQtQtQtQtQtQtQtQtQtQtQtQtQtQtQtQtQtQtQtQtQtQtQtQtQtQtQtQtQtQtQt",
"QtQtQtQtQtQtQtQtQtQtQtQtQtQtQtQtQtQtQtQtQtQtQtQtQtQtQtQtQtQtQtQtQtQtQtQtQtQtQtQtQtQtQtQtQtQtQtQtQtQtQtQtQtQtQtQtQtQtQtQtQtQtQtQtQtQtQtQtQtQtQtQtQtQtQtQtQtQtQtQtQtQtQtQtQtQtQtQtQtQtQtQtQtQtQtQtQtQtQtQtQtQtQtQtQtQtQtQtQtQtQtQtQtQtQtQtQtQtQtQtQtQtQtQtQtQtQtQt",
"QtQtQtQtQtQtQtQtQtQtQtQtQtQtQtQtQtQtQtQtQtQtQtQtQtQtQtQtQtQtQtQtQtQtQtQtQtQtQtQtQtQtQtQtQtQtQtQtQtQtQtQtQtQtQtQtQtQtQtQtQtQtQtQtQtQtQtQtQtQtQtQtQtQtQtQtQtQtQtQtQtQtQtQtQtQtQtQtQtQtQtQtQtQtQtQtQtQtQtQtQtQtQtQtQtQtQtQtQtQtQtQtQtQtQtQtQtQtQtQtQtQtQtQtQtQtQtQt",
"QtQtQtQtQtQtQtQtQtQtQtQtQtQtQtQtQtQtQtQtQtQtQtQtQtQtQtQtQtQtQtQtQtQtQtQtQtQtQtQtQtQtQtQtQtQtQtQtQtQtQtQtQtQtQtQtQtQtQtQtQtQtQtQtQtQtQtQtQtQtQtQtQtQtQtQtQtQtQtQtQtQtQtQtQtQtQtQtQtQtQtQtQtQtQtQtQtQtQtQtQtQtQtQtQtQtQtQtQtQtQtQtQtQtQtQtQtQtQtQtQtQtQtQtQtQtQtQt",
"QtQtQtQtQtQtQtQtQtQtQtQtQtQtQtQtQtQtQtQtQtQtQtQtQtQtQtQtQtQtQtQtQtQtQtQtQtQtQtQtQtQtQtQtQtQtQtQtQtQtQtQtQtQtQtQtQtQtQtQtQtQtQtQtQtQtQtQtQtQtQtQtQtQtQtQtQtQtQtQtQtQtQtQtQtQtQtQtQtQtQtQtQtQtQtQtQtQtQtQtQtQtQtQtQtQtQtQtQtQtQtQtQtQtQtQtQtQtQtQtQtQtQtQtQtQtQtQt",
"QtQtQtQtQtQtQtQtQtQtQtQtQtQtQtQtQtQtQtQtQtQtQtQtQtQtQtQtQtQtQtQtQtQtQtQtQtQtQtQtQtQtQtQtQtQtQtQtQtQtQtQtQtQtQtQtQtQtQtQtQtQtQtQtQtQtQtQtQtQtQtQtQtQtQtQtQtQtQtQtQtQtQtQtQtQtQtQtQtQtQtQtQtQtQtQtQtQtQtQtQtQtQtQtQtQtQtQtQtQtQtQtQtQtQtQtQtQtQtQtQtQtQtQtQtQtQtQt",
"QtQtQtQtQtQtQtQtQtQtQtQtQtQtQtQtQtQtQtQtQtQtQtQtQtQtQtQtQtQtQtQtQtQtQtQtQtQtQtQtQtQtQtQtQtQtQtQtQtQtQtQtQtQtQtQtQtQtQtQtQtQtQtQtQtQtQtQtQtQtQtQtQtQtQtQtQtQtQtQtQtQtQtQtQtQtQtQtQtQtQtQtQtQtQtQtQtQtQtQtQtQtQtQtQtQtQtQtQtQtQtQtQtQtQtQtQtQtQtQtQtQtQtQtQtQtQtQt",
"QtQtQtQtQtQtQtQtQtQtQtQtQtQtQtQtQtQtQtQtQtQtQtQtQtQtQtQtQtQtQtQtQtQtQtQtQtQtQtQtQtQtQtQtQtQtQtQtQtQtQtQtQtQtQtQtQtQtQtQtQtQtQtQtQtQtQtQtQtQtQtQtQtQtQtQtQtQtQtQtQtQtQtQtQtQtQtQtQtQtQtQtQtQtQtQtQtQtQtQtQtQtQtQtQtQtQtQtQtQtQtQtQtQtQtQtQtQtQtQtQtQtQtQtQtQtQtQt",
"QtQtQtQtQtQtQtQtQtQtQtQtQtQtQtQtQtQtQtQtQtQtQtQtQtQtQtQtQtQtQtQtQtQtQtQtQtQtQtQtQtQtQtQtQtQtQtQtQtQtQtQtQtQtQtQtQtQtQtQtQtQtQtQtQtQtQtQtQtQtQtQtQtQtQtQtQtQtQtQtQtQtQtQtQtQtQtQtQtQtQtQtQtQtQtQtQtQtQtQtQtQtQtQtQtQtQtQtQtQtQtQtQtaLaI#U.#.t.W.z.x.y.R.tjL.tQtQt",
"QtQtQtQtQtQtQtQtQtQtQtQtQtQtQtQtQtQtQtQtQtQtQtQtQtQtQtQtQtQtQtQtQtQtQtQtQtQtQtQtQtQtQtQtQtQtQtQtQtQtQtQtQtQtQtQtQtQtQtQtQtQtQtQtQtQtQtQtQtQtQtQtQtQtQtQtQtQtQtQtQtQtQtQtQtQtQtQtQtQtQtQtQtQtQtQtQtQtQtQtQtQtQtQtQtQtQtQtQtQtQtQtQtQtaK.t.#aJaJ.S.TddjM.aaJaLQtQt",
"QtQtQtQtQtQtQtQtQtQtQtQtQtQtQtQtQtQtQtQtQtQtQtQtQtQtQtQtQtQtQtQtQtQtQtQtQtQtQtQtQtQtQtQtQtQtQtQtQtQtQtQtQtQtQtQtQtQtQtQtQtQtQtQtQtQtQtQtQtQtQtQtQtQtQtQtQtQtQtQtQtQtQtQtQtQtQtQtQtQtQtQtQtQtQtQtQtQtQtQtQtQtQtQtQtQtQtQtQtQtQtQtQt.#chchaHQtQt.#.t#..Taky6aLQtQt",
"QtQtQtQtQtQtQtQtQtQtQtQtQtQtQtQtQtQtQtQtQtQtQtQtQtQtQtQtQtQtQtQtQtQtQtQtQtQtQtQtQtQtQtQtQtQtQtQtQtQtQtQtQtQtQtQtQtQtQtQtQtQtQtQtQtQtQtQtQtQtQtQtQtQtQtQtQtQtQtQtQtQtQtQtQtQtQtQtQtQtQtQtQtQtQtQtQtQtQtQtQtQtQtQtQtQtQtQtQtQtQtQtQtQty7sWy8y9z.wOpJz#jOjLQtQtQtQt",
"QtQtQtQtQtQtQtQtQtQtQtQtQtQtQtQtQtQtQtQtQtQtQtQtQtQtQtQtQtQtQtQtQtQtQtQtQtQtQtQtQtQtQtQtQtQtQtQtQtQtQtQtQtQtQtQtQtQtQtQtQtQtQtQtQtQtQtQtQtQtQtQtQtQtQtQtQtQtQtQtQtQtQtQtQtQtQtQtQtQtQtQtQtQtQtQtQtQtQtQtQtQtQtQtQtQtQtQtQtQtQtQtQt.#jKtYzazbzczdzezf.y.R.w.SQtQt",
"QtQtQtQtQtQtQtQtQtQtQtQtQtQtQtQtQtQtQtQtQtQtQtQtQtQtQtQtQtQtQtQtQtQtQtQtQtQtQtQtQtQtQtQtQtQtQtQtQtQtQtQtQtQtQtQtQtQtQtQtQtQtQt.#QtQtQtQtQtQtQtQtQtQt.SQtQtQtQtQt.#QtQtQtQtQtQtQtQtQtQtQtQtQtQtQtQtQtQtQtQtQtQtQtQtQtQtQtQtQt.SakQt.ShjzgzhbZ.I.YzizjuI#U.b.cak.#",
"QtQtQtQtQtQtQtQtQtQtQtQtQtQtQtQtQtQtQtQtQtQtQtQtQtQtQtQtQtQtQtQtQtQtQtQtQtQtQtQtQtQtQtQtQtQtQtQtQtQtQtQtQtQtQtQtQtQtQtQtQtQtQt.#QtQt.S.SQtQtQtQtQtQt.d.S.S.S.S.SQt.w.w.daL.#QtQtQtQtQtQtQtQtQtQtQtQtQtQtQtQtQtQtQtQtQtQtQt.w.uzkzlzmacznzozpquzqaZzrzsztdI.#.U.R",
"QtQtQtQtQtQtQtQtQtQtQtQtQtQtQtQtQtQtQtQtQtQtQtQtQtQtQtQtQtQtQtQtQtQtQtQtQtQtQtQtQtQtQtQtQtQtQtQtQtQtQtQtQtQtQtQtQtQtQtQtQtQt.SjN.c.dQt.#.#QtQtQtQtQt.x.tQtQt.d.S.B#..wQt#U.#QtQtQtQtQtQtQtQtQtQtQtQtQtQtQtQtQtQtQtQtQtQt.zjMQtzuzvzwqNqN.0zxzyzzbJzAzBzCzD#..z.#",
"QtQtQtQtQtQtQtQtQtQtQtQtQtQtQtQtQtQtQtQtQtQtQtQtQtQtQtQtQtQtQtQtQtQtQtQtQtQtQtQtQtQtQtQtQtQtQtQtQtQtQtQtQtQtQtQtQtQtQtQtQtQtQtaKaK.#aHaH.#Qt.#QtQt.#b#.xaKQt.R.xci.xQtQtakQtQtQtQtQtQtQtQtQtQtQtQtQtQtQtQtQtQtQtQtQtQtQtcijMQtzEzFqhzGzH.HzIzJzKrFzLzMzNzOzPzQuI",
"QtQtQtQtQtQtQtQtQtQtQtQtQtQtQtQtQtQtQtQtQtQtQtQtQtQtQtQtQtQtQtQtQtQtQtQtQtQtQtQtQtQtQtQtQtQtQtQtQtQtQtQtQtQtQtQtQtQtQtQtQtQt.tzRiyaK.w##zSzTzTiaiaiazUzVzWyNls.tzXzYaLQt.T.SQtQtQtQtQtQtQtQtQtQtQtQtQtQtQtQtQtQtQtQtQtQt.tyesWzZz0awz1z2rez3z4z5z6z7z8qXz9vgaVA.",
"QtQtQtQtQtQtQtQtQtQtQtQtQtQtQtQtQtQtQtQtQtQtQtQtQtQtQtQtQtQtQtQtQtQtQtQtQtQtQtQtQtQtQtQtQtQtQtQtQtQtQtQtQtQtQtQtQtQtQtQtQtQt.SkEA#weAaAblVAcAcAcAcAcAdAeAfAgAhtvAiAjjM.dQtQtQtQtQtQtQtQtQtQtQtQtQtQtQtQtQtQtQtQtQtQtQtQt.bAkAlAmqqAnAobqa4bLtbsHt.ApbMAqgwAreHAs",
"QtQtQtQtQtQtQtQtQtQtQtQtQtQtQtQtQtQtQtQtQtQtQtQtQtQtQtQtQtQtQtQtQtQtQtQtQtQtQtQtQtQtQtQtQtQt.R.xaH.#ak.b.dQtQt.d.dkTizaHjNAtAuAvAwAxAyAzAAABACli.LADlkAEAFAGAHAIAHAJAKjfALAMdbwPkf.cbWkEgWbw.#i3.dQtQtQtQtQtQtQtQtqmQtqmANAOAPAQaZryabARAShAfrhNATwFAUglfAgkgyAV",
"QtQtQtQtQtQtQtQtQtQtQtQtQtQtQtQtQtQtQtQtQtQtQtQtQtQtQtQtQtQtQtQtQtQtQtQtQtQtQtQtQtQtQtQtQt.S.w.w.S.djNak.#.#.RQtQtAWuFAXAYePAZkZADA0A1A1AAljA2A3A4A5A6A7A8m7nAm7A8m7A9B.B#BaBbBcBdBeBfBg.l.8.dQt.SQtQtQtQtQtQtQtQtqmQtqmBhBiBjBkBlBmBnfrBoBpgvd8hQgmvIu4u4xZBqwH",
"QtQtQtQtQtQtQtQtQtQtQtQtQtQtQtQtQtQtQtQtQtQtQtQtQtQtQtQtQtQtQtQtQtQtQtQtQtQtQtQtQtQtQtQtQt.S.c.c.c.d.S.RaH.R.R.x.xoYw5BrlPBsBtxmBuBvBwBwfcA2BxByBzyomklXmFmFBAm6BBmnySBCBDodBEBFlElnnCocBGBHnakifjQtQtQtQtQtQtQtQtqmQtqmBIBJBKBLBMBNBOg#utBPgABQvGwEgCmZBRBSBTBU",
"QtQtQtQtQtQtQtQtQtQtQtQtQtQtQtQtQtQtQtQtQtQtQtQtQtQtQtQtQtQtQtQtQtQtQtQtQtQtQtQtQtQtQtQtQt.RjBor.#aHi2BViDBWnamQ.VBXBYBZB0B1B2B3B3ljB4B4kXB5B6lXm0lEhbhdhdiriuiuhdhdhbmlh.hbhbhbh.h.B7BClYB8B9k4C.QtQtQtQtQtQtQtQtQtQtQt#..S#U.U.t.uC#CaCbCcCdCeBLyKwNhkcj.nvT.l",
"QtQtQtQtQtQtQtQtQtQtQtQtQtQtQtQtQtQtQtQtQtQtQtQtQtQtQtQtQtQtQtQtQtQtQtQtQtQtQtQtQtQtQtQtQt.tCfCgqEwN.me2ndChCiCiCiCjCkA3ClAzCmBvBvBvCnCnxmCom#mlhdl0hdhdhdhdirirmDmDmDCpCpmDmDCpCpCqCqyTmnh#CrCskEQtQtQtQtQtQtQtQtQtQtQt.uaK.t.z.z.zi2Ct.8cjcjkkkMkMjBjBq3.#Qt.#",
"QtQtQtQtQtQtQtQtQtQtQtQtQtQtQtQtQtQtQtQtQtQtQtQtQtQtQtQtQtQtQtQtQtQtQtQtQtQtQtQtQtQtQtQtQt.cCuCvCwl9lJCxCyCzB2ABABCACBCCCDCECFAyAylUAyl9CGCHCICpCpmEhbhbhbh.h.h.B7lXmEmEm0m0m0mEhbhbmllEh#CCCJyPn9QtQtQtQtQtQtQtQtQtQtQt.v.#.u.TQtQt.hdbzkoY.C.tbxkf.S.w.w#U#u.U",
"QtQtQtQtQtQtQtQtQtQtQtQtQtQtQtQtQtQtQtQtQtQtQtQtQtQtQtQtQtQtQtQtQtQtCKmO.d.u.T.uCLkTkCCM.dCNCOfVCPCQCRCSCTCUCVCOCWxmCOCXg5CYiphbhbjojojoBCCZC0hdhdirhbhbhbhbhbhbmEhdiuiuium0ySC1C1yTiuh.mlmlmBipC2zlC3C4msl4.#.w.T.ckkchul#ztjaK#U#uQtQtQtQtQtQtQtQtQtQtQtQtQtQt",
"QtQtQtQtQtQtQtQtQtQtQtQtQtQtQtQtQtQtQtQtQtQtQtQtQtQtQtQtQtQtQtQtQtQtakQt.z.z.R.yC5fOC6C7C8C9D.COCnB3B4CnyElXD#AxDaDbDcx0B7h.mljojojojohbmFmFmEhbhbhbhbhbhbhbhbhbhbhdhdhdhdm0m0m0m0hdirmDmDmDmDmDDdDekTal.S.v.R.t.tbxfjtkDf.Smt.takakQtQtQtQtQtQtQtQtQtQtQtQtQtQt",
"QtQtQtQtQtQtQtQtQtQtQtQtQtQtQtQtQtQtQtQtQtQtQtQtQtQtQtQtQtQtQtQtQtQt.zjOjO.z.S.coIwhDgDhDiA0DjDjA3DkDkByx1nAmmCIDlm2mljomEm0m0mmmmhbhbmmCpCpipmlh.h.hbhbhbhbhbhbhdmElXh.h.hbhbhbhbmElXhbmDmDjomDm0DmDnDoDpe2a8.u.Rdc.kDqomDrnP.#.S.TQtQtQtQtQtQtQtQtQtQtQtQtQtQt",
"QtQtQtQtQtQtQtQtQtQtQtQtQtQtQtQtQtQtQtQtQtQtQtQtQtQtQtQtQtQtQtQtQtQt.U.#akywDsDtDuDvD.mhmgDwDxDyB7mlmllXh#hdhfmmyRmDmDirhdm0m0hbhbhbhbhbCpCpCpDzipm3hbhbhbjojoBABAmFCYDACryWDBDCDDm6DEg5CYCYg5CYjtDADFDGDHDIDJDKjNDLDMDNDOobDP.dQt.SQtQtQtQtQtQtQtQtQtQtQtQtQtQt",
"QtQtQtQtQtQtQtQtQtQtQtQtQtQtQtQtQtQtQtQtQtQtQtQtQtQtQtQtQtQtQtQtQtQt.aaLaLjNDQDRDSDTDzDUnEDVjohbnInInIBAjojommmmhfhbhbhbhbhbhbhbhbhbhbhbm0yThdyjmpDWhbhbhbhbhbhdhdh.mmDDDXegoGsZDYDZD0nznznznznznzD1D2D3lLnOD4.VD5q2D6D7D8D9cM.w.U.UQtQtQtQtQtQtQtQtQtQtQtQtQtQt",
"QtQtQtQtQtQtQtQtQtQtQtQtQtQtQtQtQtQtQtQtQtQtQtQtQtQtQtQtQtQtQtQtQtQt.TaKaHkUzkiAE.i0E#iOEaDUlEnzmpmpimmpimmDjojojoySm0mEh.h.h.mEh.h.hbirlEEblEyWomEcmpimmpyjilyjnzilEdEeEfk3EgzXEh.cj7EiEjEjEkElsuEmbxhi#tzXiz.hjOzRC.EnEoEpQtaK.#aLQtQtQtQtQtQtQtQtQtQtQtQtQtQt",
"QtQtQtQtQtQtQtQtQtQtQtQtQtQtQtQtQtQtQtQtQtQtQtQtQtQtQtQtQtQtQtQtQtQtQtQtQtQtQt.S.w.w.wyeiBsWoDoDoDoDoDsWf.j6EqErmGEsEtmGDdmVC0m0lXEuEvEwElExyM.wkfEy.s.s.s.s.s.sdaddEz.cgWQtQtQtQtQtQtQtQtQtQtQtQtQtQtQtQtQtQtQtQtQtQtQtQtQtQtQtQtQtQtQtQtQtQtQtQtQtQtQtQtQtQtQt",
"QtQtQtQtQtQtQtQtQtQtQtQtQtQtQtQtQtQtQtQtQtQtQtQtQtQtQtQtQtQtQtQtQtQtQtQtQtQtQtQt.S.S.Se0kf.SkNkNDfDfDfizkoe0icEAEAEBECEDxznzyWEEyjy1EFBbiFEGidq5kifjDfDfDfDfDfDfkEn5kN.dnpQtQtQtQtQtQtQtQtQtQtQtQtQtQtQtQtQtQtQtQtQtQtQtQtQtQtQtQtQtQtQtQtQtQtQtQtQtQtQtQtQtQtQt",
"QtQtQtQtQtQtQtQtQtQtQtQtQtQtQtQtQtQtQtQtQtQtQtQtQtQtQtQtQtQtQtQtQtQtQtQtQtQtQtQt.S.S.S.S.S.S.#Qt.#Qt.#.#.#.UaHiAiAaK.tQti3EH.kxGoDaGcNaK.R.t.tko.tmtqmbvqmQt.#QtgW.dl4aLgXQtQtQtQtQtQtQtQtQtQtQtQtQtQtQtQtQtQtQtQtQtQtQtQtQtQtQtQtQtQtQtQtQtQtQtQtQtQtQtQtQtQtQt",
"QtQtQtQtQtQtQtQtQtQtQtQtQtQtQtQtQtQtQtQtQtQtQtQtQtQtQtQtQtQtQtQtQtQtQtQtQtQtQtQtQtQtQtQtQt.S.w.w.w.w.w.buI.b.a.aak.u.t.t.taKaK.R.t.t.R.R.R.R.R.t.t.t.w.w.w.w.w.SaLaLaLaLaLQtQtQtQtQtQtQtQtQtQtQtQtQtQtQtQtQtQtQtQtQtQtQtQtQtQtQtQtQtQtQtQtQtQtQtQtQtQtQtQtQtQtQt",
"QtQtQtQtQtQtQtQtQtQtQtQtQtQtQtQtQtQtQtQtQtQtQtQtQtQtQtQtQtQtQtQtQtQtQtQtQtQtQtQtQtQtQtQtQtQt.#Qt.#Qt.#Qt.tQtQtakak.wQt.#.#.t.t.#.R.RQtQtQtQtQtQtQt.#.SQt.S.SQtQtakakakakakQtQtQtQtQtQtQtQtQtQtQtQtQtQtQtQtQtQtQtQtQtQtQtQtQtQtQtQtQtQtQtQtQtQtQtQtQtQtQtQtQtQtQt",
"QtQtQtQtQtQtQtQtQtQtQtQtQtQtQtQtQtQtQtQtQtQtQtQtQtQtQtQtQtQtQtQtQtQtQtQtQtQtQtQtQtQtQtQtQtQt.#Qt.#Qt.#Qt.tQtQtQtQtQtQtQt.#QtQtQtQtQtQtQtQtQtQtQtQtQtQtQtQtQtQtQtQtQtQtQtQtQtQtQtQtQtQtQtQtQtQtQtQtQtQtQtQtQtQtQtQtQtQtQtQtQtQtQtQtQtQtQtQtQtQtQtQtQtQtQtQtQtQtQt",
"QtQtQtQtQtQtQtQtQtQtQtQtQtQtQtQtQtQtQtQtQtQtQtQtQtQtQtQtQtQtQtQtQtQtQtQtQtQtQtQtQtQtQtQtQtQtQtQtQtQtQtQtQtQtQtQtQtQtQtQtQtQtQtQtQtQtQtQtQtQtQtQtQtQtQtQtQtQtQtQtQtQtQtQtQtQtQtQtQtQtQtQtQtQtQtQtQtQtQtQtQtQtQtQtQtQtQtQtQtQtQtQtQtQtQtQtQtQtQtQtQtQtQtQtQtQtQtQt",
"QtQtQtQtQtQtQtQtQtQtQtQtQtQtQtQtQtQtQtQtQtQtQtQtQtQtQtQtQtQtQtQtQtQtQtQtQtQtQtQtQtQtQtQtQtQtQtQtQtQtQtQtQtQtQtQtQtQtQtQtQtQtQtQtQtQtQtQtQtQtQtQtQtQtQtQtQtQtQtQtQtQtQtQtQtQtQtQtQtQtQtQtQtQtQtQtQtQtQtQtQtQtQtQtQtQtQtQtQtQtQtQtQtQtQtQtQtQtQtQtQtQtQtQtQtQtQtQt",
"QtQtQtQtQtQtQtQtQtQtQtQtQtQtQtQtQtQtQtQtQtQtQtQtQtQtQtQtQtQtQtQtQtQtQtQtQtQtQtQtQtQtQtQtQtQtQtQtQtQtQtQtQtQtQtQtQtQtQtQtQtQtQtQtQtQtQtQtQtQtQtQtQtQtQtQtQtQtQtQtQtQtQtQtQtQtQtQtQtQtQtQtQtQtQtQtQtQtQtQtQtQtQtQtQtQtQtQtQtQtQtQtQtQtQtQtQtQtQtQtQtQtQtQtQtQtQtQt",
"QtQtQtQtQtQtQtQtQtQtQtQtQtQtQtQtQtQtQtQtQtQtQtQtQtQtQtQtQtQtQtQtQtQtQtQtQtQtQtQtQtQtQtQtQtQtQtQtQtQtQtQtQtQtQtQtQtQtQtQtQtQtQtQtQtQtQtQtQtQtQtQtQtQtQtQtQtQtQtQtQtQtQtQtQtQtQtQtQtQtQtQtQtQtQtQtQtQtQtQtQtQtQtQtQtQtQtQtQtQtQtQtQtQtQtQtQtQtQtQtQtQtQtQtQtQtQtQt",
"QtQtQtQtQtQtQtQtQtQtQtQtQtQtQtQtQtQtQtQtQtQtQtQtQtQtQtQtQtQtQtQtQtQtQtQtQtQtQtQtQtQtQtQtQtQtQtQtQtQtQtQtQtQtQtQtQtQtQtQtQtQtQtQtQtQtQtQtQtQtQtQtQtQtQtQtQtQtQtQtQtQtQtQtQtQtQtQtQtQtQtQtQtQtQtQtQtQtQtQtQtQtQtQtQtQtQtQtQtQtQtQtQtQtQtQtQtQtQtQtQtQtQtQtQtQtQtQt",
"QtQtQtQtQtQtQtQtQtQtQtQtQtQtQtQtQtQtQtQtQtQtQtQtQtQtQtQtQtQtQtQtQtQtQtQtQtQtQtQtQtQtQtQtQtQtQtQtQtQtQtQtQtQtQtQtQtQtQtQtQtQtQtQtQtQtQtQtQtQtQtQtQtQtQtQtQtQtQtQtQtQtQtQtQtQtQtQtQtQtQtQtQtQtQtQtQtQtQtQtQtQtQtQtQtQtQtQtQtQtQtQtQtQtQtQtQtQtQtQtQtQtQtQtQtQtQtQt",
"QtQtQtQtQtQtQtQtQtQtQtQtQtQtQtQtQtQtQtQtQtQtQtQtQtQtQtQtQtQtQtQtQtQtQtQtQtQtQtQtQtQtQtQtQtQtQtQtQtQtQtQtQtQtQtQtQtQtQtQtQtQtQtQtQtQtQtQtQtQtQtQtQtQtQtQtQtQtQtQtQtQtQtQtQtQtQtQtQtQtQtQtQtQtQtQtQtQtQtQtQtQtQtQtQtQtQtQtQtQtQtQtQtQtQtQtQtQtQtQtQtQtQtQtQtQtQtQt",
"QtQtQtQtQtQtQtQtQtQtQtQtQtQtQtQtQtQtQtQtQtQtQtQtQtQtQtQtQtQtQtQtQtQtQtQtQtQtQtQtQtQtQtQtQtQtQtQtQtQtQtQtQtQtQtQtQtQtQtQtQtQtQtQtQtQtQtQtQtQtQtQtQtQtQtQtQtQtQtQtQtQtQtQtQtQtQtQtQtQtQtQtQtQtQtQtQtQtQtQtQtQtQtQtQtQtQtQtQtQtQtQtQtQtQtQtQtQtQtQtQtQtQtQtQtQtQtQt"};
