/* XPM */
static char *out[] = {
/* columns rows colors chars-per-pixel */
"503 860 256 2 ",
"   c #190702",
".  c #131109",
"X  c #270902",
"o  c #291605",
"O  c #371705",
"+  c #32130F",
"@  c #342910",
"#  c #182623",
"$  c #33302D",
"%  c #471907",
"&  c #472606",
"*  c #4F2F11",
"=  c #69340B",
"-  c #4D342C",
";  c #633528",
":  c #275B29",
">  c #344E32",
",  c #534913",
"<  c #6E4D11",
"1  c #6B6B14",
"2  c #514E32",
"3  c #6B5131",
"4  c #516B37",
"5  c #6F6E34",
"6  c #1B3554",
"7  c #32364C",
"8  c #4E394D",
"9  c #125B5B",
"0  c #325150",
"q  c #346D51",
"w  c #33546D",
"e  c #116F70",
"r  c #336F6F",
"t  c #50524F",
"y  c #6A554F",
"u  c #4E6F4E",
"i  c #586858",
"p  c #587858",
"a  c #6F6F50",
"s  c #677858",
"d  c #50566D",
"f  c #6A596A",
"g  c #486F6E",
"h  c #576868",
"j  c #587767",
"k  c #586877",
"l  c #587877",
"z  c #676867",
"x  c #677867",
"c  c #777868",
"v  c #706972",
"b  c #687877",
"n  c #777877",
"m  c #905D19",
"M  c #B15C2D",
"N  c #907231",
"B  c #AA7735",
"V  c #9B6A5F",
"C  c #8B7451",
"Z  c #B0784C",
"A  c #897670",
"S  c #5C9131",
"D  c #728D37",
"F  c #30A146",
"G  c #249667",
"H  c #328D72",
"J  c #518E52",
"K  c #588658",
"L  c #718F49",
"P  c #688758",
"I  c #778958",
"U  c #689658",
"Y  c #789758",
"T  c #54A855",
"R  c #74A855",
"E  c #598767",
"W  c #50926F",
"Q  c #588777",
"!  c #678768",
"~  c #778868",
"^  c #689768",
"/  c #789767",
"(  c #688777",
")  c #778877",
"_  c #689777",
"`  c #789777",
"'  c #54AA71",
"]  c #78A667",
"[  c #6DAE71",
"{  c #77A778",
"}  c #5DCF6E",
"|  c #72CA75",
" . c #908D36",
".. c #AB8B37",
"X. c #9CA12E",
"o. c #C99B33",
"O. c #889748",
"+. c #979848",
"@. c #8E8950",
"#. c #879858",
"$. c #979858",
"%. c #B0904E",
"&. c #91AD4F",
"*. c #88A658",
"=. c #97A758",
"-. c #AEAB55",
";. c #879868",
":. c #92906D",
">. c #868878",
",. c #879877",
"<. c #AE926C",
"1. c #88A668",
"2. c #97A768",
"3. c #87A677",
"4. c #97A877",
"5. c #91B770",
"6. c #ADB06E",
"7. c #C99155",
"8. c #CCAB56",
"9. c #CD946B",
"0. c #CFAF6D",
"q. c #E6A261",
"w. c #E8AF72",
"e. c #92CA73",
"r. c #A6D463",
"t. c #B0CB72",
"y. c #D7DC6A",
"u. c #CFCD73",
"i. c #EBCE75",
"p. c #293D89",
"a. c #235794",
"s. c #0F7090",
"d. c #31718F",
"f. c #0E73AE",
"g. c #3172AE",
"h. c #4F598B",
"j. c #5A5A9A",
"k. c #52718D",
"l. c #687887",
"z. c #777887",
"x. c #6E7192",
"c. c #5073AD",
"v. c #6D77AB",
"b. c #1077CD",
"n. c #3076CB",
"m. c #5076CD",
"M. c #6B77CD",
"N. c #597AE4",
"B. c #8A798C",
"V. c #8D7AA6",
"C. c #867CD2",
"Z. c #0E9091",
"A. c #318F90",
"S. c #11AC92",
"D. c #30AD92",
"F. c #0D90B0",
"G. c #308FB0",
"H. c #0EAEB2",
"J. c #30AFAF",
"K. c #528F8D",
"L. c #688787",
"P. c #778887",
"I. c #779787",
"U. c #6F9193",
"Y. c #52AD90",
"T. c #71AD8E",
"R. c #508FAF",
"E. c #718FAD",
"W. c #50AFAF",
"Q. c #71AEAE",
"!. c #21CDA8",
"~. c #30CDB1",
"^. c #51CC92",
"/. c #72CC91",
"(. c #50CEB0",
"). c #70CEAF",
"_. c #5FE9A3",
"`. c #71EBB1",
"'. c #0E91CE",
"]. c #3090CF",
"[. c #0EB0CF",
"{. c #2FAFD0",
"}. c #1294E8",
"|. c #3095E9",
" X c #12B1EB",
".X c #30AFEE",
"XX c #4F8FD0",
"oX c #7090CE",
"OX c #50B0CF",
"+X c #70B0CF",
"@X c #5093EA",
"#X c #6F93EC",
"$X c #4FAFF0",
"%X c #6FB1F0",
"&X c #10CDD1",
"*X c #2FCFD0",
"=X c #32E9D2",
"-X c #13CEEC",
";X c #2ED0EF",
":X c #15E8E8",
">X c #30ECF2",
",X c #50CFCF",
"<X c #70CFCF",
"1X c #50ECD2",
"2X c #70EFD0",
"3X c #50CFF2",
"4X c #70CFF2",
"5X c #51F0F2",
"6X c #70F2F4",
"7X c #879887",
"8X c #8D8E90",
"9X c #A9938D",
"0X c #87A787",
"qX c #90B08F",
"wX c #ACB28D",
"eX c #8C92AE",
"rX c #A792AD",
"tX c #8FAFAF",
"yX c #ABB1AF",
"uX c #D1B18C",
"iX c #EDB38B",
"pX c #D8AAA1",
"aX c #91CD90",
"sX c #AECF8F",
"dX c #92EA93",
"fX c #B1EB92",
"gX c #90CFAE",
"hX c #AED2AD",
"jX c #90EDB1",
"kX c #B0EFAF",
"lX c #CED28D",
"zX c #F1D08F",
"xX c #CFED92",
"cX c #EFED92",
"vX c #CDD3AD",
"bX c #F3D1AD",
"nX c #CFF1AE",
"mX c #F0F2AF",
"MX c #8C95CC",
"NX c #8FAFCF",
"BX c #AAB2CE",
"VX c #98A2EA",
"CX c #8EB2EE",
"ZX c #E3B8CE",
"AX c #8ECFCF",
"SX c #ADD0CE",
"DX c #8FF1CE",
"FX c #AFF2CE",
"GX c #8FD0F3",
"HX c #ACD1F4",
"JX c #8FF0F5",
"KX c #AEF2F4",
"LX c #DEDADB",
"PX c #CEF5CD",
"IX c #F1F4CD",
"UX c #CDF4F4",
/* pixels */
"3 X + y A V j.j.d 6 d L.I.T._ J J [ | T T R U T R &.$.#.@.5 <.5 & O X % O X C bXuXX y rXb r 9 0 7 @ + +   X % * m y 8 f V B.V V f V 8 ; V C 8 8 V A f 8 y t - @ B.ZXSXtXU.T._ _ ^ ] Y &.5.R L L U L L K P / ~ x s z A y 3 ; - + X % - 3 ; % % % % 2 y v 8XeXl.w r l ( h t i z c a C f 3 A A f A B.B.f 8 - $ 8 8 8 d x.V.rXB.d f l.l.k h.x.x.v v B.B.B.B.B.B.V.B.V.V 8 8 8 f z n P.z.L.k k.E.E.E.v.v.C.eXc.M.MXv.oXMXU.k.K.K.K.K.W K.l.k.l l b p x I.L.Q.R.k.k.h.x.z.7X) x P.eXtXtXE.MXBXHXVX<X2XGXGX6X5X;X>X5X5X<XOXoXCXVXCXCX4X3X3X,X,X2X6X4XKXHXCXHXHXZXZXV.9X9X:.<.2.@.$.:.2.9X<.9X9XA x.h _ _ Q E W W ' W ' Y.U.K.l.E.eXv.V.C.M.v.v.j.k l.P.b I.7X( x h y f z.x.l.x.x.h.h.x.f f d d d h g g g v.Q.tXU.l.v B.rXf x.rXV.f 8 f x.A f f z f f f A B.y y f A 8 - * - V C f C 3 y a a 5 y t f z.z.v B.A y - + ; - % & & 3 :.#.4 P p q q u W E q E ] U ] R ] 5.5.^ [ { [ { _ E I.hXhXn i v A z.f 8 8 8 - c 9X9XA f f A V N V V ; V V ; ; % O . o : l g r v.L.>.; O :.IX<.3 O X O 3 V * y <.:.@.5 @.L L Y R T R | e.R U ' /.qXT.b t t t z y t - o ",
"* % ; 8 f f f B.d d l U.T.T.W J T [ R T R T S R *.L D O.a <.5 & 5 , O X X - wXbX; = V A 0 w g r $ + X +   + = 3 ; N V y B.V y ; V y V V C - % y 8 A A f f - > ) vXyXeXI.T.K.W W [ 1.*.Y 2.1.R U L J K K J P ! p i y A y y @ - 3 3 ; * % % % * C C A n A l.k h j t x x i t a a y y 2 y V y f V f f B.A f f 8 f v f B.V.V.B.B.z.z.l.l.v x.x.x.x.x.x.f B.n v B.B.B.B.B.B.f f f h h 7XP.k U.NXeXE.BXx.v.MXMXv.M.M.c.v.E.k.K.U.Y.Y.W W T.Q g g b ! i ! b L.Q.Q.L.l.U.B.8XyX>.i P.BXeXtXBXHXLXHXCXGXGXDX<X,X3X>X>X5X6XGX+XMXCXCX%X%X4X4X3X3X6X6X2X<XJXHXHXVXZXVXrXB.V 9X<.C D $.I 5 a a a V B.v 8X8Xj W I.Y.W _ T.T.H W Y.K.k.v.E.eXMXMXv.j.j.h.d k z.8X7XI.( x i t h z h f d k f k v d d d f l k g k.k.U.U.eXeX8Xz.z.z.f B.rXrXh.d f v f f f f v v f f B.y 8 y V V ; ; - - y ; - - y y C y 2 y i y f f B.rX9XV X % * % % * 3 2 3 P L u q q q q J J J ^ U ^ ] ] 1.5.^ 5.[ ] { T._ L.0XSXyX8Xh z B.v f f f y f c 8XA f v V C V V V V 3 y ; ; % O o @ # 0 r d.k.eX8X3 O , lXmXA , o O O 3 C y 3 C <.$.1 $.@.L R e.R T R R T J J _ T.7Xn $ 2 y 2 y ; y ",
"X X % y f f f 8 0 k L.tXT.' ^ T [ e.R T ] U L L L S  .@.$.C ; 3 ; @ X O - <.IX<.X ; A B.l.r U.L.# X X + + % ; N 3 V V V V V y ; f V 9X9Xy * - y 8 f B.x.v t c LXhX8XQ I.T.{ _ ^ ] qX*.Y 1.] ^ U J J J J q K s s t :.9X; - % * ; 3 % % ; 3 y y A B.f f z z t i i t i y f a t 2 2 - t f f t V A v 8 f f V f v A f 8 f V.B.A B.eXz.k l.E.V.U.x.d h f k f d f z.f j.B.B.z.z.B.B.n h x ) b eXtXx.l.E.j.v.V.v.v.M.M.v.MXE.k.U.T.Y.K.W ' [ Q j b P.! s i x 8X9XwXyX8X9X8X8XyXwXA 8XrXrXBXSXHXVXVXHXJXJX6X,X{.;X5X3X4X4XGXE.#XMXCXCXGXGXGXGXJXJXJXDX).AXtXMXMXBXrXrXV.B.7X7X2.5.5.5.;.;.3 3 y y v 8XI.Q g L.Y.W W Y.Y.Y.W Q.Q.k.k.E.+XoXoXv.j.d d d l.I.tX7X( x x i i v v v z h d d k d d d h k l.k g l k.U.U.E.8X8Xz.b v h.v B.B.d d f z.B.v B.v v B.n f A v - - y A V y ; - - $ - - - 2 y 2 2 y y y f f z A 9XB.C y X % ; % % , a @.a u u : u 4 : J W W J ' [ [ [ ] ] 1.] ] { 3.` _ x 7XPXSXA z z.B.z.B.B.f ; $ y A >.c 3 3 C V V C ; 3 y ; + X o . $ d r r c.eX9X3 = ; :.IXwX3 o o o X C C O , @.@.5 5 $.Y L R R S S S J T J K _ qXyXc c 2 $ 2 2 A ",
"; - - y f f 8 $ h L.I.T.T.J ' [ 5.| *.R R R L O.D 5 $.$.C , 3 C & X X 2 @.vXvX= % 3 8X8XL.6 r 7 $ X + + * ; m 3 y V <.V y V V V a 8X9XA 8 y y y f A B.f f 8XhXyX_ ( _ T.T.I.{ [ 3.5.3.] ] ' ^ E J q F 4 q > u s a a A 2 ; O % * *   ; 9XrXB.A z.f t t y y A a 2 y t y f t * * - y V y 3 y A f f B.f f f f v v 8 t f rXrXv z.B.v b 8XeXtXeXx.k k k f d t d f f f d d d f y z z t t x b P.8XP.l.l.f d j.j.v.oXv.oXoXR.k.K.K.K.Y._ T ^ W K.T.( x ,.c c 8XA A A c a >.>.a @.9X9XA B.BXBXBXBXCXUXKX2XDX2X5X3X3X4X%XCXCXNXCX+XGXGXGXHXHXGXGXKXKXAXtXtXtXeXrXMXeXB.9XB.8XqXqXe.1.t.vXhX;.a y z z b ( L.W Y._ W H G Y.Y.A.Y.W.K.d.E.oXk.oXR.j.h.k k L.I.` E i p p i i x t y h i z l.k k l z.z.b g l k.l l K.U.U.U.L.z.b f d d d f d d f z.x.B.8XV.v f z.v v y t ; 2 y 2 - ; 8 - + - ; y 3 * * 2 2 y z A y y 3 f A B.V % ; y % X O - 3 A I I J K J q W ' W H W [ T R [ R Y / 1.3.3.7X` ! b tXLXyXz.z z.8Xf rXA t @ 3 8Xc y y 3 < C V C ; ; m ; * & @ o $ w w 9 d.Q.8X3 = 5 $.bXIX>.$ . o X & Z = & 5 <.5 , @.O.D &.&.S R T S U ] U P { qX9X4.a y 2 - - ",
"9XV y 2 - 8 t i 7XyXI.K J J T J S T ] 5.S R *.D 5 L  .5 @ N C & @   O y wXvX2., * 5 9XI.k.w k.w @ o O O % 3 N 3 ; V V C C 5 y C A A y 2 z c v f B.z.z.d P.SXvXz.( _ { { ^ 3.5.] 3.{ ` [ _ W W T J q q q : : u a >.3 2 ; % * * % * ; V rX9XA f f d f f y y a 5 ; - - - - - - y y V A - - v n y n v v v v z n n t d v eXeXl.v v n 8XU.8XE.E.P.l l.k l b h t t d k k k k d t z x z i i c ) P.tX0Xk d d d h.v.oXoXMXE.R.k.Y.Y.W K.' [ T W K.T.l j 7X7Xz y C m ; C C :.4.I I 9X9XB.B.rXBXBXBXNXGXAX<XDXJX6X6X4XGXCXCXCXGX4X%X6XJXGXGXHXGXGXHXDXgXQ.tXtXeXBXeX8X8XP.U.tXAX/.T.aXe.sXfXwXs c 7Xy i U.l Q Y.Y.D.H D.(.).D.Y.Y.A.d.R.R.c.c.d.d.w r L.L.( u u 4 u u u a i a a i z j b b j b ) ( l l U.L.K.L.U.U.T.L.Q l.P.k d 0 w k v l.z.x.v l.x.B.8Xz.f z.f y c f 2 2 - & y y - - ; A A a - 2 - - 3 y a a 2 2 y C C y y ; - % ; ; % % y :.:.a 4 4 U _ q W W W W ^ ^ T R Y L 1.4.3.0X7XI.I.I.yXSXqXz b 8XV.8Xi z s i c y C :.a * a V V 3 ; N C ; < ; o $ g d.d.d.tX7X3 = 3 C uXIXhXp $ o X * m V m * N :.5 3 5 $.-.*.R D R T L *.] U U / 3.0XwX9XI 2 @ ",
"C 3 - 2 t y A 8XtXqX^ U U T J S S S *.*.D L O.3 5 $.N & * @.3   o   @ >.vXmX$.3 * 3 yXU.w 9 h.0 $ o O O & 3 3 ; ; C V C 3 3 y C A v - $ v A n v B.z.v z.SXLXqXl _ { { 5.] ] 1.R { { _ { ' W W W J F q u J p I I C 3 % % + ; ; O C A 9XA y f y v v y t 2 - * 3 3 - % + - ; ; 3 C y 3 - 2 v n v n f z.B.B.n v z.f 8 f v f d k k L.z.P.I.U.U.l.k.Q g g l l l.k k d l.k h g h i i z s t x s x 7XI.b l.d g k.c.E.R.E.+Xk.k.Q.W.H H ^.J W W Y.K.K.l ` P.y y y y V t.sXsX4.qXaX0X9XB.eXV.rXyXMXeXtXtXgXDXFXJX4XGXHXHXGXGX4X<X3X6X6XAXGXGXHXAXNXQ.U.tXeXeXeXMXeXeXQ.Q.Q.Q././.kXfXe.e.aXqX` ~ ) t u K.K.d.A.A.W.Y.D.(.(.(.(.J.W.W.+X<X+XR.K.K.K.U.Q.Q u > > > u a s I s >.>.c x x ( b l j g g Q U.Q.Q.R.L.U.T.I.Q j l l k.d d d d k l.L.k l.l.k x.eXeXP.v z z z y 2 y y y y 8 3 8 8 f V y 3 ; - ; 2 ; y A , @ 2 3 y y V C ; % ; V V X * 3 C C a 5 s K u q r r E ^ T R R *.Y #.3.qX5.0X0X0X7X0XtXBX8Xx eXeXx.z z x a i ~ ,.:.C 2 3 V V y ; C V 3 3 ; o . d K.g.d.E.eXC * % N uXhXPXqX! > X * = V Z 3 @ :.<.N 5 C O.L O.R *.R *.R Y L U U 4.;.,.4.,.wX~ ",
"X O - y :.,.0X0X0X! U ] 5.R S R R R O.1.#.5 5 5 @.C 3 * C N O X . @ a yXIXvX5 < * a qXQ.r w k.d $ X * * ; m y ; C C V 5 * 3 A a c c t t z A 8X8Xz.b z.yXSXyXP.P._ ` 5.5.*.L D R ] ^ ' ' W H J J W J u J P ~ ;.a 2 O % * % ; ; ; V V A y 8 y z v z y - - ; ; 3 V V 8 * 8 y - * - y y y y z v v h B.B.8XP.z.z.l.l.l.k d t t d k b l.P.7XeXE.L.k.L.L.g g Q L.L.l.k l l h h j z a s i 4 y i i i ( 7Xb g g h.k.k.c.R.R.d.d.R.Y.Y.Y.).H H Y.K.K.K.K.l.x i A c y wXhXt.sX3.| aXaXtXeX8XB.V.eXMXMXtXtXQ.gXJXJX4XHXHXGXGXJX6X6X(.5X2X<XAXAX%XQ.Q.U.U.tXQ.eXQ.NXtXQ.Q.Q.W.W.D./.jXe.| fXe.T.gX;.a a 2 r R.A.Z.G Z.D.S.D.(.~.D.(.(.W.<XJXJX4X4XAXAXtXU.g t u 0 t s I I >.>.C I c x ( ) ( ! E g j L.tXQ.U.U.U._ I.L.g g g w 0 w d k h.k d d d d k d k x.z.P.8Xb t y i y c y v f y A A y y y y ; ; * 3 < & 3 3 3 3 3 - a V <.V V % + V V % - % ; 5 C 5 2 > t 0 t g j ~ ] R R *.*.R 1.5.qX{ qX0XI.( eXhXtXI.z.P.rX8Xh i x c ,.,.>.~ a y A A y f V V C m ; % @ 0 d.d.s.K.0X<., % N vXwXvXhXhX:.a & * 3 C <.3 2 a C V N , 5 #.L L *.2.=.L L Y Y / ^ Y ] 4.sXwX",
"2 3 @.:.9X7XwX,./ P ] U U R R *.*.L O.2.$.a 5 @.%.3 * V C 2 *   @ y wXvXvXwXN * = C 8XQ.A.d.K.d + X ; N y V y 3 y V a 3 3 :.>.c i i z x z z P.eX8Xb tXSXtXtXI.I.qXqX4.5.&.O.R L U [ ' W E q H q ! ! a u i ;.C - X 3 V y % % ; C 8 y f y + - A 5 2 ; - - 3 y y V V 8 ; ; y 8 8 3 t 2 f z z v v z.eXeXz.v k b l.z.x.d d w d k l.Q b b L.U.T.U.K.K.Q.U.L.Q l l b z.b L.x x ) ) s a a c t 4 4 2 t ( U.K.k.w d.R.R.XXoXW.Y.Y.D.(._.^.^.Y.D.D.R.K.K.l.i t 9X7X! aXdXe.e.sXdX/.Y.).Q.eXeXeXMXeXeXeXeXtXtXAXAXGXGXGXGX4X6X2X2X~.2X2XFXJX+XQ.Y.U.T.gXhXtXtXQ.+XW.+X+X,XW.W.(.D./.dXt.fX] aXaX,.@.C t r A.J.D.Z.Z.G S.D.!.D.J.(.,XW.(.<X<X<XDXGXAXU.r u j c u a I ~ a c a >.>.>.>.` I._ Q I._ ( _ ( U.T.U.I.U.U.L.u q w 0 w 6 w w d d k d d d d g l.b k z.z.n v n z t t y y f y f f y f A y - 2 ; & ; & O & , C a 3 a C A 9XpXB.% - X % + + * 3 ; - @ o + $ t t j ~ / #.L L ] 1.] 5.1.{ aXtXI._ T.tXyXqXl x.tXP.z.n t x 4.~ x c c c A B.f f f B.V V V - $ 0 K.R.G.Q.tX9X; O m uX6.sXIXhX>.9X<.* O - V a * @ 3 C y 3 5 @.Y I *.4.2.#.I U U U 1.R / U 1.5.",
"4.4.vXwX;.;./ I ] / L L Y *.*.#.O.Y a 5 5 C A V 3 = C C 5 3 + 2 :.wXvXvXwXlXN % ; :.qXK.e R.d.$ + - 3 3 y V V y y A V - a :.,.wX) s x z z 8XeX8Xl.eXSXtXI.L.T.qX3.4.5.5.*.R R R R ^ W E u q 4 u 4 3 a C C - & * X 3 uX% - y V A >.y t 2 2 3 N < = * 3 3 - - f y y f V f y A A f v t f v d v 8XeXz.z.k d g g k k.k.k.h.k k w d g g u ( U.K.K.E.T.T.Q.I.g j j g ( ) x x c ~ >.A c >.~ a i 0 2 u 0 U.Q.tXAX<X<XGXJXGXW.W.<XD.^.1X!.D.J.~.Z.s.A.k.b y 3 c ! T./.aXdXe.aXkX^.D.^.W.Q.Q.+XMXtXeXeXtXQ.E.U.+X<XGXGX<X2X1X2XjX/.jXjXKXFXAXQ.Q.0XqXhXhXgXQ.Q.W.(.,X(.J.*X~.D.^._.e.r.e.e.[ gX3.,.c > r R.G.Z.S.Z.Z.S.!.D.S._.(.(.(.H A.Q.<X<XAXQ.l 0 t s c a c c :.:.:.:.:.7X9X7X7XI.L.I.` _ I.T.T.L.K.I.L.K.L.Q g g 0 0 d g h.d h.l k d h k l k.b k h d b z.n n v t t t z y f y z A A B.V y 3 ; ; & & & % * , 5 a 5 y A :.9XA V y 3 - @ @ - +   X ; %   X @ 3 t 4 ~ I P U U U U [ e.qX[ qX` L.I.0XtXtXP.l.NXeX8Xl.t i j j ( 7Xb v 8XV.V.j.f B.f C C * @ u K.A.d.Q.U.8X5 O = zX6.6.lXt.lXwXwXa &   @ 2 - @ 2 V a y 3 a a ~ ;.I @.@.I ;.R ] 5.e.2.Y L R ",
"sXwX4.#.P / ] / Y P I Y 5.6.#.L L #.a 2 3 C a 2 - C V y * O C :.7XnXvXwXwXuX3 & 3 9XeXU.H R.g 0 $ - a V V V f f A B.A a a c c 8X7Xi z b P.eXP.b P.tXyXtX` _ T.qXT.5.3.5.&.R R R [ ] ^ K 4 > $ - O - - 2 y 2 & @ % O ; + 3 9X9X>.n z 3 3 C 3 * * * = * - ; - y A t y f f f f z y t t z v f x.8Xz.x.l.k k d d w d d d w w w 9 w 0 0 t l U.U.U.T.T.U.T.Y.Q _ ( ( b ) 7X>.~ a >.:.I a C c s i i h i g T.AXAXGXGXGXJXOXW.(.(.^.!.~.D.G.Z.G Z.Z.G.K.k y 5 ~ ` gX/.aXe.t.aX/.^.D.(.W.+X+XOXQ.+XtXtXrXBXtXK.R.Q.+XAXAX2X`.DXjXR FXjXjXAX).Q.gXaXqXsXyXaXT./.).,X1X,X*X(.D.D.!./.dXe.r.t.aXkXaX7Xc t K.OXJ.Z.Z.H.!.S.S.S.G !._.1X(.H A.2XAXAXAXQ.l t i z c >.>.4.4.9X9X:.rXqX7X0XqXqXqX0XI.{ T.qXT.T._ K.L.L.l j r 0 w q k.d.d.g d w w 0 g j b k h b k d d k v v k f f n v A n v v v A A V 8 - - 3 * % % & & & 3 3 3 5 C y C A A A :.9XA A A f @ + - - X X * @ @ 2 2 i K ^ ' T U T [ [ [ aXT.T.I.I.tXyXT.l.eXeXeX8Xd d p b j l.k l.V.V.eXV.B.B.f y y @ . > W r A.Q.Q.rX<.& = 0.iX0.6.6.vXvX9X8X7Xy o o 5 2 t A A A V C a I :.C a 5 L 1./ ] Y 1.e.e.1.*.",
"5.Y Y Y / 5.5.5.] Y Y Y #.#.#.@.@.a 3 2 y a 3 & & y * o O ; 9XwX4.xXlXwXzXuX= O N 9XU.Q.r R.K.0 @ ; f V V j.f f B.8XA x ~ ) n ) x t x ) 8XeX8Xk 8XtXyX0X_ { qXgX{ 3.] [ R L T L U U p u t 2 + X X * * O & & O & - % y y 9X9X9Xc a a 5 a 3 = % & = & = ; y 8 f A v v f v f y d f t f v z.z.x.b d k k k k l g d w g h.d w d w r 0 r t j U.L.K.U.K.K.T.I.I.` I.I.) ) :.7X:.:.:.A >.:.@.>.s i s x q 0 Q Q.AXAX<X<XJ.D.W.(.(.!.D.S.!.S.Z.Z.G J.J.K.k 2 a ;.T.gX/.e.e.t.dX/.Y.D.(.(.,XOX,X(.Q.T.Q.hXhXhXQ.T.Q.tXAXJXDX`.kXsX4 hXgXY.Q.Y.' [ /.0XaXe.[ /.`.`.`.2X1X(.(.^.D.!.} T 5.lXmXdXdXgXaX7Xl K.W.H.F.H.~.S.S.!.G G D.2X2X).W.Q.AXAXAXtXT.L.( ) 8X9XwX9X9X9X7X4.9XwX9X7XqXyXqXyXqXqXqXqXqXqXT.L.Q L.Q l r q w w g k.k k.k.k w 0 0 $ 0 i t i d h h z b k d d t d f v z.v z A B.A 9Xf y - - 3 * O % % & & & * a C a 3 y a C A 8X8X>.P.qX9X8Xv f -       o 2 y > 2 j J [ [ W T [ R [ T.T.T.I.I.7XyXyXP.eXeXeXE.z t h b l l.k.x.x.V.V.f j.V.V.f y @ @ > W r K.Q.tXqXwX3 % N 0.w.8.8.zXmXwX0XyX4.y ; 3 a y y A f y a y t C >.a a s / U L D Y 5.5.t.5.",
"#.Y *.5.e.5.R R 1.1.L a a a @.@.a 5 a C A A y - 3 @ o * c :.wXvXlX6.6.0.uX0., % A 9XU.Q.e H W > . 8 y y f B.B.A rX8Xz.h v ( ( j i t b P.eXeXU.P.tXqX0XI._ T.qXT.{ | [ ^ J T U J S u 2 2 * * + X % ; O   ; a y y A <.A V A C a C 5 , 5 3 & & % & & & 3 ; - y A A B.v h h c n v v f d z l.z.v d d v v k b l.k.d w w k h.k.w k.g 0 g q g l K.L.K.Q _ T.qXT._ ` 0X0X9X4.4.4.4.4.:.:.9X7X,.:.s x x t 0 r U.<XAXAX<XK.H W.(.(.^.D.S.!.S.!.S.S.Z.A.Q.l 2 C ;.qXdXqXt.r.e.fX/.^.Y.D.(.J.,X1X,XY.T.aXtXgXyXqXT.qXgXhXDXjXFXnXwX* ,.( H A.H G W ' [ e.e.e.aX/.dX`.2X2X(.(.!.} ^._.} e.xXy.e.5./.gXQ.U.K.A.Z.H.H.~.S.S._.!.!._.`.jXDXjX/./.gXtXQ.8XI.7XrXwXwXyXqX7X;.@.>.:.:.7X7XwXwX7XsXhXsXhXwX0XI.( Q g L.k.g d 0 0 t g l.d k l.l h.d 0 6 > 0 0 t t t f v v d t 7 t d t z z f z A A n B.A y y V y * % O % & * & * C V 5 C A C y a c c s b ( 7XtX8Xz.v t o . . 2 4 i 4 t E _ ' T [ [ | R [ _ I.I.U.U.tXyXU.E.MXV.V.l.w l l U.Q.L.h.x.x.z.j.V.V.V.f y * . u ` W Y.gXeXqXyXA & = B 7.8.8.u.wXsXhXwX4.qX:.a A z y y - - y 8 a c a a s I ] L L D *.*.*.=.&.",
"=.2.5.t.5.*.L L L Y P 4 a @.c a 3 a C :.A y y y y @ 2 :.uX4.wXmXxX-.0.iX0.Z * 3 wXrXtXQ.K.r j # @ 8 y A V.B.x.x.V.z.b b b g g b h d n 8XeXBXV.8XyXtX0X( ` T.T.{ [ e.[ U T ' U J 4 2 2 2 - X X   - y y y :.yX9X8X9X9XA C y 3 5 a a 3 < & O & & O O ; 8 * * - c B.z.z.v v z.z.v f d d t d l.v k f k z h h h d 0 0 w d d k.k k g w 0 q w g l K.L.L.L.T.yXqX0X3.qXqXyXwXwX,.,.wXwX,.qX,.9XwX0X8X>.c Q g U.Q.AXDXAX/.A.).2X`._.G G S.S.!.!.S.Z.Z.Q.L.i 7XqXaXhXfXxXlXr.} ' Y.^.~.~.(.1X1X`.).aX| T.aXaX] e.T.' T./.Q.hXvX<.2 ~ L.A.A.S.G ^.} } } /.| dXdXjXDXjX(.^.^.^.D.} _.| e.y.u.t.R T.).W.Q.+XW.OXH.S.&X!.~.1X_.^._./.).kXjXT.T.qXtXqXqXqX8X7X0X>.0X3.,.;.~ I ;.,.4.qXhXwX3.hXhXvXhXwX,.! ! j g k.g d q w t i l b g k k k l.l.d t 0 7 $ 7 # 7 8 t k f t d d z f v k f z a z y A B.V A f ; ; y ; * & * ; * 3 3 3 a C C y a y a i x u g j g x eXqXz t . . $ c z > q W W J T [ R [ [ [ T.qXU.qXtXyXV.E.rXv.V.h.d ( U.tXtXk.w z.8Xz.B.B.B.V.d f t # u ` W _ Q.U.I.qX9XC & % m o.8.8.-.wXsXsX;.:.4.0.A c A y 2 - 3 y A C a s s K U R R D O.&.&.S D ",
"5.&.&.&.1.*.L R U Y L a a c C y 3 y 3 t y y C A a C :.wXsXwXwXlXu.8.0.9.Z < O C yXyXtXQ.Y.W ^ > o - t B.V.j.f x.z.P.k l U.U.( ( h d z.v.V.MXv.eXSXtXI._ _ { { [ [ [ ' T [ T.^ u 0 2 y 2 +     + t f 8XqXwX8Xb n n A A a y C @.3 C C , O * * % O O ; 3 3 y y A >.A B.A v z v z t t t 7 t d b v k t t t t 0 $ $ 0 d h.k k.k.k g g 0 0 0 q l k.l l _ ` 0XqXwXhXyXsXqXwXyX3.,.4.,.,.;.;.,.qXwX9XqXqXI.I.I.Q.Q.tX).).gXjXDX`.^.D.!._.G S.H.H.[.Z.W.K.K.T.gXgXaXt.cXxX&.| } Y.Y.^.^._.1X2X`.`.aXe.| aXe.[ } ' W H K.K.0X7XC 5 ,.qX).A.A.D.~.^.^.^.} | /.fXkXkXjX^.D.D._.^.} _./.e.xXxX6.R T.(.W.,XAX).~.H.S.J.!.D.~.^._.`.`.aXkXhX[ ` qXT.T.qX0X,.) ) ~ ,.3.3.0X,.~ ~ 3.1.4.lXhXwXlXwXvXvXwX,.) ( Q g k.g r d g j b 8X) x h h k b L.k h h t 0 $ $ # # $ t t d y t t t v k z z z t y z A B.A f y 8 y V 3 ; ; * & O & * ; 3 a y y y t u i p ! j u u ( ) eXSXd . # y A i 6 0 W W U T T ] { qX0XtXqXeXeXyXeXV.MXv.V.x.d I.I.L.K.q d b 8X7Xy f f V.f v y $ 2 ! E W _ W E x 8X9Xm + % m o.8.0.-.6.wX2.#.:.wX:.@.:.:.A A C y y c ;.3.R J J J L R R e.R &.R ",
"=.&.+.O.&.*.L D R R P s s s c A 3 3 - - y A A A :.wX4.:.sXlXwX6.8.8.B < = & 3 4.qXU.Q.Q.K.I./ 4 @ 3 f f V.B.x.x.x.eXk d U.tXI.L.k d V.v.V.eXv.BXBXtXI.T.T.[ { [ ] R ] W _ Q p 0 y c y +   # d P.9Xz.x b b h h u s i a a 5 C C 3 ; C = * < * @ ; , * y V A A B.V v v v f d f v i d t t t i f d t t - $ > 0 0 0 d l.l.k k k k l g g q w q g k.l g ) ) ~ 3.sXnXvXhX0X0XhXqX0X,.P / ~ ;.;.,.0X4.7XwX7X8XtX0XqXQ.gXT.jXjXjXgX_.^._.2XD.!.&XH.*XJ.J.Q.W.W.).T.U t.lXlX| | `.^.' !.} !.1XDXkXdXdXe.| | /.' ' G G D.H r I.a 5 1 2.hXgXQ.J.D.D.~._._.^.} | dXjX/._.^.!.!._.} } dXdXe.y.xX&.*.Y.).,XOX).).J.H.~.H.S.S.^.^.^.`.dXjXjX3.U / 0X0XqX0X` / ~ ! / T.{ 3.5.3./ 1.1.*.6.hXlXwXwX6.6.4.6.,.) ( ( Q K.l.k.b b ` 7XqX7X7Xb j j l b b v k f d t d t 8 # 7 7 - t t t d v v n n z c A c f B.A f f f y V y y ; * O O O & * ; 3 3 2 3 t t s x / p p p j g l BXrX8 . $ - a 0 9 r _ [ T R U [ { T.0XqX8XtXtXeXv.eXV.x.j.f 7XW j r g g ) >.:.a >.8XeXk d t $ 2 p K E W u j i >.:.<.= = = m ..8.-.&.6.2.2.2.<.<.:.:.4.wX:.C C :.C P P U T S S S R &.R R R R ",
"O.O.O.R &.5.R R L L K Y ,.>.c c y y a C :.A :.:.wX:.I :.lX6.2.6.8.o.M = % 3 9X,.( K.U.U.Q _ s 2 $ a f l.V.x.f x.7XU.g w k.L.L.T.z.f x.x.MXrXx.eXyX8X0XqXqXqXT.{ U R ' W W q 0 t z v -   # 8XyXU.I.u u l h j j i i y y 5 C 3 , = = = % * * & ; 3 3 y 2 y A A A v f y z v z v v t i t h k d 0 $ # # + # $ t i h v P.l.k d k g L.( l g 0 w g l l j l ) >.0XvXvXlXwXwXyXvXwX3.qX/ ~ / 3.3.,.,.>.@.>.I.0XqXtXqXaXI.[ gXjX/.`.`.(.Y.(.^.!.&XF.{.*XW.4X,XW.)./.J 5.xXxXr.| /.^.^._.S.!.^.DXFXkXxXe.} _.^.^._.~.S.D.A.Y.tXa 5 &  .t.kXjX<XW.S.D.(.^.} G } dX^.} } ^.^.!.D.^.} } aXe.t.r.r.e.W (.2X,XQ.<X,X*X~.*X~.G G _.' } aXjXaXU P / ] qXqX0X! ! ~ / ^ 3.{ [ qX3./ ;.#.2.sXxXsX6.6.6.:.<.:.:.,.7XU.tXQ.E.U.T.0XtXqX8X8X7X8XP.b h g b k h d t d f v B.v y $ $ $ $ $ 0 t d n v n :.8Xf y y A B.A V y 8 C ; ; ; ; % O & & & & * 2 y c ) z u u > K _ E Q d w VXV.# + O c l.q u _ U J T U ^ { I.U.Q.8XtXyX8XV.V.v.V.h.h I._ Q Q W j ` ,.4.@.I ~ B.l.h l.z i i s u q u E ` A A 9XV = = = m X.8.8.r.$.-.6.6.wX6.<.:.wX<.y y C :.,.K : : S T S S R | T S S ",
"R r.S S R r.R S S S S e.4.a v A C 5 A wX9X:.:.<.4.4.&.t.&.-.6.8.B M m % = <.8Xc E p K E ! ! i $ $ t f x.eX8Xx ! ,.I.P.g w L.g I.z.h.x.x.C.eXV.rXyXT.tXT.qX{ { ] U T W Y.E q 0 t f - +   v LXeXl q g E p ( L.h i t 3 a 3 < 3 , & % % % * * ; 3 C y y f f A B.A f c z v v v c v t t t 7 t t # + $ t t t d i l b k b b k b ( U.I.I.P.z.k k l k.K.Q ( x ,.4.6.wX6.6.wXvXvXwX1.3.1.I ] 5.3.] { ,./ ! I.I.0XqXqXqX{ ^ qXaXjX`.)./.^.D.G S.&X&X*XZ.,X<X,X,X_.' T r.r.fXe.dX/._./.`._.S.!.} _.kXkX| } } _._.(.D.S.A.Q.kXuX@.<.@ 1 r.xXnXjXDX,X^.jXjX' F } _.} T G _.=X!.} _.} } } } fXr.r.D R ' D.2X(.Y.2XJ.=X!.(.} T T T T [ /.[ P P >.! ` 0X,.` ` ( ! ^ { qXqX3.3.1.;.:.6.lXwXt.wX6.$.@.<.:.I ! ( L.Q.U.Q.tXT.T.tXI.P.8XI.U.7XU.tXI.b j h d t t t f f f f 8 f f f y d 8 8 f v n 8X8X>.y f y y V A f y f ; - C 3 = % % + % - t f c z.) ) j u q r ^ _ E h k eXHXl.. - 8 c u > W ' J ^ J { T.U.U.E.tX7XyXB.V.V.V.v.h.l.L._ T.E L.I.b ,.Y ~ a ` 0XL.k.l P.v A y 3 i u p ^ ( qX9XyX<.* % = m %.8.i.-.-.6.-.6.6.2.$.6.sX<.t o 2 c P : : F T F F S F F : : ",
"R S R &.R R S F S S : : a :.9XC 3 C 4.<.:.6.9X6.6.6.5.&.-.6.8.7.M = % = C 9X7Xj ( u q u p s z y v f d l.eXI.P P 3.` L.k.g L.( _ l.k V.v.V.V.z.rXyXU.qXU.T.{ [ ^ T U W Y.r 0 t n - X . t BXU.q g W J J p g u u c s 2 - ; * @ * & X % ; ; ; y C y V f V B.A 8 y y 9X>.n n v h t 8 7 7 $ $ 8 d f v A f t t d h k l g l l L.L.7X0XqXqXtXU.U.E.U.Q.Q.T.I.` :.2.$.<.6.6.6.vXvX6.Y ;.1.] 3.{ 5.{ / ~ ( ( ( I.qXqX3./ P T aXkXjX/.^.^.^.G !.H.!.*X,X<XW.(.<XY.' 5.&.y.fXe._.| } ^.^.!.!.} !./.dX/.} T ' ^.^.S.S.W.DXjXfX<.@.$.@ 1 y.cXxXFXDX2X<XgXhX} ' } } } } !._.!.S.^._.} } T } dXdXr.R R ' G 1X).Y.D.~.&XS.S.^.| e.e.[ T ' ^ P I I s ^ ` ` ( ` ` Q _ K.{ { { ] ;.2.4.6.wX4.5.6.$.L O.2.$.I P p q Q K.Q k.Q U.U.Q Q K._ L._ I.qXtXtX( h h x h h t f f f f x.f h.x.z.v f f f n n A z A A v t 8 A A y ; - % % % ; y V 8 y y f f v n n ( b Q W J ^ ^ ` j d k.BXV.$ X % t 2 q p J H F ' [ K.Q U.Q.E.eXtXz.eXC.j.j.d j j ) ` ( b L.) 3.3.~ I I.U.k.g k b A f 3 , 5 a K ^ L.b 7XhXyXa O % = N 7.8.8.-.+.X.-.6.6.6.6.uXwX<.,   @ @.S : : S T S : : : S S ",
"R S : F F T F F F F : , s :.y & 3 <.wX<.:.9X9X6.<.-.2.-.-.u.7.m m % * V yXwX) ` _ p u 4 y y a v 8Xv k z.8X) / ;.,.) P.x.b U.I.! ( k U.v.v.V.P.rXyX0XtXU.Q _ _ U J T ' ' r > i c - + 8 rXSXg 0 E ^ [ J q q p x P.>.c y 2 * @ O O + ; ; 3 ; ; y y y A B.B.v f f A 8X8XB.A i t d d 8 d f 8 t f f n f y t f t i l P.I.7X7X7X7X0X7XI.eXtXtXtXQ.Q.Q.U.L._ ! / 4.$.@.6.wXwXlXlXwX4.;.;.1.{ 3.0X0X^ ! ` _ _ I.0X7X/ P U u [ aX| T T ' } ' ~.!.=X~.<X(.Q.AX).' T R &.fXxX| } } } ^.D.!.!.!.F F /./.} F } jX_.J.(.DXjXkXxX-.5 5 ,  .-.y.mXnXnXDX`.sXsX/.} | e.dXe.} } _._.!.} } } } | | r.t.r.1.' } 1X2X<X,XJ.S.S.!.jXaXt.t.e.Y S J L I s p j ( Q E j j E E ' T.T.qX3.,.wX4.1.1.3.1.] R D Y $.I L U K u H W q r W T._ E _ _ _ Q E E ( ` I.qX0X7XtX8X8Xv z.8 d f z.B.B.x.l.x.z.v d y z z y v B.B.8 8 y f f V f y 3 - y <.B.V f v n n ) b j j b ( _ E J U ^ ` x k U.BX8   X y s P u F ' T [ T.T.K.U.E.E.E.8Xv eXMXj.h.h.( ` / ! h h b 7X,.:.;.s i t g k d 7 A V y ; 2 a P u j Q I.tXyXwX5 % = m N 8.8.-.X.-.6.6.6.=.2.6.0.lX<.C @ @ 5 , : L R F : F : S T ",
"F S F : : F : T T S : 4 s * o @ @.6.lXwX6.6.6.6.-.%.-.-.8.o...= % % C uXyX7Xb ` ! s a 4 2 t A B.v d h P.) x I ;.>.7XP.P.z.U.{ E l t d j.x.eXz.U.yXU.Q.0XL._ T.^ T J J q u q t - + + f BXl.i p K ^ ^ W p p ( ) ( z c y y t 2 - y y ; % * - % - y f A 8 8 f A v A A A A f y d f v x.f l.k f f t f 8 t z h h g P.7XtXqXI.) ( ) ( j L.U.L.K.K.Q K.g q p P / 4.#.I #.6.6.6.6.6.6.4.Y 3.{ 3.T.I._ E ( I._ I.` ` s P Y U R ] T R [ | [ _.~.S.&XD.W.K.AXDXD.[ R X.t.t.kX} } F } _.^.D._._.F } /._.} T | jX/._.DXFXkXxXcX-.< 2 5  .-.i.mXmXfX/.aXvXnX| J F } r.r.r.} _._.} S._.} | } } r.e.&.*.U ' ^.2XW.4X,X!.~.G ^.[ 6.6.+.O.4 S U ~ p ( ( ( Q j g W E ' _ W [ /.{ { 5.4.1.1.1.3.] *.R *.*.L L U U J K W W W _ Y._ ' qX_ { ^ E E K q J E _ I.0X0X8X8X8X8Xv d d j.x.v.z.z.B.B.y t f y z f f V f f f f V A A 9XA C C a A y f v z.8XU.( j b b Q Q ^ U U L P ! i d V.v + - y A K q q ' [ ' /.T.K.W.tXU.eXE.z.MXMXx.j.k.( qX/ p x h h v A >.c a s i i v k t 8 y V y 2 y a 4 q ( U.I.,.yXwX3 & = < o.u.8.X.-.6.-.-.$.$.%.-.6.6.bX<., @ . . > R r.R R 4 S 4 ",
"S S S : : F : [ R : 4 P 2 . 3 :.uX6.0.6.2.6.u.-.-.X.-.-.8.B m = X C 9XyXtXI.E p u s a 3 2 y V f 7 d h h s a s ;.9X8Xz.v l b ^ _ _ d d f B.rXx.x.tXL.U.Q.K.K.qXT.' T F q J p a @ X $ j.BXg p K U U J K _ _ Q l l b n z c A f y 9X9Xy @ - y y y A f f 8 8 B.B.f f V f y y f x.B.x.x.x.x.k f 8 d v v P.8XqXI.I.T.T.I.Q E j E ! ( E _ L.K.Q r q W E E ^ K P 1.1.I I $.2.2.#.;.4.6.qX/ 0XT.{ _ _ Q Q Q W E Q ! u K P Y L L U 5.sXt.] jXD.G !.S.(.W.DX2XG } R &.y.fX/._.} | `.} ^.} _.} } dXdXdX} T [ hXgX).jXPXnXxXy.o., 5 >.5 8.cXcXt.r.' [ xXxX] T } r.r.r.xXfXr._.} _.} } | | } &.R t.6.t./.Y.J.OX<X2XDX_.G | qX6.Z N 5 J J K ! x U.U.P.( j g j Q _ J K { qXqX] ] ;.#.;.;./ ] 1.*.2.*.O.L 5 J J K u q W ^ ^ E K { ^ ^ ^ ^ [ J q J q u K p ! ! >.7XyXqX8Xx.h.d k.x.V.B.f f f f 8 y f V B.V A v v f f f A A A A a a A n b b ( L.l.l P.l.l _ ^ / R L U ,.i i v A - % @ a i q J } /.F ' Y.K.W.eXQ.BX8Xz.eXVXx.j.k j ` { P ) b i f z >.c c i i t z v A f y f V a a a c E K.L.U.) 7XwX:.* & & N u.-.X.X.%.%.6.-.-.+.-.+.2.lXvX<.2   . . @ ] P a 2.6. .",
"S S S F U / qX{ J @ o @ @ C wX0.uX-.+.+.O.-.0.X.-.X.8.0.-.< = & N 9XrXqXI.I.Q q i s y 3 3 C y 8 d l.j > 2 u a I >.>.n d x j E ` I.b k h.V.MXz.x.eXE.E.NXU.U.T.T.^.' J q S s a - + 8 V.x.d E L U R ^ ^ _ ( l l j L.I.P.n ) v z A A V y A A A A A f f f f A A f y f y 8 f B.B.x.x.h.V.x.k k d P.8XeX8X0XtXT.T._ E u W W ^ _ T.T.{ W T.Q W p r E W ^ ^ P L ;.2.#.Y Y ;.2.2.;.2.4.wX{ qXqX_ Q K.W E g E j ( ( j s ! ! s 4 D 1.6.t.2.`.D.S.!.1X2X).<X`.T S X.X.r.fX} } } dX| } ^.} `.} _.dX| | } R aXPXhX/.jXfXmXcXy.-., t wXC %.i.i.cXxX| ' sXxX5.e.dXr.} r.y.xXdXdX_._.dX| } } } } &.cXlXsXdX`.,X,XQ.DXjX' | { 4.:.@.N 5 L E E ! b P.I.P.b j i p p K p E { 3.3.,.,.#.I I / Y P U U 1.1.#.I s S L K u J p K K K P ^ K U U ] ^ U J J J K K U ! ~ P ~ i I.yXtXE.U.k.h.j.B.V.f f v f f 8 8 f B.v t f v 8 v y t c >.s c ) 8X7XL.( Q K.L.U.k.l E K J L R 1.3.j k v f $ % & C s ^ ' T _.' ' Y.Y.K.Q.E.tXx.f V.MXx.d x.( 7X0X! ( x z z s c 7X,.z v A z.B.B.B.f V B.A C A n E L.Q T.0XP.wXwX5 & % < 8.8.X.-.%.-.-.%.-.-.-.O.6.<.:.wXwXA $ . . @ , 3 :.$.$.",
"S S S r.I #.;.u . . . @ c lXlX6.=.-.-.-.$.-.-.%.X...8.u.N = % = <.yX0X) _ W W p s a y y V f f f z.l.b t 4 a #.~ c i z h x x ! 0X) b l.d V.BXx.v.NXQ.E.NXK.Y.T.' ' /.J F 4 5 3 O + f v.d g E U U Y ^ / ( j Q L.Q g L.L.b n n z z t A 8XA A A f y f V f A A f f y 8 y f f B.x.x.x.x.k.d x.eXrXqX8X7X( E E J q J q q J [ ^ ^ ^ _ _ E ^ W ^ K J J K J 5 L L *.2.1.Y 1.Y 1.1.;.;.;.3.{ qXqX_ W _ W j l j Q P.I.P.b x ) I s a L $.6.6.[ ' ^.(.1X<XJ.W.^.} } &.r.X.| T } } | } ^.} _.dXfXr.r.r.| } S t.nXsX} | r.xXcXi.0.3 d yX@.N -.y.cXnX/.T 6.sXU S } r.r.r.r.r.| } F _.| dXr.} r.r.=.u.y.-.R jX6XOXW.jXkXsXsX2.$.<.@.a a K E E ( 7X8X8X8Xn a x a 4 I P Y ;.c s ,.wX;.a s ;./ ~ ~ P / Y #.Y L L U ^ K K E K P ^ P / Y U U ] U P P J ^ K K / ] 3.,.;.s x ( U.SXSXQ.k.f V.V.B.j.B.V f V 8 8 A f f f y f n i y s A ~ c x I.tXtXL.K.U.Q.U.k g g p u P U U ! j j z.A ; 8 3 @.P _ ' F /.' ' ' Y.Y.E.E.U.8Xx.B.V.x.d x.U.0X0X! i h l h i u i >.7XwX9XA f y V B.B.V A B.A a p _ _ I.I.I.9XyX:.= & , %.-.-.-.-.-... .X.-.-.=.6.=.$.4.4.4.4.@.4 .   o O & C ",
"L =.=.&.3 3 , . . . 4 ] 6.6.6.6.-.%.+.-.-.X.+.-.-.+.%.8.< % % M 9XyX7XT.T.K.W ! ~ c V A A A V B.8Xn n ~ s ~ ,.,.>.t z p j ( I.0XP.b h.d eXrXx.z.E.E.Q.Q.K.Y.Y.T } /.' T J s ; % - 8 f l.l _ ] ] ] P j E E l K.U.U.L.( L.I.>.n n v A c y z a y f f f A B.B.y 8 y f V f f x.V.x.h.l.x.eXtXtX) z ) ) ~ ! j q J J J T E [ P ^ ^ ^ ^ E J J u J 4 J u L 5 L L *.;.1.Y U U L P P / ;.;.1.qXT.W p K K p p i z P.P.8X) b x ! P s a C $.4.3.' } `.2X).W.1X).`.r.r.y.r.R /.} } dX_.} _.`.dXxXr.r.} dXr.5.t.nXsX' /.fXy.i.w.%.a k BX@.5 &.xXxXkXjX' ] e.5.e.X.} r.r.r.} } } } } } | dX} r.r.t.-.-.-.| jX,XF.A.).kXnXt.6.6.:.a 5 P ^ E j ) 9XA A C a C C a , 3 , C :.:.:.:.:.C a 5 ~ ,./ ! K / / / / P P ^ K E W ^ K K ! U / / / / / P L U P K ^ / Y / 4.3.1.~ ~ ! l.U.tXNXE.v.x.B.V.V.f 8 f f y 8 8 y f c f z c t i x x ) ! j I.0XT.T.K.U.U.U.l.l.l.( E K J ^ _ ( d B.v 3 V a a P W T ' } } } T.Y.K.Q.K.U.U.v 8 x.x.j.x.k h L.( l j g u 4 u u c P.9X9XV f y 8 z.f f A 9XV t s ! ! Q I.I.8XwX<.3 & & N 6.6.+.X.-.+.X.+.X.+.-.6.<.$.2.6.6.sXt.6.2., . o o & ",
"2.@., , @ . . @ 5 *.t.aX$.O.$.8...-.-.+. .+.-.-.X.0.6.-.= % ; V 9X9X7X0X_ W ! j A V B.B.V V B.v f f B.wX8X` ) p i t p s p p ( tX8XU.h.d V.rXh.k.eXQ.W.Q.K.' Y.' } } T ' ! I a - - f B.f l _ ^ U K p j j g l L.U.U.Q L.qXqXI.x >.c >.c t y a v f y f f v y 8 y f A f j.V.V.B.l.k.eXAXtXI.( x s ,.4.:.;.P I U U U J U K 3./ U / ^ U J J K J u J U L D L / Y Y / P U P ] / s P 2.4.;.s Y ;./ P u u s y x >.>.9X8Xb x x >.a a #.:.$.4.wXdXkXDXW.J.6XDX/.e.y.y.5.r.e.} | _._.} } _.| r.r.r.r.r.| S &.sXaXF dXfXcXy.+.C c k.BXi sXe.r.e.jX_.^.| R xXxX&.X.X.r.X.&.dXdX_.} } } e.r.r.r.r.6.t.r.r.jX(.J.A.(.kXlX=.$.2.I s p L u ! 4.<.V C 3 3 3 3 * < , < , 1 :.<.6.<.c 4 4 3 s u j ( u K W ^ K J u J K E W W J J W ^ ^ ! / ,.,.,.;.~ P P P K L #.;.#.;.2.4.` ) b k E.HXBXtXx.j.V.B.f f f B.f ; - 8 y f z z c x i i ! ~ j ( ! I.T.Q.Q.tXE.l.h.k g l g j _ Q l l P.v y a a 4.P E T H ' T T [ Y.H K.T.K.7XB.8 d V.V.j.d k h b U.0Xl p / ~ ` ( c n A A A A f f v f A 9XA C s s ` x i ` qXwXpX; O & @ -.6.O.&.=.&.&.X. . .+.%.-.0.0.%.-.-.u.=.t.sX#.5 o   ",
"2 * o . . @ D &.sXt.5.6.2.-.<.-.8...X...X.X.-.&.+.6.0.N * & 3 uXwX8XI.I.^ Q E p z V B.A f B.x.8 y f A rX8XP.j u q u p u p ( ( L.L.x.f j.j.d f eXl.E.Q.R.K.Y.T.T } ' J ' ! a C V ; f B.l.l _ ^ J E ! x j l l L.tXU.K.T.T.qXI.s x ) c x i f z A f f y y 8 - y f A 8 B.B.V.x.x.E.eXNXBXU.j ! P / 1.4.4.;.I U P L J U L L / / ~ / / ^ W E W U K U ^ P K U Y / ^ ^ U U ,./ a a ~ :.:.C I ;.I 4 5 3 5 C a A C c A 8X7Xx x ~ P a a C 6.wXsXxXnX).A.].4XDX| *.r.&.r.t.fXe.dXr.} } } } r.} X.r.} | R R e.5.{ ' dXkXcXi.+.N A eXMX2 4.fXkXdXjX2XjXR O.xXr.r.r.y.y.r.r.jX`.F F } } r.t.r.r.y.y.cXr.&.} D.W.,XAXhX6.O.+.1.;.Y p u P >.:.@.C C 5 3 < < 1 < N 5 5 3 3 3 y y C a 4 s ~ x p j u p E p u K _ Q H H : q W q J ^ ! K E / / 3.{ / ! ^ Y L I #.Y #.*.4.4.4.0XI.L.Q U.BXBXeXl.h.v A A V 8 ; 8 y y y - t 2 t v n x ) ` ` E K T.qXeXU.Q.U.U.l.k.k d q g Q K.l l.8XB.3 * , Y p J ' T [ T T U W J Y.Q.L.I.B.f t d v.eXk.h.w 0 l eX0X` P p ( j h c A 8XB.B.B.B.B.A f 8X9XA y a s ~ ( 7X8XyXvXC O & o C sX6.5.1.&.O.=.%. ...8.8.-.-.-.%.-.&.&.*.&.&.sX4.:.",
". . . 2 5 $.6.t.sX6.-.$.-.6.-.%.X..... .+.-.&.O.&.6.<.* @ % y yXyX9X~ p E ^ ! s z >.B.V f B.f f f A B.B.P.l b Q E K p ( 7XI.b t d x.x.V.B.8 d U.U.U.E.H W ^.' F } T F W ! ) A y V y B.k j ( _ K p j l k l.l.l.tXQ.T.T.I._ ! s ! ~ u z c z z v y y y - - 8 f v 8 f x.B.x.x.eXtXNXU.I.( ! / 1.1.2.$.:.#.I L J J L ^ / 1./ / Y I / ^ W W W W H W E J p P ! E E K q s s I i a 5 y :.<.<.<.5 , < < < 3 3 1 3 3 a c ,.>.! s p L 5 L 2.:.2.sXnXT.A.J.OXFXaXr.r.&.-.r.r.r.| | } !._._._.X.X.r.X.&.r.fXxX] [ ^.jXdXxXu.=.<.t BXVX0 T.kX/.kXFXFXjXS &.r.r.r.y.y.y.y.xXkX} } } r.r.y.xXy.y.mXxXxXr.e.T T.KXDXjXqX*.O.=.Y Y K K ! 7X9X:.:.:.<.6.2.C @.+.N  .N %.N , , @ , 2 2 , 2 s i t j j j u q > q g p E W q q K q u u q u J K E W ^ ' W P / ;.#.#.#.O.@.@.Y ;.qXqXqXI.( E.tXtXeXz.v v f V f 8 y y f y v y t 8 z h z ) I.` j j _ T.U.K.U.NXU.x.k.h.k r q r K.Q.P.eXA - O @ 4 u W W T [ U J J ^ W I.T.T.0X~ >.x d x.E.x.k.k.k d j b ) ~ p b ( L.x f >.rXB.V.B.z.B.f y 9Xy a :.s >.! ` ,.9XvXC * * @ , 2.;.3.[ ] R =.-.+...X.+.X.&.+.-.&.&.&.&.X.D O.6.vX",
"@ y :.6.6.6.2.+.-.<.-.6.<.0.8.-. .O.+.-.$.O.2.6.=.6.@.O * * y pXwX7X>.~ ` ) p t >.9XB.V B.f A B.V 9XB.x.l.k ( _ E ^ ` 0XI.t d d d x.B.x.d d n 7XU._ Q.K.W ' T T F T T W p >.a * ; y A n j Q W g 0 j h l l.x.E.E.E.qXQ.T.W K ! 3.) x x c t t t t 8 y y - ; y A C f x.v v eXBXBXT.Q Q { 0X3.3.2.#.@.$.#.L L U U K ] / { U Y ^ p ^ K q g J q q J K ^ K p K K E j p s 5 c a 3 y C @.a N 1 3 3 m < < 1 , , 3 5 a a :.3.;.I a s L I $.4.#.5.xX).).W.A.T.[ xXy.fXxXy.r.r.r.| } F } _.r.r.r.y.y.r.r.y.xXU /.jXjXkXfXfXxX6.@ MXHX# p jX' dXFXFXgXR r.xXy.o.o.y.y.xXnXkX`.!._.dXxXmXcXcXzXy.t.r.r.t.e.kXUXUXgXaX6.t.2.Y U u ~ >.wXyX4.4.<.:.6.0.2.=.6.$.-.+.0.6.C 1 3 2 . . . . @ 2 2 i 2 t u u t q > 0 p p p p p 4 u u u u J u K W W J J P I ;.;.$.#.@.O.$.@.#.2.0XqX0XI.L.L.eXyXBX8Xn y 8 8 V B.v A A v f v h t h b P._ _ E _ Q L.U.l.L.BXE.x.v h.k.k r g K.eXl.B.f 2 * . > p [ ' ' T J T ] { [ [ T._ ! ` qXqXP.b k.l.E.E.P.j 0 t i x x I.T.eXP.h 7XrXeX8Xf y A y - f y y C c ,.) ) ` 0XpX<.* * * * <.4.J U / 1.*.O.X.-.-.&.6.-.&.*.*.*.&.&.r.&.D a :.",
":.vXlX#.L =.2.-.$.-.<.%.%.+.+.=.=.=.-.=.=.#.1.5.2.6.1 @ * * A vX9X7X,.>.>.x a c z 9Xf y A v 9XB.8XrXz.v x.U.Q u j _ ( l d t h h g L.eXb t b ) ~ qXT.gXW W T F S T T ' ' u u $ @ - V B.8XeXI.W q q t k l.k.v.MXeXk.U.Q.Y.Q E ` ` ` n h t t 8 t f A f 8 y y y f v f v z.8XtXtX0Xl T.0XqX5.1.#.#.O.O.#.#.Y Y ^ T J ^ ^ ^ K K K 4 u u u u u q g W j E p u u u g g j s i I a 2 3 3 * * * , 5 Z N N N @. .@.@.<.:.:.,.;.,.;.Y a a @.;.:./ Y aXgXDXDX).[ 5.fXxXxXcXxXy.xXxXr.e.} D.dXkXr.y.y.y.y.-.r.r.J [ jXFXFXkXdXfXa > BXLX0 tXjX^./.FXUXgXR xXfXy.y.y.y.y.cXkXdX`.!._.kXxXcXcXcXcXy.r.e.sXmXxXPXnXhX5.aXaX5.e.2.Y a ~ ~ yXIXyX>.,.4.:.$.6.$.#.6.wX@.$.<.6.wXvXsXI 2 o .   o @ $ @ @ 4 y 2 2 u y t 2 y t t y a 4 u u u J J W W H J P s I I @.$.$.$.=.$.$.;.I P / 3.7X) ` qXyXrX9X8Xf f t t v 8XB.z v B.z.n h h l j Q _ ( Q l tXl.E.tXx.k.h.f h.d g K.Q U.n 8XV y -   > p L.' ' T T T S T U ^ 3.3.I ;.;.qXgXqXeXI.L.U.L.8XeXP.h d P.tX( l.U.z.x.B.rXrXv t A f y t f 3 t a 7X0Xi x 7XwX9X= * * * a #.u J / 1.1.D D *.*.5.5.[ | [ [ [ R S X.r.6.=.@.",
"wXwX;.a $.6.6.2.6.2.2.2.6.6.2.=.=.$.#.2.2.Y L S *.=.@ * * * :.wXqX>.c ) ~ a c c y y - y v y B.8X9X8Xx.k.E.eX0X( j x h d k U.8XL.L.( L.x c qX4./ _ { _ W [ T.R S T T ' [ E u @ o - y B.f U.L.g q g h k l.k V.BXU.k.U.U._ Q E _ ( ( x h t d v v z.A A y A v f 8 y v 9XyXBXeXL.( _ qX0X3.4.I O.$.@.@.&.#.Y / U J K W ^ W J u J q u u u u p p p j u 4 0 > 4 u t > 4 t 2 > . .   o @ 2 , 5 <.6.%.%.0.-.2.=.6.6.6.4.:.3.wXqX:.L 5 I ;.2.sXaX| /.FXFXkXaXr.t.t.t.y.y.cXxXcXfXkX_.^.jXFXcXy.y.y.8.y.y.y.R R jXKXDX/.^.aX: > yXSXt kXAXY._.FXFXT.R fXr.r.y.y.y.y.xXfXkX`.} _.fXxXu.t.u.y.cXxXcXmXmXIXmXsXe.] aXT.T.hXwX@.u 5 y wXIXwXP 0X0X4.3.wX#.#.lXlX%.5 C 6.lXvXwX;.sX0Xa > o   . . @ @ , @ 2 4 4 , 2 2 2 5 c a 2 3 a a p P P K J p s I I @.:.$.+.$.O.$.=.*.Y L / 3.4.qX,.c c ,.rXhXyXB.z t y z.n z.z.V.z.x.k d g Q L.Q j g l.E.k.x.E.x.j.f x.v t u _ Q 0X8XB.y ; 3 o $ p W W J F T R S S T U / 1.#.Y L ;.wXhXPXhXL.( L.tXSXBX8Xk k b k l.U.l.d v rX8Xy y C B.A f f y ; z x T.u ! ,.wX6.; * * & , a ;.] / ] 1.L P Y ] ' ' ' ' ' T.[ T R L #.$.6.-.",
"4.@.@.6.6.*.L R ] ] ] [ 5.5.2.*.*.L L 2.3.Y J 4 Y L @ < = * <.wX,.x c ,.8Xc y t f y t A v y A 9XeX8Xk.x.U.U.U.qXi i l.E.E.z.) 7XI.L.T.qXsXwX;.L U 3.T.^ U U T R T J ' ' W u @ o y y V B.eXU.K.H r h d h.h.x.MXv.E.E.K.r E Q I.E b h h b x.z.z.f A B.A f y y A B.9XyXyXyX7X~ ` 0X` ~ Y ;.$.$.$.$.+.$.O.Y I P K j E Q E K p u u 4 5 5 i a u 4 t 2 2 2 2 4 4 4 @ : @ # . . . @ 4 ,.sXwX6.6.$. .-.6.$.$.2.4.<.:.9X:.wXLXsX;.I a @.4.4.aXaXaX/.fXnXmXxXxXu.t.8.y.cXcXy.xXfXdX_.^.`.kXxXcXy.y.y.y.r.fXy.T gXUXDX^.Y.jXJ > BXZXt hXDXgXjXFXUX( ] nXfXkXi.cXy.r.r.dXjX`._._.dXxXnXmXmXcXxXcXmXIXbXbXxX&.aXdX)./.FXUXvX@.3 3 3 #.wX:.a 0X>.4.4.4.:.wXvXuXwX<.$.uXvXwX4.sXvXnXhXqXs > @ @ @ o . @ , 4 , , > @ o @ , * - * 3 2 y a a c z c c s I ;.2.$.@.@.+.=.=.$.#.L Y Y 1.4.4.a a c :.8XyXyXBXrXP.l.d x.eXeXeXx.l.w g L.L.l g l K.l.k.x.V.x.x.f B.f t u K K 7X9XV 8 ; V $ @ u u H G F S S T S T Y Y 6.6.=.#.#.1.5.wXqXhX_ I.T.tXtXtXE.w g L.eXE.x.h.z.eXA y y y >.B.y t 8 t z u ( ( { qXpX9X< & * , , @.sX3.Y I P P U _ T.T.Y.T.T._ I._ ( qX0X;.I $.&.",
"@.@.2.6.#.Y Y U [ ^.[ [ ' ^ ] 5.Y P Y ;.] Y U ] L , & , O , <.wX7Xx x 7Xs y 2 y f y A B.y y y 8XP.l.k v.E.l k b v k eXBXBXeX! ! T.hXhXhXqXI L #.*.1.Y U U J S R J T W W q > . , C ; B.V.eXQ L.g u l d f f x.eXU.k.U.K.Q l Q L.b h 0 k P.B.B.V.z.z.v t t f 8XBXpXrX>.a ~ 7XqXqX3.P I #.2.$.<.$.+.+.$.$.I P K j E ! ! x x s u p 4 3 a a 2 2 > 2 4 u 4 , @ @ @ . . . . @ 4 I wXsX,.vXvXwX1.a @.uXlX#.;.4.wX,.4.4.~ :.IXyXt 4 y @.wXhXqXT./.[ e.xXmXmXmXmXxXcXcXzXy.y.y.fX_._._.`.FXfXy.y.y.cXy.y.r.y.S aXKXFXT.(.DXQ.> 8XBX7XvXgXFXPXUXUXI.[ kXdXfXcXy.r.r.r.dX`._.=X_.dXnXmXmXmXcXcXlXbXbXiXzXt.*.[ dX).).KXUXwX:.<.5 5 5 C a a I 7X7X0X7X4.sXsXwX6.sX6.4.0.2.#.sXhXvXsXwX4.4.*.5 , 1 1 S 5 a L a ;.5 2 @ o @ , O O % * 3 3 a C a I a a C :.@.@.$.C O.$.O.#.*.D D a 2.;.I ~ ~ s s y 8XyXSXBXBXz.x.x.V.eXz.j.d k l.g Q l L.l.k.h.h.x.V.j.V v f > E K j 8XB.A ; 8 V ; $ t q g F F F T T S L *.#.6.6.2.-.=.=.1.I I aXqX{ I.tXNXNXoXh.k L.E.U.k.k l.8XrXA a A A A f 8 t y z i g E ( wXlXwXN = = * o 1 ;.2.1.I p p p K Q Q Q K.T.L.( Q L.T.) ~ #.D S ",
"N %.<.$.;./ 3.^ W W Y._ Y.' T.T.] K K U ! / 4.wX$., = * & < wXwXqX~ ! ! j s t 8 y f 8X8Xi y y >.eXk l l.U.tXl.k d E.NXeXeXI.K 0XsXaXqXqX2.#.$.6.r.&.&.S S L U S J q W H q > @ 5 3 % y 8XqXb j g 0 z 8Xh f z.x.x.k.k.K.k.g g ( U.k w h.B.z.V.eXx.d k.L.eXSXSX9X7XA >.a s 4.qX/ / ;.@.@.:.2.+.O.O. .=.2.#.I ~ x i s x x a y 2 , * , , @ . . @ @ > , , @ @ @ . . o @ : 1.hXwXsXvX4.wXvXvX:.:.6.wXu.sX6.2.,.,.:.2.@.2.6.;.a 2 4 a sXPXSXT./.dXdX&.y.mXbXIXIXbXmXzXzXcXmXxXjX=X_.=X`.dXy.r.y.y.cXxXxXfXJ T.FXPXFXAXDXQ.> d BX>.hXhXFXUXUXKXW } kXr.fXfX| r.y.y.fXDX_.^._.jXnXnXcXmXbXmXbXzX9.q.bX6./ /.jXKXAXSXyX,.<.%.5 5 @.a @.:.c ~ qX,.,.2.I 1.e.aXsX] ] 5.1.6.sXmXvX4.I 4.lX<.$.-.%.2.%.$.:.:.wXwXwXwX:.C 3 & O X O % & * - 3 3 y 3 2 - a A A C a C @.#.#.O.L D D a #.2.;.>.,.~ x I.L.tXNXrXBXx.h.B.BXV.d d d k k k.h L.k.h.d x.8X8XB.y - - t ( l ) 9X<.V 3 ; ; - + - i : T H G T T } &.R &.6.=.+.-.-.<.-.#.#.5.hXaXqXtXBXtXoXE.L.h.E.eXx.k k P.8Xc v t A v f f A - > u j E _ 9XwX0.N = * & @ * @.4.:.I / / ` ` ` I.I.( Q L.U.( Q ( ( P ;.a a ",
"$.@.C #.Y / T.I.W W ' K.K._ Q E j p 4 K p ` qX<.< @ * , , 5 wXvX7X,.E p u x y t f t n B.h v >.9Xl.d k l.U.U.k.k.k.MXBXBXtX0X/ aX3.Y Y 2.4.<.$.=.r.&.&.R U S T T F J F r g 0 * 3 m ; N <.9X( x ( 2 t v f v B.z.d k l K.K.Q l l z.k.d h.eXrXV.z.f E.tXAXSXyXI.x a C C s I ;.] L L I $.$.$.$.O.O.$.L #.$.a a a c c a a 3 2 * @ @ O & @ @ & 4 ~ I a P a 1 , 1 , 1 @.5.4.5.6.vXcXsX6.;.9X6.4.wXsX6.sXsX2.4.4.wX<.@.a 5 a I a a I @.wXPXKXAX`.[ | &.t.zXzXbXbXzXcXbXmXmXmXfXdX_._._.`.fXr.y.r.y.kXfXfXfXW T.UXIXPXFXAXhXl k rX2 3.yXUXIXUXKXA.Y.fXdXdX| } } r.y.fXkX_.^.`.kXnXxXlXbXbXbXzXzXu.zXzX4.[ /.KXFXT.eX0X@.a a 5 $.6.2.wXvXsXqXyXqXhXhX0XaX3.qXe.] ] 6.6.sXuXlXwX@.@.2.$.$.-.$.+.$.$.$.2.4.6.:.:.<.$.%.<.C N < ; = = & & & % X O O + - 2 3 y 5 c C C a L D D 5 a @.:.I I ) ` _ I.U.8XeXE.eXeXx.v rXV.x.v k x.k b d k.b x.d v rXB.y ; - - h b b ) <.V M = + % + X - u J q W F ' T S R D X.=.=.-.-.0.6.2.$.5.aXaX3./ I.P.eXMXNXE.x.U.E.x.l.k P.) z z z B.v 8 v V ; > : q Q I.hXlXt.N , @ * & * :.wX:.;.;.) 3.qXaXyXqX0X) b U.L.l ! ( p p / Y ",
"&.5 D I P P ^ W K.K.Q Q I.U.I._ ` ^ ^ ^ _ 7XqX@.* % % * , N uXhXqX^ j u u t t f f 8 v n i n A 8X8Xd k L.U.V.l.x.E.MXNXNXtXtXaXhX] U #.<.<.<.<.-.=.&.R R R R L T F G q q i # X ; ; 3 C A rX) b n u $ $ y V B.rXh.d h.k.x.k k.k k k d v V.rXB.f l.rXtXNXtXI.j s c >.:.:.:.;.U D a a $.<.C N @.C a A A y 2 3 y y 3 , * & & O X X % = 3 C :.wXwXwX:.:.6.<.%.=.$.<.2.sXuX4.:.lXmXsX6.2.2.5.4.wXsXqX4.1.:.,.8X7X7X;.#.@.I C C a ;.$.:.hXhXSXJXDX/.R t.lX6.0.zXzXbXbXmXcXcXnXjX_.!._.jXfXr.r.} } dXdXfXkXT Y.PXIXPXFXtXhXz f B.@ P gXhXFXUXDXK./.dX_.} _.} dXfXy.fXFXDX_._.kXIXmXbXmXbXbXzXlX0.0.2.U /.FXUXSX( x L a s a I 1.4.4.t.lXsXhXgXtXgXAX).Q.U.T.T.{ 5.2.wXlX<.6.@.@.:.<.@.:.4.C C :.@.:.6.6.$.@.+.%.C Z <.7.9.9.9.9.Z Z V C ; * % X X O % * - 3 3 3 2 5 C C 5 5 C 5 L a I ~ ,.I.I.T.tXQ.eXeXMXV.f rXrXB.h.d k l.l.w k x.x.f x.rXV 8 * + - h b v 9XA V V 3 * &   . 2 > ~ J _ [ T F S S S D D &.6.-.-.6.2.2.qXaXqXaX0X7XE.eXBXNXMXeX8Xx.eX8Xh x 7Xz i i v f 8 B.B.f 2 q W T.I.qXwXuX5 * 2 * O O 3 ;.:.0XwX0X0XtXtXqXqXqX0XI.I.I.Q E ^ ! u / ;.",
"5 5 Y P u E E j W _ _ ( I.qXqXyXtX0X` ` ` 7X4.C * % * & & C sXwXhX( E K > $ t A f 8 v 8Xi y a 7Xz.h l.P.z.U.x.E.NXeXE.tXI.tXqX5.e.2.2.6.6.8.0.=.O.R R R T T J T F J J h 2 + O O % = 3 C 9X8Xz.l.n 2 $ - f B.rXA d x.k k.w l.x.k h.d x.8XrXB.f V.eXE.U.tX0X7X,.>.:.c ;.2.I 5 5 L  .@. .C C a y 3 ; ; - + X O O O * * = * < < m C C <.9X<.:.<.<.6.<.%.$.%.@.%.<.@.2.9X:.@.4.lXsXt.t.5.5.] { wXqXqX0XyXhXtXtXqXqXwXsX$.;.;.a a C s 9X8XT.FXFXgX' [ xXu.0.zXzXmXzXcXxXmXmXkX_.!._.kXxXxXy.} } dXdXdXkX' /.KXUXPXPXSXA y v B.2 4 qX/./.KXKXT.gXjX} } } _.kXxXfXfXDXjX^./.nXIXIXmXbXzXzXzXzX6.6.t.| jXFXSX` 4 4 5 a s / ^ ] sXsXsXsXxXPXSXtXE.Q.+X<XQ.Q.aXhX3.$.sX0.=.$.@.2.4.4.:.:.:.I :.:.:.:.6.2.+.-.<.$.Z C Z %.%.Z Z 9.<.w.iXw.V uXZ 3 % X X O & * * ; 3 , * 3 5 5 5 5 5 a @.I ,.,.^ I.I.U.eXE.rXV.x.rXeXz.t d h.l.k.d k z.x.f f A y ; O + 8 t t v A V N m 3 5 a . . , @ u P K K J J S S S S O.*.&.-.6.5.$.5.aX] aXgXhXtX8XeXMXeXE.P.E.P.U.n t x 7Xn t t f v f f f t $ q K.Y.W I.wX6.N , 3 * % & < #.I a ! ! ` 0XqXqX7X0XqXI.0X_ _ ^ ( { ^ ~ / ",
"L U Y p P ^ ! _ Q U.I.0XqXqX9XyXyXqX7XqXqX7X:.5 & O = < * 5 6.hXqXL._ E q 2 z A v 8 v b t d z 8Xz k 8XeXP.P.E.rXBXeXeXeXU.qXaXqXsX&.=.-.-.0.0.$.*.D S F S F S S ' W K u 2 @ O & % * C V V B.B.v z 2 $ - 8 f rXV 8 x.x.x.d x.z.h.k d z.V.9XA v rXeXE.eXtXtX7X0X,.:.a a a a 5 L N 5 5 1 3 3 3 ; ; - % + X X ; ; ; Z Z Z Z 7.<.<.9.%.<.C C @.@.<.<.lX$.@.<.@.5 :.wX:.<.<.:.C 2.6.6.t.=.*.] 3.qXT.Q.tXhXSXtXgXSXhXhXsX5.t.4.I s s u ~ I ) yXKXFX/.^ 2.u.w.iXi.bXmXcXcXmXmXnX`._.jXFXnXxXxX} } } _.dXdX' Q.KXFXjXjXqX2 - B.rX- 2 5.jX).DXKXgX`._.} !._._.fXxXfXfXjX_.^.).PXmXmXmXcXzXcXmXzX0.lXnXhXhXhX7X5 4 5 ;.wX0X` _ T [ dXt.lXxXfXhXgXQ.(.OX4X<X).gXhX5.5.6.2.O.O.$.6.6.:.>.7X) ,.I.,.3.2.6.6.%.<.-.%.$.-.<.<.%.0.uXuX9.9.9.9.uXuXiX9XZ C < & & + O O @ O o @ * 5 5 5 C C @.a ;.0X) ( ( U.U.x.eXB.z.V.B.f t 8 h.b d d V.B.f f B.f ; % X - 3 y t A C C m * & @.wX> . . @ 4 a I s U U S T R &.} r.R X.r.t.5.e.aX5.T.aXhXtXz.eXeXv.x.k l.z.P.s t s c z t t z B.t $ t t $ 0 H W r _ qXsX@., * % % = Z wX4.p i i b ) 0XT.` ` 3.{ 3.3.^ ` P ^ ,.p / ",
"Y / Y P { ` E _ _ I.0XqXqX7X4.qXqX,.! ~ ) ) C 3 O & * < , a wXaX_ W T.! q $ y v y y n t t z A >.h h 8XU.U.eXP.E.MXeXE.eXtXSXhXaX5.5.2.$.6.6.6.#.*.R R S F S S F J W s > @ @   2 C 3 3 C V B.B.y t - $ + - y B.B.f B.V.x.7 x.v.x.d t B.V.V.z.z.rXeXeXQ.U.l l 7X7XI s I 5 5 a C 4 5 2 : , * - ; % % X X % m V 9.9.iXiXw.9.9.9.Z <.%.Z @.%.<.6.2.$.6.@.$.2.$.c :.:.A :.4.<.:.$.$.6.t.r.*.e.aXT.Q.Q.Q.W.Y.Q.gXSXkXsXt.sX5.3./ ! _ s u 2 i 7XSXUXgXaX5.6.8.zXbXzXxXmXmXIXIXkX^._.`.FXxXy.fXdX} } _._.jXT.gXKXjX/.aX{ 2 2 B.rX- 4 #.kXjXDXFX/._.} } _._._.fXxXnXnXkX_.`.2XIXmXxXcXxXxXmXmXcXu.zXIXkXkXPX;.4 :.uXsXvXhXgXaXaX| r.t.xXxXt.aXhXjXAX<X,X<XGXAXgXqXsX6.L L O.L ;.:.:.>.8X7XI._ ( 3.4.$.6.-.+.+.+.%.6.0.6.<.<.bXiX<.9.pXiXuXV 9.9.iXiX0.%.1 , < , & o     o , 5 C @.:.a a :.7X,.7XP.U.x.x.eXA B.rXB.f t f d k d k B.A f f y ; % X % 2 y z C V C 3 < & * $.vXsXP o . o 4 :.,.P R S S R S S &.r.R &.e.sX[ T./.T.T.tXtXP.eXBXv.x.d d b ) x > t j h d f v 8X$ # y v j q q H W _ qXwX4., * % & = N wXlXwXqXqX0XI.( I./ ! P ^ ] 3./ ,.P s ` a c ",
"@.;.s ~ ,.! x ( 0XqXI.{ ` ` ,.0X;.x i 4 i :.9XC * & & & * $.sXqXW q ' j > # 2 t 7 y 8Xd t h v n t t b P.z.l.k x.eXMXx.8XtXgXqX^ 5.6.t.5.r.&.R &.&.R R R R T J J u ~ y @ . @ @ #.wX3 = = M V B.y y y ; + + + ; f y v x.x.d d x.h.8 7 x.B.rXB.B.rX8Xv.U.U.L.P.0X>.L @.@.C N a 3 * o . @ @ @ O & & % 3 V Z uXpXpX9.iX9.9.<.0.9.%.<.0.-.%.+.$.-.6.2.6.2.$.;.) 7X7X_ / ;.9X4.6.:.$.=.2.6.5.aXjXQ.<XAX<XW.Q.AXhXhXxXxXfXt.5.U _ _ T.0XY L 4 i 0XhXSXnXxXlX6.bXmXbXu.xXmXmXIXkX_.^._.kXxXxXfXfX_._._.} jXdXAXUXjX).dX_ 2 2 8XyXy 5 4 aXFXjX/.' } S._._.dXe.t.xXxXnXFX`.`.`.kXnXnXcXxXt.xXmXbXvXIXIXIXIXvXY / lXlXvXhXSXgXjXdXdXfXfXxXcX-.u.xXhXDXAX,XW.DXAXgXQ.qX1.L a L D L #.>.` 7XU.L._ T.aX5.2.-.=. . .X.+. .%.$.<.uXcXzXZ Z iX9.M 9.9.V V 9.uX0.6.$.6.xX4.2 . . . o * 3 5 C C C :.A A v B.V.v v B.B.A B.A y f f x.z.f v B.V 8 ; ; % X O & - 2 a V V 3 ; & 1 $.6.vXIXPX:.@   O 3 4 I Y R S R T } &.r.R 5.e.e.[ [ Y.[ U.tXyX8XeXBXE.eXk h x ~ P > > x f t d f z.0 $ t z j q 9 q W T.I.;.wX3 , * % & & 5 6.uXwXhXyXqX) ` ! ~ Y P / 3.,.;.a a a a y ",
"c a a >.~ s ) 0XI.I.` ! / / ~ P s 4.qX4.wXvXwXN = & % = , $.wXqX' q W q t s c - + t 8Xz d t t v t t P.P.h d d eXeXrX8XE.tXaXT.T.T.e.1.e.r.&.R r.&.&.L R L J U / :.a @ . . , 4.vXsX3 & = ; V V V a y 8 + + % % V y f A 8Xx.d x.f d d f A rXV B.V.z.x.E.U.l.7X7XI a C @.V C 3 @ o . . . , 3 , < C <.uXpX9.9.9X9.9.pXw.%.9.zXbX9.-.-.8.-.%.X.+.=.-.2.2.3.,.` _ U.I.` / 3.#.I #.@.a $.sXqXgXAXAXAXOX<X<XDXhXaXt.xXcXt.lXe.[ sXaXdXkXsXt.=.5 ) vXPXnXnXnXlXbXIXbXxXcXmXmXnXnXjX_.jXkXnXxXfXfX_._._.^.^.' gXFXjXjXfXP > i MXBXi y 2 1.hXgX[ ' } F _.jXe.fXxXxXnXkXFXjX_.^.fXnXxXxXr.r.cXmXxXbXIXIXUXFX{ ] wXsXlXnXvXvXkXkXdXkXnXfXt.u.r.xXnXaXgXDXAX<X<X<X).T.[ { { / #.L s I >.7X7XI.T.gXgXkXsX4.$.N N 1  .5 3 1 , 3 3 3 N 3 V 9.Z 9.9.pXpXZ <.<.<.$.$.4.vXIXhXp . . o O @ 3 C N y C A :.z c B.A n B.V ; ; ; 8 % y A v y B.V 8 ; y % % % O - 3 5 V V C ; O , @.4.6.bXlXvXbX@.* o   * C :.&.R R R } S | e.e.| e.| ' W Y.T.tXyXx.8XrXV.x.h.P.P.c t > 0 i d d d d z.f t z u t K q J q W K ! hXa = = % = & , a <.wX3.yXqXwX0XI P ~ I ;.4.4.y a a a a 2 ",
"a a a c a i c 7XqX0Xx P / P P / qXwXwXwXlXwX5 < = = & , a wX` { ' q u > s a y t $ 8 z.v k t d v > t k b L.d k eXeXBXv.eXtXqXT.[ [ [ | | e.| r.e.R R L Y I / ,.s y % X . 4 lXmXvXwX<.5 O = 3 V V y 2 y % O % % ; ; y y v A d z.v v 8 y y A B.A 8Xv l.z.z.v >.,.a a @.@.C ; * O X   . u hXvX6.@.9.0.uX<.C V 9.V Z 9.pXZ 7.zXlX-.%.B +.%.+. .N  .-.$.1.sX0X7X_ L.I.] / P L L a O.a ,.qXtXtXDXDX(.W.<XAXhXnXxX0.lXcXxXxXfXaXsXhXkXlXt.lXfX2.~ hXIXUXIXmXvXmXIXmXxXxXmXxXnXfX`.jXjXkXmXxXy.fXaX_.`.F G } ^.gXkXjX] u 2 v tXMXz.t 4 ,.qX3.{ [ F F } e.fXcXmXxXdX/.jX2X^._.kXxXmXcXr.y.xXmXvXvXPXFXtXq H /.gXaXlXnXlXfXnXkXkXaXgXsXsXsXu.xXt.aXhXhXDX<X<XjX).Y.T.I.( 0X#.L C :.:.>.qXhXFXhXkXhXsX<.5 < < < * 3 * O o   X   X ; < m 9.9.9.9.9.Z 9.<.<.A >.a 4.nXmXnX4.o . X O & & < 3 m C C 3 y 9X9XA A 3 @ O - ; + - y y y A a 3 * ; % O & , , 3 V V 3 3 o @ Y nX4.6.uX6.vXbXzX%.* o o 2 a A a / ^ ] U T | e.| [ | } ' Y.K.tXBXf z.rXf d x.k b x u 2 # t z.d d d z.v t - 2 @ > J J J : q p qX:.- & % = & O 3 $.9X4.;.7XwXwXwX~ u ;.>.>.4.a 3 a a 3 t ",
"a a 3 4 ~ c s ,.qX,.! / / ! 3.sXsX6.2.2.4.5 * & = % & = C sX^ J W G J p x t t z t x.z.d t t d 0 > t b P.8Xl v B.eXrXB.8XtXT.U.[ ' /./.| | e.r.R R L *.#.;.7X>.2 X   & 5 lXmXvXvXlX6.=.1 , * 3 Z V C y ; % % O % ; 3 ; C A y v A y * - ; 3 ; f 9Xn n B.n c C V $.C 3 N ; % % X   @ @.nXmXlX2.%.$.9.<.<.Z 9.uXuX9.Z 9.C m N 3 3 5 < = < C N 5 1 O.2.4.vXFXhXqXI._ ] Y L L a L 2.4.` I.tXQ.AX<X).2XDXFXaXlXlX0.u.lXlXnXnXkXdXhXxXt.xXlXt.qX{ I.hXUXPXmXnXlXmXmXr.t.cXnXfX_._._.jXjXfXnXxXnXdXdXjX_.} } T.T.dXaXI , t z.VXMXx.t y 4.sXsXe.] T } e.dXnXmXfXe.`.`.1X^.} | kXnXnXxXxXfXnXIXsXtXSXT.H ^.<XQ.T.tXhXnXxXu.xXnXnXgXqXhXsXxXsXsXwXsXhXhXgXgXDXAXQ.Q.U.Q x s I :.4.:.:.:.7XvXPXkXsXwXI 2 & = ; % O o O o         X X X % ; V M V Z <.V V V @.a 5 #.vXmXIXcX5 O   O O % = = ; 3 , ; y y A C a 3 * * ; 3 - * @ 2 - ; 2 & O % % & @ o @ 3 a < * & , 4 hXnXsX6.<.0.uXuX6.6.6.5 O o * y t ,.7X_ [ R | e.| T ' T.Y.T.U.tXtXf k eXz.x.h.d b P.j u 0 0 B.h.d d x.h # $ - - s K 4 : : q _ sX:.* * ; M % O = y @.:.@.4.;.4.lXwXC i a c :.:.a , 2 y 2 ",
"5 2 4 y a 4 s :.wX>.s a s 4.wX4.4.@.:.6.<., @ & * % & * :.wXu q q J K u 2 # $ t t z.x.t t v z.t $ 0 h l l.k k h.B.eXd z.gXtXY.Y.Y.^.' } | e.} S R Y / P a :.y O   & C wXbXbX0.wXwX6.sX2., o , 3 V V 3 ; % & % % = ; ; V V y y y ; & ; ; % X 2 A A 9X9XC y m N m < ; & % % X X @ 4.nXnXvX:.C @.Z <.Z 9.<.9.9.9.9.Z m = % X       X & * < < < 3 1 @.6.sXvXhXvXvXyX4.<.@.#.@.Y ;.7XI.U.Q.Q.Q.).).DXgXfXe.t.xXlXlXsXgXhXgXhXkXnXxXxXzXvXsXgX).K.r Y.nXPXsXlXIXnXt.y.mXnXfXdX} _._.jX_.r.xXmXnXr.| } F } { 3.3.e.I y t eXCXoXx.t y 4.wXlXvXe.e.nXnXkXnXsX[ T ^.1X2XW.^.`.FXkXfXxXr.fXkXIXhXU.W.Y.(.JX6X6X<XDXFXfXy.xXxXnXPXPXhXgXtXqXgXaX0XaXhXaXaXaXgX/.T.T.I.x c a a C C C 3 3 3 @.:.:.4.a * o O X O o   X @ - 2 2 2 2 3 * @ O O , ; = < V Z C C %.5 N %.u.u.i.cX0.5 * & & % = % = = * 3 & * 3 2 2 2 5 2 3 - o @ O O @ @ * o o X @ @ o . @ - * & @ , p qXnXnXhXsX6.9.uX<.%.0.lXu.5 o X ; y A ) ) { [ T | [ T ' [ ' Y.T.U.8Xh.f z.d f d 7 k.I.L._ 0 d tXeXx.d x.x.7 $ y - t J 4 : : q _ qX~ * , ; < % O & 3 a ;.I ;.4.;.wXwX:.y y c @.0X:.2 @ 2 @.",
"a 4 4 2 2 2 :.7Xa a a s 9XlXwX;.2.;.:.:.5 & O & m = = * >.hXp q : q u P t - 8 # 6 l.k d d b P.7 t h L.b g w k k x.B.t l.yXT.T.T.Y.^.' ' | | | R ] / ~ a y 2 O X , <.6.0.0.0.uX0.6.6.nXfXS , @ @ 3 3 C * & & & O % X O - 2 * - @ % O , 3 * * 3 y y :.c ; ; 3 3 = * = % % % X % Z mXIXmXvX#.1 N C V Z Z Z Z Z V N 3 O X X X   .     + * X X & & O * a :.wXvXvXIXwX:.C @.<.@.a P p Q Q T.Q.).DXgXgXaXfXe.t.lXsXsXhXgXgXaXkXnXxXu.zXzXvXgXQ.<X,XD.Y.' hXaXt.nXmXxXt.mXxXkXdX_.} !._._.e.e.nXIXnXfX} T T 4.wXaXt.#.2 d MXGXoXx.t - :.wXmXcXlXxXnXnXaX] [ F ' _._.1X~.D.DXjXaXPXnXfXkXkXPXAXk.s.W.GX6X6X6XJXJXgXhXfXxXcXxXlXkXSXtXgXQ.AXgXqXT.sXaXfXaX5.{ { sXsX@.y 2 y 2 ; O O O O O * 3 5 @   X X X o - 2 y A ,.8X) 9X8X>.c A a - o + X & N m N N N  .@.N 1 < < B %.Z 5 = = < = = & & * * . - a 4 c ,.qXwXqXa @ @ @ 2 y a $.a 2 * , : , a a @ @ 5 C L 5.jXkXaXhXnXvXuX0.%.$.%.6.zXu.5 X @ y f n ) _ K F ' ^ ' [ Y.' T.K.b eXh.t B.d d d w d j E j 0 t eXBXx.h.B.eXd t a - @ 2 4 : ' _ Q I.:.3 < < * % O & 3 C :.C @.@.C :.wXc - y a A ;.4.#.4 L wX",
"L 2.4 @ 2 ;.>.:.a 5 3 ;.sXwX:.4.4.:.a a , O O % 3 < = = :.qXE F : : : s 2 - f $ 0 U.x.k j.eXeXt h L.P.L.d 0 h.d f B.8 v tXQ _ Y.' ^.' T | [ ] { ^ ) ! s 3 O X < 0.lX0.%.<.0.0.uXvXlXkXPXaXU 4 * @ @ @ O o o @ & O X o * * @ @ @ o @ , 4 4 y 4 > s t $ @ * ; = & & % & % % = Z uXmXlX6.6.$.C N <.N N %.C < = * ; O O - 2 t t 0 t t $     X O O O o o , :.<.c @.< 3 3 3 C @.C ~ p ~ _ T.T.T.gXgXaXaXfXqX[ aXaXT.).gXDXkXkXnXnXxXnXvXLXAX<X6X6X6X2XY.Q _ hXPXnXfXt.xXnXdXjX_.Y.~.1X_.^.T [ kXnXfXnXkX5.lXnXfXt.@.- 0 +XCXMXz.8 ; Z lXmXmXcXvXvXqXW W W H ^.`.,XOXG.Y.JX<X).FXFXkXjXgXQ.K.G.W.4X<X<X4X6X4X<X+XSXhXnXxXt.sXsXyXAXSXGXAXDXgXgXaXgXsX5.1.t.5.4.#.@ o @ o o     o O X & * & O o O O - 2 a ) 7X7X7X0XU.b U.I.l b I.qX7X$ .   X - ; 3 < 3 < , & , & % % % < 3 = < m m Z N 3 C :.x 7XhXqX0XhXhXhXPXyX>.x t a ,.wXhXsXwXI s L ;.sXhX,.P ;.4.wXsXgXFXgXaXhXvXuX<.@.%.%.-.0.8.0.& X $ - v A ! W J T [ ^ [ ' G Y.U.U.BXl.7 eXx.t w w k.g w q 0 i z.eXd d x.eXj.8 x.t # , 4 4 J H W 0X9X3 * = = % % % y :.9X:.c a a C <.A 3 a 3 4 L :.2.4.4.6.",
"5.2.L 4 @.4.:.a a i 2 y 9X:.a :.a c >.8Xa & O % % ; = 3 >.` E W F F : 2 o $ z d k.E.x.h.P.BXyX0 > h g l d w d w h.B.8 v U.E Y.' ' ' J T ' J K ^ _ P.z y , X * %.i.u.%.%.%.<.<.wXvXkXgXhXkXsX/ P 5 , O 4 5 4 , 2 , , a :.a i 2 @ @ @ t 4.wXqX0X_ 0 u $ . * * & = = = < = < Z @.@.C * , y @.+.5 C m N N 3 % X X + - a >.7XeXyXtXeXBX8Xc y 2 O X X o o o 2 2 * , O O O O & - 2 2 2 s qXhXwX{ 3.qXhXhXaXaX{ gXgX).Y.).gXhXfXnXmXIXvXhXAXJXJX6X6X6X<XW.H W AXPXkXsXfXnXkXdXDX2XW.,X1X1X(.' J ^ ] aXmXmXt.lXmXsX=.C - d MXCXE.B.y ; V lXmXmXvXlXwXL.K.g R.Y.OX,X<XOXG.G.4X6X(.T.gXFXFXgXr g.<X4X4XJXJX6X6X6X4X<XAXBXhXwXvXnXkXhXgXJX4XAXAXgXQ.T._ ] 1.5.2.5 1 , o . o @ @ 2 2 3 3 C <.C 5 3 3 y a c c >.) ) j k b ( l l l g K.L.E.SXeX0 $ . + O & % & @ o   . O O + X O * % = M N <.0.wXpXLXLXSXKXKXgXQ.Q.Q.gXhXSXhX7Xx ` ,.` 0XhXaX3.Y Y ,.wXvXwX1.aXhXdXgXFXgX/.aXsXvX6.@.@.-.8.8.-.i.@.@ @ $ i i s ^ ^ { [ [ [ ' ' ' T.U.tXx.t B.B.w d g l K.L.U.u 0 z n t w k l.k.7 f B.t @ : J F : g tXyX, @ = % % X X 3 8X9X>.c a c a :.:.;.@.a 3 u a I I =.t.",
"sX6.6.wX2.@.@.a 2 y 2 a ,.:.a a ~ >.yX9X3 o X % = 3 & 3 wXqXE F F u 4 * O y v t x.E.k.d k eXz.$ 0 h g l k.w d d B.B.t z.tXT.T.Y.' [ ^ ' ' E W l L.v t - o @ ..u.-.8.%.%.%.$.uXxXsXhXtXhXSXhXsX5.5.Y Y fXnX5.Y P ` qXsXvXsXqXs i ) 0XqXPXFXhXgX).gXFXyXP.A c 3 N ....m < < 3 & O & & * & & * < < * , 3 @     $ t yXyX7Xj p L.Q E ( U.0XyX4.c 3 2 @ @ @ + @ * , % % O X X X X O o o 5 wX6.6.wX0XsXhXgXgX/.AXDXDXAXgXhXwXsXsXvXhXSXgXQ.,X2X6X2X1X4X,XOXR.K.K.gXFXdXFXDX(.DXGXG.G.].<X<XQ.K.H F ^ sXvXzXmXmXxX=.M 8 f MXVXV.B.y 3 C zXcXnXuX0X) g r d.R.R.Q.R.+XCX@Xf.OX5XJ.R.gXyXUXSXR.+XGX4X3X6XJX4X4X4XGXCX+X+XE.tXyXvXhXgXgX2XAXQ.W.W.U.K._ ` 0X2.5 5 5 a c i t c :.wX:.4.9XwXuXpXwX9X:.:.>.c x p s h i p g j j K.Q L.U.U.K.NXAXtXz.h @ X X X X o O @ $ 2 t 8 $ - % O * < < V pXLXSXHXSXQ.<XKXJX).W.Q.T.gXhXhXtX0X_ E E T.gXFXhX5.2.p P gXaX5.hXdXhXkXSXSXaXaXhXsX6.<.$.-.o.o.8.i.6., . $ t y s _ K.{ ^ [ ' ' W [ Q.L.eX8Xf z.z.8 d g k.K.Q.AXj 0 h b t 0 t d k.w h.x.y 2 4 P J q H 0XyXa & < % X X % y 9X8X8Xc y a @.C @.+.$.6.6.C a I a 2.lX",
"6.sX6.O.L a y 5 C :.:.<.:.@.a a z B.rX8X2 O X % % = & 5 hXI.q : J S > , t B.f w x.l.d t d z.l 0 b T.l Q k.d d d x.x.d 8XtXL.T.' E [ [ [ [ ' T.Q k f - - o < y.8.o.8.9.%.C $.xXhXqXaXgXFXSXhXgXaXR sXsXsX1.U ^ [ aXSXaXI.` I.E T.yXSXAXgXQ.).Q.Q.KXKXGXSXLXvXuXuX%.m m = % % O X X @ o o X o & % o @ @ o . $ k tXBXU.L.g u g K E Q E j s ~ >.;.c c a t 3 a a :.V a a t 2 - * @ o @ , , 5 1.6.2.,.) T.tX).<X<X<XFXgXhXxXnXhXyXBXSX<XAX4X4X6X6XJX6X4X4X%Xg.K.tXFXFXgX(.W.JX4X].XX%X+X+XW.K.K.H g / wXlXxXmXmXu.3 ; f MXVXMXV.C 3 V u.cXlX4.7XQ k.c.E.MXoXE.E.MXCXoXXXW.OX<XKXNXU.yXAXoX%X%X4X4X4XJXJXAX<X<X%XNXMXv.x.U.U.tXgXgX).AXAX+X+XQ.R.U.( x s * a :.C wXwX7XwX0X,.P a I a a :.C c y u t > u x s x s u t g j g U.Q.l.k.U.tXAXtXBXLXA 2 2 3 y 4 a 4 c 7XP.P.8Xy + O ; ; & = 9XLXZXSXKX+XE.JXJX<XD.Y.Q.tXAXtXhXtXQ _ T.Q.T./.gXaXaX3.` qXgX{ aX/.dXhXjXjXgXgXdX] qX6.6.0.X.-.8.8.%.O o @ z ,.x _ T.^ K [ [ W W W Q.U.0XeXk v z.k k k l l U.tXg u ( v t d k w d w h.d 0 i u L /.W l ( wXa * = * % % y 9X9XA 8Xz s c a a C <.<.uXuXwX6.6.$.-.6.",
"$.lX6.I a a #.<.wX<.:.C a C @.y y 8X9X8XA @ X % % = * a vXP.q E [ u 4 2 8 f h.d h.w d t t x g 0 I.gXU.j g k.d d P.l.k E.eXQ.I.Q _ ' T.[ J ' I._ g h y X O N u.-.o.8.-.<.$.6.sXsXqXaXAXjXkXkXaXsX| e.aX/ ! 0XqXhXjXAXT.L.j Q T.tXhXhXNXQ.Q.W.Q.DXKXAX+XHXSXvXbXuXN < m % % O - - 8 i f 2 @ o O O X o   - 8XtXtXAXQ.R.K.K.K.E j E j j u u ! s u a a c ;.>.4.wXwX6.4.:.9X:.9X7Xc y ;.@.a a , I 4.;.Q K.Q.Q.W.+X<XAXgXgXhXhXhXQ.E.oX+XGXGX<X4X6XJX6X$X4X4X%Xc.AXHXAX<XW.OX4XXXg.#X%X#XR.+XE.R.r k.Q ) 4.sXmXmX0.m < V C.VXMXV.C M <.wX:.qXtXU.E.k.c.MXE.h.v V.rXBXE.E.Q.U.tXBXhXeXU.CXCX%X%X%X4XCX+XGXNXoXE.NXVXNXMXoXE.k.U.Q.tXNXQ.NX+XNXQ.L.L.b t - y 2 u s s s x a P I s 4 a a 4 c A a 4 a i i s x x i h z h h h l U.L.k.K.E.SXQ.U.T.yXtX,.>.>.;.c P ! ! j L.U.U.eXz.$ X ; * % m 9XZXSXLXSXE.AXKXKX<XY.K.Q.T.T.tXAXtXAXAXQ.K.Y.Q.aXaXhXyXhXgXY./.| | dXfXjXaXkXkX^ U qXnXlX6.0.0.y.X., . . x 8Xl ( W ^ [ ] [ T ' A.Y.U.K.tXl.f eXE.l.k l.L.I._ p u ` qXc t w k.L.h.d d $ t Y J [ q 9 g I.i O * ; X % - 9X9XA c n a 2 2 y C y 5 C :.0.lXzX0.-.%.",
"-.6.2.$.6.uXwXvXuX0.wX<.C 3 a C A B.B.yXuXy O O * = ; a qX) H g ' J P u y f d d k k z y i ) ( q Q T._ ( h k k h.x.k L.tXE.U.T.W W _ [ ] T ^ [ Q ( 8X8 + X < 8.8.-.%.<.sXsX1.1.5.hXaXgXjXjXgXaX/.| | qX0X0XqXaX/.Q.Y.).).T.I.tXNXtXgXAXQ.K.W.AXKXGXQ.+XHXHXLXbX<.& O = & X * A 8Xz.P.P.b a c C a y y v qXSXBXQ.NX).K.Q U.Q.L.u g > q u x ~ x i 4 4 4 2 4 s ;.a t a a u I :.,.,.7X~ / s P a 2 a c _ U.Q.+XNX<XAXAXDXhXqXL.l.x.v.oXNX%X%XAXGXJXJX4X4X4X%X%X+XCXeXE.+XAXAX+X+X+XMX+XMXE.eXE.eXE.k.g b 0XqXsXxX0.M M B.V.VXM.x.V 3 9XuX>.j Q R.E.E.v.eX8Xf 8 f V.rXE.t 0 i ! l.tXeXE.MXCXHXCXVXMX+XCXoXoXoXMXoXoXoXMXVXMXMXeXv.L.E.tXNXQ.tXQ.Q.P.n y t y t u ~ ~ s i ~ s ~ ;.;.>.~ P s ;.~ s I u 4 i x x ) P.b b P.eXU.l.w g K.U.Q.Q.Q.I.Q x x x s 4 s 4 u ! ( ( l l.d BXeX- % 3 3 % ; A yXLXSXQ.NXKXKXDX<XT._ T.Q.tXgXNXAXgXQ.Q.).T.qXsXhXwXhXSX`./.dXfXfXfXkXhXkXjXU [ e.kXhXlXu.8.8.r.1 . o t b u K.W ^ [ R [ { Y.W T.Q.K.U.l.h.eXeXE.v.8XP.l ( ^ u 3.yX8Xh d k.R.w # 6 # # : W aX' q W qX~ , , ; % X X * y 2 * o X X X O X X X X & * 3 N N N 5 ",
"0.8.-.0.bXzX6.V y 3 3 3 3 2 2 t A A A 9X9X; O % = ; & a 7Xg : G ' T ! t 7 d d h.k.k t 2 >.yX/ q K.Q Q I.v x.V.eXx.f E.Q.K.Q.K.W _ _ [ _ ^ T W J b 7X$ + O 1 y.u.8.u.lXvXhX] L e.PXkXgXhXjXaXaX[ [ aXgXhXhXsXsXqXT.Y.W.gXtXgXgXhX0XT.Q.Y.Y.<XKXKXAXE.AXUXLXyX:.; % = * X ; 8X8X8XP.L.b x s a >.C :.>.7XyXyXQ.U.Q.NXQ.l.g b L.l.b j h h j p x x z i a t a I ~ s a s 4 a ~ >.c i s p ~ p 2 4 2 2 t L.E.E.E.+XNXQ.Q.Q.U.U.b x.eXMXMXCXMXoXoXNXCXCX+XCXCX%XCXCXBXE.E.SXyXeXP.P.E.eXBXeXz.l.k eXE.K.k.E.U.T.qX4.pXV M B.V.VXj.B.; % ; ,.b 9 r g.c.v.v.MX8Xv V f A P.b i $ 0 g h E.Q.NXHXHXHXVXVXVXMXeXeXeXMXMXMXv.M.C.MXoXVXMXE.MXeXE.MXtXQ.NXtXtX9Xv - y t p ) ~ c i ~ c ~ >.~ ~ ~ c s c x s i t t c 8XI.8XU.l.b L.U.eXeXU.k.k.k.U.Q.Q.U.b x x s s s s u u x g g g k.l.d eXBXy + + % * 3 A vXLXBXAXAXJXKXFXtXW T.aXT.tXgXAXAX).<XQ.T.T.sXwXwXtXgX).^.jXnXt.5.hXkXkXe.U [ aXsXsX4.@. .8.y., X + t z g L.' [ [ R U { [ H Q T.K.U.E.x.x.eXeXP.l.h l _ E K qXhXwXL.d w k.h.6 6 6 : : q F G Y.Q./.sXa & & ; % X X X * % X + X X X X O o X X X X X O % & ",
"7.m < N 5 3 , & O   X o + o     o * ; ; % X X % ; , * ;.qXW e ^./.F > $ # # 6 d v.g t z 9XhX,.j L.W Q L.z.v.V.MXz.j.U.U.U.Q.K.W T.[ ] { ] [ W g u k -   % %.u.-.-.t.vXnXsX] R 5.nXnXhXgXdXfXfX/./.jXhXvXwXwXaX[ T.<XQ.Q.AXgXtXqXT.K.Y.T.).JXKXKXAXU.LXLX9XC ; % ; - $ y rX8Xv j b j l ! s u s s s s ! j j L.Q.tXQ.E.k.g k.z.8X8XL.l L.L.b ( ( i i s s ~ ~ c P ;.;.~ ~ ~ c c s i s ~ p 2 t 2 y c 8XeXNXtXtXMXQ.tXE.x.v.MXNXMXMXMXoXMXoXE.E.MXMXMXVXCXVXVXCXCXQ.tXtXc p i t t A yXA f t z eXU.l.U.E.l.k.U.B.rXV ; f V.VXx.f ; % M A b g r k.c.v.v.BX8XB.B.9X>.p t b h 0 T.K.K.+XAXVXHXVXHXHXVXBXMXMXE.v.C.MXM.M.MXM.MXVXCXNXNXoXMXE.Q.E.U.8XeX9Xy - t a s x x c i c n ) c z c c x i s x c x p s ) eXl.l.k w d d k.L.E.tXk.l U.U.K.b l b n z z a a i s P x j k x.U.U.0 t SXLXx.$ - ; ; y A SXLXHXSXNXFXDXAXQ.T.tXQ.Q.).AXAXAXgXQ.T.aXe.sXhXgXgX`.jXkXkX5.6.xXfXsX] aXaX| aXqX2.I  .-.u.< O $ y n j W K._ ] R L / { p W L.I.Q tXU.h.E.U.d d g I.T.K : ^ 7X,.z.k g c.p.j.R.k.r q 9 F q ' aXT.sX$.@ o % ; ; O X - & o O X O % % O o   X X + O + + % ",
"= & % O X X X   X X X O O X   X   @ * O X % % * & , P hXT./.^.G F : : 6 7 6 6 w K.w h 7X9XyX0Xp _ K.E g l.x.C.eXx.U.eXK.U.Y.H W [ U ^ { { [ ' g u x @ X O %.0.X. .&.aXdXdX| R R hXnXkXsXaXdXnXdXgXjXtXaXwX6.sX^ W.<X<XAXAXgX0XqXtXT._ ).DXKXAXAXSXtXLXpXV 3 * * + - B.yXP.g g Q g u j ( p u u 4 p s p K ( U.Q.E.U.h.k x.eXeXB.P.l.g K.U.P.P.P.i u i i x x s s c ~ s ~ ~ ~ >.x z >.) c i a - y rXeXrXBXeXtXeXE.E.MXMXNXVXMXeXV.MXC.MXMXrXeXV.MXMXVXVXHXVXCXGXNXQ.U.i x > $ z x c c z y v rXeXx.x.k.g w w P.:.; ; y V.eXv.- ; % C a s ( g E.BXBXBXrX8X9X9X9XwX( q g l.K.Q.).W.<XGXCXCXHXVXBXBXBXMXMXNXMXv.j.j.oXVXMXVX#XGXHX#X%XCXE.MXE.z.P.9XA % $ 3 i z i i v v P.n n >.7X8X8Xn ) 7X) n ) 7X>.7XP.k.z.l.0 d k k.l k.k.l.eXNXtXeXh h h f i y z z s i i j k k.U.x.U.l k E.HXUXrX. + % m V 9XLXUXHXAXAXtXgXhXT.K.T.Q.gXAXAXAXAXgXAXaXt.sXvXgXT.2XjXjXkX6.sXcXsXr.e.kXaX[ [ qXwX$.+.-.8.1 , - 2 x u g Y.W R *.Y *.1.` ! I.T.L.T.E.g E.U.d k U.I._ q # K ` 7XP.k k.U.c.h.c.w r K.W ).' G ' T U L 4 @ o o @ o . & @ o X o O @ O @ * * - $ @ + % - * ",
"% % & @ X X o o X + O O % O X O o O * O % % * % . @ P aXT./.T : F q r r j.j.d.k.k.g i z.P.qX! : E I._ i k l.V.V.k.U.E.L.K.Q F ' ] L R ] { _ _ p j ~ $ * =  .0.+.D *.qX/././.aX5.e.vXvXsXe.sXkXgX).AXyXsXsXt.wXaXgX+X<XJXgXtXqXT.T.Q.Q.gXDXgXAXGXUXLXyX%.3 ; @ + 8 BXUXtX0 g E.l.K.l j ! ! K K K P u s ~ x h b U.v.U.x.E.eXx.x.h.k w d l.L.P.U.P.v b c c ) x x ~ ~ x c ~ ) c i i z z n x y $ - A rXeXV.eXU.E.eX+XMXVXCXVXMXC.oXMXv.v.C.MXMXV.rXBXZXVXHXHXHXGX<X<XK.Q.Q.g g ( i x 9X9X8X8XeXMXeXC.v.l.w u v A ; = 8 f eXv - - % N 5 a ) I.tXNXeXMXSXLXLXyX,.>.E Q l.K.K.A.W.,X2X6XKXGXNXMXVXBXNXeXeXMXNXNXoXv.c.c.VXCXoXMXHXCXCXNXMXNXtX8X8XrXc O % y t t h z n n B.z.8XeXrX8X8X8X8XB.) v c 7X7XP.0XU.U.l.l k.l.U.L.k.k k.eXBXeXE.z.b b v z v n ) 7X) L.I.L.k k k.k U.E.E.CXUXHXV.% % ; 3 C yXSXSXyXgXT.tXFXgX_ Y.Q.).gXAXDXAXAXFXhXsXsXsXaXgX).jXdXkXlXmXnX6.&.fXnXaX[ /.aXaX2.=.6.%.m 3 * - u K J ' T U 5.5.#.1.3.,.T.tXU.Q.E.k.E.eXl.k L._ W q : E I.7XP.h k.E.oXd.R.a.6 q W /.' F q F J T U > > @ > . o @ @ @ 3 y c 2.4.4.1.;.A a 2 - + X O ",
"* % O O o @ - 2 2 , , - * * O o     o o + @ + + $ 4 K ^ ' [ H /.Y.' K.d h.c.k.k.K.k.l.U.P.8Xu # E _ ` j h k.E.E.k U.T.L.T.I.^ R *.R 5.3._ W W H g u @ 2 < C u.-.D 5.aX/.W | dXsX6.wXxXnXe.dXfXdXgX).gXsXsX6.aXgXDX).<XGXAX).gX{ T.gXhXhXgXtXAXHXLXLX:.3 < & + $ BXUXHXU.k.K.K.K.l j h j i p p p u t i i h h l.eXeXNXeXx.k.k.l.k.d w h b z.P.7X7XP.7X) ) ) ) ) 7X7X7X7X) n ) n >.i z z y t - + y rXeXV.U.E.MXNXCXVXHXCXVXVXMXMXv.j.j.v.MXVXrXVXBXHXMXVXCXNX4X4X4XW.+XW.G.K.r i b qXrXrXrXrXBXMXBXBXz.L.n y V M % - - x.B.8 ; y y y 5 A 8XP.k.l.eXBXBXBX9Xz.P.Q.AXtXW.W.G.W.6X6XGXJXGXCXCXBXBXVXMXMXMXoXv.MXVXVXM.MXVXVXVXMXMXMXMXMXeXeXrX9XrXy X + y t y f v n z.z.z.eXeXeXn l.l.h v n ) ) ) >.) 7X) x ( P.L.U.l.eXMXE.k.x.j.x.x.8X8X8XB.z.B.8X8X7XI.tXBXtXU.k.k.l g oX+XoXNXUXBXf * * * ; 9XhXBXyXAXtXQ.AXgXT.Y.Y.T.AXDXKXGXAXAXaXsXfXsXnXFXFXDXkXfXsXmXcXlX-.xXkXkXjXjXhXaX2.$.-.-.m * @ - > E q G W R 1.5.2.5.;.{ T.T.tXQ.NXU.E.eXU.k.l Q W W F q u ) ) x l E.Q.k.k.d.r l T.I.q ' F F ' H H H 9 9 _ T.I.tX0XhXyXtXqXyXqXgXaXyXqXwX4.>.y * @ ",
"; & O @ 2 i a >.,.4.9X<.4.>.a a 2 2 2 $ - 2 $ $ 4 ^ ^ J : F J [ Q.W w w d.k.R.R.K.k.k 8XeXqXu : K K ` ! l k.tXE.K.U.Q.T.gXT.] ] R &.5.3._ W Q g p > , * < B %.+.=.3.aX/.Y.aXkXnX6.2.lXmXfXsXdXjXAX).sXhXxXsXaXFXAXGXKXAXAX).Y.K.K.tXSXgXI.tXSXSXSXyXC 3 3 o $ U.UXHXE.E.Q.R.K.g g l U.8XI.P.L.` >.z a z z.z.P.eXrXtXE.k.k.k.x.U.l l.( L.( P.7XP.7X>.n x 8X7XP.z.8XqXrX8XA 8Xz.v n d 8 t y - X y 9X8X8XtXNXeXNXCXCXCXVXoXVXCXoXc.oXoXMXMXMXC.rXMXBXVXNX+XHXJXGX4X4X3XG.R.R.K.U.Q P.8XtXLXLXBXMXC.BXeXL.) y y ; ; - - f V.+ y ; y 3 V 8X8Xx.eXBXUXeXB.l.z.l.P.Q.SXNX+XAXAXOX<XJXJXGX+XCXAXVXNXNXBXNXBXVXMXeXMXVXMXMXv.oXVXMXMXoXMXMXeXBXrXrXuXa % + t t f l.z.v z.z.l.P.8XeX8XP.v b b I.8X8X) 8X7X7X0X) 7XI.( L.Q tXSXeXx.j.d f h.k f k l.z.z.z.j l.l l k.U.E.NXNXK.w R.R.+XOXHXUXz.+ % % * :.vXLXyXtX0XtXgXQ.Q.).W.Q.).KXKXJXAX<XDXkXnXkXnXFXgXjXkXaXt.u.lXzXr.lXsXhXhXjXaXaX4.#.=.lX<.3 @ @ : T J q ' ^ L 5.1.] U ` E _ tXtXGXQ.Q.E.x.U.tXL.Q ' W : u I.7Xc j ( U.U.h.g k h 7X^ E T.' W } G G Z.D.Y.Q.Y.U.Q.U.tXQ ( L._ Q Q I.T.0X0X7X4.4.#.a ",
"& * 3 a >.7XwXtXyXyXyX0XtXyX7XtXtXqX0XU.I.T.g r W G F [ F q ^ J T.qXg w c.k.k.Q.U.g ( I.P.t 0 ^ K ! _ _ l U.E.tXQ.tXQ.T.I._ ] R &.5.3.P _ q r Q E > , @ , 0.-.$.+.4.gXDXjXgXfXxX6.sXcXxXfXfXjXkXjXFXkXfXnXkX).jXgXGXKXKX<XQ.W.Q.tXtXSXtX8XSXSXBXvX9X- % * + h HXHXMXE.+XR.d.r E.L.U.yXeX8Xz.8XP.~ A 8XA z.8Xx.f x.k x.x.E.tXU.K.L.I.P.) ) >.7X) ) 7X) ) 8Xx h z.z.eXrX8Xl.v n b B.f t y y - + ; 9XrXrXyXtXE.MXoXNXMXVXMXVXoXE.oXVXMXE.oXNXMXNXNXNXVXNXGXGXGXGXJXGXOXR.+XQ.NXAXqXL.) 8XyXBXBXrXV.j.E.eX~ t 3 N ; y + 7 f 8 ; ; y B.A A 8XBXBXHXUXBXv.x.eXeXv.eXtXNXNXGXNX+XCXoXNXNX+XNXCXCXHXCXMXE.E.oXNXMXMXVXBXVXMXV.j.v.V.C.MXBXMXV.9X9X9X3 O - t f v z.8X8Xx.z.eXeX8Xv.8Xz.b z.P.8X7X8XqXtX0X0XqX0X7X) ( I.P.tXtXeXz.d d d x.v d t k z.P.L.8XtXtXL.r k.U.NXNXE.Q.OXR.oX%XoXHXLXx.$ + O y :.pXZXyXhXBXQ.K.AXJX).W.Q.GXKXKXJX<XgXaXdXsXkXPXhXdXdXdXe.&.6.u.-.lXsXaXkXgXT.qX5.lX6.0.wX5 o > : J W W E [ [ ] ] U ^ U p W T.Q.tXE.R.E.eXeXU.( W _ W q ! 7X,.) s u I.T.g 0 d h 2 p 4 q ^ Y./.H G s.H A.A.H r r Q U.l Q L.T.T.l j E _ E E ! 0X0X0X",
"@ a :.:.0X7XI.7X` _ Q ! I.U.l l T._ L.K.Q.W.D.H G G G ' T ' [ u / j g h.d k.E.U.j g I.7X` u 4 E _ Q _ I.U.K.E.oXNXtXtXtXQ Q ] U R *.5.] _ E W Q u # @ & N 0.0.6.=.4.aXhXFXjXfXlXlX0.lXt.e.e.dXjXaXFXnXfXfXjXAX).<XKXKXKX<XW.W.<X).U.tXtXtXtXyXLXvXA - * + - rXUXGX+XR.K.K.A.K.AXtXP.l.k l.P.U.b P.n v v d f k k d d l.U.eXAXQ.L.) ) ` 7X0X7X7X8X>.7X>.P.P.v z z.P.V.8XeXB.z.B.z.z.B.v f y + + ; 9X9X9XeXeXMXMXMXoXMXoXm.M.MXVXNXMXoXoXNXNX+X+XGXNXHXCXNX+XGXJXHXCX+XAXCXNXSXtX8Xn 8XP.z x.BXUXHXC.eXP.s A C ; 3 - + $ 8 y y V pXpX9XV.yXMXeXVXUXBXeXV.eXV.V.eXMXNXNXBXHXNXE.v.eXMXoXNXCXoXoXCXCXMXoXoXNXCXBXVXMXE.eXVXBXMXV.v.eXMXrXBXrXpXV - - 8 t f x.B.x.z.z.x.8XeX8Xz.x.l.z.P.P.tX8XeX9XqX8X,.,.` ` ) I.tXyXyXtXB.l.h.f v x.v k l.z.eXU.eXtXU.U.R.U.K.d.c.+XGXGXGX+XXX+XNXHXUXLXv + o * * 3 c yXLXSXQ.tXAXKX2XW.R.W.GXKXJX<XA.).kXhXsXnXkXFXjXe.e.r.6.6.$.=.5.{ T.Q.[ hXsX$.<.uXuX3 * s 4 : Y.K q W ^ U R T [ [ W K.Q.U.Q.L.L.E.tXeX( l K.[ W u K ` ,.` s p ( ! j t h x t 4 ! u q J Y.G 9 e e G e e r r g g l Q ! I.0X) ( x _ K p W _ ~ ~ ",
"a 2.1./ / P p _ K ! ! ` 0XI.Q l U.W r H A.H G Z.G G G /.T.J u 4 p > h d 0 l 0X( u K 7X{ ` u u ^ T.Q W U.tXMXv.E.eXQ.Q.U.Q E ^ ^ R Y ] ] _ W _ W q > @ @ %.uX<.0.0.t.0XtXgXaXsXsX-.-.r.6.&.e.jXdXkXnXfXfXdXdX(.<XJXUXKXAX<XW.<XJX+XQ.E.NXSXZXyXwXA - @ + 8 rXUXHXNX+X+XR.+X+XQ.NXeXU.k l.E.eXtXE.8Xl.b k d d x.v 8 w k z.tXBX0XU.) ( ) 0XqX7X0XwXqXqX8X7X8XU.l.l.E.x.eXrXeX8Xz.B.x.B.z.f y - - ; V rX9X8XeXrXeXv.C.v.v.M.MXVXNXBXMXNXNXE.oXE.+XNXNXHXBXNXMXNXNXQ.Q.NXCXBXNXNXtXU.b 8XeXz.V.BXLXHXVXNX) ~ <.@.3 * ; ; ; - V V 9.iX9.V <.ZXLXyXSXLXBXrXz.x.v.eXMXeXNXtXeXNXBXBXMXC.oXoXc.c.E.oX+XCXCX+X+XCXHXCXGXNXR.j.x.v.v.E.eXMXeXMXrXrXB.y + - - t v 8XeXB.B.z.P.E.8XU.L.x.U.U.eXI.8XtX0X8X0XI.! P.) P.P.tXhXyXeXI.n l.A n B.8Xz.L.eXtXtXNXtXAXQ.Y.K.Q.Q.E.k.d.+XGXNXOXR.oXGXCXCXUXLXz.$ O * * % c yXSXtX<XW.KXGXR.A.OX4XGX4XOXW.DXkXnXxXnXnXkXfX} | y.lXlXlXlX5.^ ^ T.0XsXlX2.$.wXbX:.@ u J q ' g u W ^ ' [ [ [ [ _ T.Q.Q.tXU.k.E.eXL.l.I.Q.T.[ K p ` ,.>.I s ! j l.h 0 t i u ! ! q u q W 9 9 e e 9 : 0 ( ~ i 2 s ~ ~ a a c ;.q q E I.0X` ^ ",
"1./ P ^ ^ J q ^ ! ^ ! ,.` ! ( u g Q r e e e e e 9 9 H K._ : q ! > t x u 0 j x / p I ;./ Y J u W T.K.g Q eXNXE.k.E.tXE.T.L._ T.[ ] U ^ _ J q Y.W : P 4 & <.lX6.=.6.sXaXtXT.T.] 5.-.6.y.t.e.aXjXFXFXkXxXkXjX).W.J.JXKXHXQ.A.G.4XKX<X+XNXSXSXyXC * * o + 8 V.LXUXBX+XoXXX+XGXHXNXR.k.k.U.U.U.eXtXtXQ.eXU.U.l.l.x.B.l.f b b P.qXtXyXtXI.` ` 7X>.` 7X9XqXeX8XeX8Xz.l.U.x.x.eX8XB.z.x.z.B.B.v y 8 - % V pXrXrXyXrXBXv.C.v.MXVXMXeXMXVXHXBXCXoXR.+XNXCXoXoXE.MXMXoXE.v.MXNXNXNXNXNXeXE.eXeXE.8XMXHXLXVXMXBXwX;.:.pXuXV y V % % V Z V 3 C M V 9XuXhXPXLXrX8Xz.l.E.eXE.MXoXMXNXVXVXVXHXVXoXE.R.c.c.c.m.oX%X%XNXGXNXoXNXNXE.v.x.v.v.eXeXx.BXMXB.V.y % - - z B.eXBXeX8XeXeXeXtXeXeXU.z.eXeXU.P.U.I.U.I.8X0Xb b b P.eXyXtXtX) b z.P.8X7X7X8X8XU.U.tXBXBXNX+XQ.Q.W.Q.Q.W.K.d.d.%X+XoX+X+XoX+X+XHXUXUXi o * * * @ c LXSXNX+XGXJX+X<XGXGXJX4X<X6XJXkXkXnXnXnXFXjX| | dXu.sXmXxXsXaXT.gXaX4.6.6.$.wXbXwX, > 4 K E E W W W ' [ ' ' J W T.T.U.Q.U.k.U.U.8XeXqXqXqXT.E p ` 3.;.Y s u u j l t q u 0 u ( E _ u l 0 0 e r q q t n n 2 2 a A a a a C :.> q K E E ! ! ",
"{ E E T.T.E q > ! x u a z s n t t P.( w 9 9 r e 9 9 g g j i b ) i u u 0 j ! u s a L #.Y Y u E I.T.tXU.( U.eXv.l.U.eXQ.U.T.K.T.[ [ _ ^ ^ u J W J q s 2 , vXbX<.#.6.t.wXT.T.' ] t.xXy.lXt.5.[ jXFXkXnXxXnXFXDX,XW.4XGXAXtXR.G.GXJX<XQ.AXHXyXt & % * o $ eXLXUXVXVX%X+XR.oXGXAXE.d.R.E.Q.Q.K.U.Q.NXtXNXtXtXP.U.E.B.eXz.P.x.z.P.tXyXhXtXI.( ( ( ) 7X0X0XeX7XU.8XE.8Xv.x.E.8X8X8X8XP.v.eXeXB.v t - % - A B.rXyXrXeXMXv.v.MXv.j.x.MXBXVXBXHX+XoXGX%X+XR.j.j.E.MXeXMXNXNXNXNXNXoX+XNXoXE.E.x.z.eXBXLXLXZXZXwX$.C %.uXZ V V % % m 3 < % = m < ; C <.lXvX9XA v z.E.U.E.MXoXE.MXNXMXoXVXNXE.oXE.c.c.d.a.R.oXGXGXHXNXE.+XMXeXE.MXeXE.v.MXE.MXeXz.A 8 % 8 8 z.U.eXeXV.B.8XeXtXeXtXU.L.k.l.l.l.l.l.L.b l L.U.l d k.P.eXeXU.P.b P.U.8X8X8XP.I.eXU.U.eXtXNXNXgXQ.<X).Q.R.K.R.R.d.oXGXGXCX+XR.+XCX+XHXUX8Xt % % ; * ; yXUXCXGXGXGXCXHXJXGXJXGXOX<XKXFXsXsXsXvXPXkXdXe.t.sXu.xXfXsXkXgXSXaX1.-.6.6.wXbXvXa 4 ! _ W T.T.T.T.T.[ [ K J _ T.T.U.T.L.g L.tXqX9X7X` _ ^ E i ~ ,.,.,.~ ! u u l ( Q p 0 q t g j u 0 0 w r e r k.t t 8 # y c c A :.9X<.A a P p 4 : 2 u ",
"_ K K E p p u t ~ ,.>.>.>.A n t 8 z k d w 0 r r 0 0 h k l.z l t u t u u p p i u I #.2.1./ u ( T.tXqXqXqXeXU.l.k.U.I.L.T.L.W ^ J [ [ _ [ W ' W W E u @ A bXlX$.6.t.2.qXgXtXqXsXxXcXu.fXr.e./.gXFXPXkXt.fXkXKX6X4XGXGXAXJX<XOXJXGXCXNXHXSXc * * = * @ v LXUXVXMXVXQ.%X%X+XCXoXd.k.R.Q.Q.Q.Q.Q.).tXAXAXtXeXU.8XeXP.P.8X8XP.z.n 8XtXeXtXU.L.h j L.0XU.( L.L.L.U.E.E.U.E.eXtXeXtXeXeX8XeXMXrX8Xv 8 - + 8 B.z.eXMXv.E.MXeXv.E.v.MXNXCXMXNXCXGXCX+XR.c.c.c.c.v.V.oXMXHXNXNXNXVXoXoXoXoXv.eXx.x.8XLXUXpXrX9XZ N N 3 ; V V M ; = % % & O % & = = C 6.uX9XA A n z.x.R.oX+XNXeXoXNXoXE.E.E.eXeXk.k.k.c.g.R.+XCXCXGXGXNXNXE.oXE.E.E.E.eXVXNXk.NXBX8 + - - t v k d x.x.b b L.b k.k g d d g g k.l U.U.K.l ( l k.k.l.U.L.L.k.l.k.l.P.P.U.U.U.l.I.U.L.l.U.Q.+XAXKXAX<XW.Y.K.W.Q.R.c.oXGXGX+XoX%X%X+XHXHXyX>.* * = ; * A LXNXCXHXNX+XGXGXGXKXJX,X2XJXFXfXnXlXhXFXDXjXaXe.lXsXt.fXkXFXjXaXhXsX6.6.0.wXLXLXA z 7X` J ^ W E H E ^ ^ ] ^ _ I.T.I.T._ I.L.7X>.~ i > > u g i j c ! I ~ / ` Q ( I.I._ ( l w 0 0 u g g r k.k.k.k 6 # $ 8 t z z s c c A :.I a a a a 4 : ",
"P 4 : : > p ~ ~ >.7X9X,.A v v t $ # $ r l l r r q 0 w g l r 0 0 0 l I.` u q s ,.>.:.;.#.P i L.l.x c >.0XqXU.L.Q T.T.T.T.T.^ [ [ [ T.Y.^ _ T.' _ { x 2 9XIXlX6.t.2.1.hXgXgXFXkXsXxXy.t.t.sXdXFXKXkXsX6.lXnXKXJX3XJXJXAXGXJXQ.GXHXHXCXUXyX; = = & & 2 tXKXHX+XCX+XXX%XGXGX+XR.c.R.G.K.R.W.Q.AXgX).tXtXE.I.P.U.U.8XP.P.8XU.P.b b l.E.Q.Q.L.g r g L.l k L.L.k.g L.l.g k L.U.U.I.8XE.E.E.E.B.8Xz.z - + $ f eXeXVXNXMXU.U.K.E.E.E.E.MXMXNXGXHXGXoXg.d.k.c.v.E.E.E.MXoXE.MXNXoXoXMX#XM.oXv.x.v B.yXvXpX9XV = = 3 = % y ; ; ; ; - @ . # + O % ; C V pX9XV A A x.k.E.oXE.NXVXCXMXoXc.v.MXE.V.v.z.x.k.c.+XR.OXW.E.+XQ.+XE.+XE.c.E.MXoXE.h.k.NXrX+ + - y v l.l.l.x.v.x.b l d g g w r k.k.l.U.E.Q.E.U.U.U.K.L.U.E.E.x.k.d d d h.k.L.x.U.L.L.b l.L.L.U.E.NXAXDXAXAX).Q.Q.Q.+XHXoXc.oX%X+X+XXX+XGXGXNXtXrXy * = = % B.LXeXE.HX+Xc.R.%XGXGX+X+XAX).T.fXnXnXtXSXFXgXaX*.6.6.r.e.kXkXDXT.vXnXlXt.6.vXIXIX<.c >.( u W W q q E _ 5.qX1./ _ I.K.[ { T.) x a i 2 > > u j x i t t u P P ` 0XqXT.` I.I.E.x.l.k.K.U.E.K.R.K.E.k 6 $ f P.8XtX7Xx t # @ $ @ - 4 :.>.s u ",
"5 J 5 4 s a a 4 c a i y h x b z t - $ # w K.k.k.k.r k d 0 w g K.U.eXL._ I._ ` ) ~ s a u u u l.0 $ > s c c P.0XU.T.' ' T.^ W ^ ] W W J q J ' q ^ I.` i pXIXvXuX2.u.e.hXgXqXFXnXsXt.fXr.r.e.gXDXFXqXhXmXnXjXFX4XOXGXKXJXAXGXJ.+XHX+XMXLX9X% = = = * :.SXAXGX%XGXCX%XXXCXCXoXc.NXQ.W.R.Y.).<XDXAXDXtXU.K.l.U.L.U.L.eXU.x.P.L.l.l k k k.c.U.L.k.l l.L.L.U.U.U.k h r g w d g h l l l.l.x.k.k f k d - - @ $ eXBXj.oX+X+XMXE.k.E.oX#XNX+XCX+XGX%X+XoXc.h.c.x.x.E.MXoXU.x.MXMXMXVXCXMXMXv.x.z.B.z C 9XpX9.3 = = % % + + % % % 8 A v 7 6 d $ 8 f 8 v vXZXpXA v eXeXE.eXMXv.eXMXE.MXoXv.MXE.x.v x.z.v.v.E.R.E.R.R.R.R.R.R.k.R.k.R.R.k.k.d.MXE.# # $ y 8XP.l.U.eXU.z.P.P.z.l.g k x.U.x.U.E.eXeXE.P.l.l.U.U.U.U.tXE.K.U.d w 7 d k.k.x.k.v.K.l k K.E.R.Q.Q.AXGXAXAX<X+XQ.Q.+XCXGXR.M.GXHXGXXXOX4XNXtXyXSX9X* % = ; 9XSXrXE.HXCXc.E.oX+XGXW.OX<X<X/.] 5.wX0XSXFXT.qXe.t.t.r.e.kXjXFXgXnXmXlXu.4.pXLXIX9X) ) p J W W W ^ ! ] aXsXaX,.` qXI.T._ K ! / >.@.s a i u b 7Xp 0 2 0 ~ { E Q I.I.` I.I.U.l.K.E.K.E.W.R.K.R.R.U.g 0 l eX7XI.( I.0X! u > @ @ 2 a :.:.:.",
",.I a :.<.a $ @ @ # > u ` 8XtX9X8Xv $ 0 k.K.R.K.R.Q.E.K.K.g L.I.I.L.I.T.T.T._ ( j u 2 > x ) g u 4 2 i a c ) ) L.K.I.' { [ ^ sXwXqX^ J q H E K q ` ! x vXIXvX6.0.lXmXnXgXgXFXPXaXe.&.r.5.e.aXAXFXwXvXvXsXaX).,XOX+XGXCX+X+Xg.E.HXoXeXLX9X= % = = C rXtXAXAXGXoXXX+XGXCXc.XXCXGXQ.Q.Y.Q.AX<XJXSXNXQ.Q.U.K.Q g k.Q L.l.l.l.k.w 0 d k K.U.E.U.U.x.8Xx.U.x.eXT.8XU.n l l l g g 0 g l.x.x.x.V.x.z.B.z.8 $ # 8 tXMXa.g.XXE.R.U.E.E.Q.XX+XOXXXR.XXoXoXv.h.v.l.l.U.v.E.E.R.E.MXNXNXE.eXMXv.8Xz.z A :.ZXZXV 3 3 o @ $ . $ $ d 7 7 tXl.k.L.l.U.L.0 t h B.yXyX9XA 8XBXE.eXeXx.eXeXoXMXoXNXeXv.z.x.l.k E.MXeXE.R.Q.E.R.R.R.K.R.k.c.x.E.k.L.l.k $ . . 8 x.8Xl.k l.x.z.U.V.z.z.l.k k l.l.h.x.B.eXeXeXl.L.E.E.z.eXeXeXL.k.k.d k k l.l.z.eXeXQ.eXU.K.U.R.K.k.W.<XAXAXAXDXAXAX<X+X4XGX+XR.E.HXUXCX+X<XAXQ.L.SXZX- % ; = C pXyXE.HXCXXXoX+X%XJXJX,XGXAXaXdXe.5.wXyXSXQ.[ [ fXxXxXsXdXgX).FXkXsXxXu.6.6.LXUXhXP.! K ' W E T ^ / ] 5.wX5.3.P ` T.T.qX~ i a >.:.s a c 4 t b I.j 0 0 u E _ W W _ E E Q g K.U.Y.K.Q.W.R.E.W.Q.Q.K.g p p t u t x I.7XI.` x 4 $ 3 a :.7X",
"c ,.9XA y 2 - - u s / 7X_ p h b 8Xx w l U.U.R.K.K.E.W.U.U.U.Q g I._ ( Q E W L.L.p 0 > t ` ) g t i a c :.,.x ! _ T.T.T.T._ Y wXsX1.] _ W W W E ! p ( ) SXUXmX6.6.lXvXhXhXgXDXjXhXsXxXfX&.] T.AXSXqX4.6.qX[ ).<X<X+XGXGX%X+Xa.CXHXR.NXBX<.m = % = 9XLXE.Q.+XGXNX%XHXHX+XXXoXCX<X+X<XQ.).JXAXAXAXAXR.K.K.R.K.K.K.L.U.U.L.k.k d w w d l I.eXtXE.U.E.E.v.l.E.eXeXeXn z z.L.k k l U.P.U.U.z.E.x.x.x.V.f 8   . f U.v.c.v.R.E.k.k.K.g.R.OXR.R.oX+XoXv.v.eXx.k k E.E.MXMXE.oXoXoXeXE.eXeXeXeX) x :.pXZXV.V ; 8 2 t j 0 0 U.x.w d K.U.K.R.Q.NXAXQ.E.k f V.8XpXyX9XyXl.v B.v z.v.eXeXv.MXE.x.eXx.U.eXx.l.MXMXE.E.E.R.Q.W.E.U.oXE.v.v.l.k i $ .   7 x.E.eXv.eXE.U.z.P.z.x.l.k.k v d 8 f z.V.E.eXeXeXtXMXeXeXtX8Xz.l.d k L.eX8XB.z.x.U.E.tXNXQ.E.W.Q.W.R.G.R.+XAXGX<X+X<XNX+X+X4XCXc.j.+XAXE.K.W.<XgXT.yXSX- O % * * 3 >.rXBXHX#XVX+X+X<X4X(.2XDX).aXaXwXwXSXhXgXaXe.sXe.sXdXgXgXgXSXyXwXvXlX6.wXvXFXSXgX0X^ _ J J ^ U R 2.1.5.5.2.p P qX0XqX,.s i s c a i i ~ i i h n P.Q w r q r E _ L.W g T.T.T.U.K.A.K.R.k.K.K.Q.T.L.g u ( 7XL.h h l j j c >.>.x i i A ",
"Y ;.>.a y t y >.I ~ / ! j g g g g q Q L.tXE.U.Q.W.E.K.Y.Q.T.I.W q j ( T.T.K.W q > q x ( x j u u ~ i s ;.a t z ` qXqXT.E P 3.wX2.1.1.U ^ ^ K ! ( ! qXtXPXLXsX<.0.cXsXhXFXjX).gXhXfXxXfX&.] /.SXgXyXwXsXfXgXDX6X<XGXGXGX#XoXR.GXBXE.yX9XC ; = % 3 9XvXL.gXHX+XQ.GXHXAXc.R.CXCXNX+X<X<X<XGXGXGX+X+XR.A.K.Q.E.R.Q.tXtXE.E.x.l.x.L.x.k g l U.eX0XeXE.tXeXE.E.eXeXP.z.f d d k h k b z.z.E.x.z.E.z.h.eXE.l.$ . # t x.k.c.E.v.x.E.K.R.W.R.E.oX+XE.v.eXMXeXk v.eXh.x.MXNXMXeXeXeXv.z.B.x.eXyX9X9X9XvXrXf 8 d v eXU.U.U.K.U.R.K.+XR.Q.K.A.OX%XJXGXHXMXB.z.f A rXyXtXL.b z.v x.f x.x.V.V.x.E.eXx.x.eXeXx.E.VXV.x.k.U.E.E.oXv.E.v.k.x.x.x.t   . # f z.x.z.eXyXeXeX8XeXz.v v 8Xz.b h k 8XeXtXtXNXtXeXMXeXeXeXrXl.l.k d k P.x.l.v l.l.l.E.Q.NXE.Q.+XAX4XW.g.d.R.4XGXGXGXGX+X+XXX+X%XE.c.E.E.r K.T.Q.T.qXyXSXy X O O % @ ; 8XBXLXMXCX%XNX<X<X+X<XAX/.] 2.6.4.hXSXgXgXsXfXt.t.sXaX/.gXgXqXqXlXcXlXlXPXUXKXSXqXK [ ^ U U R Y 5.O.6.5.4.U U ` T.0XqX4.I s ~ ~ s a c ) c h b U.eX0XK.g 0 0 q W Q I.U.Q Q K.K.Q K.K.0 q u l _ K.K.K.K.R.U.K.l u > 2 i I ,.:.s - 2 ",
"a a 4 t C 8X:.A a y u u j U.E.K.r W U.T.T.L.r r K.K.Y.W K.K.T.T._ Y.Y.H q : q 0 l L.) l i i x x u a a A a s ,.7XqXqX` K U 5.t.1.5.*.J U U J / ^ ( yXSXUXLXsX0.lXcXt.qXgXgXgXgXaXsXt.sXe.aXgXSXSXsX4.4.qX/.AX<X,X+XAX+X+X%XNXSXSXyXB.; + % * O ; wXgXU.+XAXY.r A.Q.E.d.c.%X+X+X+X+X<X<XGXGX<XW.A.K.R.+X+XQ.E.NXNXeXU.L.l.l.U.eXU.( g d h l.eXeXeXeXMXeXMXeXeXeX8Xz.d t f b v l.k n x.8XU.E.eX8XE.E.x.d .   + 8 v l.h.k.E.E.E.oXE.R.E.E.v.E.MXMXv.v.eXx.E.eXx.E.eXeXeXv.z.x.z.x.f x.tXyXyX8X9XB.f E.MXAXKX+XW.R.Y.W.R.Q.<Xe A.e Z.G.J.,XAXHXHXBXB.y - 8XZXtXE.U.B.v x.8 y B.B.x.B.z.E.E.E.k.v.eXv.E.x.j.v.k.k.k.j.v.j.v.v.x.U.eX$   @ - f f x.eXBXeXtXtXrXeXz.P.eX8X) z.8X8XeXyXNXNXNXAXNXNXeXeXMXeXl.f l.l.l.l.k x.b z.8XP.U.Q.NXR.Q.CXGX%XXXg.f.].OX4XGXJX4X<X<X+X+XKXCXk.U.Q.Q.gXjXT.[ I.yXvX8X- % X + * * 3 9X8Xk.E.oX+XGX+X<X+XgXT.5.5.t.4.yXSXSXgXqXfXt.r.sXaXT./.gX0X5.6.uX<.4.vXUXKXSXgX^ { sX*.Y 5.&.*.*.2.t.5.;.^ ^ _ ` 7XqX>.;.;.~ c >.) >.P.7X8X8Xl.U.I.U.K.U.L.j q p Q u q Q T.L.T.I.! p u u J g r A.K.A.k.K.U.! t 4 i 2 i c ~ y a ",
"u 5 4 i >.8Xc t i t t ) U.K.Y.Y.W J W g g g 0 r W K.K.' W q J I.E r q r q r K.T.tXI.) b n c ) ` a s :.>.>.,.wX0XT.` ^ ^ 1.5.6.6.=.*.L *.L ] wXP ) gXSXUXPXvXuXu.lXwX5.aX/.gXgXaXsXsXsXsXsXgXSXFX4.6.4.{ T.).<X<X+XAX%X+X+XE.yXhXV * % + % % O 4 vXhXQ.K.W.).Y.r K.K.R.NXHX+X+X+XGXGX4XGX6X$XG.s.g.OXGXGX+XE.Q.NXeXU.l.l.l.b b l.l.h d k b eXeXeXeXNXMXMXNXNXBXBX8XB.z.x.z.B.8Xv z.P.eXtXeXBXNXE.x.x.f - % X % B.8Xv x.x.x.U.E.v.x.x.k.k.E.eXE.x.v.eXj.v.MXeXx.V.V.B.f d v v z.n v.eXyX8Xy y B.eXGXGXJX4XOXR.A.A.W.A.Y.W.9 Z.J.OXH.H.,X4X+XHXHXBX8 y B.LXHXSXP.l.x.x.f f y y V x.eXE.E.E.w h.E.z.k h.B.x.d w w d j.j.z.V.f v y . o + $ y x.V.eXeXE.eXtXtXeX8X8XqX8X7X7XeXeXtXQ.tXQ.NXHXHXHXBXeXv.z.z.l.l.l.k x.8XeXeXqXeXU.U.Q.E.AXGX%X+X].R.XX].].].].OXGX+XQ.<XR.Q.GXE.k.NXKXPXFXgXqXT.{ 7X0XyXyX>.; * ; ; = < c z k.E.R.+XNXQ.NXtX[ ] 2.t.wXwXhXSXgX/ 4.5.t.sXaXqXaX).aX4.-.-.-.$.hXFXHXSXgX3.5.lXe.=.6.6.&. .O.6.e./ ^ 3.0X^ / 0X3.,.0X:.~ 8X>.7X7X7X8XI.z.l.l L.U.0XI.I.( 7X` ! _ I.qXT.T.T.qX0X,.` L.K.W A.A.H H r l l n c s a 2 i s ;.,.",
"a s a c s y 2 z z i b P.K.g H A.G G J q j E E I.T.Y.Y.T.K.u u Q ( E W T.tXT.L.Q l L.8X8X7X>.>.) :.I @.:.:.:.4.3.^ ^ ^ / 2.4.2.$.L =.5.5.L t.sX/ qXFXSXUXPXwX%.<.t.6.5.aXaXT./.sXsX6.e.5.sXhXSXyX4.t.aX3.gXAX<X(.<X<X<XE.E.d >.C 3 * y % X 8 a 9XyXqXqXT.T.FXDXgXgXE.k.GXHXMX+X<X+X4X4X4X$XOXG.G.G.OX+XCX%X+X+XeXoXU.U.U.P.P.l.b v b v v v x.V.eXeXCXSXSXBXNXNXtXtX8X8X8X8X8X8X8X8XB.eXyXeXeXtXeXx.h.f - % X X V B.l.x.x.k h.x.d d x.z.z.k l.E.eXv.d eXMXx.V.B.z.f f f f v n z.V.yXSXSXP.- 8 MXHXGXGX4XOX].J.s.G.r e H A.e J.OX,X{.F.{.6XOX%XGXNXd f B.BXUXKXNXd v z.A f y ; 8 f 8Xx.k.v.k.c.x.l.k k b b f d f l.x.8Xh.x.z.v $ # - t f rXrXeXeXeXeXtXyXeXtXyXtXyX8X9XqX0XqXtXqXY.Y.Q.DXSXHXSXMXeXU.eXz.l.eXz.T.BXyXrXtXtXE.E.E.Q.oX%X<XXXG.OXOXOXOXOX].OX<X4X+X<XR.k.K.K.K.AXKXUXkXaX5.5.3.0Xx 8XSX9X8Xv C 3 < % C :.l.U.E.R.AX+XtXQ.^ L D -.wX9XhXtXT./ 6.t.t.t.aXaXjXkXnXnXu.0.-.<.hXSXFXFXSXT.1.2.2.=.&.6.6.L L =.1.1.U ] qX[ / ,.3.0XwXqX4.qX0XwX8XP.b P.7XU.eXU.l g j j ) qX{ I.qXqX0XI.{ 0XqX` ` T.aXaX/.T.' A.H r 9 0 h P.~ P i I a s I ",
"y ~ ;.a 2 4 s c b l.k.g r H A.W ' ' T.T.tX0X0XqXI.T.I.T.qXT.` 7X0X` ` ( Q Q L.U.P.P.I.) A qX9X;.,.,.4.wX4.4.,./ 3.3.3.Y 1.t.$.D +.t.t.=.=.sXsX3.T.SXKXUXhX4.-.0.$.6.sXaXgXgXaXhXsX5.2.#.0XhXhXqXaX6.1.P _ T.Q.+X<XK.R.K.k.i <.; < m ; 3 f wXhXwX~ / qXqXaXgXjXFXUXQ.d.E.oXR.+XNX+X<X$XG.G.G.{.{.OXG.G.OX%XGX+XE.E.U.eXtXeX7XeX7Xv v v z.z.z.x.U.MXHXHXHXHXQ.E.Q.tXtX0X8X8X8X8XyXrXeXtXyXeXeXeXMXV.B.v 8 - + X $ v x.l.l.l.k d d 8 f z.x.k k l.x.h.h.x.v.eXeXf f 8 y f k z.v v tXHXUXLXP.t d BXHX+X4X4X{.G.$XOXOXA.r r r A.A.G.{.*X[.{.3XOXOX+X+XE.v x.BXKXUXKXx.d z.f 8 f 8 ; y d z.x.k.v.l.h.k k d d l.x.P.x.x.MXMXx.x.tX8X$ t P.8XyXBXBXeXBXNXBXBXBXtXyXtXyXrX7X:.I.7XT.qXT.T.Q.gXAXQ.tXBXNXyXtXyXeX0XtXtXyXyXtXtXtXtXAXAX+X+XG.Q.4X<X<X<X%X3X$X$X3X4XJXKXJXAXgXK.Q.GXNXQ.FXUXhXhX1.U / ` ! b 7X>.7X9XC 3 ; = < V c L.l.K.NXtXQ.tX^ L D =.:.wXtXI.` 3.sXsXsXt.5.dXkXkXPXIXmXw.8.2.wXkXFXFXFXaX#.L =.O.L -.=.&.2.#.Y 1.R P ] { / / / 1.3.4.3.3.wXqXwX0XI.I.L.l b Q b ( I.) ) ` ` ,.qXqX0X` I.T._ _ W [ { [ { /.Y.' W W r w w l l ! ` 0X/ a p ",
"~ ~ s I #.Y ~ ! l.r w 6 r r W ' T.gXqXaX0X( _ T.0X0XI.qXwXqX,.>.I.! p h h b U.U.8XP.z.7X>.qXwXqX4.wX4.3.;.;./ ] 3.3.1.U ] 2.O.=.*.2.=.O.=.=.O.;.qXFXFXFXhX6.%.-.lXmXPXkXkXhXqX5.sXt.sX1.;.I.tXqX4.#.L L Q Q.Q.+XGXY.U.U.x A 9X% * 3 8 >.rX9XyX) P { 3.] T.gXFXUXKXAXE.Q.k.d.E.Q.AXGX4XXXXX$X$XOX3XOXG.W.GX+XR.Q.E.Q.tXtXtXtXhXyXyXeXz.B.8XrXeXBXBXAXNXAXAXY.U.T.tXtXT.I.tX9XqXyXyXyXrXtXyXNXeXtXBXBXBX9Xf f 8 $ x.E.x.x.eXv.j.x.x.h.f h k k g k.x.x.h.x.z.n f y ; f v k v z z.SXKXHXNXl.d l.CXGXOX3X3X{.[.3X,XA.A.r r A.K.A.F.H.[.*X5X,X{.J.J.3XKXBXeXtXKXGXUXNXd l.f 8 f V f 8 7 f z.l.l h.d d k.d d f x.x.V.E.MXV.v.eXeXv . 8 8XtXtXtXeXU.MXtXNXAXSXtXtXqXqXtX7X7X,.qXI.I.T.gXT.gXhXtXqXtX7XtX8XtXQ.eXeXeXtXeXeXT.Q.tXAXJXAX<X+XW.<XJXKX4X,X<XOX|.OXGXKXKXFXPXUXgXtXDXNXE.AXFXFXsX1.L ` P E b ( ! x x 9X9XC = * 3 :.p q r k.k.E.tX] L =.=.4.yXhXI.7X0Xt.2.6.t.aXPXFXhXfXmXmXzX8.6.sXhXkXFXPXvX6.$.$.O.O.#.D =.5.*.Y *.Y P / / 1.] 1.;.Y ;.1.;.3.,.3.qX0XI._ _ _ I.I.qXyXhXqX0XwX0X3.;./ 0XqX0X' Y.T.[ U J U ] [ [ _ ' K.K.r 9 q s ` ~ s p I ",
"x ~ a a *.#.^ ! g q 9 A.K.K.' ` qXT.^ W [ ' W { { 0X3.,.,.7X0X4.>.0XqX7X` ) b l ( I.( 0XqXqXwXqX4.3.1.;.I / ;.1.1.U P 1.1.L *.5.1.#.O.D  .L Y wXFXPXFXkXhX6.-.0.mXmXnXkXPXkXqXt.lXsXsX4.I ` qXqX3.2.*.Y ^ T.NXE.+Xg g j :.C - ; 3 A >.>.) P.) ! ! Y Y Y { aXFXUXAXR.AXHXQ.Q.FXJXKXKXKX4X4X%X4XOX4X3XJXJXOXK.R.AXGXAXAXtXQ.tXQ.tXtXyXyXtXyXyXtXtXtXtXQ.tXAXgXT.Q.T.T.T.0X` 7XtXrXtXyXyXBXSXBXBXNXE.tXNXBXBXeXk 6 h.NXE.x.E.MXv.V.x.V.b d d h k k E.x.k.V.f t y - f f t k x.0 E.UXHXKX+Xl 8XNX+XOXJ.4X6X{.[.H.J.A.A.g r r W.R.{.*X*X,X1X{.H.F.H.<XKXUXSXE.GXJXKXUXE.f f d 8 v f 8 - t f v f d t 7 w L.P.d t v x.V.j.h.x.x.x.8   8 b U.U.tXtXE.NXQ.tXNXtXQ.I.U.tXU.qXqX0XI.{ T.qXaXgXhXgXqXaXtXqX_ j L.( Q P.Q.tXT.Q.Q.Q.).Q.W.<X4X4XJXOXJXJXDX6X4X].g.g.4XKXKXFXFXPXUXgXQ.Q.+XQ.gXLXhX;.s / ` ! x j p E j 8XyXB.; % ; <.>.s l w w E.8X/ S D #.4.wXSX0XI./ #.O.=.t.sXsXaXaXsXlXzXzXi.6.lXPXkXfXPXnXhX6.;.O.#.#.L L 2.5.Y L Y 3.#.L 1.#.1.1.1.;.1.Y Y P U ^ { /.T.qXaXqXtXhXaXwXwXsXwXwXwXaXqX3.{ { W ' /.[ [ J K K { ` _ _ Y.T.K.q 0 q ! _ ~ p p ",
"t s s a Y ~ u : 9 H K.K.K.I.I.0X/ / ^ ^ T.[ ' ^ T.0X0X4.,.wXwXwX0XwXyXhXtXqX0XI.L.I.T.qX0X` ` ^ Y ;.1.1.1.1.1.] U ] I U Y Y 2.5.Y Y *.Y *.2.6.sXPXFXFXkXkX6.8.cXbXmXnXsXhXnXsXsX4.2.2.2.,.0XyXhXwX4.O.L / 0XeXk.r r p s :.3 % - A 8X9X~ j ! Q E u P Y Y 1.hXSXSXNX+XNXAXAXSXUXFXKXKXKX4X].].@X4X<XJXJX6X<XOX<X<XGX<XAXQ.U.T.T.Q.tXeXU.I.U.U.P.qXtXtXgXtXgXaX/.aX[ _ ` 0X7X7XqX8XI.eXQ.tXBXNXtXeXE.Q.+XQ.E.U.d . 7 8XV.U.x.MXv.V.x.k d h l j w 0 d k x.z.f $ - y B.8 7 d k l.SXUXGXJXE.NXUXKX4XG.Z.J.*X3X*XH.J.G.K.K.L.k.Q.W.OX3X*X*X,XH.Z.S.{.6XKXUXHXeXGX<X<XUXNXd l.x.h.f z.d 8 - 2 z v i 8 0 t P.8X8Xz.v v f k d d l.f #   $ h L.U.AXgXQ.Q.T.Q.E.Q.U.U.tX0X0X7XtXqXI.I.0X3.qXsXhXhXqXT.qXqXT.E _ U.U.tXgXtXtXAXgXW.W.W.W.4XJXJXJXJX4XJXJX4X%X$X$XG.OXJXUXHXPXPXPXgXT.U.E.K.E.hXyX3./ ,.` ( _ ( j Q r K.tXBXrX* ; N $.4.` k.d eXI.p S L $.:.7X0XQ ! Y 6.=.6.5.1.0X5.qX4.6.w.zX0.8.xXmXnXfXnXnXnXsX2.I I Y / 3.1.] I L ] Y Y L Y Y Y #.*.1.*.R L U U T ^ [ [ /.5.{ 5.qXqX3.4.5.4.5.qXwXwXwX0X[ U [ ' ' [ [ { { / / ( E _ T.Y.K.J g j E _ ! x ",
"> 4 s ~ ) x g q H Y.W.Y.W ^ _ / / ^ ^ ^ ' ' ' T ^ ] 4.qXwXsXwXqXwXaXqXwXaXgXqXT.tX/.T.[ E J U U / 1.1.1.#.R Y Y U 1.Y Y L ] 5.*./ I Y D D 6.lXPXPXnXhXnXmXt.0.zXzXuXsXwX3.aX6.sXwX6.2./ P 3.wXyXwX4.L 4 4 ,.eXd w L./ @.<.2 @ y yXrXP.b j u l Q ` ,.Y P ;.hXPXtXR.Q.R.T.hXUXPXFXDXKXGX$Xg.].OX4X6XKXJXJX4X6XJXAX<XW.Q.W.W.AXgXQ.Q.Q.U.K.L.b L.T.T.tXaXgXhXhXqXaX{ { I.0X0X0XqXtXeXT.Q.Q.tXQ.Q.Q.Q.).NXQ.U.l.7 . $ f v f d v.j.V.d t k eXP.0 7 h d k x.t 8 $ - A f 8 h.k k tXKXJXGXJXU.HXUXUX4X].G.Z.*X=X*X*X*X(.W.Y.E.K.+XOX*X*X5X=X~.H.H.{.*X,XKXHXNXNX<XOX,XKXUXx.h.v.v.x.f v f t - y y t 0 t i z t y A 8XA t d t 0 k f #   7 0 K.T.gXAXtXQ.Q.T.U.K.L.U.tXtXI.T.qXtXT.0XaXsXqXsXhXsX0X{ { T.T.Q _ I.T.T.Q.gXAX/.).).W.A.G.OX6X6X6XJX4X4XJXGX4X4X4X].].GXKXKXFXPXFXgXU.K.U.E.Q.qXI.7XwXqX) L.0XqXL.K.g k.tXBXZXy & < C 4.yXb k.8Xx P Y 2.4.,.) p p / *.=.$.2.2.Y 2.3.6.wX6.uXzX0.-.zXmXmXlXxXmXlXwX4.;.I P / 3./ / I Y 1.1.Y L L L L #.Y *.*.Y U L U L T T T ^ [ ] ] ] 5.] 1.5.1.1.1.3.aXsXwX3.[ ] | R ' [ [ { qX3./ _ _ ' W H r q q q _ P.` ",
"4 s / 7Xl g r W H ' Y.' W W ` 3.3.{ [ ' ' ' | T ] 5.aXsXwXqX4.3.5.1.] 3.3.3.[ T.[ [ ' ' T ^ ^ U 1.1./ Y Y Y Y U P / 1./ Y R ] ;.3.,.I L L 5.vXvXIXvXnXmXmX6.0.bXlX<.6.4.2.1.#.;.6.2.5.1.I s s x ) ;.R D P ` eXx.v 7X4.<.C & - rXBXeXK.l g L.I.U.( { 5.3.4.wXtXU.U.T.U.K.gXUXPXFXKXKXGXOX].%X%X4XGXJX4X6XJXJX6X6X,XD.K.(.).AX).).gX).T.T._ Q _ qXqXqXT.qXhXhXsX4.aXT.{ 0XqXeXeX0XtXQ.U.Y.U.Q.T.Q.).).gXQ.L.h $ . o y z d 8 d 8 f B.8X8X8Xz.d t 0 k v f 7 8 i f v f f V.j.k.HXKX+X+X<XNXHXUXUX$X*XS.S.H.1X&X1X*XJ.Q.R.A.R.4XW.J.,X6X1XS.S.Z.3X6X4XKXKXrXNXGX+XOXKXUXv.w k.MXeXj.v f z y y 2 - 7 - t t 8 - ; A A 8Xb L.k l l.$ . + 0 L.tXtXgXaXgXaXQ.Y.Q K.Q.tXT.I.Q.tXtXT.qXyXgXsXwXsXqX5.3.3.[ [ _ T.I._ T.T.).).Y.,X2X~.S.Z.G.6XJX6XJX4X<X4XGX6X4X$X|.@X%XJXKXKXFXkXaXQ Q U.hXyX8X) ` 7XI.( I.tX0Xg r k.R.oXNXBX8X- , 1 @.9X) l.h 0 4 U wXsXqXwX! K 4 D O.+.$.#.2.5.4.wXlXuXzXiXiX%.lXmXmXlXlXwXwXwXsXwX4.L p P P / / / 1.4.#.a O.I L L Y #.O.L R R J T R [ T J R ] ] 1.1.5.5.1.*.1.;.1.1.4.5.sXe.e.| | [ [ J U ] 3.3.] ^ W W W W g 0 0 g Q ( ",
"p ^ I.( g 9 w r H W ' W ^ { 0XqX` R R [ } | | R e.sXaX6.;.Y Y 1.1.R R 5.3.] ^ R J T T T U T U ] / Y #.L L L Y L P I 3.3./ U Y / / P Y 1.2.6.wXuXbXvXcXmXcX<.0.bXiXlXuX6.2.2.6.$.2.#.#.3.U 4 s ;.,.wXaX*.L p n f n 9X<.@.3 O y yXNXQ.R.g g U.tXE.( ) 0XqX0X` I.7XtXL.W _ gXFXFXFXKXJXOXf.].4X4XGXGX2XOXJXJX6XJX6XJ.s.A.(.).W.).)./.^.T._ T._ _ 0X0XT.T.0XaXsXsXsXaXqX0XqXtX7XtXU.T.Q.T.Q W T.T.T.gXaXgXT.( t @ O   y x t h h y >.9Xc t t i f t $ t t d t t v v v x.eXv.d U.UXKX+XR.+XNXBXHXJX$X3X*XS.H.*X5X5X~.J.OX<Xd.A.4XG.{.6X6X,XJ.Z.G [.5XJXKXUXrXv.HXR.+XKXUXv.w w h.eXeXk.d z.n z i t 2 - $ t t y 2 8 i 7XQ.Q.R.K.Q.l.# . 0 n qXtXgXhXaXT.T.` _ T.Q.Q.tXQ.tXtXtXT.qXT.qXqXsXwXwXqX5.0X[ { 0XqX{ [ qX).).^.W.`.1X1XOXJ.G.3XJX6XKXJX+X4XJXGX4X$X|.].XX4XKXKXFXgXaX_ ` gXhXyXqXP.) b g j eXNXU.w w E.E.oX+XtXrX>.@ * ; 3 8XA c 2 > 4 Y wX7X) ! P 4 1  .+.$.$.2.#.6.bXbXuX9.iXw.%.uXmXbXzXlX<.wX6.sXlXwX,.` ` ! ^ ` Y I / ;.;.#.#.I #.*.$.Y Y 1.R U R [ [ U J T ] *.5.5.5.=.*.*.2.2.2.#.Y #.5.t.e.1.] e.R R L U R { [ J q H U.K.U.H w 0 q l ",
"! _ j r 0 w K.W K.W J J [ { { ^ U T [ ] R e.e.e.e.*.#.#.#.1.3.5.1.1.5.5.5.1.R ] T [ [ U J U Y 1.Y #.2.*.L L L Y I ;.;./ / / P P s P Y qXsXsXlXwX6.vXcXmXmX0.9.pXuXiXlXvX6.2.=.$.$.$.L a 4 a I ;.qXhX1.L > > z v 8X@.a < @ 3 7XSXAXQ.E.R.r h.U.tXtX( x ( ) ~ qXhXhXT.E _ aXjXFXFXJXJX$X@X$X4X4X4XGXAX+XJXJXJX6X,XZ.A.J.2X2X).W.).Q.T.T.[ { { ` { 3.3.qXqXaXwXaXqX/.qXT.tXtXtXQ.U.Q.Q.Y.W _ T.qXaXaXqXhXqX) y o o > ( Q r U.P.I.7Xt $ # 8 t 8 8 t - - z v f d v v.eXv.d w +XUXJX<X+XGXtXBXUXKXJX6XH.Z.Z.H.5X6X,X{.OX6XOXG.OXA.OXJXJX6X6XJ.F.F.3X6XKXUXV.x.BXR.AXUXUXE.k.h.d x.E.eXP.P.z h f 2 2 - 2 $ y A z - 2 E gXQ.W.A.).+Xw # . t 7XwXqX4.qX] _ [ I.T.I.I.T.qXT.Q.T.Q.tXgX/.aXaXhXaXqX{ { T.qXaXqX{ T.gXgX).Y.^.D.J.,X6X3XG.{.6XJXJXJXOX4XGX$X4X4X$X'.{.3X4XJXDXgXT.T.gXvXhX3.,.I.7X( h l.E.E.E.g d.R.W.Q.Q.tXqX0X5 * O O a A c 4 4 J Y 0X>.x p P D &.+.-.:.:.2.2.6.uXpXuXpXIXpX<.0.zXw.iXiX<.<.$.<.wXsXsXhXhX,.^ p p P c ;.;.,.1.;.1.;.1.#.R *.1.R 1.] ] R T S L R 1.5.5.*.Y #.=.2.=.=.L #.*.5.e.=.e.e.R R R R T R { [ r q K.R.Q.K.l 9 0 l ",
"_ L.0 6 r K.R.U.K.W u K _ { [ U U R ] e.*.*.t.t.6.&.O.#.2.6.1.Y *.5.5.6.*.#.R U S U R 5.1.] 2.2.#.$.1.#.#.L #.1.2.;.;.P ~ / ^ ^ wX5.5.sXsX2.6.9X9.zXzXcXbX9.pXpXpXuXuXlXlX#.$.$.@.$.=.L p L a a >.,.U J 4 2 a >.>., @ O - >.tXtXQ.R.R.E.k.w x.tXeXk g l I.` 3.qXhXaX5.{ qXgXDXKXJX$X].'.|.$X3X4XGXCX<XKXJXJX6X{.J.,X,X,X<X).Y.Y.aXgXT.{ 0XaXqX3.{ T.qXgXsXaXqXe.T.gXtXT.tXtXtXQ.Q.Q.T.U.[ ] 5.qXwXqXyXqXb 7 . # U.+XG.J.<X).W > @ a A y - $ 8 8 y f v n z.l.x.eXE.h.d h.Q.UXKX+XR.BXx.BXUXKXJX*XF.Z.[.,X6XJX4XG.G.4X4XG.OXOX4XKXJX6X6X3X,X3X3X6XKXKXeXx.MXBXHXUXHXE.eXE.k h.k U.eXE.k d s $ $ - t t a :.a 2 q { /.(.(.^.(.Q.K.# . $ c wX2.;.1.] U ^ I._ Q L.T.Q.Q.T.T.T.gXjXhXhXqXaXqX` _ T.tXgXaX3.{ T.gX/./.).(.!.D.J.3X3XF.G.3X4XJXJXGX<XGX4X$X4X4X3X3XOX3XJXAXgXT.aXhXvXsX3./ ` ) L.E.eXE.h.c.K.c.E.+XQ.Q.Q.T.~ :.a & O * C 2 2 a Y 3.yXyXqX! Y D -.%.-.<.#.2.6.9.uXpXbXIXbXpXw.9.9.9.0.uX0.6.%.6.uXwXsXhXwXqX{ s ! ` >.~ ;.,.4.2.;.;.#.#.#.#.1.1.1.1.U ] ] J R ] *.&.5.=.*.L &.&.&.*.&.&.&.O.&.r.5.5.2.*.&.R S J T T.Y.H r K.K.d.K.w 0 l ",
"U.K.q 9 k.K.R.K.l r W T.{ U J R 5.R R 5.t.t.2.=.O.+.O.=.2.1.#.#.L *.5.5.2.Y L S R ] U ] 1.Y ;.#.Y #.#.*.2.2.2.2.;.s ~ ! s s / yXhXhXwXsXwX;.<.<.0.iX9.0.w.9.iXZXbXbXuXlXuX-.6.-.2.6.4.2.1.L L ;.>.qX{ U s 4 y A 3 o O , C 9X0XQ.W.+X+XE.h.c.E.v.U.l.L.E.7XI.,.4.hXnXhXT.T.gXgXJX4X4X.X$X3X4X3X4XJX%X%XJXJXJX3XG.J.3X6XD.D.~.Y.).).gXqX{ 3.wXaX0X0X{ [ qXqXaXgXaXaXgX).T.U.T.Q.U.T.K.W T.{ / Y 4.4.,.yX8Xd . . r Q.,XG.(.(.(.[ : 4 a A y 8 8 - - - f t i U.eXE.v.h.d k.x.v.HXUX+X+XNXd yXUXKX6X,X;X[.6X6XJXJXKXOXOX%XJX].4XJXJXGXGX4XXXZ.F.F.{.3XJXHXBXj.x.BXHXUXHXMXHXNXz.v.l.d K.eXU.tX7Xi y y c c c s 2 @ 4 ^.' Y.`.DX).AXDXL.$ $ y :.;.1.2.Y K / { E E I.qXtXtXtXQ.T.gXFXFXhXqXT.{ ^ T.qXgXaXI.{ aXaXaX/.^.2X2X1X1X,X1X{.Z.f.{.OX6XJX%X+XGXJX4X3X6X3XH.F.<XJXAXgXqXqXsXwXsX4.3.~ p l tXBXE.6 E.oXoXE.E.tXK.E _ ! 8X9Xy & O < - @ 4 a c ,.>.n I *.+.&.N  .C @.$.6.iXbXiXbXbXZXpXpX9.uX9.9.<.0.uX0.6.0.6.wXwX,.0XyXqXwXqX0X:.>.I Y / #.Y ;.1.;.2.5.1.5.5.1.3.1.3.5.5.1.*.*.*.O.D =.=.O. .&.=.O.&.&.&.O.-.6.2.R D S J F J ' K.K.k.d.w K.w 0 g ",
"Q r q r K.k.d.R.K.K.K.T U S S T R *.5.5.6.=.=.&.&.-.=.O.=.2.2.O.*.=.*.*.*.Y ] / 3.1./ 5.5.1.3.1.1.1.;.;.1.;.;.I ~ ,.,.7XP.7XqXwXsX6.sX6.6.<.0.uX9.9.9.9.9.9.pXZXZXpXbXpXlX6.-. .O.O.$.$.O.#.#.3.qXhX0X~ C - * y * * * A 7Xc _ T.U.NXQ.R.E.oXc.h.k.BXtXl Q I.~ qXsXhXwXaXQ.gXDXJX$X]..X6X6X3X3X6XGX%XGXKXGXOX{.s.J.,X~.!.~.(.2X2XQ.gXgX[ ] 1.qXhXaXY._ ^ T.5.aXnXFXgX/.T.T.Q.tX0XT.Q Q ' { U U ;.4.,.7XA - . 6 T.(.(._.1X} ^./.u # p 4.z V y y ; - z u L.U.K.k.k l.l.tXNXNXHXUXKXBXE.z.tXSXKX4X.X.X}.OX%XGXKXKXGX%XOXJXGX4XGXCXoXXXXXa.a.f.G.'.;X4XUXZXA f BXHXBXNXBXHXVXv.k I._ _ T.gXAXyXz z a t > u j $ 4 Y [ | /.kXfXhXPXKXHX8X$ $ s ,.~ ;.P u u u u s / 4.qXhXhXhXqX0XhXhXaX] aXaX{ [ T.qXT.Q.).gXaXe./.`.2X1X1X1X5X6X5X,XZ.F.F.5X6XOX+XGXJX4X$X3X3XJ.F.+XJXSX/.T.qXaXsXwX4.,.7Xl g tX+Xc.c.M.oXoXE.tXNXI.q W 0X` ,.:.- O & % X * y 4 , 2 4 4 $.2.+.<.+.N <.0.9.0.bXiXpXiXpXiXpXpX9.9.V 9.9.9.9.uX6.<.<.6.:.9XqXvXhXqXwXqX4.3.#.I U I I Y 1.;./ / 3.wX4.,.qX4.qXqX5.4.5.5.1.L D D  .*.O.*.&.&.X.O.$.2.sXt.1.R R ] T J W K.H r r U.L.w 0 0 ",
"u 0 0 0 g k.r g r Q W J J T T D R 5.t.5.#.&.=.&.+.=.=.O.O.$.#.L O.*.2.5.5.qXaX4.5.3.1.qX3./ 1.Y ;./ I Y Y ;.;.;.,.4.qXwXvXyXqX7X2.2.6.6.6.0.0.0.9.Z 9.9.pXpXpXpXZXpXbXbXuX8.-.+.N N @.$.$.=.L 5 2 x a a 2 @ & * + @ a :.,.` / j K.AX+XE.oXoXv.a.v.AXQ.Q i ` 0XqXwXsXqXqXQ.).AXJX,XG.{.4X4X3X4XJXGXOX4XKX4XG.G.F.G.6X5X=X=X1X2X<XQ./.gXaXaX0X0XT./.T.T.T.qX0XqXhXFXhXT.T.gXgXtXtXI.^ E ! K K P ,.@.4.7Xy $ t I.DXDX2XjXjX} ' T._ > > u i v v a y v qXgX).T.U.Q L.l.x.BXSXNXSXHXHXBXh b SXJXJX.X|.'.b.f.G.+X+XCXHXJX%X4XJXOX%XXXR.a.m.c.a.g.f.'.3XJXKXUXrX- rXC.VXVXHXHXBXrXd W gXhXaXaXgX0X0 i b q E Q W u 4 K T aXkXxXlXmXPXPXPXyXt $ a 4.:.s a 4 4 > 4 s a L a ! wXyX) ) { 3.qX5.3.T.T._ Y.qXtXgXgX).dX/._.`._.1X5X=X5XJXJX1X1X{.{.3X4XOX4XJXGX4XOXJ.3X,XOX+XKXAX).T.0X3.qX4.~ ! I.I.U.K.k.U.AXE.c.oXBXBXU.Q ( W I.E ` wXc * X & O - 3 2 * , 5 L @.C @.6.0.%.Z 7.<.0.bXbX9.pX9.iXiXpX9.9.9.9.9.9.<.9.9.0.uXwX6.wX3.aXwXwXwXwX2.:.Y I / ;.1.3.1.3.5.4.3.0X4.4.4.4.4.,.Y / 1.1.*.*.O.D D L O.&.+.O. .&.2.1.#.Y e.5.R T U J J W K.g K.U.g g w 6 ",
"g 0 0 0 l U.g g W ' W J T R &.*.5.5.5.2.O.&.$.O.+.=.+.L D L O.Y 2.5.5.*.1.1.qX5.qX4.qX4.1.;.1.1.1.;.;.;.I I I ;.2.wXwX4.sXsX4.4.4.6.6.6.9.<.9.<.9.9.V 9.9.pXpXpXiXpXpXbXlX9.<.<.C $.<.$.@.#.L 4 2 $ 2 a ; o O & o 2 yXqX` 0XE q L.Q.NXMXoXE.R.E.E.R.U.L.( _ ` 7XqXwXqXT.T.).AXJX,XG.OX3X$XOX3XJX6XOX,X6X*XZ.J.,X,X6X5X1X1X1X`.).jX/.gXgXgXgXaX).T.Y.T.0XqXwXaXwXqX0XI.tXSXhX,.,.~ s u 4 4 4 u @.A 6.>.$ - ,.SXUXKXFXPXvXdXaX] ^ y 2 l k.g d y y t 8XyXgXT.aXeXP.k.eXBXHXVXMXVXHXeX8 8XUXKXKX|.}.f.f.a.g.g.c.R.+X4XOX$XJX].XXXXm.g.g.M.M.g.f.{.4XJXKXUXyX# MXHXVXBXMXVXMXHXj.k.gXgXaXjXgXtXu q K.R.G.G.Q.Q > 4 U sXPXLXvXIXvXhXUXPXn $ 2 A @.a 5 , 2 2 a 5 4 4 2 4 4 2 $ t h ! ) i u p ^ W E 0XaXqXhXgXjX`.1X1X1X1X5X=X>X6X6X6X6X6X3X4X6X<X,X4XJXGXOXR.4XGX<X<XDXDX).aXT.3./ / P s I.tXU.k.k.+XHXNXj.E.NXBXU.l _ Q T.E ! 7X,.C - & & + * 3 5 5 5 @.C @.%.9.uXuXZ 9.9.9.bXbXiXpX9.9.9.V 9.pX9.V 9.7.Z %.9.0.6.6.6.6.2.wXwX6.4.6.6.6.6.4.6.6.sX6.qX2.4.4.1.;.4.4.;.6.4.4.1.Y ] ] L =.*.O.D D &.*.*.&. .O.=.=.L L *.r.R S J W F r W W r l g g q 0 ",
"g 0 t q k K.W H K.G G J U L R 2.5.R D *.=.&. .O.&.&.O. .L L #.1.*.#.] Y / 1.1.4.;.4.2.2.2.2.4.5.5.wX4.4.2.;.2.6.6.sX6.2.6.4.4.sX6.uX0.6.<.<.7.%.9.9.9.9.9.9.rXpX9.9.iXZXiX<.7.<.<.9.uX%.@.N 5  .5 2 3 3 @ & * o 2 A wX~ ( ` j _ L.U.NXAXE.c.E.HXQ.k.g T.qXI.x ~ 1.3.qXqXqXgXAXJX4X4X4XOXG.OX6XJX4X4X<X3X,X{.5X6XJX6X2X~.=X1X2X`.`.).`.`.<XgX/.aX[ W _ ` ^ ~ ;.0X7Xj j u ^ I 4 2 5 5 4 4 2 2 2 5 <.:.a $ t wXPXPXvXLXLXvXnXsXP u t i W.W.Z.r ( z t qXqXgXaXhXhXk k.BXVXHXBXVXMXVXV.7 yXUXKXJX3X].n.f.g.XXd.c.XXR.@XXX@X4Xn.g.XXXXm.a.m.VXg.f..X$X%XKXUXSX8 V.LXVXVXv.BXVXHXv.K.gXqXkXkXaXjXQ H R.{.;X3X,XK.q P ^ sXnXZXbXLXvXvXnXIXyXs - 3 5 C 5 3 , , , 2 2 5 I D p ! u # # 0 t 4 2 s ! s T.hXsXaXqXU.W.(.~.=X1X6X6X1X=X6X5X6X6X6X6XJXJXKX<XG.Q.4XGX<X4X4X<X<XAXgXgXgXaX0X/ P j ! T.Q.K.K.Q.AXNXNXE.x.E.BXtXP.l E I.T.I.>.) >.A - ; - & * * , C C @.%.9.9.iXiXiX0.9.9.bXiX9.iXiXV 9.9.9.9.9.V 9.9.9.Z 7.9.%.<.6.6.6.wXt.t.6.u.6.6.0.u.6.6.6.6.t.6.5.6.6.6.t.sX6.4.2.5.qX4.1.L Y R L D D &.*.&.*.-.&.=.=.&.#.R L 5.R J J J p J W ' G q W g r 0 ",
"0 u 0 h g q H W H q F J J L Y 5.&.S D &.&.&.O.=.+.&.O.O.#.L Y #.P Y / 5.4.1.2.4.4.6.6.4.6.6.4.6.sX6.sX6.6.wX6.0.6.6.6.6.6.5.6.6.<.9.uX<.%.<.9.9.Z 9.9.pX9.9.V 9.pX9.iXbXiX9.9XuXpXpX9.<.%.C N N N 3 , * O @ , - >.,.>.j I.I.W Q l E.NXtXK.v.+XHXQ.Q.K.Q T.T.( x ! / 0XqXgXAXAXAX<X<X6X<XXX4XGX<XW.<X6X6X6X5X6X6X6X6X5X1X1X5X1X1X(.`.(.(.).gXaXhX0X~ ! ! u > u s j # : : 2 4 4 5 3 5 2 , 2 3 y C C a 2 > ` vXLXvXZXLXbXZXbXsX~ P 4 l W.*X*XJ.K.i h hXgXFXhXaXaXg x.HXVXNXMXVXZXZXV.7 ZXUXHX4X3X.Xf.n.XXm.g.c.XXXXG.].].$X].XX@XoX#Xm.c.VXm.f.].].OXJXUXUXeXk VXBXBXj.M.VXVXMXoX<XT.FXkXe.hXT.H G.{.;X;X,XY.q ^ 3.hXvXZXLXLXbXvXvXPXhX0X5 , 2 3 , , @ @ , 5 s L L J 5.hXgXq > > > 2 2 4 u u ;.{ K ~ ! L.W.1X5X=X=X1X5X5X>X>X5X6X5X,X6XJXJXKXKX<X<X<XJXJXGXAXQ.).AXgXhXgXT._ ^ ` E j Q K.U.tX+X+XNXAXBXtXv.x.eXU.P.I.T.T.I.! j n 7XA 2 % * * O O M B C 9.9.9.bXbXiX9.Z 7.iXuX9.uX9.9.M 9.9.9.9.9.9.9.7.Z Z 0.%.%.-.6.-.6.0.lXu.0...%.8.0.%.%.-.6.6.$.+.=.-.-.t.t.6.2.$.2.2.5.#.Y Y L S L *.&.O.L *.&.&.-.&.D &.&.R *.e.] U U J J J T ' q H Q E w ",
"7 g g Q W q W ' ' J J U R Y 5.6.R D *.&.&.&.-.-.=.O.*.*.*.L L U Y Y 1.4.4.2.2.2.6.t.wX6.6.6.2.6.0.6.-.$.6.u.6.<.6.6.0.lX6.6.6.6.<.<.<.9.%.Z 9.9.9.Z Z 9.9.9.V 9.iXiXiXiXuXZ 9.iXbXbXpX9.<.@.N C < % % * - * 2 :.>.s ! 0X0XT.I.E P.tXE.E.U.NXNXNXQ.+XT.Q U.U.b E ! ` 3.qXaXgXjXgX).+XAXGX4XJX4XW.+XGXJXKX6X5X5X5X6X5X5X5X5X5X5X1X*X1X(.Y.Y.' 3.qX4.a u p u : 2 > # # u T.{ P s @.1 3 , , , , 3 5 3 , > j yXPXPXpXbXLXbXbXnXvX4.,.t Y.*X:X&XJ.D.r K.SX/.kXkX] gXK.oXVXMXM.v.VXVXLXx.z.UXUXGXOX.X].a.XX#Xg.m.N.@X@X].].].].$X$X@XN.@X%XN.#X#Xn.b.$X3XGXKXUXGXeXBXVXBXv.j.v.VXCX+X<XgXgXdXdXkXgXK.J.*X*X*X2XAXH q aXsXhXIXLXZXZXbXnXPXSXhXwX@.5 N < 1 3 4 L I L u 4 J [ /.).SXQ.q > > 4 4 a 4 u J q > 0 g A.1X5X*X:X:X=X=X>X>X6X6X5X=X,XJXJXGXKXKXJXJXAX<X<X<XAXJXFXFXgXqX{ ^ ! _ _ Q K.K.Q.AX+XQ.AXtXtXtXx.k k.x.U.I.I._ E j i b 8X9Xc * @ * % % < B B Z 9.9.iXZX9X%.Z %.9.9.7.w.9.9.9.9.9.9.V 9.9.Z 9.Z 9.9.%.<.9.%.<.%.0.u.0.0.%.%.<.0.8.9.8.0.8.%.+.+.-.-.-.-.+.=.6.2.=.=.1.1.Y L 4 s R *.R O.&.&.&.X.&.&.&.&.*.*.e.5.] ] U J U J G F H Y.r g ",
"d g r K.Y.G q G T J U U Y ] 5.1.R &.&.O.O.&.=.&.O.O.O.=.#.L 4 L Y / ;.2.2.2.6.6.6.6.0.-.-.+.@.-.0.-.-.+.-.8.9.Z -.0.lXuXuX2.<.9.0.<.9.9.9.Z 7.9.9.9.V 9.9.9.9.uXiX9.9.iX9.Z 9.9.iXZXuX9.7.Z N m % % * % * y A 7X~ i j I.( I.T.L.U.l.l.x.eXNXNXAX+XtXQ.Q.U.g Q L.) ` ` T.gXhXSXDXDX<XAX<XGXGXGXGXKXKXKXKXJX1X1X5X6X5X5X5X>X>X>X&X>X5X(.W G 4 4 s @.a a 4 4 : > > q _ tXhXaXU P a a L 5 , @ , , 1 3 5 E qXSXLXLXbXbXbXvXmXvXsXwX^ u Q.=X=X=X!.D.K.tXkXaXkXdXaXQ.Q.NXVXoXc.c.VXVXBXj.rXUXUX<XOX{.f.a.%X#Xm.M.#XN.@X@X|..X]..X$X@Xn.@XCX#XN.VXN.f.$X3XJXKXJXVXBXLXVXC.VXMXMX#XCX$X,X(.Y.jXkXhXgXQ.W.(.2X2X2XKXgXq ^ [ ] 5.sXvXvXLXvXIXUXPXvXlX$.@.@.@.@.D a P u K P { /.T.).KXFX[ u Y L #.@.a ~ { T.W q # 6 A.,X{.&X:X&X:X:X=X5X5X5X=X=XJXKXJXKXKXKXJX<XQ.AXAXAXKXKXFXtXT.` ( Q _ U.K.K.R.Q.NXAXAXtXtXU.E.U.x.k h.z.b ( ) ( l j h b 8X9XA 3 * O % % ; M 9.V V 9.9.9.<.%.9.9.%.<.9.9.pX9.M 9.M 9.M 9.7.9.9.iX9.Z 9.uX<.<.9.uX9.0.w.9.9.q.9.0.0.8.-.-.8.-.-.-.-.-.X.+.-.-.6.2.2.6.1.Y 1.L S J R R *.&.&.&.D &.&.&.&.&.R 1.1.{ ] L J U J : 9 Y.H r A.",
"k.k.r H A.G : F U J L 1.2.5.5.R 5.&.&.&.O.&.&.&.&.O.O.1.Y S L U / 1.5.2.2.6.-.=.+.-.6.%.-.%.%.8.-.8.8.0.8.8.9.9.0.uX0.uXuX<.:.<.0.Z <.w.9.Z 9.Z 9.Z 9.9.V 9.w.9.9.9.Z uX9.9.Z V uXiX9.Z %.Z M = % % * ; 2 >.9X7Xj i j b I.I.L.b b k d l.+XeXQ.AXNX<XAXQ.K.k.U.U.( ! ( _ qXhXFXFXKXAXAX+X<XAXJXUXUXKXJXKXJX1X~.5X5X6X3X>X>X-X:X&X;X1XD.9 : : p I a a 5 a L u u 4 qXFXjXT.T.[ / u p Y U 4 D D @.C  .2.hXhXPXIXIXvXbXpXlXhXaXaXqX2 ! KX2X1X*X~.W.Y.Q.FXjXjX/.).,X+XCXMXoXm.M.VXVXBXVXLXGXKXJX$X.Xb.#X#XN.VX#X#Xn.@X$X.X.X'.|.$X@X@X@X#XVXN.N.#Xf.].$X6XKXKXMXMXHXHXMXVXVXCXCXGX$XG.J.Y.DXPXaXgXtXU._._.`.jXFXSXE K [ R 5.aXvXvXmXLXUXIXLXuXwXC N +.@.a 5 L s P P ! ^ T.Y.Y.AXFXaX{ *.O.L a C 4.qXqXQ.Q 0 # r J.F.H.:X:X>X>X5X1X,X5X5X6X6X6XJXKXHXJXQ.<X<XAXtXAXFXFXSXqX_ ( ( L.K.k.k.k.R.+XQ.NXAXNXT.L.U.eXv.x.d k.l I.! u u j j k z 8XwXA y * % % = M Z M M Z 9.9.%.<.0.9.7.9.7.7.9.9.9.9.9.9.9.V uXuX9.9.9.%.9.9.<.uX<.uX<.9.uX9.9.0.0.q.9.9.9.q.8.0.8.8.-.-.%.%.-.=.=.-.=.5.6.5.aX1.U L L *.&.O.X.&.&.&.&.D &.=.R 5.5.1.Y U S S ' W G H r e e ",
"Q.d.e e H G F J J L D O.5.5.R R &.&.R &.&.&.&.&.=.Y *.D L U Y 5.1.1.4.6.6.6.-.-.%.-.-.8.8.8.0.8.9.9.7.9.q.9.9.9.9.pX9.9.iX9X9X<.uX%.Z 0.0.9.0.9.7.7.9.7.7.7.9.9.9.9.V 9.0.9.%.%.9.Z Z M Z Z = = % % ; y 9X8XP.x x b h i ) P.b l.k d x.8XE.E.Q.tXAXNX+XQ.E.k.K.E.L.j ( I._ qXFXFXKXAX<XAXAXQ.GXKXKXKXJXJXJX5X1X=X5X6X3X>X>X;X&X[.{.J.9 . 0 E T.hX0X;.C @.$.*.Y R kXFXjXY.T.T.[ P P p s L I L @.$.O.6.vXLXUXLXLXIXvXxXdX] _ T.P u SXFXDX`.`.`.K.tXT.kXFXkXK.W.OX%XCXVX#XCXCXVXHXHXBXQ.JXKXJX3X].f.#Xm.oXCX#X#X@X|..X X'.'.$X|.@X@XXX#X%X#XN.@Xn.].{.3XJXKXGXNXUXLXCXCXVXVXHXCX%X].J.W.DXFXjXhXSXtXT } } dXFXPXeXE [ dXe.aXnXIXIXIXIXLXbXpX:.C N @.L a a a / ~ p ~ ,.qXY.W ).gXaXqXe.2.6.%.V :.a ^ tXQ.K.. # A.e f.&X-X:X:X1X,X,X6X5X6X5X6X6X6X<XQ.Q.AXKXAXQ.Q.gXAXgX7X7XI.P.L.k.k.c.k.R.NXCXNXNXgXtXI.K.x.eXv.h.d z.7X7Xp i i h h b z 8X9XA ; * * % = M B Z Z 9.Z <.%...9.0.8.%.%.M Z %.7.8...B %.0.9.uX0.9.uX<.9.pX9.9.9.9.V 9.Z 9.9.q.9.9.M 9.9.9.Z 9.q.q.7.7.%.%.$.-.-.-.=.*.fX4.qX] J R 5.R &.r.&.&.X.R &.r.&.R &.R ] R *.*.R ^ [ ' K.H H e ",
"e r e H H G W [ U Y Y Y *.*.R ] R &.&.&.&.&.-.&.&.*.*.Y 4 ] e.aXsX5.2.=.%.-.%.%.%.%.-.8.8.7.8.9.9.9.9.q.q.9.9.9.9.9.V pX9.9.iX9.9.7.7.9.8.9.0.9...%.7.7.7.7.7.9.Z 9.7.uX0.B %.7.%.7.M C V M = % % * y >.9XP.h h h i u h P.P.l.k d E.eXv.l.U.E.AXAXQ.NXAXR.K.k.k.l.l.I.I._ Q.AXFXgXQ.gXAXAX<X+XAXKXJXJX6X5X6X6X1X1X,X5X>X>X-X[.F.W.r 6 # Q qXT._ :.C @.@.$.5.4.qXgXgXT.W ' T.W p ~ P K p s L C @.N <.wXZXLXLXIXIXnXfXfX[ /.qXE E PXFXjX`./.Y.Q.gXgXkXkXDXW.G.XX%XCXHXCXCXCXVXHXUXoXAXKXJX3X$Xn.b.XXoX#X#X@XN.@X$X.X}.'.[.}.|.$X$X%X@X#X%X#X#XXX@X3X4XJXJXHXAXLXHXHXCXVXVXHXGX%X%X{.*X1XDXDXDXgX/.T | dXkXPXUXhXU.T.aX/.dXkXPXIXIXIXZXpX9XA C C @.5 a L s P c s ~ 7XT.T.Q.Q.T.^ ] 1.wXsXwXC C a ;.gX).gXq # 6 w e s.[.*X5X1X,X(.(.,X*X*X5X3X{.J.+XoXSXKXHX).Q.tXQ.U.8XtXeXE.E.E.E.R.c.c.Q.NXAXtXE.T.E.Q.k.v.oXv.x.P.eX7X) ~ n x h h l P.8X>.a ; % % = % & = C Z C %.N N +.%.0.w.8.Z M ....%.7.%...%.0.9.7.7.q.9.w.9.pXpXpX9.V 9.Z 9.9.9.9.9.9.9.9.9.7.Z 7.7.9.7.7.0.0.0.<.%.6.6.qXnXsXe.5.U R =.&.O.&.&.&.X.&.r.R &.S R &.*.5.R R ^ ^ W W W Y.A.",
"9 e H H W ' [ / L *.5.*.&.R R R &.&.&.X.&.&.&.=.*.=.*.*.U 5.dXsXaX=.2.$.6.0.%.8.8.%.8.8.7.%.%.7.9.9.9.9.9.9.9.9.Z Z Z 9.9.9.iXiX7.9.0.7.8.0.9.%.B %.%.7.7.B B 7.%.uX9.<. .....B Z Z m ; 3 = % % ; y A 8X8Xb h h x z v ) 8XeXz.d j.eXE.l.U.eXE.tXAX+XNX+XR.k.E.v.E.U.eXE.I.U.tXtXtXQ.Q.KXHX<XQ.W.W.,X6X5X:X=X=X5X(.,X5X>X;X[.G 9 A.# # r Q.AXT.P a @.<.6.6.qX{ 0XqX).T.Y.T.qX( p P s L s s a C C C @.pXpXLXLXIXIXmXxXdXaXgXT.W qXFXPXfXdX| ' tXhXhXkXkX2X(.{.@X%XHXHXCX%X%XGXKXHXQ.GXKX6X3X$X|.XX@XoXCX#X#X#X$X|..X}.}.}.b.}.$X%X@XXX@X#X#X%XXX].3X6X6XJXGXMXeXMXVXCXHXVXVXVXVX%X$XOX,X<XDXjX/.T.aXdXdXfXkXPXUXQ.Q.^.`.kXPXnXmXIXbXpX9XV C C I c P a s ! ) ) ~ >.qXqXQ.gXgXQ._ E ^ / ,.7XA I L 5.hXjXkXSXr 6 6 6 A.,X*X*XJ.W.(.(.J.,X*X{.*X,X4XGXAXJXJXAXAXAXtXU.U.E.yXNXE.v.E.E.R.v.E.oXE.eXE.( U.U.tXE.k.v.eXv.x.z.n z s i t x k b ) 8X8X:.C * = % & & % * < Z @.%.N ..%.0.w.0.Z B ..B %.-.0...o.8.8.7.Z 7.7.9.9.pXpX9.9.V 9.9.9.V 9.Z 9.V 9.9.q.iXq.q.7.Z Z Z <.%.0.-.%.6.sX3.nXhXaXaXU L 5.&.&.*.O.O.R &.&.O.&.R X.} *.e.R *.Y ] [ { W Y.H ",
"D.A.Y.Y._ ^ / U U R e.R R R R *.&.&.&.&.X.&.&.=.=.5.Y U aXe.sXkXe.6.-.$.%.0.0.9...%.7.%.7.q.q.9.9.pXM 9.9.9.9.V 9.9.9.Z uXiX9.9.9.8.%.%.7.0.-...%.8.%.%.%.B B 9.iX0.<.%.N  .%.N Z m % % = * % * ; v B.8XP.l k x i z n n z.8XeXx.MXE.x.l.eXtXU.U.Q.eXQ.E.c.c.E.oXv.U.U.tXtXT.U.T.gXQ.NXKXKXAX<X<XW.*X;X*X;X*X!.(.W.(.,X=X{.*Xe 6 0 6 r ).AXgXgX/ D a :.qXqX{ ! ! U.tXgXqXT.T./ P s ~ I s s x A A C C V pXZXLXLXIXPXkXjXjXgXT.T.jXPXPXnXfXe.aXqXtXSXDX2X1X.X$X%XCXVXVXVX%XCXCXNXNXNXAXJX6X6X$X].@X#X#X#XoX#X@X$X$X}.}.}.}.'.}.$X%X%X%X#X#X#X#XXXg.$X6X6XGXCXtXz.MXCXCXVXVXVXVXMX#X%X{.J.{.1X2XgX/.hXfXdXaXfXkXPXgXQ.(.2XDXPXIXIXbXpX9X9XV a a a I ~ u E ` 7X` ) 7XqXqXqXQ.gXhXgX{ I.L.Q L.! ^ ] aXfXhXgXUXAXw # # r R.W.A.H Y.).(.~.J.*X,X4X6X4XDXGXAXQ.Q.tXAXNXU.l.E.eXE.v.E.v.c.k.oXHXCXE.l.b l U.L.Q.eXv.v.v.V.eXx.f t a t y >.L.n P.P.>.:.A A 3 % & O = & & < %.%.C %.-.0.0.%.7.%... .N -.8.%.%.u.8...B %.7.7.9.9.pX9.9.9.9.9.9.9.9.9.9.9.M 9.9.9.9.9.9.9.9.Z Z %.%.7.%.6.u.6.fXsXaXaX5.L *.=.&.&.&.D D X.D D &.X.} X.R *.e.5.5.1.1.] ^ [ T ",
"' H W ] ` ] 3.1.e.&.| R R R &.&.&.&.D D  .O.&.O.2.2.L ] sXaXdXkXt.t.6.-.9.Z 7.Z Z 9.Z 9.9.w.9.9.9.9.9.V 9.9.9.Z 9.9.9.9.w.iX9.9.7.%.Z ..8.0.-.%.8.6.%.N N %.B %.w.0.-.%.N B %.C = * * % % & & 3 C 8X8X7X( ( ) n i t z f f x.eXv.eXv.l.E.eXU.P.( l E.E.NXNXE.c.R.v.x.v.tXtXU.l U.NXAXNXQ.<XDXHXAX4X5X*X{.=X*XD.^.^.Y.A.J.J.W.9 # # l FXFXgXjXkX1.#.P ! Q W L.I.I.tXhXhXqXT.qXI.,.>.,.>.! s z A A C y V A 9XpXvXIXIXnXFXDXQ.U.).kXPXfXe.| fXkXT.gXDX`.~.,X$X$X%X%XCXCXCXCXCXHXeXeXNXAXGX6X4XOXn.#X#X#X%XoX#X#X$X$Xb.}.}.}.|.|.$X%XJX%X@X@X@X#XXXg.{.JXJXGXHXBXf eXHXVXM.MXMXCXMXoXXX].F.J.~.2XDX/.qXhXsXsXfXkXnXSXW.J.(.AXFXmXbXzXpX9X:.A C s s P E ! ` I.( ! ! ` T.hXgXI.aXaXI.I.U.Q.K.K.A.H } dXkXfXhXFXKXU.0 $ # q K.q 9 W Y.(.<XJ.(.6XJXJXW.+XW.Y.W.Q.Q.+XNXNXNXeXE.k.x.oXE.k.v.CXHXSXtXL.h l ( L.U.eXeXE.j.v.V.B.d f v i y ~ ! ) ) ) ~ c >.:.C 3 *   o & o O < N Z <.-.%.%.6.0.0.-.+. . .-.-.-.-.8.-.Z 7.7.9.pX9.9.9.9.9.9.9.9.9.9.9.9.9.9.9.9.9.9.9.9.9.9.9.9.9.Z Z 9.%.lXxXsXhXfXaXsX1.L &.O.*.=.&.&.D D D R &.} R R R 1.5.e.5.5.*.R ] U ",
"T T U ] ] 5.5.aXe.e.R T R R &.&.D O.X.R O.&.=.*.*.R *.e.aXaXhXsXsXlX6.9.9.Z 7.Z Z Z 9.9.0.9.7.7.M 9.9.9.9.9.9.9.9.Z 9.9.9.uXq.9.8.%.%.%.%.0.<.-.%.-. .N %.-.6.8.%.0.0.7.%.$.C < o O % X O ; 3 C :.:.~ ) P.P.( b y z y y k V.V.oXj.j.E.eX8XP.I.l g U.Q.CXHXNXc.h.oXeXv.k.eXE.Q.Q.tXAX+XQ.W.Q.<X).2X6X6X6XJ.D._.)./.G 9 H K.q # # t E.KXFXgXkXkXqXT.W A.K.K.T.I.7XhXhXtXT.gXgX7X7X) 7X7X) x c c c C V A <.9XwXvXIXIXkXFX<XW.Q.hXkXnXdXe.e.kXhXT.FX2X1XH.[.n.@XoXoXVXCX#X#XVXHXMXh.BXKXGXJX6X].g.XXN.@X#X#XGXGX%X$X'.}.'.}..X|.@X4XHXCX#X@X#X#Xg.s.G.JXJXHXUXrXf V.VXVXv.#XCXoXMXN.g.f.].J.J.2XFXdXI.hXaXsXfXnXnXkXAXD.G.,XSXLXbXuXvX<.c a c a u a s ` I._ ( ` ) x ! SXPXSXhX( u _ U.Q.R.OXJ.S.^._.kXnXPXnXSXhXP.0 $ > ! q q q q Y.DX`.(.).<X<X<X<XW.W.).Q.Q.Q.NXSXHXNXoXU.v.E.E.c.NXCXBXNXBXeXk i h ) l.l.E.BXeXv.v.V.j.f f y 2 $ t s c x s c s c c >.:.3 & O O & X & N <.<.Z %.w.0.0.-.%. .-.-.-.+.%.....q.Z q.9.9.9.9.Z M Z Z 9.Z 9.M 9.9.9.9.9.9.9.9.9.9.9.Z 9.uXiXZ V %.%.6.lXfXfXkXhXsX5.Y O.=.=.$.#.O.D D R X.R X.&.e.] ] ] *.5.t.5.2.*.R ",
"R R 1.*.2.5.5.e.[ R | &.5.R R R D D D O.&.*.*.=.O.Y 5.fXaXfXjXsXlXlX+.Z Z Z iXiX9.Z 9.9.9.9.9.9.9.9.9.9.9.9.pX9.9.9.V 9.9.9.9.uXq.7.7.8.%.<.-.-.6.-.@.+.-.u.0.0.8.Z %.7.%.3 * O % + O - 3 C :.:.c a s s ! ( z t 2 y f f x.x.M.v.v.eXtXP.z.( j i h U.tXNXHXCXE.c.E.oXv.c.E.NXSXHXNX+XQ.Q.Q.W.W.(.(.<XJXAXW.).`.' J q 9 g K.$ $ t U.tXFXkXxXxXkX/.D.S.G.R.E.eX) ~ ) qXaXgXSXtX( ( b L.) I.` ~ a y z A A I qXlXvXpXnXhX<XJ.W.<XkXkXnXfXfXsXhXI.aXDX1X*X'.G.n.m.oXoXVX#XXXm.VXVXV.f yXUXJXJXJXG.s.XX%X#XXX#XGXGX%X.X|..X'.}.}.|.@XGXHXGXGX#X%XCXm.w G.JXKXHXHXV.f A MXMXMX%X%X%X#X#Xg.@X$X{.J.<XFXkXhXwXaXaXxXxXcXPXFX<XJ.W.SXPXuXwXwX>.5 a a y 5 a / 7X7Xn >.qX>.! Q tXvXvXvX4./ qXtXNXOXOX{.~.~.^.dXnXIXnXkXFXtXh > $ u s ^ ^ H H ).).Y.Y.Y.W.<X2X).<XAXNXQ.E.+X+X+XE.MXNXE.U.v.MXNXMXNXNXtXU.( z i i z k z.eXeXeXv.V.V.x.f i 2 @ 2 a i y i s i i a z qX9XV 3 % % % X % < Z @.%.%.%.<.%.+.%.-.$.-.-.+.%.8.7.B 9.q.9.9.9.M M V 7.7.M M 9.9.9.9.9.9.9.9.9.9.9.9.Z Z 9.9.9.9.%.%.6.6.nXfXkXkXaX6.5.O.$.&.#.&.*.D D D X.&.S r.r.] ^ ] R *.5.5.6.5.$.",
" .&.O.5.t.e.R *.R R R e.&.R &.&.O.L D O.=.=.$.*.1.I aXsXnXkXsXkXt.6.%.$.Z 9.9.9.V 9.pX9.9.9.iX9.9.9.9.9.9.M M M 9.V M M Z 9.Z iX9.7.7.9.%.-.%.+.-.$.$.-.@.%.2.-.%.%.%.B < % X O O @ ; :.9X:.a 5 a s i i p P t $ - y v f x.V.v.v.MXNXE.k j i i j l 8XBXNX+XNXNXoXc.E.E.E.MXNXNXNXQ.Q.+XAXAX+X).DX(.^.W.U.Q.AXT.F F K E P.h # 2 x AXFXnXnXmXnXjX^.J.[.{.OX+XtX8X,.P hXvXPXPX0Xg P.8XP.( ) ` ~ c a y z s i ~ 6.uXzXbXSXW.F.W.AXPXnXxXxXaXsXyXqXFXDX`.!.{.@X@Xj.oXoXoXCXVXoXVXMXV.z.rXUXHXJX6Xf.d.XX#X#X#XCXHXHX%X|.|.}.}.}.|.b.$XKXHXCXGXCXCX#Xc.g.XXGXGXVXBXB.f f V.VXHX%XXXGXGXCXXX%X4X3X,X`.FXPXhXqXsXsXt.y.cXIXPXKX+XW.SXUXyX9X:.a a a a 3 a >.9X7X,.A 4.4.:.,.qXqX>.:.:.2.;.` 0X+XXX$X{.;X=X1XdXkXnXmXnXPXhX_ t # @ i ,.0XK q q Y.' T.W.).JX).).).AXQ.Q.R.Q.OXE.K.+XHXCXE.c.oX+XE.NXSXeXI.8X7Xn t h P.z.x.v.V.j.j.v.B.d t z z t i 4 4 i u 4 s i s a :.A :.A 3 % % % % ; m C Z %.-.%.+.2.$.+.-.=.+.+.8.0.B Z pX9.9.9.V Z 9.q.Z 9.Z Z 9.9.9.9.9.9.9.9.9.9.9.9.9.V 9.9.9.%.%.0.2.vXnXkXnXkX5.5.#.L O.#.2.4.*.D D S X.&.&.e.*.] 1.] R 5.*.2.2.=.",
"&.&.&.-.&.&.R R R &.R &.r.&.R R D S O.=.$.2.$.@.I 4.5.fXnXkXnXfX9X9.V 9.9.9XM 9.9.9.9.pX9.9.9.9.9.q.q.q.7.Z M 9.q.q.Z M 9.9.Z iX9.B 7.0.+.+.D O.-.=.-.+.+.-.....%.B m = % X O & y :.:.:.I 5 4 5 4 a u i i i t t t t d f V.x.j.V.v.v.8Xz.u t E / 7XU.eXSXNX+XMX+XK.c.AXHX+XU.Q.oXR.E.W.AX<X).AX).2X~.Q.Y.U.Q.H q H qX` t > @ t T.kXFXnXnXnXfX).,X*X*X[.$X+XNX7X8X7XqXwX8X` ) I.! 7XwX~ ` 0X0X~ z t y n n a :.<.uXLXUX+XW.AXFXIXIXnXsX5.sX>.vXUXFXdXG OX4XXX#X#XCXCX#XCXHXVXC.B.8 V.BXHXJX4X|.a.N.VXCXCXHXCXGXGX].b..Xb.b.}.|.4XGXGXGXKXHXMXMXoXg.m.@XXXE.B.A 8 8 v.E.HXHXE.%XHX%X%X4XJXJX,X`.kXPXUXhXsX5.t.cXmXIXIXUXAXQ.eXBXwX9XA y 2 y 2 a ;.I ;.;.I a <.+.-.u.nXhXxX:.5 C 4.qXtXW.J..X3X-X*X2XjXdXxXmXIXPXgXjXT.# . , y ,.I.g H r W Y.Y.Q.DX).Y.Y.).W.R.+XJXGXW.R.+XHXGXGXQ.E.E.R.E.tXU.L.P.I.n i h h h k z.U.eXx.l.x.l.f v b b h i t 2 4 4 4 a K a u a a :.:.C = O * % % < m N -.-.@. .+.X.-.t.-.lXu.-.%.7.w.%.Z 9.Z Z q.7.B o.7.Z Z M B 7.7.9.9.M Z 9.9.9.pX9.pXpX9.uX9.V 9.sXcXnXsXnX5.qXsXI a 5 P 2.4.#.D D  .X.X.&.&.R &.&.2.5.&.O.&.&.",
"-.-.&.&.*.5.&.R &.&.&.r.&.R D D S D 1.2.#.I a I 6.wXwXnXnXnXnXlX9.9.9.9.pX9.9.9.9.V 9.9.V 9.9.9.9.7.Z Z M 7.M 7.Z q.9.M Z 9.9.w.q.Z %.0.u.6.&.t.=.=.$.+.%.7.+.N N < & & O O 2 a :.:.c 5 a s S 4 u 4 u 2 t i x P.v d x.x.x.v.v.V.v.x.k l i u j 7X8XP.eXtXMXE.Q.E.oX<XGXNX+XR.E.AXGXQ.E.<XQ.Y.Y.).2X<XW.W W W q H I.` u @ o > _ dXkXnXnXxXkXkX2X5X*X;X,XJ.W.Q.tX,.;.C c :.vXsXhX2.;.4.@.:.4.;.>.>.I t t y 3 C <.wXvXBXE.AXUXUXIXmXxXt.sXsXyXPXPXkXdX`.6XJXCX%X%XHXNXoXCXCXMXx.8 f A V.+XOX$X|.n.N.VXVXHXHXHXGXJX$X|.}.b.b.|.|.6XGXGXJXHXHXCXMXXXg.n.|.R.c.7 t 8 t V.eXVXUXHXGXHX%XGXGX4XOX).DXFXPXUXSXaXsXxXcXbXbXIXLXSXT.L.A A V y v 3 3 a :.a >.Y I 5  .$.%.-.lX$.sXxX<.$.lXmXsXaXW.J..X3X;X=X6XDXdXfXmXxXnXkXgXgXK.: . * a ` Q W W K.K.Y.Q.).Q.Q.Q.Q.Y.W.W.<X<XW.R.R.Q.AXHXGXAX+XE.Q.E.L.b P.I.7Xh i h k k x.B.eXP.v l.l.z h d d t i i u a D 4 4 L a 4 4 a c A <.C * * % X % < 3 N %.%. .1  .-.-.t.cXu.8.0.zX0.M Z 9.Z 7.9...%.7.7.7.o.B Z 7.7.7.9.9.9.9.9.9.9.9.9.9.9.V Z pX9.0.bXmXsXsX5.aXsX1.I K a ;.4.$.2.L  .D  .&.r. .&.&.*.6.&.O.O.R ",
"r.&.O.D &.&.&.&.X.&.&.-.&.D D D #.1.4.1.5 5 L :.sXwXt.sXt.mXlX6.9.9.V 9.9.9.9.9.pX9.9.9.9.M 7.9.7.7.M Z M 7.q.9.Z 7.9.Z Z 7.M V iXw.%.0.xXlX-.r.&. . .N %.%.N < < O O & & 2 A 4.c a 4 2 s L L 2 5 a 4 i z h d h v k x.z.x.P.eXeXl.k k h i j L.7Xb L.E.E.E.E.Q.Q.GXHXAX+XQ.R.W.GXGX+XR.W.<XW.(.).).Q.K.Y.A.q H U ` a @ o > ( gXgXkXnXnXkXdXDXDX2X{.3X3XG.G.T.gXfX6.#.@.zXmX6.lXu.%.%.N N 5 #.;.I C C y y 3 5 C C >.B.8XSXPXLXmXbXmXvXlXqXtXPXPXPX).2X<XGXGXGXNXHXCXCXUXCXMXx.8 8 f 8 v.c.G.g.g.XX#XVXHXHXHXGXGX4X|.n.b.b.}.].JXJXGXHXCXVXVXM.g.g.|.@XCXeX$ 7 f x.C.VXVXLXUXHXHXMXGXKXGXW.).`.gXPXUXPXqXkXPXvXbXbXbXhXyXI.( c y c a C 3 3 N C C a :.3 , 3 < 3 C $.3 N C 5 ..0.zXt./._.<X3X3X3X1X1X2XDXdXfXy.fXfXdXdXhXqXu 4 2 2 a K _ gXY.H Q.+X).DXJX<XW.W.W.W.<X<X+XW.W.W.<XHXKXSXNXU.K.l l.L.L.L.l k ( l i h w d k.l d k b b h h i z x a I a 4 3 P P u x / I ;.4.:.5 * * & X % & = N +.1 D  .&.-.r.u.lXmXmXbX%.V Z Z Z Z B ..o.7.7.B B B 7.q.7.7.7.7.9.9.V 9.V 9.pXpX9.Z 9.pX9.<.zXmX0.2.2.4.sXsX2.,.~ ~ ;.;.2.=.+. .N X.&.D &.&.&.&.&.&.O.X.",
" .O.&.O.&.&.&.&.&.O.+.+.D  .&.&.4.4.;.I s I 2.sXsX5.5.4.t.IXlX6.pX9.9.V 9.pXpX9.9.9.9.V 9.Z 9.7.M 9.7.M Z 7.9.7.%.%.%.Z Z 9.Z M w.cXmXlXxXu.6.6.+.5 N N $.N < & % % & * < a 4.,.P P P p a L 5 2 5 s a c z f t d k l.l h h k k k h h b b h j L.U.l.l.l.l.U.tXAXGXHXNX+X+XW.OX<X,XW.W.R.W.DXAX<XQ.Q.T.Y.W.Y.W J s 5 3 2 i ` aXgXaXnXfXkXdXjXFXDX1X,X5X*X(.)./.e.xXmX6. .%.<.< C 9.M B N < 5 #.O.4 a 5 2 2 y y N C v z.8XyXvXvXmXbXlXmXPXT.FXUXPXjXjX<XG.4XKXHXCXHXUXHXUXBXMXoXj.h.8 8 eX+XXX].g.R.#XCXCXHXHXHXGXGX].}.}.|.].n.%XHXHXHXVX#X#Xg.f.n.4X4XHXE.$ $ V.MXVXVXVXHXHXLXHXVXGXKXGXW.W.jXkXLXIXLXgXgXPXvXmXmXbXyX0X` ) >.A c s 3 2 a V 9.C N 3 & % % O O * * % * , 1 N N X.X.R e.DXDXOX<X1X(.1X2XdXdXfXy.r.kXdXgXtXaXqXL > i ! T.T.K.Y.Q.W.W.OX2X).W.,XW.(.<X2XGX<XW.K.W.GXKXKXAXT.k.K.K.l g d g P.P.j j i 0 0 U.U.l.k h l ( k i t t 4 a $.a 5 2 2 4 ! / u ~ ~ >.C 2 = * % O O & < N  .D D t.fXt.y.y.cXlX9.Z 9.Z V V B B ......B B B B B 9.7.q.9.9.Z 9.9.9.Z 9.9.9.pXpX9.9.9.%.uXmX6.@.@.$.2.4.4.wXsX4./ I s ;.#.&.O. . . .=.&.+.r.&.R &.&.",
"X.&.O.&.&.-.X.+.-. . .+.@.+.=.2.#.c ~ :.wX4.qX5.2.*.O.O.6.mXw.%.9.9.rXrXpXpX9.9.M 9.9.9.9.Z 9.q.7.7...m B ..%...%.%.N B Z Z 7.%.%.w.mXcXlXlXsXlX-.1  .N 5 < o O X % * - y ;./ / P U U u 2 4 5 5 C c s y t t k 8Xl.k h g ( ( w > i u j L.L.g g k.l.K.l.k.E.gXKXKXHXW.R.W.OX<X2X,X(.,XOXW.<XAX<XW.Q.Q.Y.K.aX_ s 5 2 a 8XyXhXgXdXkXfXfXdXgX2X2X`.1X5X,X,X2XjXe.R X.X.m 1 < , , 3 y O % * % @ 1 N N <.:.3 2 a a C C A 8X8X8XyXmXbXmXvXIXhXtXUXPXnXkX).W.G.6XKXGXAXHXHXUXHXVXVXVXMXx.- 8 rXHXVX%Xf.s.N.VXVXCXHXKXHX%Xf.@X$X$XN.f.N.CXGXVXVXVXN.a.f.'.].%XVX7 . 8 VXVXoXoXCXHXHXKXGX%XHXUXGXW.(.jXPXmXIXIXSXQ.gXPXLXvXvX:.>.s c ~ x j u 4 5 <.lX<., @ O & * ; - - $ - - 2 , , 3 1 B  .D r.sXDXQ.<X2X~.!.1X_._.dXr.e.nXnXaX[ qXkXtXc i qXT.W Y.T.Y.D.A.J.W.J.4X<X,X<X,X2XJX,XW.A.K.).AXAXgXQ.K.l r g g g l U.I.! j j u k.U.Q.E.L.g u _ j i t 2 > 2 a C I y 4 2 u p q P K P I 5 3 ; ; % O % * 1 N D 2.mXxXnXt.-.u.-.%.9.9.%.Z %.Z %.u.8.o...B ..B ..7.7.M 7.7.M Z Z 9.iXV 9.9.pXpX9.9.V <.<.zXuX%.@.$.2.2.#.4.wXwXqX,.s 5 Y 2.6.-.+. . .+. .&.&.X.R R ",
"&.&.&.&.&.&.&. .X. . .-.-.2.$.a a >.0XwXsX5.2.*.*.Y O.+.lXzX9.%.V rX9.pXpX9.9.9.9.9.9.V V 9.7.q.7.o...B B B +.-.-.-.N %.Z M 7.9...%.lXu.6.nXmXxXy. . .1 < & X X % ; ; 3 I I s ^ u u 4 4 > 2 5 a >.a 2 2 t i k z.h u l I.I.T.Q q p i E I.L.k.k.g k.k.l L.Q.AXDXAX<XR.A.W.<X6X2X(.(.,X1X(.,XW.Y.K.Y.Q.Y.K.T.3.>.t v yXSXT.T.aXnXxXfXfXaX`._.(.~.1X6XJ.2XjXr.&.&. .D 1 5 , @ $ # + $ X + O . o * 1 -.uX4.a y y c s A 8XA a wXvXbXbXIXhXtXAXUXPXmXnXFX<X3XJXKXGX+XCXHXHXHXVXoXMXBXMX7 + B.VX%XXXs.s.g.#X#XVXHXGXCXXXs.%XGXGX@Xg.m.#XVXVXVXC.m.n.].{.XXoXV.+ 7 h.VXVXoX#XCX#XoXGX#XXXGXJX4XJ.K.gXPXvXIXIXUX+XE.SXvXwX:.a A ~ s z x Q q J 3.4.:.< @ O 3 A A B.8Xz.) 7X8X) p u a , 1 ..X.r.t.nXgX).1X1X*X*X(._.} | | sXkXaX/.[ ).SXBXE.tXqX_ T.T.A.Y.W.,X(.J.,X,XW.,X,X,XJX2XW.H r Y.Q.gX<XtXQ.K.r r r E.k.L.I._ K K j E U.U.P.I.L.Q ! i h i t @ $ 2 2 a c n x s u K ^ u u p s y 3 C ; % X & & , 6.mXnXxXt.&. .i.w.7.q.q.q.q.w.%.-.zX0.7.7.7.8.7...o.B M Z 7.M m M Z q.9.9.V pXpXiX9.9.9.Z <.<.6.-.<.6.$.$.;.4.qX0XwX0Xp P #.2.<.%.+.%.X.O.&.X.X.&.X.",
"D O.&.&.&.X.+.X. . .+.=.2.$.a a ~ qXwXwXwX;.#.=.2.6.+.6.0.0.9.7.V 9.pXpXpX9.9.M 9.9.M ; M Z M M Z o.7.8.%...%.8.0.i.<.8.7.%.q.q.7.8.i.0.O.t.mXxXxXu.N , * % + % ; N y a a s 4 K K u u K s s a y y > $ 2 i x i z x j ` I._ L.Q j E E _ L.L.K.k.g r r W Y.Q.).AXQ.Y.A.A.Q.DX2X<X1X,X~.1X,XJ.W.W.W.A.Y.T.T.) qXyXb tXHXAXY.T.fXxXe.e.aX_._.(.!.*X1X,XY.dXfXr.X.%.@.3 , 3 t h Q L.l.l.k n c a 2 O X < $.wX>.h u x x z v c A C :.wXvXhXT.tXUXIXIXxXxXgXW.J.3XJXJX+XCXHXCXVX%XoX#XGXMXp.# 7 C.oXn.].].a.M.VXCXVX#XoXg.g.@X%XGX@Xm.m.N.VXMXC.M.p.a.XX%XCXR.7 6 7 x.CXCX#XGX%XR.c.%XOXF.OX4XOXW.).gXnXbXIXIXUXSXQ.tXyX9Xy A 7X9Xn l.L.L.q ' qXP 2 , a I ,.wX8XqXeXtXtXAXAXAXDXAXI.2 @ 1 ..X.-.r.sXaX<X6X1X,X1X_.!._./.aXaXaXaXY.Q.+X%XCXtXtXQ.E.W.Y.(.<X2X,X~.~.J.,X<X2X(.2X2X).Y.G r Y.Q.).<X<XY.W K.Q Q r g _ ^ ! W E j I.L.Q ( I.I.p 0 t i 2 t 2 2 y y ) >.7XK u p u u u u s a y y < % % % X o $.mXwX&.+. .X.i.q.7.8.7.q.w.q.q.0.8.%.%.o.7.8.8.%.7.%...Z 7.B M B Z 7.9.9.9.9.iXpX9.9.Z Z %.%.%.9.-.<.-.6.6.4.4.3.qXhX0X^ I I #.-.%.+.&.O.&.&.R &.X.",
"S &.&.&.O.O.+.&. .-.-.$.@.I I ,.wXhX,.,.4.2.2.2.6.-.=.0.Z Z Z %.V 9.pXpX9.9.7.9.M 9.M M Z 9.9.Z 7.o...8.8.8.%.7.8.0.8.8.w.w.8.9.q.8.0.0. .D =.r.xXxX1 O % + % ; y y y a i 5 p u K 4 p ` >.>.x t 2 $ $ t i > t s 3.0X^ p { T.E E E E _ L.K.g k.Q W g U.).gX<X).W.A.e Y.<XDX<X).1X1X!.*X,XS.<X<X,XW.W.Y.T.eXtXrXNXGXQ.W.)./.dXfXe.T.^._.1X1X,X1X6XW.jXfX-.X.8.3 3 $ z tXgXNXAXSXtXT.U.yXqXyX9XA y * 4 s qX0Xg l.U.P.n 7X8Xc a :.hXgXQ.AXUXIXIXzXxXaX).J.{.2XOXG.#X%Xc.XXVX%X%XCXNXj.7 6 j.oX#X4Xb.a.c.oXMX#XVXoXg.XXXXm.%Xc.g.c.#X#XM.M.j.p.a.].+XNXd # # 7 oXCXoXCXCX%X#XOX%X.XG.{.6X5X2XFXUXIXIXbXvXPXgXU.Q.tXv A B.rXrX8X8XE.r g gXI.> a ;.I ~ P ) ( P.b L.Q.AXW.W.GX<XGXgXj 2 1 < X.X.t.jXQ.4X6X1X1X1X1X`._.jX/.Y.Y.).DX<XXX+XCXoX+XtXNXAX<X2X2X6X1X!.D.5X(.J.D.W.2X).).H G H D.R.).<XQ.Y.T.Q g Q _ Q E _ { ^ ^ ^ E E p u P ! ) ! i i ~ x h v 7X>.x 7Xx t j : s ` u 2 a c C 3 * * O O X , 6.6.N D %.-.0.8.8.7.o.q.7.7.0.7.B m B 7.q.8.o...8.8.7.7.%.Z 7.9.9.%.9.V 9.9.pXpXpX9.V 7.Z Z Z %.%.%.-.0.6.6.wX5.qXqXhX3./ L O.$.-.+.-.D D  .O.&.R ",
"S R &.D *.D D &.X.=.&.O.L Y 3.gXqXwXqX6.6.6.6.-.+.+.C %.Z Z %.Z Z pXpX9.9.9.7.7.7.%.7.%.Z %.7.7.7.8.o.%.8.8.B ..B B 7.q.7.8.8.7.8.7.w.8.=. .1 D lXO.O o o * % 3 y A 4 2 a a ~ 4 4 i i ,.n ) n ) t i n z t u ! ~ ! K p s ! _ ( ( _ _ E Q Q g W K.W Y.T.).).W.W.A.r A.Y.DX).~.J.D.1X,XD.~.2X6X6X1X).).NXQ.E.+XCX+XOX,X2XY.} /.T.gX`._.`.1X1X6X6X<XgXfX-.X.X.m 3 2 z.SXAX+XAXR.gXAXL.Q _ ( I.x >.8X;.L 4 l tXk.k.l.U.8XeXyXB.z c tXQ.U.tXPXvXbXmXmXPXJX6X,X<XJ.f.OX%XXX#X#XCXCX#X+Xc.6 # 6 j.CX#Xn.p.a.j.c.C.VXN.n.m.m.M.m.c.a.j.j.v.j.v.v.h.j.oXMXx.6 # 6 j.VXHXVXHXVXHXHXCXGXOX3XJXJX6X6XFXUXIXvX<.vXqX{ 0XP.n V.yXeXn z.eXMXE.v.V.U.d - y t y 4 2 j b g l L.U.R.W.4X4X4X4XKXSXi O 1 1 D X.y.hXQ.).<X,XJ.~._._.(./.H D.(.2XJXOXW.XX%XGXCX+X+X<XJX6X1X=X=X1X2X_.(.<XY.' ' ).).H D.H D.,X<XjXgXgX[ W _ T.T.W p E { U J 4 4 4 u t i ) I.) x ! x b ) tX9Xt > i i z i u u a s t a :.a * * @ & O O < N  .-.-.8.i.8.B 7.B B 7.7.8.....o...w.8.o...B %.8.8.%.B %.w.w.7.9.V 9.pX9.Z pX9.9.9.Z Z Z Z %.8.8.%.%.-.0.lXwX5.yXaXaXqXR L +.+. .=.+.D D L O.&.",
"&.&.&.R D D  .&.&.&.O.L R { aXaXaX5.2.sXuX6.<.-.7.0.7.%.B N Z Z 9.pXiX9.9.9.9.7.7.7.0.w.%.....8.7.......8.8.7...B o.%.q.8.7.....7...i.u.-.X.&. .N < O & % * & - c @.a a a 4 i t i a i a > 7XyX7Xb ( l i b 7X7Xp u 4 4 4 4 u P ` W K E T.T.Q W ' /.gX)./.^.D.Z.H H ).jXW.D.^._.J.(.6X,X,X5X6X6XJX<XQ.NXGXCX+XXXR.<X<X2X^.G ^./.`.1X=X~.J.,X<XW.tXnXy.X.m m , @ n KXHX<X<XJXQ.R.tXU.l Q E ( u i t 2 y > t U.R.R.c.oXeXeX8X8XrX7Xl U.T.tXyXvXlXlXIXFXKX6X5XJX6X<XXXHXGXCXCXCXCXCXCXoXp.6 . w MX%XoXd.h.c.v.j.C.M.j.p.g.M.c.v.M.M.v.M.v.V.l.w d d h.7 # 7 d v.CXVXVXVXCXVXCXGXJXOX6XJXKXJX2XDXFXSXtXyXwX3.! ( z.eXMXeXx.x.v.MXMXMXVXBXMX8 8 y y z s p u t t h g L.K.A.OX3X4X4XGXKXSX2 @ , m X.-.qXjXNX<X<X(.(.~.Y.(.(.Z.D.J.J.,X(.,XOXoX+XCXNXCXAX<X1X=X=X1X6X1X(.2XDXY.G H Y.).(.W.e Z.D.).DXFXgX{ [ ^ [ { _ E ^ P P I L a 4 y u i i x ( ( 7XtXI.( I.I.u t t c 9X:.u s t 4 s s ~ 4.L , @ @ & O & = m ..-.-.6.0.+.@. .%.8.........B 8.i.%.....N ....%.7.%.8.zXzX%.Z M pX9.V V 9.9.V 9.<.Z %.B %.7.7.0.%.%.6.6.wXsXaXaXhXhXaXR L O.+.&.D 5 O.&.O.O.",
"&.O.R O.D D L *.O.&.O.L 1.aXgXsXsXsX6.uX0.-.%.7.0.7.7.%.Z Z 9.9.Z 9.9XZ V 9.9.7.o.8.w.zX%.%.o.8.%...B ..%.q.w.7.7.B ..7.%... .B ..%.0.0.8.-.+.1 & & & * O @ 2 a 0XI u i y 4 a a >.8Xi 2 7 7XtXP.( _ ` ( ( L.j i i u u u s P P / _ E E T.T._ ^ T.gXDXjX`.(.G e Y.^.).^.G G ^.2X2X1X6X6X1X,X,X2X<XSXNXNX+X%X+XW.OX,X1X(.!.G D.(.Y.(.~.J.(.GX<XQ.gX-.8.X.< < @ h KXKX4X4X6X<XOXK.x.k.i 0 q u t i s y y 2 > l.NXMXoXoXoXx.j.x.rXeXz.z.7X` 7XyXqXqXnXFXJXJXJXKXKX6XW.JXGXGXCXHXVX#XHXCXv.8 # # d j.v.w h.MXv.j.M.j.M.M.h.oXMXVXBXVXC.rXMXB.d $ 6 7 # 7 7 8 h.E.CXVX#X#X#X%XGXJXJX<XDXFXDXDXDXDX<XtXtXrX,.I P j P.rXC.v.c.k.v.MXM.m.E.VXrX8 8 v y A ) i 0 d h l b l.K.r A..X3X3X%XKXUX7X@ ,  .X.X.&.kXAX+X).JX<XW.A.~.~.S.J.S.Z.S.(.(.Q.W.Q.E.E.Q.<X<X,X6X5X>X1XJ.D.1X_.`.Y.G H G ).2XS.G e D.<XFXhXe.[ U K p ! ` ` P 1.1.2.1.#.~ s z u i j ( U.gXtXW j x x >.i y 8XA 4 i 2 > p p u ,.qX@.2 * & & = % * < N 3 1 $.-.N &.-.-.X...8.8.%.%.8.........q.%.%.0.i.zXzXw.%.N M 9.9.V 9.9.M V Z 7.7.7.7.%...%.7.%.8.0.<.6.sXsXaXdXfXaXR L D L =.#.L I *.D L ",
"&.R D R R L O.*.L L L U 5.kXhXaXsXsXt.<.-.<.7.7.%.Z %.7.9.<.9.Z V Z 7.V 9.9.9.Z N %.0.zX0.w.8...o...N ....7.w.%...8.%...-.8.%. .B 0.+.5 N N < & = % * & @ 5 2.3.P p u 4 4 u y s 8X>.t x n b z l qXtXqXI.L.h q i j x ~ / 4.,.#.P _ [ E E E ! [ T.jXkX`.D.G e Z.<X).Y.G G Y.).DX,XJ.(.5X6X5X1X5X+XNXNXoX+X+XW.,X2XY.S.G S.S.J.,XJ.D.(.<XJX+X<XhXsXX.X...3 O > SXUX4X+X3X4XF.d.k.E.l.b l u 0 h b n z z y - z.HXoXoXMXMXV.x.x.v.eXBX8Xc c ,.8XyXtXtXDXAXJXJXJXJX2X,X6XAXCX%XVX#XoXVXCXE.h.8 + $ 7 6 0 7 k C.rXVXC.VXVXVXHXVXf j.B.8 x.z.t # # # 7 d B.8 7 j.MXVXoXVX#X$X%XJXJXJX<X2XFXFXDXAX<XQ.+XNXz.i u x P.yXBXMXv.v.v.M.M.M.m.c.ZXV.7 8 A f y t i l L.L.l.l.K.r d.,X3X{.].GXUXUXSXy o < m 1 D y.FXQ.Q.GXAXW.J.W.H.Z.*X*X~.J.S.G G K.Y.Q.K.Q.+X<X6XJX3X[.*X5X~.Z.W.`.).G F 9 ' D.,XZ.e D./.jXjXe.e.] J u p ( ` P 1.1.2.2.;.c s x j i h g ( tXtXI.u q p 7Xc t t i t t > 4 4 p P j tXwX4., O & = * O O & O & +.t.D X.-.X. ...u.-. ...%.+.%.%.8.0.....q.zXzXzX7.B B 9.9.V M V V M V Z Z %.%.0.7.B %.8.7.9.-.+.%.6.lXsXhXsXe.U L D D *.*.L L D L Y ",
"R L S L P L 1.*.L D L Y wXsXsXaXlXsX$.%.<.0.7.7.Z 7.7.7.7.%.Z Z V Z Z Z Z 9.7.Z B %.8.zXcXzX8. .+.0.%.%.-.%.-...%.i.8. ...u.8. .%.u.1 O , & % % = & O & a wXwX3.u u K > > t t u z t i 8Xn u h ! gXaX_ g j l j g j ~ ,.,.4.4.;.~ ` ` P u K / qXaXjXjX).G 9 G (.W.G G F G (.).(.S.!.;X&XH.6X6X4XAXQ.E.E.Q.W.K.A.G D.!.H.=X{.Z.J.W.D.+XJXJXW.tXkXr.S 1 m , $ 8XUXUXGX4X].{.,XG.w k.k l.Q l f h.f f z C 2 + z.HXoXc.c.oXE.v.j.v.eXMXyX) z z d E.tXtXQ.<XAXGXKXFX2X1XJXJXJXOXXXVXVXVXHXE.k - 2 y 8 # 6 # # j.V.j.j.V.x.eXZXHX7 7 $ 8 8 - # # $ 7 h.eXv.t 7 P.BXMXE.oX%X{.3X6X3X1X2X).DXPXUXAXQ.Q.E.E.x.x.8XeXtXeXMXE.E.oXCXNX#X#XXXoXBXk   + 8 A t t g b U.x.x.U.E.k.K.<X3X.XF.+XHXUXKX8X@ - @.< S r.kXjXtXR.R.E.+XOXs.Z.3X5X{.J.Z.G ^./././.Y.T.Q.+XJX4X$X.X;X5X3XH.S.!.`.Y.' G G G ).~.Y.).Y./.kXsXsXsX4.! p ~ ` ~ ~ 3.wX4.I p s ) x g j j l L.U.tX^ t > i c z t 2 i i u u q K qX` ! qX4.@.* O & ; O o X O & 5  .1 D X. .D X.-.+.C D  .-.-.-.zXw.%.%.8.w.zXw.0.9.9.9.7.Z Z Z V M M B B Z Z %.B Z 8.w.<.Z N Z N $.lXvXfXsXaX5.Y D 5 5 L I L L L Y ",
"R Y L L U L L Y L 5 O.2.sXhXhXkXlX-.+. ...Z %.w.7.Z Z 7.%.Z B B N M Z Z V Z 9.7.%.7.9.iXbXiX7.7.-.i.0.-.-. . . .5 -.-.D  . .X.5  .%.3 @ O X O * ; % O 3 4.qX{ ^ T.E K u t u q t > i z x t > j qXqXI.Q u u j j b x s ~ 0XwX,.>.;.` ^ 4 p 1.sXsXjXgXgX(.).^.W.,XG e G G D.).Y.Z.Z.5X5X*XH.3X6XGX<XQ.R.W.gX).Y.G G D.J.,X6X{.s.G.J.W.W.R.Q.Q.kXfX&.1 < 5 @ t HXUXUXGX].F.;X6XOXk.k.U.k l.l.x.f d f f f $   y BXoXR.XXoXMXMXVXC.oXNXMXrX8Xn l.j.E.Q.Q.AXAXKXKXDX,X2X2X6X6X3XOX#XoXoXVXMXl.8 t 8Xv.w 6 6 # $ 8 + $ 7 8 8 x.ZX8 $ ; B.8 y y t v v.v.eXl.0 > ( eXv.v.oXXXG.$X3X~.,X6XJXQ.AXKXAXE.R.k.c.V.tXBXNXMXE.eXoXXXNXCXCXCXoX#X+XE.$ # + $ t t b b k.k.v.E.+X+XE.R.G.3X4X].$XGXKXSXLXd 8 C < S X.fXnXgXQ.K.W.+XR.R.A.OXOXZ.Z.D.D.DX`.`.jX/.).<X<X4X4X4X6X.X{.;X*XH.S.1X_._.Y.F G ' D.W._.' /.hXgXsXsXsX4.! s ~ x ~ 3.wX0X~ / ) ` ( j Q U.L.h j ( ` ` i > u ( h 0 h ( x p q p T.T.! _ :.4.:.* % * O   X X O * * , N X.+.+.+.+.@.@.D D 6.u.6.u.0.0.0.%.%.9.zXiXw.q.7.7.9.Z M 9.V M N B B %.7.%.B 7.w.<.N B %.%.%.6.mXvXsX5.aXwX#.4 L S 5 #.1.L R ",
"D L *.Y ] s 4 5 4 L 2.wXsXsXvXmX0.+.Z @.N M Z i.7.B B %.%.B N B M N M V 9.9.9.9.w.w.iXuX0.7.7.8.0.i.u.6.0.=.5 5 D &.-.&.X.X. .1 * , & O X   O * * @ 2 <.:.,.^ _ gX_ g q j Q i u > ( s 0 u u ~ 0Xj g ( U.L.i j 7X` P P 3.wXqX) s ~ P a *.wXsXfXhXhXY.Y.).^.Y.^.G G ^._.(.(.S.S.=X*X-X;X6X4X4XGXW.2X^.).jXjXgX`.D.Z.S.W.%XOXA.G.OX+XY.A.W.jXnXt.X.1 3 a $ 8XHXKXGX4XF.*X5X*XG.R.NXNXeXU.l.B.f f 8 f - +   $ eXNX#X+X#XNXVXVXv.c.E.E.eXNXBXrXV.k.k.R.Q.NXKXAXgX1X6X*X*X3X3XXXXXv.M.v.eXz.> t 8XE.R.j.f 8 8 8 V y + 7 8 8 y 8 ; ; ; ; y v f k.E.E.v.g > > h v j.E.oXG.OX4X6X5X,X4X4XAXE.eXE.U.R.U.MXMXMXoXv.oXVXBX+XNXCX#XoXE.XXOX%XQ.$ $ $ + 8 8 v v h.x.x.MXMXoXR.OX<X4X,X].3X4X4XJXUXtX8 @ ; 1 X.r.t.dXgXgX).gXQ.Q.K.A.G.Z.J.J.D.^.Y./.`.`.DXKXDX+XNX4X4X3X*X*X&X!.S.!.^.`.`.' F G G G Y.Y.T.gX0XqXsXsXwX~ I s u x ` 0XI.` 0X0X7XT.L.I.U.L.q > 0 ! 0X0Xu 0 u g j j Q W g j E p W qX0X,.0X4.3 @ & - X X X o O O * 1 +.-.6.-.=.@.D $.5.xXt.t.u.0.-.Z B Z w.zXzXiX9.7.Z 9.7.Z 9.9.M B B B 7.7...B C %.<.7.%.7...%.0.mXvX5.4.sXsX4.a L 4 4 R 1.Y R ",
"L Y Y *.1.L p Y s ;.wXsX2.4.lXIX6.Z %.%.7.%.7.7.B B ..7.7.B B B Z Z 9.Z 9.9.7.7.0.iXzXzX7.B ..%.-.0.6.u.lXt.=.&. .D &.-.-.+. .1 & O X X     + - & * C wX;.3.I._ E j u j Q ( j g g h u u ! 0X` t 0 t l I.L._ ` { ` ,.,.,.0X7X~ i i I #.5.lXsXaX0XaXT.Q.Y.H H G G ' `._.^.~.!.H.;X;X*X3X6X3X<X+XJXJX`.gX/.T._.,XD.S.A.g.A.K.R.W.<XQ.W.).gXkXxXX. .< < $ f UXKXHX<X<XJ.[.5XOX%XoXE.oXE.E.k k v v f t o o * $ z.NXXXXXOX%XoXCXNXVXNX+XE.eXMXVXeXeXR.K.E.tXtXT.Q.2X6X1X;X5X3X].R.oXM.c.v.g $ 0 l.E.E.x.f v A ; ; y ; - 8 8 8 8 y y y y f A z h.j.d.d.K.W j c b x.x.w k.+XHXJXJX,XW.%XNXE.V.x.U.U.v.eXx.j.v.#XoXCXCXoXNXCXVX+XXXc.OXJXyX# # + - y 8 d t j.x.v.MXCXNX%X%XJX%X{.[.{.'.3XJXKXUXU.$ & , , X.r.r.dXkXFXkXtXL.P.Q.A.s.J.W.1XD.G G Y.^.DXDXKXAX<XoX4X6X*XH.&X&XH.!.~.`.dX} ' ' /.Y.' /.T./.^ Y ;.4.4.4.qX4.~ ! ~ ` ` ` ` qXgXqXtXI.j j i t t t x 0X! q 0 q Q Q u j g Q I.E ^ _ qX~ a >.C 5 3 2 X X + X X X X & = m < N +.-.=.=.t.lXsXlXmXzX..7.w.w.w.9.q.q.9.7.7.q.9.7.7.Z 9.%.B B 7.B N B Z V %.9.7.Z Z 7.%.0.sXsXwXwXqX4.;.S 4 4 L *.*.O.",
"L L #.1.Y 4 4 u ! 0XaXwX6.wXlX0.<.9.%.Z q.9.Z Z B B B 7.7.B B %.7.7.7.7.7.7.7.o.7.q.w.q.w.0.9.%.%.cXcXu.lXlXt.=.&.-.X.1 m N ; % O   X X X X % 3 3 y :.C a 3.qX_ Q Q ( ( j h Q ( j g > g I.I.h > 0 u p E ` I.qXgXqX0X! ` ~ ` P s ;.4.4.5.5.3./ ] qXaXT.' ' /.Y.G ^.`.`.^.S.S.[.-X{.$X6X3X,X+XJXJXJX`._.' G G D.1XJ.Z.s.A.Q.L.tXgXkXnXfXt.r.r. ., 3 & - BXUXKX4XJ.H.{.J.,XGXGX#XoXHXoXE.v.k d 8 y 8 $ % % - rXHXOXG.R.oX+XHXCXoXNXNXMXE.c.c.E.eXeXx.U.v.E.E.+X<XJ.,X6XJXDX+Xr w x.j.K.g W g r d.k.k.f z.v y 3 ; ; 8 ; V 8 8 y 3 V B.V c z.k.d.d.K.)./.T.` ) 7XU.l L.eXtXNXGXNXK.oXE.v.l.v l.x.j.v.v.eXMXMXVXCXVXoXoXMX+XVX+XoX+XGXd   - t i z.z.f h.V.eXMXVXCX#XoXCX%XOXXX].].F.3X6XGXUXUXf @ @ 2 < 1 &.&.&.e.D 4 4 wXyXK.e S.~.,X^._.^.} ^.`.2X`.(.W.+X+X%X$X-X&X-X&X!.~._.jXjX/.' | aXaXT.aXe.U S I Y ;.4.5.4.qX;./ ~ ` _ E _ { T.qX7X( ( ) x x ! u j _ E q r g ( ( q g _ T.T.I.0X3.P a @.:.C 3 2 @ O O X X X X X X & & = 1 %.-.6.t.sXlXvXxXlX-.i.w.w.7.%.Z 7.9.q.q.q.7.q.q.7.7.B Z B o.%.B %.B Z %.Z 9.7.7.9.%.%.$.6.lXsXwXhXqX~ I L P Y 2.Y ",
"R R *.#.L a P ! qXhXqXqXsX6.-...9.7.7.7.7.7.Z M B ..B %...B B 7.M 7.7.q.9.q.7.7.7.q.Z 7.8.w.w.u.6.xXcXxXsXlXt.6.6.+.1 * @ O X X   X X X + @ * - 3 @.:.5 4 / 0XI.U.0XI.l g j Q Q q q q L.I.i i j u p E ! ` qXqX0X3.! ! { ,.` ~ 4.wX4.2.;./ U K U 0XaXqX/.aX[ T /.jXjX_.!.!.&X&X-X.X;X4XOXOXOX<X<XDX_.} Y.^.^.~.~.J.s.r Q.SX~ > s sX6.&.&.X.S 1 * - - 8XUXKXJX6X[.H.{.J.].%XCXCXMXNXVXoXE.v.k v f n y y 8 + f SXAXOXOX%X#XVXoXoXCXCXNXVXMXM.v.j.x.B.x.j.x.E.oXQ.R.OXAXFXqXI.l b eXeXL.W T.gXY.d.r h.h.x.A C V V V V 8 V f y V y 3 V A A P.E.OXOX,XDX).E ! ` qX7Xj 7X,.7XP.I.U.E.U.R.v.l.k n 8XE.v.MXVXBXVXVXMXoXE.R.NXc.XXc.R.GXE.$   # t t f z.x.x.V.C.VXHXHX%X#X#XCX+XXX{.,X>X5X6XJXKXUXrXf @ * & * 1 1 @ , , , N a 4 ] AX2X(.!.`.`.jX_.~.(._._.(.J.W.$X%X{. X>X:X:X!.D./.jXdX| [ [ jXhX1.5.e.5.I I L Y 1.1.1.1.wXqX;.! ! E p g I.gXqX` ! ! ) 7XI.l 0 l tXU.w q Q Q I.I.E _ qX! ! 3.;.5 a $.@.N 3 * & @ % + + X X X X O O , < ,  .t.t.sXnXfXt.6.u.8.q.7.7.7.7.9.M 7.q.q.q.7.7.7.7.7.B 7.7.Z %.Z 7.Z 9.%.9.iX<.Z B Z <.t.sXsXgXhX3.;.P 5 5 L *.",
"L R L L L I ;.3.sXhXsXsXlX6.@.N <.Z w.9.o.7.7.Z Z 7...%.B 7.7.7.7.7.9.q.q.q.7.7.7.7.Z 7.9.9.0.w.6.t.lXlXlXt.-.D 1 < , @ O X     X X + O + * * 3 C %.@.5 I ] ] ^ qXT.I.l b L.( g 0 Q T.L.g g P.qX` ! ! ^ qXtX3.K E ! ! ~ ~ 0XwXqX2.4.1.#.L L L *.qXqX5.sXdX[ T dX/.jX_.D.!.:X:X:X X{.OX*XJ.W.(.).`.^.^.`.2XDX`.J.(.`./.K Y :.1 < , , 1 D 1 @ @ @ + y SXUXHX6X6X;X{.{.F.W.GXGXoXoXHXHXBXNXE.x.B.z.z.i f 8   $ x.NX+XR.XXM.oXv.oXMXMXMXVXVXMXeXE.U.8Xk k x.v.k.U.E.Q.tX7X7XqX7Xn 8XqXW W Y.SXAX<XR.R.eXV.B.A C M f V 8 V f V y ; y B.V V B.MX+X+XJXDXjXE 0 i ~ P.x s i t c 7XqXSXQ.K.v.x.8XP.eXtXtXNXtXNXVXVXNXVXNXNXNXc.c.k.MXLXt . + $ f v k x.x.d j.v.MXVXHXCXCXMXoXoX%X4XOX3X*X{.6XKXUXLXrX- + * % O @ @ , * & N N 1 O.fXFXjX^._.`.DXJX<X`.`.jX`.(.,X3X$X3X3X>X:X&X!.^._./.e.dXaXT e.aX*.*.6.&.Y #.Y Y #.] #.I 4.5.4./ / P u u Q I.qXI.! ! ` 0XI.I.g g U.Q.U.W Q j I.T.q E 0X` ! ;.~ 4 5 5 C C 5 3 * @ + + + X % X X   o O * , 1 -.lXxXmXnXsXu.i.%...o.7.7.7.7.M 7.7.q.q.q.7.9.q.7.Z 7.7.B Z B 7.Z 7.Z 9.iX%.%.%.@.+.<.wXxXhXsX3.;.1.L D L D ",
"L L L L L I 3.3.qXhXnXlX2.@.+.%.Z 7.iXq.Z Z 7.Z 7.B B 7.7.Z 7.7.7.q.q.q.q.7.Z 7.7.7.7.7.7.%.0.zXt.xXnXnXlXuX+.< , & O X X X o + o o O O * , 5 C $.C 5 4 I / ! ^ ` Q j ( 0XI.j j W qXQ.W u Q eX8XI.~ ! _ qXqX( u u ! / / 1.wX4.;.I ;.1.Y L L R 5.t.1.Y sXe.R | dXdXdX} D.!.:X:X:X;X3X,X,X(.(.).jX`._.`.DXDXDX).^.DXFXaXJ 4 N m & , , @ @ @ o @ @ y yXLXUXJX3X*X;X3X3X%XoXoXoXMXVXCXHX%XE.k.d j.z.x.f 8 8 + + 8 BXNXc.c.c.#XVXCXVXNXMXCXMXNXNXeX8XeXU.v.eXU.k.tXhX8X>.z z n c z >./ 4 q W DXDXAX+XoXeXx.V V C ; y ; f f 8 f V - ; V 3 y z.NXoXOX6XKXKXqXi $ 2 u i a 5 a <.:.,.SXSXE.E.U.T.I.U.E.Q.E.E.#XCXCXVXVXHXCX+XE.h.v.NXL.# $ z.eXrXP.l.x.E.v.v.v.E.VXCXCXCXoX#XCXOX{.'.*X{.*X6XKXHXSXtXh t t 8 + X < < @ < N 1 1  .=.fXkX} ' _.2XJXJXDXdX_._.`.(.,X{.3X5X;X&XS.,XDXdXaXe.dXe.R 1.Y L =.=.Y #.4.2.#.1.2.1.Y L ;.4.2.3.` P p u j ` 0X0X` ! ) L.L.U.k.g U.gXgX_ j E Q j p u _ ` P 4 a C 5 5 N @.$.C - * @ O + % X X X X O & & < N u.mXnXmXIXmXcX-.....7.7.9.9.7.Z M q.q.q.9.q.q.q.7.Z %.B B 7.7.9.N Z %.9.w.9.7.%.%.@.wXnXnXqXqX1.1.Y Y L L ",
"R D L U Y ;.1.4.sXsXnXsX+.%.<.%.7.0.7.%.Z B 7.7.7.B B 7...7.9.q.q.q.7.9.q.7.Z M 7.7.7.7.Z M 8.mXmXmXnXmXcX0.N < & & X       o @ O o @ * , @.$.C N 5 D 5 5 5 U ` E j p Q ( j l T.tXT.Q g Q L.U.( ( _ I.0XI.! p p P P ;.4.4.1.@.L 4.2.=.#.*.=.&.Y =.*.Y =.*.R t.e.e.e.`.`.~.!.&X;X6X3X{.,X1X`.`.gXjXDXDXDX2X`.^./.jXfXR  .1 1 m & , 1 @   o 2 2 t >.SXKXKXKX3X[.;X].].+X%XoXoXVXCXHXVXXXR.v.k.k.E.j.E.eXB.v $ + x.BXv.j.#XVXCXCXVXVXCXHXMXE.eXQ.U.U.eXeXE.E.8XyXBX<.9X>.y y a a 5 4 : u aXKXKX<X+X+XNXB.y V 3 ; ; V V 8 8 f V ; % < 3 3 z eXNX<X<X2XFXkXqX@.2 2 i 3 5 3 a C c qXBXNXE.U.E.L.L.L.R.E.R.+XCXCXCXCXMXoXoXeXx.v.x.#   # f v x.U.eXE.+XGXNXoXQ.CXCXGXHXVXCXCXXXf.G.{.-X{.6XJXFXtX7XI.7XrXB.y - V 3 = 1 1 < m 1  .y.dX[ ^._.2X2XJXDX`.} } _._.1X].].OX3X5XJ.<X2X[ [ | R [ e.*.L D +.O. .6.6.1.*.2.t.6.=.@.@.I Y :.4.] E j j E ` 3.0XI.( L.K.U.U.Q Q T.gXtXW u E T.` q j qXI i 5 a @.5 5 @.@.@.a C , * * + X X o X X O & & < 8.mXmXxXmXmXu.+.B B M q.q.9.9.M Z M 7.9.9.q.9.q.9.7.7.Z Z %.%.7.B Z Z Z iXbX%.<.<. .6.mXnXsXsX1.#.Y ] R J ",
"R D L Y 1.#.1.5.fXlXcXt.+.<.7.Z zXiXZ Z Z B 7.7.B Z Z Z 7.q.q.q.9.7.7.7.Z Z 7.7.q.7.7.Z Z B -.zXnXcXnXmXmX%.= & & O X X + . . @ * & 3 a a @.$.a 3 5 D 5 4 P / ` u Q _ E p g I.hXtXK.Q L.L.I.b L.I.I.T.0X_ i u P / ;.3.;.#.L #.#.6.4.5.*.&.5.&. .O.O.D L 5.R 5.| | [ dXjX(.!.=X;X*X].J.(._._._./.jXDXDX2X2X_.Y.| dXxXS 1 1 1 m < * 3 3 - i 7X) ` ) U.AXKXJX3X[.{.{.a.g.CXCXCXVXHXCX%X+XoXCXNXoXE.MXE.eXB.y * X $ x.v.c.oXoXCXCXCXCXCXCXoXU.E.U.U.K.R.U.E.eXyXSX9XA C C y y 5 2 > 2 S 1.nXFXDX<X<XAXE.f y 3 ; = ; V.f j.V.f C V ; 3 5 < 2 l.+XOX)././.fXnXPXwX~ 4 5 a 3 a :.9XLXUXUX+Xk.L.U.( K.K.E.R.R.XX%XCXGXCXCXoXR.v.eX8 . 7 8 f d 0 w h.w k.oX+XGXoX+XHXHXGXGXoXc.#X@X$X'.{.3X3X4XGX+XL.tXtXyX8X9Xv C a 3 1 , < 1 1 1 &.t.| _.2X`.=X2XDX`.} _._.2X2X,X{.{.OX5X,XD.H ' ] T R S R e.L $.=.@.D 6.*.O.2.sXt.6.2.2.$.a 5 I 2.1./ _ ! E p p _ 0XI.L.U.E.U.Q.( Q T.hX( 0 : ! { ` { / ;.;.5 2 5 @.$.C 1 5 @.<.a 2 2 * * @ O X + O % % < ..y.xXy.r.-.-...o.o.o.M q.iXq.9.q.9.7.9.7.q.7.9.iXq.9.q.7.B Z B Z %.N N 0.iX7.%.%.@.2.cXcXsXsX5.Y L *.Y S ",
"S S L ] ;.Y 1.t.t.xXcX6.N %.%.<.zXw.Z N Z Z 7.7.Z 7.9.9.q.q.9.q.7.7.M 7.9.7.9.q.q.9.Z Z 7.....-.u.y.y.cXy.N = % % % O O O o @ - , 3 @.:.C 5 5 $.O.L 5 4 L Y 1.3.E ` _ p q p 0XgXW L.T.U.U.I.U.U.qXI.! l ! ! ! ! ;.3.2.5 5 L 6.5.2.t.sX2.O.&.=.&.D =.Y L 5.R S T [ U ^ W D.2X6X*XXXOX<X2X_._._._.`.DX2X2X1X`./.[ r.&.1 1 1 , < 5 5 C f v 8XtXyXtXI.K.AXGX4X3X;X{.$XXXoXXXE.CXHXHXGXCX+X+X%XCXoXk.c.a.w d t t -   7 V.v.R.XX+XCXCXHXGXoXE.K.U.L.g K.U.R.K.MXLXLXyX<.c 5 y a y u I { kXnXhXaX/.Q.Q.Q.d 2 3 m ; ; M y V V.V.8X2 3 %.%.N , $ k R.R./.jXdXkXPXIXSXqXj u I :.<.:.>.yXUXKXMXk.k.L.Q g K.k.d.h.K.OX+XGXGX%XXXd.L.z.$ + 8 f f d d k.K.d.R.R.XX4XW.XXGXCX+XCXCXoXoX#X$X$X3X4X4XOXQ.U.l L.U.L.I.yXrXc @.$.=.&.S , , 1 1 *.sXkXjX_.} _.jX`.} ^._.jXDXJX4X$X{.W.(.Y.W { R T S J J ^ *.4.6.O.O.=.O.*.6.sXt.=.-.=.$. .L L L I 3.{ / ! p u j I.Q.U.T.Q.tXtXT.g Q T.^ q > 4 E aXwXu L 6.#.5 5 a $.5 @.@.1 @.2.$.3 , ; * * % % X X O = < m X.y.y.8.%.%.7.7.q.M 7.q.q.9.7.9.q.7.9.q.q.7.q.w.q.9.9.Z B B 7.%.B Z %.7.zX7... .%.lXcX6.t.6.1.Y *.Y S ",
"4 4 Y *.Y #.5.sX-.xXcX+.C %.7.iX0.<.N Z Z B B Z Z 7.9.q.iXq.7.9.9.9.q.9.9.7.9.w.q.9.Z 7.o.8...X.-.-.y.-.N < % X X % % O @ @ 2 2 3 $.<.@.a a 5 $.@.@., 5 ;.;.s / sX0XK q > E T.I.E _ Q.T.T.Q.U.T.U.Q u u K ^ ,.3.Y I I D L  .=.6.2.sXlX-. .&.=.L Y 2.e.1.R L J T T T ^ W W ).,X{.$X$XJXDXjX_.} _.`.DX_.^._.jXdXe.&.1 , 1 1 1 X.@.%.a 8XyXeXE.E.I.L.Q Q.OX%X4X3X$XXX%X%XM.XXHXGX%XHX%XXX4X+XR.R.d.h.h.w t z t - o + P.L.r R.%XGXGXCXXXK.k.k.l.k.K.K.R.k.k.Q.UXUXyX,.:.,.;.c z ( qXFXIXPXfXaX`.).R.E.d > 3 V 9.V ; ; rXV.8 yXc ; y <.<.a 0 l.NXtXQ.kXdXjXkXFX).gXgXp u A 4.C y x eXUXNXU.k.L.Q d g k h.l b K.R.G.@XOXd.r Q.c @ + - 7 t k d d.c.W.%XOXG.G.XX3XGXOXXXCXGX+XXX%X$X4X4X$XOXR.R.K.k.l q I.Q b tX8XqX4.xXxXy.D S 1 : r.xXnXkX} } } dX`._.^._.kXjXDX4X*XJ.<X)./.qX^ J J u J J K { 3.1.*.*.#.=.5.t.6.=.=.6.+.O.@.$.#.a S P 5./ ^ ! g g Q T.tXU.I.AXgXT.W q q ` _ E K p / { P 4 ;.:.@.@.5 +.@.a @.5 N a $.C C a - % * * % X O % = 1 ..y.cXy.8.%.o.7.q.7.7.M iXq.M 7.9.9.M q.q.Z q.q.q.q.q.7.B B Z B Z %.C %.iX0.<.%. .6.cXu.-.sX5.O.2.*.5 ",
"4 S #.2.*.2.sX=.t.cXt...%.%.iXiX%.@.B %.B Z Z B 7.q.w.9.w.9.M w.9.M 9.9.9.M 9.q.7.7.o.8.o.o.o.8.y.y.i...< = & X X O * & & , C C C @.C a @.a a @.#.5 5 2.;.L a / 0XU u J ^ _ J q E L.tXgXtXU.T.Q.Q W u E _ ^ ,.3.p D O.*.O.O.+.-.2.#.6.t.=.&.&.*.*.1.0X{ J J J J J J { qXaX).W.OX$X4XDXFX`.} } _.`.`.} F } fXfXxX=., 1 S &.t.cXsX4.9XqXE.R.U.K.r W Q K.R.XX%X%X4X%X%X+XXX%XGX+XR.4X4XXXXXR.R.%XoXc.k.d.d t t % + @ s qXQ e +X+XR.E.R.k.l d d h h g L.l.K.NXKXtXx s >.,.! i x Q.AX<XFXkXfXfXjXQ.Q.E.l.t y <.<.m 8 B.rXV.7 z.z y - a A v h.E.E.NXtXgXFXDXDX(.D.<X<XI.x 2 2 ~ >.P.E.UXHXBX8XtXeXh t f f ~ x g r e W.+XY.Q.! @ . + + + 7 d j.k.d.d.%X4XG.f.].+XOX4X4X4X4XGX#X%X%XCX%X#XR.R.v.k.r l Q.T.U.K.k.U.U.^ t.t.y.nXfX*.4 D y.xXxXr.S } r.} _._._.dXfX`.(.J.H.Y.gXT.3./ ^ _ K H H [ T.^ U ] ] *.5.sX5.D O.6.=.O.$.+.2.6.2.5 S S ] [ _ I.( j Y.).gXgXQ.gXT.Q q : E T.qX{ K u L #.I 4 5 C C @.@.C O.C 5 a 5 5 a 6.<.y * * * & X X X O * ..o.o.o.8.8.7.7.7.7.o...q.7.7.q.7.7.q.7.9.M q.M 9.iX9.9.7.7.B N Z %.<.%.<.bXi.%.%.%.u.cXu.6.6.=.=.2.L ",
"4 5 1.1.1.6.6.t.i.lX-...%.w.zX0.Z %.%.Z B Z Z 7.7.q.q.9.q.9.M 9.q.9.q.9.q.q.7.q.o.o.o.o.o.o.y.o.o.i.8.N & O X X o * * & , C 9.<.1 a a 5 a #.I #.L 5 @.L a L I ~ L u ^ 0XqXE q q p I.gXgXQ.gXAXU.Q E E _ { / L p L #.2.=.$.+.O.+.6.&.*.6.t.5.*.R ] U [ { _ W W q ' W { { 3.gXW.G.{.,X2XDXdX} _._.dX} F F r.y.nXy.D 1 &.fXxXxXlX2./ P.L.k.k.E.E.U.r g K.R.R.R.%X4X%X%X%X+XGXGX%X4XOX4X$Xs.g.4XGXR.d.k.k.k 0 # + + . @ j Q.K.Q.XXk.k.l l.P.i i i f eXtXQ.tXSXKXtX) c a 4 2 u T.<X<XOX<XFXkXkX5.Q.NXMXx.h v A y 8 V A v.k 6 g 0 b t 8 h.w c.+XoXBXtXqXhXFX2X1X{.J.W.gXqXqX3.7X) 7XtXSXtXtXyXZXLX7X8Xy 2 y 4 t i g k.NXNXE # $ @ o $ + 7 d d k.c.d.G.OXG.{.{.{.].JXJX$X4XJXCXCX+XCXGXCX+XoXv.k.d r k.d.K.Q.R.k.k._ U D r.xXxXt.S S 1 O.r.y.S S } | dX_.D.} kXDX2X~.J./.| ] / ~ ` I._ K.W ' K.W ' [ e.R sXt.D O.r.6.O.+.+.+.=.t.6.#.S u K 3.qX^ W Q g T.SXSX/.T.T.W K q u P qXaXP 4 4 a #.L 5 5 5 $.:.:.$.:.@.5 5 C 5 C 6.<.3 * & & O % + X % m X.m o.o.q.q.o.q.q.o.q.q.8.q.7.7.7.q.7.7.9.9.9.Z 9.iXq.7.9.Z N B %.%.N 9.zXzX-.%.-.0.mXlX6.6.6.6.4.Y ",
"p I 4.5.6.6.=.u.mXu.%.%.%.zXbX7.N +.%.B N B 7.9.q.iXq.9.9.M q.9.q.q.7.7.9.7.7.7.7.o.q.o.o.o.8.o.o.m m m % X X + @ @ @ * N <.<.:.C 5 5 5 @.2.#.@.$.@.a 3 4 I I u 4 J 0XaX{ q q q W _ T.Q.gXSX).W W E _ qX3.I J 4 L 2.t.-.&.=.O.O.6.=.O.L sXt.1.] [ ' W Y.' W W K._ _ / / ] /.Y.J.,X6X2XjX} } _._.| F S X.y.r.-.D 1 S t.PXxXR #.I j Q K.E.E.R.K.k.w g k.E.E.NXCXCX%X%X%XGXGX+X4XJX$XG.OX].G.].R.d.h.R.k.k 7 . $ + o # # Q Q.NXR.w w t z z 2 y A A yXZXqXqXgXSXI.I.7X>.A >.qXgX<X{.{.,XDXFXdX| gXQ.R.R.K.d d d d k p.k.w w w k.GXc.w a.s.g.OX+XBX8X7XhXDX1X3X{.G.W.gXsXsXhXsX0XT.qXT.) ,.wXLXIX9XyXA - a c y B.8XB.yXv.7 # 8 t z tXl.P.v.U.E.E.R.G.g.].G.].$X4X%X4X3X4XJXHXHXCX%XMXoXNXMXE.v.E.v.K.g d.R.Q.R.k.Q / e.y.nXnXnXsXr.S 1 S X.S S r.} r.`.} } kXFXDX`._.| *.L #.;.) I.I.K.Y.Y.Y.T././.aXR e.*.S =.e.&.=.-.O.O.6.5.2.R L 4 u 3.sX[ T.T.H r gXKXSXT.W E ^ K J K { aX3.K 2 4 2.;.a 1 4 L @.$.<.:.@.$.:.@.L a @.:.@.C * O * +   X X * & = M o.o.o.B 7.8.8.w.q.q.i.q.7.7.q.q.q.9.7.9.q.9.pX9.w.w.%.B %.%.%...%.0.zX8.%.%.0.zXzX-.6.6.6.sX4.",
"P 3.wXsX6.+.6.u.zXiX%.%.Z zXiX%...@.%.%.B Z w.w.iXw.9.9.9.9.q.q.q.q.Z o.q.q.q.q.q.q.8.o.X.o.o.B m < = & + X + + * @ - C <.:.C a a @.:.#.;.:.:.2.@.C 1 4 @.#.I 4 4 Y qX3.U J J ^ W W I.gXFXDXW r T.{ T.aX5.J u D Y 1.t.5.O.O.&.=.&.t.*.D 1.5.] [ aX/.Y.T.Y.K.W T.T.` Y L R [ /.).<X2XDX`.} } `.dX} r.X.} X.1 ,  .u.fXxXnXnXsX#.Y Q k.R.E.l.d.k.L.L.k.x.E.NXCXNXoXoXGXJXKXJX$X$XJX$X{.OX].G.G.g.G.E.E.k.c.x.h.z.v 2 4 # : K.tXU.U.P.h a z - V rXpXLXIXwX) ` 0XT.qXtXpXvXvXvXtXD.G.;X3X`.DXe.U tXNX4XOXd.e 6 w R.NX9 9 a.a.9 n.GXR.a.s.F.{.6XGXSXv ~ hX).(.,XOX).tXtX4.5.vXvXgXT._ ! ;.4.vXIXIXyXyX9Xy A B.A rXrXv t # # g 0 w k l.E.E.MXBXVX+XGX+XG.G.G.f.|.3X%X4X6XJXKXHXHXCXMXc.v.eXE.v.eXNXNXtXv.oXE.R.R.R.L.` *.xXnXfXnXnXnX&.: : S S X.X.R r.jX`./.dXPXFXDXdXe.O.D @.@.I ` I.Y.T.Q.).).aX`./.] L L R *.*.r.=.=.=.&.=.=.*.*.R 1.] ] [ 5.| [ _ W K.gXAXT.W ^ [ ' ^ u J 3.wX1.4 a I #.@.5 , 1 a C wX6.:.wX2.a @.$.a C <.<.5 3 2 - X X X X O = m m o.o.o.o.8.q.8.7.8.q.q.7.M 7.q.q.7.Z iXq.9.9.9.iXiX7.%.%.%.$.%...<.iX0.%.7.-.0.0.0.6.%.2.wX6.",
"` qXwXwX=.+.u.0.0.uX7.<.9.uX-...%.%.%.%.7.9.iXiX9.9.9.iXq.9.9.9.q.7.Z 7.w.q.7.8.q.q.o.o.7.7.B m m % X X X X + - 2 2 a wX:.>.:.C L @.6.;.<.6.:.@.5 1 , @.:.1.I 4 P 1.5.U q J ^ _ _ W _ ).jXT.H H T.[ /.{ [ U R 1.R *.=.*.O.$.&.&.5.5.=.R L R [ | aX/.^./.T.T.K._ ` I L D D R aXkXjXFXjX`.| dXjXr.S X.X.S 1 : : r.mXnXfXlXnXhX/ _ K.c.R.E.R.k.v.MXeXMXeXE.E.E.c.E.+XHXHXJXJX4X6X4X3X,XF.f.G.G.G.+X+XNXNX+X+XE.x.l.t g 0 # # w k.eX9X>.n A y B.pXyXIXIXvX4.,.! _ T.yXLXvXwX4.qXQ.,X3X*X(.gXaX4 U.HXGX3XG.F.a.a.OXGXg.a.a.c.a.n.%XF.s.F.*X;X4XJXUX7Xx hXAXDX+XOXAXqX0X4.6.sXhXaXT.W P hXvXmXLXIXLXyX8Xv h.B.B.V.B.t 7 7 w k.c.R.g 9 w d.d.+XGXCXGX4XOXG.F.F.f.].4X6XJXJXGXNXCXNXE.E.E.E.E.eXeXMXeXMXE.E.E.c.E.R.k.( ^ fXnXsXsXkXnXjXF S S S S S S } dXjXdXdXnXPXnXsX5.X. .5 5 C / ` T.T./.Y.W ' ' } T J R 5.R e.e.O.D r.2.&.*.*.R 5.aX4.U J e.aX[ T _ H W Y.T.T.^ ^ [ J u 4 P ] 1.Y L D 5 a C 5 1 5 a $.wXwX@.a I 4.4.4.4.a C :.<.2 , @ X + X X % % m B o.8.7.q.q.8.....8.w.q.7.q.Z 9.7.9.9.9.9.9.9.zXiX0.9. .N +.-. .%.iXuX0.9.%.%.6.u.lX<.<.6.qX",
"qX7X6.2.=.u.u.0.<.9.9.uXlXw.%...-.-.N N w.w.w.iX9.Z 9.q.9.9.7.9.7.8.7.q.i.7.o...o.q.q.q.q.7.m < % % X X + + * 2 3 4.:.C @.:.:.4.4.a I 2.sX6.@.3 3 5 a N 5 5 P L / 1.] K 4 J ^ [ [ _ qXT.W W Y.' ' aXqX] U [ e.5.*.*.*.*.&.r.=.R r.*.&.&.U J T /.Y.Y.Y.' Q.aXT./ ;.L 5 D D D e.fXkXnXkXdXdXdXfXR S X.S D : S R fXkXkXfXsXnXsXU L.K.R.R.E.K.E.MXMXMXMXeXE.eXE.v.oXNXGX4XCXGXJXJX3XOX].s.F.f.W.4XJX4XGX4XR.d.a.w r k.k.l w 6 0 7 8XeXB.z z f rXBXZXLXLXmXvXvX^ E Q.aXhXpX6.:.0X).<XOX3XJX).hXu tXKX4X5X;X{.f.f.].$Xb.6 a.c.a.].XXn.f.F..X{.1XJXUXtXP.8XSXJX+XOXU.,.4.uXwX5.aXgXQ.W aXIXmXvXpXLXLXBXBX8Xf f B.B.h t l.eX+XoX+XNXXXA.9 s.e A.6XGXGX4X4X{.F.J.F.G..X6XJXOXOXE.Q.E.U.E.E.E.eXNXV.v.C.MXMXj.R.oXE.K.R.k.P.hXkX5.aXgXDXFX_.T : 1 S X.X.X.fXdXdXdXvXcXu.r.X.D .. .5 N @.L { /.T.' H ' Y./.J T R ] 1.R &.L *.6.5.=.e.5.R e.aX5.R U ] dX/.T W W W K /.aX[ U [ E J J K P Y #.#.5 5 5 L @.a N 5 5 $.2.2.;.#.qX4.;.;.s I wXwX5 O * @ ; + + % % & = B 8.8.8.q.7.8.o.o.q.q.q.q.7.M 9.9.9.9.9.9.M iXiXzX8.m m -.i.%.C 0.uXuXw.<.%.8.0.lX0.6.2.:.",
"tX,.4.2.6.u.0.0.<.9.9.iXiX0... .u.0.N N 9.iXiXq.M 9.9.9.9.9.9.M 7.q.q.q.8.o.o.8.o.q.q.q.9.M = % % % X O * & & * :.uX$.a ;./ ;.wX2.L #.6.2.a 5 C N @.+.5 1 4 L #.#.I P S J J ^ ' U T.gXT.H H W H /.aX5.' U 1.aX5.R *.5.&.5.r.*.D &.D R 5.R J J [ /.' ' H T.aX3./ @.5 1  .X.D -.-.u.cXfXdX_.dXr.X.X.X.D S S [ kXjXjXdXe.aXPXqXQ K.oXR.R.U.x.v.MXMXV.v.eXMXeXE.E.E.k.E.+XR.%XJX4X4X{.F.'.G.F.4XJX6XJX4X].s.a.e d.XXQ.+XE.E.Q.L.0 k z.z.d f x.MXHXLXLXZXvXIXPXqXQ tX).qXwXuX6.2.` U.OX%XKX).wXi BXUXJX3X.X.Xf.s.G.#Xg.h.k.h.n.@X#X@Xf.'.]..X4XKXHXU.b l.+X4X+XR.L.:.9XpXwXwXSXFXgXH kXPXlXuXrXLXHXBXNXMXv.k.j.k 7 0 L.Q.).<X+XW.G.G.F.;XF.F.OX4X6X6XJX3XF.F.F.F.J.4X4X+X+XQ.E.x.k.d.U.E.tXMXv.v.eXMXMXNXCXNXR.Q.+XK.g I.aX5.e.jXDXDXFXPX[ S X.S S X.r.fX_.dXxXlXy.-.X.D ....N N D D L [ | [ } /./.} J T T R [ S S L &.*.5.t.t.] ] sXnXe.] J J [ aX/.T ' T G [ gX/.! [ ^ { U 4 S L a #.@.L 5 5 $.C @.@. .4 L 4.5.;.1.] u 4 / 3.;.,.@.3 ; 3 y + X + % X % = B q.o.7.q.q.o.o.o.o.q.q.7.7.9.q.9.q.pX9.Z 9.iXzX9... .8.u.+.N %.uXuX9.<.%.%.-.0.0.wX2.:.",
"qX8X,.6.u.-.8.%.Z Z uXuXiX-.N  .u.8.N ..7.iXZX9.M 9.iXiX9.q.M 7...i.w.8.8.o.o.w.q.7.7.7.M = % % % + X & 3 , , 5 :.#.1.$.P 2 P 4.2.2.4.;.5 a D @.@.N @.5 5 O.Y ;.S 5 p J U [ [ U _ gX/.J W ' ' /.aXe.T J R e.sXfX5.&.t.t.5.*.R ] S T R R ] U F ' /.^.Y.[ [ { L a 5 N N .. .X...8.y.y.fXdXdXdXr.X.X.S D : aXKXDX2XjXdXqXqXhX( l Q.+XoXoXCXBXMXMXMXC.v.MXBXE.x.U.d.h.R.NXQ.OX4X3X$XF.F.F.F.3XJX3X4X6X4XZ.F.{.J.G.Z.R.%X4XAXQ.U.i 7 d x.k x.eXBXVXHXLXqXsXvXPXhXY.AXKXhXwXuXuX6.,.Q R.OXAXtXn f eXKXJX3X{.'.].g.@X#Xm.c.g.c.XXg.N.#XXX].'.].3XGXHXE.d L.U.AX4X+XgXhXpXbXbXIXUXUXgXK.kXsXwXvXyXHXVXoXNXSXNXtXz.t 7 0 K.Q.Q.W.3XF.s.H.*X5X5X{.F.3X6X3X6X5XF.F.[.{.{.H.Z.+XAX+XE.K.K.E.R.U.E.E.k.v.MXv.M.CXHXoXc.oXGXKXE.U.sX2.e.jX<X<XJXDX| 4 1 1 X.S y.fXfXfXxXzXi.8.-. .%...m N 1 5 D 1.5.[ T.aX' ' J T ] | T J S J 4 R t.t.=.e.fXfXfXe.U U J T aXjXaX' J J J gXkXE K ^ ] / 4 u L L #.$.2.O.C L L #.2.5 5 L I 1.wX3.;.I p ~ / s ! 4.2.C & * ; % + X X % % < 8.q.7.q.o...7.7.q.q.q.q.7.M 9.q.iX9.9.Z 7.iXiX8.%.%.+.0.%.C %.uX0.<.9.%.7.%.<.6.uX6.4.",
"yX,.wXt.6.-.%.7.Z 7.0.7.8.-.B ..8.%.%.-.q.iXiXZ 9.7.9.w.q.7.7.7.q.8.8.8.q.7.7.7.q.7.q...= % % + X X % ; * , C 4.4.a I ,.I a Y 1.6.4.;.s 4 L #.#.@.5 @. .+.2.#.5 U u u L / ^ ^ u aXkX_ J J T e.kXaXT J T L 5.fXfXhXt.r.=.r.O.J F F J J ] ] / ^ W Y.^./.T 5.5.D 5 5 m N ..Z Z 7.q.w.cXxXsXdXnXr.D S 1 : : jXKX2X_.`.dXaXaXyXL.NXHX#XoXc.CXHXoXoXv.M.c.x.E.U.E.U.R.U.K.oXGX+XG.Z.J.{..XF.F.3X6X3X6X4XF.H.5X1X*XH.A.F.3XOXW.).U.9 > d l.0XNXBXBXNXMXLXyXvXuXqXFXU.).UXPXIXbXpXpXLXgX+X<XtX0Xz.t MXHX4X3X'.f.XXm.#Xm.m.n.m.n.].].m.XXN.g.f.'.|.%XHXeXh 8XyXAXJX<XKXIXIXLXIXIXUXUX<X).kXkXmXIXLXSXQ.NXGXAXSXSXyX0 # 0 Q K.Y.J.*XH.H.*X*X=X5X*XZ.H.6X;X{.3X,XF.J.3XH.G H W.Q.R.k.R.E.Q.NXAXNXE.E.c.c.MXoX#X#X+XoX#XCXCXE.P.wXsX1.jXJX1X1X6X/.J : , S X.r.xXnXnXmXw.7.7.%.B ..Z N B N M N 2.sXY ] aX[ ' W W U R F J G F : e.r.X.e.fXfXdXe.e.R e.e.[ [ aXaX5.[ J S U aX^ u P ^ P L L D 5 #.$.=.6.#.a *.L I O.L Y L s 1.wX:.:.Y ;.;.^ / 0XvX:.- & C % X X % X % < B 7.q.7.7.7.7.w.q.i.8.w.8.8.o.8.q.q.7.Z M 9.iXiXi.9. . .-.%.+.%.0.0.7.%.%.@.%.0.0.lX:.",
"8X8XlXwX-.-.%.%.9.7.<.0.-. .%.-.N +.-.uXiXzX9.Z Z 9.q.q.q.q.o.7.q.8.q.q.w.8.%.q.q.8.8...= = % % X X ; 3 & 3 4.sX,./ P ,.;.I 1.4.4.I L Y I L L L #.D @.=.2.=.O.L a L P U U K K J 0XaXJ 4 R { e.aXe.[ [ e.] ] aXe.nXkXr.X.r.r.: : G F J T P P ! { T./.| R t.=.5 5  .B ....Z M o.7.9.u.xXxXxXxX&.&.1 : : F ).2X_.`.jXaX1.vX7Xk NX%X%XoXoXNXoXoXoXm.m.c.E.NXNXSXtXE.R.k.K.Q.W.D.Z.Z.*X3XF.[.3X].,X4X{.Z.[.>X=X=X{.H.G.{.OXD.H H 0 # 0 7XhXSXSXCXNXeXSXIXIXLXFXUX).gXUXUXIXIXIXIXUXKX+XDXSXwX8Xy BXHX%X$Xb.f.m.M.@XN.n.|.n.XXXX].XX@Xn.f.s.].|.%XHXeXt 8XtXSXJX(.SXUXLXIXIXIXIXFXDX).FXPXnXIXUXSX+X<XKXGXSXvXvXh # : Q Y.(.J.J.H.*X=X=X~.5X5XH.F.{.3X.XF..X{.J.,XJ.Z.A.A.K.K.A.k.K.k.E.MXtXE.E.v.MXoXCX%XXX%XGX#XMXE.k 7X7X/ qXFXJX2X~.2XDXgX[ : S S X.fXnXvXzXq.7.7.q.Z B B Z Z Z Z  . .-.6.1.e.aX[ ' ^ U [ W G e G T t.+.-.xXxXnXe.R R 5.aX] e.e.fXsXsX1.Y K J [ U / ;./ Y L L O.$.O.$.$.$.#.#.5.P D a L Y / a L 4.sXwX:.4.Y K /.I.yXwXa * * O % ; X % % = B 8.8.7.7.q.q.q.q.q.w.w...8.8.7.%.q.q.7.Z 9.iXiXiXw.%.%.+.-.-.+.-.%.8.0.9.%.Z 0.uXlX<.",
">.wXuXuX<.%.Z %.9.8.-.8.+.+.-.+.+.+.0.lXzXiX7.B Z w.9.%.%.8.o.8.i.q.i.q.w.9.9.9.%.7.o.m = % X + ; X % ; * :.lXqX3.3.s ,.,.4.sXwX;.P P ;./ L 5 L #.#.O.$.=.$.=.#.Y Y Y Y / ^ ^ / ^ U J P { aXfXsXe.| T.aXe.R *.e.nXt.xXr.&.xX} G G G ' [ [ / Y { aXdX*.&.6.N M Z %.Z %.B M 7.9.9.9.9.zXlXfXfXR R 4 S gXDXJX2X1X2XFXfX1.$.<.P.v.+XoX%XCXoXE.%XCXCXoXE.E.U.tXQ.K.k.g K.K.K.K.A.Z.G.,X{.{.{.{.F.3X;XH.H.=X5X=X=X1X*X{.H.~.,XY.K.w # t SXSXSXHXHXGXNXSXUXIXPXFXDX).DXKXPXIXIXbXIXUXAXW.DXSXtXB.f MXHX$X'.f.f.g.N.m.XX|.$XXXg.].'.@X@XN.n.f.f.].$XHXv.f n 8XgXDXOXgXSXIXbXbXIXPXSX2X).DXFXFXPXUXUXCXGXKXKXKXPXPX7X# q K.(.6X(.H.~.=X5X1X=X5X5X>X[.[.6X3Xf.{.$XG.J.W.J.e 9 9 H R.K.d.r g K.U.R.R.E.GX%X#X%XXXXXHX%Xc.oXl.7X3.@ Y kXFXDX2XDXUXKXQ.Y.q S r.dXhXSXiX0.iXw.w.Z M C %.Z M iX%.N @.-.2.e.sXaX{ { U [ ^.D.D.)./.fXD -.xXxXfXt.R R dXe.] [ ] aXkXkXt.1.Y 4 K 1.1.3./ Y 1.2.=.2.$.+.+.@.@.#.Y a 4 S I P ] / a ;.sXuXwX4.,.K { ! ) vX@.; o O * 8 % % X % N 8.8.%.0.i.w.7.8.q.w.i.q.8.8...%.8.w.8.Z 7.q.w.iX0.6.=.&.&.-.-. .%.-.8.0.Z N 9.0.uX6.",
"4.wXwX0.0.%.Z 0.-.0.%. .-.-.=.=.-.-.0.w.w.7.7.7.9.0.8.%.-.8.8.0.i.q.o.7.0.0.zXuX7.0.8.m * % X % t O X O 3 <.hXI ^ ~ p 4.4.sXsXqXP Y / U U J K D L =.@. .@.@.#.$.2.=.2.#.#.1.1.5.L K L 5.aXfXnXsX[ [ [ e.dXe.R dXkXfXxXr.S t.aX/.G S.' } ] Y 1.5.sXe.&.-.Z M 9.9.Z %.Z N M 7.9.iXiXiXbXvXt.fXe.S q Y.gXKXKXJX2X`.FXkX, 2 yX) v.E.XXHX%XXX%X%X#XCX%Xc.R.K.T.l d r K.U.U.r e 9 A.,X{.Z.,X.XF.3X6X{.[.*X5X6X=X1X6X1X*XZ.~.2X).Y.d . P.PXkXFXKXKXAXNXUXUXKXFXjXDX).DXjXPXIXbXIXIXSX<X<XDXBX8Xv f E.GX@Xf.'.].n.N.|.|.'.].].f.f.'.$X@XN.$X@Xb.].%XGXx.t f 8X0XDX<XQ.hXbXIXmXbXhXAXKX1X2XjXgXPXUXUXNX%XKXKXFXFXIXyX# q Y.W.1X,XS.H.=X:X=X1X5X5X5X;X;X3X5X{.G.3XOXA.(.W.q 9 9 K.U.K.r r r r A.k.r d.+X+XR.4X%XXXHXGXk.MXE.g hXq . 3.FXFXjXdXFXDXK.R.' T dXdXhXvXzXiXiXiX9.B N M Z B Z pX7.%.%.0.-.-.xX6.L ;.1.T.Y.G D.H T e.r.r.nXxXfXdXe.5.dXaX[ R J e.xXnXfXt.1.S L 1.4.;.I #.2.4.=.=.+.@.+.C O.O.L #.L J J 4 U { / U ,.sXwX;.qXK K p ) hXI 2 O % % % + X % % < 8.i.i.u.lXzX-.9.7.7.q.i.8.7.-.-.8.6.6.%...%.7.w.0.-.=.6.L *.+. .%.-...0.%.B 6.0.0.<.",
"6.0.<.w.9.Z %.0.&.-. .D +.2.*.6.&.-.-.w.q.Z B ..8.-.8.-.-.-.0.w.q.7.7.9.%.zXzXuXi.i.%.m % X + + + % * @ 3 wXwX^ K u ( wX0XvX5./ / ] / J J u U I #.I @.O.@.@.L $.6.6.2.#.L Y 2.4.L K L 5.sXnXxXaXU [ [ aXfXaXR r.r.nXxXr.r.r.T H S.G D.' ] Y O.6.t.-.-.8...B 9.iXZ Z V Z M M 9.pXpXiXbXvXsXkXfXJ Y.K.Y.FXFXgXFXKXFXu @ :.pXz eXc.R.HX%XoXCXOXXXCXXXw g K.g q r r l U.K.q 9 9 A.Q.W.A.4X*XF.6X6X.X*X>X5X5X=X=X1X!.J.S.~.2X(.K.k . yXIXPXFXKXKXAX+XHXUXDXgXjX2X`.DXgXhXLXmXIXLXgXW.<XAXeXA f d E.GX$XG.].|.@Xn.$X.Xb.s.G.].F..X$X|.N.CX#Xn.'.%XGXeXf f ) P.AX).Q.qXbXmXbXnXhXAXJX(.!.(.^.AXHXGX+XGXKXKXjXhXPXhX# r J.~.,X,X(.~.S.!.=X=X1X5X;X&X X;X3X3XF.R.W.W.Q.K.H g W K.Q r q q q 9 g r e r R.+X+X%XCX+XGXCXh.U.BX$ yXSX2 # J fXPXkXkXFX<X,X^.} jXkXhXvXbXw.w.q.7.M V Z M Z 9.9.7.9.7.9.7.9.i.-. .#.5.5.' H S.9 ' dXfXfXfXr.r.dX| | dXfXe.[ ] e.lXxXxXsX&.D D Y 2.:.#.#.#.=.+.$.@.+.$.@.D a L #.] L 4 J u J ] / 1.qXwX4.qX! p _ ` qX;.2 @ * O X X X % * & m u.cXu.lXlX0.zX7.Z 7.q.8.%.8.u.6.$.6.-.....8.8.8.-.=.&.1.*.R r.-. .%.0.9.Z 9.<.<.9.",
"$.6.9.<.9.9.8.0.-.D -.6.=.$.*.&.-.-.-.8.7.7.o.8.8.-.-.t.-.-.8.7.7.7.9.zX6.u.lXu.zX0.< & % % X X X - - @ a 9XqX/ ` K 3.wX7XwX3.] { [ K u 4 L U #.#.5 O.5 #.$.$.$.O.+.$.#.$.=.#.*.L 5 Y t.xXnXxXt.] [ aXdXdXe.} dX} e.y.fXxXkX| G Z.S.^.^.5.*. .+.t.u.7.7.q.q.9.9.Z Z M V M V 9.iXiXiXbXvXsXnXkXG (.<XAXPXkXkXFXQ.9 # 9XLXt f tXk.XXGX%X%X%X%X%X%Xg.9 r Q 0 0 d w q g Q Q Q k.K.Y.W.W.D.G.{.3X3X.X X:X>X5X1X=X!.S.!.(.1X(.,XW.K.. wXPXhXjXFXKXKX+XAXDXAX^.^.J.(.DXjXhXbXbXIXvX).).).AX8XB.f k MX4X|.g.g.%X#X@X.X.X Xf.].OX{.;X.X$X@XCXXXf.b.].NXNXl.f 9X8XyXSXgXkXIXIXnXIXhXgXAX~.D.D.(.DXAX+XGXUXKXFXgXaXsXP # D.OXH.*X6X2X_.S.G 1X=X=X5X-X X{.;X3X4XW.s.d.W.R.T.T.U.Q r u g g g q 0 W Q K.K.Q.+X%X+XCXCXCXCXoXk.yX- $ LXSXu . 4 kXIXPXPXKXDX)._.jXnXkXmXiX9.9.pX9.M Z 9.M V 9.M 7.iXq.7.9.q.w.%. . .Y T.Y.~.~.G `.jXfXdX| R e.r.R e.dXkXdX] e.sXt.sXxXt.=.L 5 D O.@.$.*.$.@.@.$.-.<.$.@.D  .L L Y R J J q J T.{ U p 3.qXwX3.T.qX^ hXwX4 $ , ; X % X & & & < -.i.u.t.2.0.w.9.7.7.Z 8.9.-.t.6.=.t.t.-.......-.-.t.&.5.1.5.t.6.X.6.8.0.%.7.7.%.9.",
"-.-.%.9.Z Z 9.-.-.&.t.t.5.=.=.O.t.u.-.....%.%.u.0.-.t.0.-.-.8.%.7.Z 0.0.6.-.t.lXzX%.m % = % X X @ 2 & @ @.wXqX^ { { 3.qX;.Y p ] { ^ u 4 U Y Y Y Y I @.C @.-.6.=. .O.+.+.=.$.#.D D L *.t.sXsXsXfXe.3.aXfXsXe.| r.r.} R r.e.kXjXD.J.^.^.[ *.O. .%.0.0.8.7.q.iX9.V uXZ M 9.Z M pXiXiX9.mXbXnXkXjX/.2XDXPXPXIXIXgX# # U.UXeX. f E.k.GXGX%X%XCX%XCXoXQ.K.Y.L.q r g l g u g g L.U.Q.Q.K.K.e A.4X3X.X X[.*X>X=X=X=XS.S.^.2X1X*XJ.W.Y.. c yXaX).AXKXKXGX+XAXGX(.~.D.W.2X).hXvXIXIXIXFXSXSXyX9X8Xd E.GX4XG.f.g.%XCX#X$X;X;X{.{.G.3X3X3X%XCXCXM.a.f.].GXHXx.d v >.8XqXqXfXPXIXnXnXyXQ.AX(.(.1X6XKX+X+XGXJXW.AXgXgX3.> : K.{.[.*X2XDX2X!.G _.=X&X=X;X.X;X.X$X<XOXA.r r K.tXI.L.x h l ( ( ( E Q U.U.K.L.E.K.E.VXCX%XCXGXNXv.B.$   i yXKXI.# n SXIXPXFXFXjXDXhXPXIXIXiX9.9.iX9.M Z Z M pXpX9.9.iXiX7.7.q.iXM m  .&.e.).(.(.G G Y.R | e.R r.fXr.fXfXfXe.R R r.5.t.t.6.=.=.L L D +.+.+.$.2.$.=.2.2.$.=.$.@.=.L L Y ] J q J [ ] K 4 P qXsXhXhXaXT.sXhXI 2 , * X X X O & < N 8.y.xXr.+.$.<.0.%.9.%.7.8.-.=.=.-.r.+.X.X.-.o.-.8.t.5.5.5.5.] 5.t.-.%.<.%.-.%.%.%.",
"8.%.Z 9.9.9.7.+.r.t.1.R 1.5.6.-.8.-.o.-.o.-.+.$.-.-.=.+.-.8.7.%.7.7.8.-.5.&.-.zXi.8.m = = X % X   $ - a 0XhXqX3.aXkXhXsX0Xa : ^ [ ^ J J U ] Y Y #.@.O.2.2.$.<.+.=.-.$.O.@.D @.O.L #.2.6.sX6.5.t.5.U e.fXfXfXr.r.r.&.R dXT ' D.' (.(.).5.=. .N B i.q.o.7.w.iX9.Z iX9.V Z V Z 9.9.9.V IXmXnXkXe.`.jXDXnXnXmXhX> 0 AXUX8X$ . 0 E.E.CXVXCXNXCXCXR.R.U.Q L.I.Q Q L.U._ E l g L.U.tXU.K.q r W.3X,X.X;X-X*X:X!.:X=XS.!.`.DX6X=XH.[.W.$ $ :.hXDXgX<XHXGXoX4XKXDX1X,X).2XT.sXvXmXmXmXaXT.qX8XA v 7 Q.KX+Xn.s.a.oXVX%X3X3X3X5X3XF.6X3X4X$XVXVXc.p.f.].4XKX+X6 t y 8 2 : : L sXkXvXtXyX+XA.W.,X6XJXoX+X<XR.Y.gXgXI.a # 0 Q.*X[.*X2XDXDX`.D.G 1X*X*X;X>X3X{.{.J.R.Q.L.r K.U.L.P.I.P.b x ( b I.eX0XQ d w U.d k.CXHXM.#XVXE.rXA $ . . g KXAXE.P.7XnXnXnXPXkXaXhXnXmXmX9.M 9.9.V Z V M M 9.9.M 9.iXiXq.9.w.q.M m %.-.5.aX`._.!.G G F } | e.r.fXkXfXfXdXe.U R 5.*.*.&.O.6.6.*.2.=.+.D 5  .2.6.6.6.$.$.uX6.L #.D L Y ] [ U ^ J J K p 4 0XhXkXhXgX{ T.qX1.5 3 - + % % O = C N 1 -.u.=.=.6.-.6.0.9.%.%.6.8.+.-.=.O.O.O.&.-.X.X.8...0.sX5.] R *.t.=.-.%.%.8.0.%.%.",
"-.-.%.0.8.%.8.+.&.5.5.] ] 1.u.-.o.o.-.-.-.&.=.D $.$.6.%.8.8.....q.<.<.6.O.&.r.r. .< N m % % % X O 2 2 a qX5.{ T.gXkXhXsX/ u J J E J K U U *.Y 5 L @.2.sX$.+.6.-.6.=.@.5 D O.$.2.=.2.5.=.#.*.2.2.O.R R e.fXxXfXr.fX| ] | G G e G (.).dX5.-.%.B M q.pX9.9.iXiX9.V 9.9.M Z Z Z Z 7.Z Z 9.IXIXxXr.dXfXkXmXnXsX^ Y.Q.AXDX: . . 0 E.E.NXBXE.MXHXMXj.l.g 0 g I.P.U.U.b E Q U.U.U.L.L.l q K.Q.W.J.{.$X.X5X;X&X=X=XS.G _.jXDX1X&X&X=XW.g $ 2 E ).AXW.R.4X%XOXJXJX(.J.A.Q.tXwXmXvX2.S , > - 2 y - w GXKX3X].s.w oXBXNX$X3X3X5X.XF.3X3X4X+XHXVXj.a.f..X4XJXJXE.d 8 ; ; @ @ o 4 sXPXLXSXk.r D.W.,X,XR.+XOXW.DXJX).u # > d Q.3X&XH.~.2XjX`.^.G S.=XH.{.3X3X3XG.A.A.T.U.Q Q U.I.P.7XeX( j x b I.tXSXU.n k U.z.k x.NXVXoXNXE.n C + . # 9 +X<XQ.HXhX5 r.xXu.xXxXmXmXcXi.o.o.7.7.Z Z B Z B 9.Z M 9.iXpX9.9.9.9.M ..8.u.-.e.| `.!.!.S.G J e.r.dXr.xXnXr.&.R R R R &.O.O.O.=.2.2.6.r.=.+. .D +.@.$.6.2.2.2.2.*.O.L L #./ / ^ J J J ^ J p ] sXhXaXqX[ _ qXqXa 2 3 & % % % * ; = = 1 t.6.-.=.6.t.6.<.%.-.-.-.-.-.6.-.=.1.=.&.X.-...8.8.6.4.5.] U 1.2.+.-.-.%.-.8.-.",
"-.%.-.8.-...%.X.=.2.U / 5.6.u.8.8...X.X.&.&.&.2.6.6.-.-.0.8.7.7.<.0.0.t.r.5.-.-.1 = < = % % % % * , 2 @.wXqX^ [ aXsXsXwX/ p U U J J ^ ] 1.Y L D I $.$.6.6.$.6.-.+.O. .+.=.=.2.6.6.2.*.#.*.1.*.*. .O.D e.fXfXxXfXr.r.dX^.G G D.~.`./.e.6.u.0.B N 9.9.9.9.iXbX9.M Z Z Z B N B Z 7.9.Z 9.iXmXmXxXxXfXfXxXR J gXSXW.AXT.# . o 2 x.x.BXeXrXVXeXh.k.eXl b l hXSXT.Q g j Q I.qXI.P.U.I.j Q K.K.A.G.OX3X3X{.H.=XH.G D.DXjXjX=X!.&X=X<Xw t $ g Q.DXGXW.%X%XXX%X,X~.A.r k.SXPXvXwX1 @ @ * ; * 2 z Q.HXKX4X].f.a.j.BXHX+X4X3X;XF.F.].4XGXHXBXeX6 a.'.[.3X4XGXCXv.8 + - * * , @ #.4.vX8Xl.Q.W.W.OXOXXX@X4XGXJXDXAXL.$ t h W.5X>X=X!.^.`.dX_._.S.D.~.*X,X4X6X,XW.U.K.g q Q l ( U.T.U.I.I.b l h U.BX9Xk 8Xv yXk z.eXrXU.HX9X>.a @ # # 0 ).HXQ.NXhXR 5 1 X.X.5 %.0.w.7.M 7.q.M Z 7.B %.Z Z V V iXZXpXiX9.M 9.M B w.i.u.&.e._.~.1X~.D.Y.fXfXfXfXxXnXr.R R D O.O.&.2.t.6.=.O.*.2.-.-.6.-. .@.$.=.6.4.2.2.2.#.2.1.2.$.#.] { T U J K ^ K ] aXgXaX{ ^ ^ qXsX:.3 * & % % % % & & =  .u.r.&.6.6.6.-.2.$.2.0.u.%. .-.6.6.4.*.D  .-.8.o.8.8.6.5.aX0Xe.5.+.+.-.+.-.0...",
"%.%.-.6... .-.-.=.5.sXqX4.t.0.8.8.X.-.&.D D 5.5.6.6.@.%.0.0.7.+.+.6.6.5.&.&.-.u.m = = = % % & & * , 4 :.sX0X^ W T.aXsXaXP K ^ J W J U ] Y L *.5.2.1.#.;.4.6.6.=.O.O.L =.=.t.6.6.*.O.O.2.6.t.=.#.&.L O.&.r.fXnXfXkXkXkX^.D.(.1X~._.dXr.-.i.i.B M M Z 9.9.iXZXiXV V Z 7.Z Z %.7.%.9.Z M 7.8.-. .D  . .5 5 4.SXQ.).KXqX: o @ - v rXLXrXeXrXz.x.8X8X8X) P.yXtXl h U.L.U.T.eXU.n j b u g Q K.W.+X4X6X{.*X*XS.G _.2X).DX(.!.=X=X1X<X0 0 # W gXDXKXJX$X$X].G.OXW.W.Q.K.qXhX4.a > @ , & - * t U.AX4X$XOX].f.a.p.MXLXCXGX3X}.f.{.G.6XGXCXBXh.6 f.{. X,X3X6XGXMXd 8 % - 2 , @ , 2 y z z.AXQ.<XW.OX4X4X4XJX<XA.Y.Q # 7 t Q.1X>X=X!.~.`._.`._._.D.Z.J.(.4XJXAXQ.K.Q q u W u q g E Q Q L.U.L.tXtXL.8Xh n n c i v B.rXv 9Xa a a @ . # T.tXT.I.T.FXnXD < , < * < < m = = m o.o.7.7.B 7.%.B B Z bXbXiXpX9.M 9.M o.i.i.8.r.r./.(.1X*X(.).jXdXr.fXfXr.r.&.&.S R O.&.-.t.6.+.L L L -.6.t.6.$.O.@.1.1.2.5.1./ #.qX6.6.2.Y / ] ^ J u J { ^ U { aXT.[ ^ W qXwX>.3 * & X % % % % % < %.u.-.=.6.6.5.=.4.2.$.-.0.-.%...$.wXsX*.e.t.%.8.8.9.8.t.2.5.sXqX/ =.-.&. .-.-...",
"%.-.-.-.X.+.-.=.=.4.sXsX#.6.8.o.8.8.X.t.r.R t.e.;.@.%.6.0.-.+.$.6.2.5.5.5.-.t.u.%.= % % % % % O @ , 5 4.wX` _ [ { T.0X{ ! { [ q J ^ ] U R *.6.sX4.2.;.1.2.1.=.&.=.O.O.=.6.t.6.=.D D O.6.t.5.=.=.O.O.D &.r.dXfXfXfXdXjX`.1X~.=X_.} e.r.8.i.i.7.7.9.9.Z iXiXiXiX%.Z Z 7.7.B %.o.B M M = m = < * * @ , , 6.nXPXqXtXW [ L . o - y z B.z.8XeXv y z c c i z.l.L.BXI.L.K.L.l g j j u u q q g Y.Q.AXJXJX,X(.S.G =X`.`.DXDX(.!.=X=X=XQ.w $ 0 W A.A.).<XJX4X4XOX<X<X).AX( t y > @ @ , 2 * % 8 d Q.GX4X3X3X;X].a.6 x.BXHXGX3X'.F.{.f.%XHXHXNXd 9 f.[.3X5X6X4X4XoXx.x.f 8 - @ @ @ 2 @ 2 t qXU.DX4X].$XJX4XW.H G W.Q.d 7 0 K._.=X=X=X_.1X_.jX`.DX(.G A.W.<X<X).K.K K u u E K Q j q q g E g Q tXBXl.P.n t >.i t c C A C a * 2 @ @ . > yX0Xs 0X_ gXnX@.< = = * & * % = = m m M M B B 7.-. .%.<.9.uXbXiX9.9.pX9.7.y.8.o.8.r./.(.*X*X!.(.dXe./.e.r.r.r.&.R D L O.*.=.=.t.6.O.L #.&.r.u.-.=.=.#.O.R U Y 3.] ] sXsXsX2.Y U ^ ^ W K ] { K K _ { [ [ [ _ / 0X>.5 , & % % % + % O & N -.0.t.2.1.1.5.5.2.$.6.-.6.6.+.N 6.lX5.lXxX .N i.8.%.8.=.6.aXsXsX*.-.-.-.+.-.+.",
"0.-.+.-.-.&.6.O.6.5.t.sX2.-.7.8.zX+.D lXxXe.t.t.O.@.6.0.6.6.$.6.wX1.1.2.5.u.u. .< O X % % % O O @ , 5 4.0X^ _ ' [ [ { ! p _ T.W W W [ U L *.2.aXsX5.3.qX/ L Y Y O.O.=.t.u.t.-.O.5 O.-.t.6.O.O.&.O.D D &.5.R e.r.5.e.gX(.H.!.&X(.dXe.-.o.o.8.8.8.9.pX9.pXbX9.uX<.Z %.7.7.M M ..m M m = = = = = < < < 3 4.vXqX>.) ~ wXqX@ . @ , @ t h ) n c 3 2 C y y z.z.eXSXU.q Q Q q q j E E ! E g E g W Q.).AX).A.G Y.DXjX`.DX_.1X1X=X~.).T.w 0 0 Q.T.r G W.,XJX4XG.AXAXW L.t - $ 2 $ + $ $ 8 v L.R.+XGX6X6X6X X'.s.6 h.VXHXGX|.f.'.{.F.+XGXCXm.9 s.'..X3X3X*X.X3XXXoXNXtXk 7 $ $ $ - $ 2 $ j ( gXNXR.4XJXW.A.Y.jXFXFXU.6 # W `.2X~._.~.^._.jXDXjX`.).H H ).Q.T._ W E _ ^ ^ T.T.L.E W W Q g g k.tXBXn 8Xs 2 4 5 a 3 S @.a @ . . . . u ~ @.$.1.J U 5.5 1 m 5 5 2 , * = = m m = m m m ..8.-.-.0.-.<.bXiX%.9.q.8...8.o.y.o.X.e.^.!.H.S.S./.aXaX] R O.&.r.*.R &.*.&.&.&.u.6.&.D O.&.-.t.6.=.$.&.R L S K ] qX{ aXsX4.1.1.] ^ ^ ' ^ ^ E u J { [ W J { T.! 0XqXa < @ & O % + X X X = B -.6.2.Y 5.e.qX3.6.sX2.=.-.$.+.-.6.5.sXsXO.+.0.0.8...-.u.sXxXnXL &.t.t.-.+.+.",
"0.+. .-.-.r.=.L sXnXlX-.-.-.%.lX6.$.=.6.t.6.&.-.+.$.6.@.2.sXwX2.3.5.1.;.2.6.<.1 * O + % % + O @ , , a wX3.` T.' E W qX` u K W ' _ _ ^ U ] 1.1.sXhX3.aXaXU J L L O.=.&.2.t.6.=.O. .+.-.t.-.O.D &.&.&.&.e.| R R R e.aX).D.S.H.=X^.| D X.y.o.o.o.o.9.9.M 9.zX%.9.0.%.-.-...m m m m = = = < = 3 , 3 3 a 2 5 6.a @.4.I I D : . . . . > ) x > a c 1 4 3 8XV.BXBXU.q j L.L.l l E { { T.[ _ W E K.T.T.Q.Y.H Y./.jXjXjX/.~.(._.^._.DXL.# . U.KXFXDXT.H D.JX4Xk.AXgX! z - - $ 2 $ $ 7 8 j.NX+XR.R.OXOX{.3X5X.Xf.e w MXCXCX$Xf.F.].g.%XCX#Xc.6 s.{.;X3XH.Z.F.'.R.R.oXoXE.k.h.8 $ # $ - > 2 a i U.k.+XOXH Y.jXFXDXKXtX# . j aX`.~.!.=X1X`.).jXaX).gXW T [ W K.qX_ ! T.{ [ _ W E W j Q T.T.k.h E.SXrX8X~ o , a 4 , : i 2 : # q q J 5.6.%.@. .L u S 5 N @.@.;.;.#.C C 3 5 m N < < m X.o.-.8.u.6.%.iXiX<.7.0.q.q.8.o.i.o. .e.gX=X*X!.D.Y.| { R L R &.R &.5.=.&. .O.-.u.-.&. . .&.=.t.&.&.&.*.R R U J [ aX5.qXqX] 3.aXT.' W _ W E W E _ T.W W ' T.qX! 7XwX@.5 & O X X X + % % = 1 N 6.6.4.4.qX0X1.sXsX$.L $.-.6.=.O.5.6.2.sXsX#.-.u.i...-.u.nXsX*.*.6.t.6.+.-.",
"-.8...-.u.6.5.1.5.nXlX-.-.8.0.6.2.aXsX6.-.6.+.+.-.-.&.L ] sXaX{ [ aX5.2.6.<.C m % % % + X X + @ , 5 :.wX` I.T.Y.W W _ ` I.I.W r W ' ^ [ aX5.] ] qXT.qXT.T K U R *.-.&.O.-.6.&.+. . .-.t.t.-.&. .5.r.&.R R R R Y 2.1.Y.J.S.=X=X`.&. .o.y.q.o.q.q.q.9.9.pXu.%.-.y.r.-.o. .m = < < B m C V C :.3.qX:.@.Y U 4 p #.5 @.6.sX[ F H e : : 4 u @ , 5 , @ - 9XeXNXBXl.g ` Q.L.g E E E ^ _ _ { T._ T.T.^ [ _ W gXjX/.dX_._.1X(.!.^.`.gXg # # yXUXFXkXDX).e W.+Xk.b i 2 2 * 8 + # 7 d h.v.oX+XXXG.].G.F.F.[.3X;XF.s.p.c.VXVX@X'.'.{.XX%Xm.n.g.p.b..X3X{.Z.Z.F.'.].g.g.g.XX+XCXoXv.$ $ $ - o % - h k K.e ' jXfXhXhXUXUXd . > U aX^.~.2X2XjX/.).aXaXaXT.' E J ^ ^ K p ^ ^ J J K P E u g tXyXl.k z.SXZX8Xa , , , : # : : q (.(.).DXgXxXmX0.5 D 4 u 4 #.@.@.~ 3.` ! ;.<.C 5 N m m m < m o.r.y.y.+.+.0.w.7.%.i.zXq.o.o.8.8.X.r.jX_.=X!.~.^.' [ 1.R *.R R *.5.&.=.=.-.-.-.-.+.+.&.O.&.5.=.O.5.*.R ] T J U /.{ _ ^ { [ qX[ W ' T.^ ^ qXaXT.E K ' T.I.T.( ` qX$.1 , * @ + X + % O % * 1 <.sXsXwXqX3.3.qX2.Y #.$.2.&.+.+.-.6.wXkXhX*.6.lXi.o.7.u.lX&.t.t.O.2.6.6.-.",
"-.-.o.-.6.1.5.sX5.t.u.-.-.0.mX6.] sXvX6.6.-. .&.-.=.=.#./ / qXqXqXaXqXwXvX0.< & % % + + X + @ * , 5 wXwX_ _ qX[ T.E E _ T.gXT.W W [ ' U { 3.R U ^ [ T.' ^ ' U 5.L 2.&.O.2.-.+.+.=.+.O.-.-.-.-.&.&.R &.R R R ] ] ] J ' 2X,X=X=X`.r.o.o.o.o.o.w.iXiXZ 9.9.6.+.$.8.y.8.X.< m < m m C C :.4.c / / / 4 L P U 4 4 a N  .t.nXnX`._.1X2XY.q : : : , , @ 2 >.yXZXeXk j T.yXQ q p K J J J ^ _ K q J K S J ^ 3.hXaX/.`._.`.2X1X^.^.gXQ 0 . 7 SXUXkXgXkXgX' r K.g i , @ O - - $ 0 E.BXVX+Xm.g.f.].].g.f.Z.[.;X.X.Xf.a.g.n.XX%X].|.{.].n.g.n.XXf.$X;X}.'.Z.J.F.{.XXf.f.g.@X@X%X%XCXR.k 7 $ - - y 2 2 j ' jXkXfXfXkXUXUX8X# . @ / DX`.1X2X).).)./.gXjXe.e.U u J u u K U J J J U p p p p qXyXl.d k rXvX9X2 . . @ : : ' D.2XJX6X(.2XkX2. .5 1 5 p L P P a ,.3._ T._ ~ >.c 4.C * B m < < X.o.y.i.N %.6.6.+.%.cXzX8.o.o.o.q.8.+.fX(.!.!.1X_.Y.0XaX5.e.] R R L Y &.-.-.r. . . .=.+.O.&.&.*.2.t.*.R [ [ J T T._ _ W _ [ [ ' W T./.Y.T.gXgXI.K W I.W ^ _ 0X` sXqX, , @ @ + X X + X X O , <.lX4.0XsX0X3.3./ ;.e.5.*.*.+.X.+.6.sXwXe.aXt.2.w.w.w.u.t.t.e.sX*.O.u.6.-.",
"....-.xX&.R aXsXlX6.u.u.u.u.u.wXqXsXsX0.6.-. .&.&.*.5.qX3.{ I.T.qXgXwXqXpXC ; X X X O X o o & * * a sXqXT.{ / U / ^ W E T.jXaX_ /./.[ W [ _ T.^ W [ T.W J ' T [ U e.e.5.Y &.&.O.+.&.O. .-.8.-.-.D S S R | e.5.e.[ | `.(.!.^.^.jX&.o.y.o.o.o.o.y.cX-.+.8.6.N  .y.y.o.o.< = B m - >.,.( I.! ` I.^ e.I L P P s a 5 D 5  .R jX2X1X6XJX).Y.F : # # # $ z hXyXa i i 7XqX( E p K ! K U K K J J 4 S S J 5.5.hXgXgXT._.(._._._.DX/.# #   tXIXnXnXhXkXPXjX] J : 2 t t + $ 8 j.+X%X$X$X@XXXa.b.b.{.{.'.F.F.H.[..X$Xn.N.n.b.n.|.|.].%Xb.f.n.|.%X4X.X].f.f.G.].OXg.s.f.n.].|.|.|.].%XXXx.d 7 t > - 4 D &.kXnXxXnXFXSXUXUXt . . q )._.D.D.(.(.)./.gXaXaX{ ] I 5.L s U K J J J J P K K ( ,.>.c a t - :.x # # # 9 Y.).DX2X2XJX5X(.DX[ , 3  .5 4 4 p L P P P 3.aXaXE p j u qXLXy N C = < X.o.o.o.m X.-.t.&.r.mXcX-...o.8.i.8.&.fXjX`.D.D././.5.5.1.1.R T S D &.X.-.-.&. .&.=.&.O.&.R R L 5.sX| ^ T ' J J T./.T.T.T.' T.[ ' T.' ' T.aXgX{ ^ { { ^ ] ^ I.` qXwX5 @ , * & O X X + O X & C wXwXqXyXqX0X0X0X0X,.3.1.1.6.+.+.8.u.t.sXvXsXY -.cXi.y.u.u.u.t.2.+.6.t.+.",
"o.-.-.=.*.5.aXt.t.u.u.cXy.&.=.sXkX6.6.uX6.+. .6.e.*.R { 0X0XqXT.tXyXqXwXpXC % % % X X X O * ; , * I sX7X/ ` / / 1.{ { W T.gXT.[ ' [ ' _ T.' Y._ Y.T.).W J T T U R e.5.R R *.*. .&.&.&. .&.-.-.&.&.&.D T R R R *.[ [ ).D.^.2XDXdXr.8.y.8.o.X.X.cXmXr.+.-.0.@. .X.o.o...< m N C a PXQ.g u p { aX5.5.L u L P s p a 5 N 1 , aXjX,X6X6X5X2XDX^.G : # . $ ) u , 4 a c 7X) ! P P ^ K K ^ P P U J *.] S 1.5.aXaX).).(.^.D.D.^./.H # . 0 SXPXhXnXnXkXFXnX5.D 4 @ $ t 8 h.c.oX%X].'.].|.].g.f.a.f.{.G.F.F.F.'.$X%X$X|.n.n.|.%X].XX@Xb.'.b.|.%X$X].f.f.s.s.f.d.s.f.b.b.b.b.b.b.].$XXXm.c.U.d # @ C X.8.xXkXsXxXIXPXSXUXyX# # J [ ).(.D.D.D.).T.T.[ { ! P Y 1.1.1.I K / / J ! 3.3.,.;.I a 2 5 2 > > > 0 W Y.<X<XJXJX,X(.6X2X2X).u @ 5 a C O.#.L P p p J T ] aX^ W j L.T.UXqXy m m m m X.X.m ..8.-.r.r.fXmXbX..X.o.o.o.o.r.xXkXFXFX/.aX[ T T J R T R R O.r.8.X.-.&.O.*.5.=.&.O.R Y S U | [ J [ ' J G [ Q.Y.K._ W Y.Y.' T.[ /.T.T.aX^ { e.wX1./ / / ! qXwXL 2 , , * O X % O & % X y wXwXP.qXtXqXqXI.T._ 0XqXsX6.$.$.-.6.6.6.sXfX*.6.lXcXy.t.r.5.6.fX6.=.-.+.",
"%.-.=.&.e.t.6.5.t.t.y.cXcX5.*.vXlX6.6.0.-.$.&.5.e.qX{ ` { tXqXtXtX7X7X9X<.; + % % % X X O * , , 3 2.yX{ ^ ^ / Y 5.5.qXT.T.T.T./.[ T.' [ T.' Y.T.W Q./.W q ' [ U J e.U S D R R O.&.=.-.+.&.-.-.-.r.&.R R R [ U L U [ aXT.FXPXnXxX8.o.8.o.8.o.X.u.cXfXt.r.6.8. .m X.o.m < M 3 - BXFXU.W E ^ 5.aX[ J S L P P s #.a D D , @ K jX2X6X5X*X1XJX2XjXAXtXW.0 : # 0 4 4 4 y ~ 4.7X,.~ I ! ! P s 3.;.Y ;.L U ^ ' T.W.).^.D.G Y.)./.r # # yXUXLXnXnXmXfXfXnXr. .O.@ $ l oXm.XXXX$X{.f.b.n.f.n.g.s.s.f.d.s.s.f.f.N.%X%X|.b.b.b.#Xn.n.n.a.|.|.%X$Xm.n.n.R.G.g.d.d.a.s.a.f.b.n.f.b.]. X].].OXAXQ.d 2 @.+.r.fXfXt.mXIXPXSXLXUXi . q E Q.).Y.H Y.).).Y._ [ P P 1.I @.:.;.a a ~ s a A <.:.V a 2 : . : W g Q gXHXKXKXDXJXJX*X=X5X2XjX' : O * , 2 a C I s P ^ J J T /.T.Y.K.Q.R.SXgXt , 3 %.X...m m %.i.t.r.r.fXnX0...8.8.o.o.r.r.xXnXnXPXsX0X[ T J T e.5.[ R R X.r.X.X.-.-.2.6.=.=.R *.R S J [ [ 4 T ' J F ' /.T.Y.Y.' [ ' W ' T././._ T.[ { qXsX3.U ^ ^ ! qXwX;.a , , O O X X % % % + % C wX>.tX7XtXhXgXqXI.T.5.e.e.$.$.-.-.-.-.sXsXwXt.lXmXcXt.-.&.t.cXsXO.O.=.",
"=.=.O.O.t.cXt.-.-.t.xXcXxXsXsXsXwX6.6.6.-.2.=.6.e.qX{ T.qXgXyXqXqX) 9XwXy O % % % % X o o @ * , I 4.qX/ ^ ^ P U qXaXqX[ [ [ ] aX/.[ W ' ' ^ _ ' Y./.T.F F [ T F J | U J L *.R &.&.e.r.&.-.+.=.&.-.*.R ] | | T S T U e.aXnXPXnXmXy.X.X.o.8.q.%.6.xXxXfXr.u.u.%.< m X.o.N 3 2 h HX<XW.T.{ U T.T.F J U K P P / ^ 2 @ , @ o > T.AXJX6X,X1XJXDXJXKXUXKXR.d.K.W # @ 4 2 y :.:.I a y a c s c 0X~ s 3./ u ' _ T.).).D.H D.`.T.Q q . t UXHXFXPXIXmXfXfXr.r.X.I 2 k +XGX@X].G.[.].b.f.g.g.g.g.a.a.d.g.G.c.XXc.g.m.#X%X|.n.f.|.@Xn.f.b.|.3X%Xn.a.g.R.c.c.XXR.c.g.c.n.a.f.a.f.].'.F.F.{.OX4XJXQ.h a  .X.r.fXfXnXmXPXSXhXUXI.. : g _ T.T.W q ' T./.W E u ~ wX@.a C A a 2 2 3 - ; ; ; & @ O @ : W DX<XQ.KXUXUXKXJXKX6X*X>X6X2X' u , * * $ t y y z x ! E H J W aX/.W ).<XW.D.GXtXy 3 a  .m < m N u.t.t.r.sXxX0...8.y.8.o.X.r.nXmXnXlX2.;.Y T T T [ /.[ R r.r.X.X.X.&.6.lXt.=.&.L *.] S U e.e.F F [ ' q ' T.K.W ' ^ W J W T ' [ [ T _ [ U 3.aX5.U ] ^ ^ ` 3.4.@., & O O % O O % % % + 3 ZXtX8XU.U.hXSXSXqXaX] R sX2.<.-.-.%.%.sXsXvXaXsXlXxXy.-.-.t.nXu.&.+.=.",
"5.#.*.O.6.cXy.8.X.u.xXfXsXsXsXwXuX$.$.-.<.-.6.sX;.0XT.gXSXSXhX7XP.U.yXZX; % % % + % % + O O , 3 :.4.` ^ ^ / Y 1.sX3.[ ^ ' ' J [ [ ' ' W T W T.' ' Y.T.F J ' T : T sX[ 4 U 5.R L 5.6.t.r.&.X.X.-.=.e.[ ' /.} T F R &.&.$.t.mXcXcXy.X.8.8.q.q.7.-.lXsXt.t.y.-. .< < 1 ..C 3 B.SX+XG.W.^./.^ aX/.W E g Q l.b l d u 2 $ 2 2 2 E T.DX2X(.5XKXKXKXUXUXUXGXAXKXQ.u : @ * @ % * - * , 2 2 y A A s A wX,.p W _ Y.T.W r q [ T.` x 0 . eXKXSXSXnXnXnXfXdX&.X. .5 h AXGX3X3X XF.'.'.f.f.a.a.p.c.m.c.c.R.M.M.m.m.a.g.XX4X4X|.'.b.}.b.b..X$X4X@Xg.a.g.g.j.c.c.E.c.R.oXm.n.g.n.f.f.f.F. X;X;X;X4XGXtXy 1 5 &.fXt.e.vXnXhXSXKXyX0 # 7X7X( ! p u : J W u p p ~ wX>.A a 3 3 * O O o O O X % O * 4 T.gXKXKXGXKXUXUXKXJXKX6X[.1XDX/.E I C C f z n z.l.U.L.K.W K.Y.^.DXjX/.T.Y.W.Z.,XUXBXu , C N = < m 8.t.fXfXfXxX-...8.8.q.0.8.y.xXxXlX-.%.@.#.[ T ' ' ' } /.e.r.&.X.X.&.u.lXt.*.D R e.1.4 S aXfXT J ] [ F J [ ' J _ [ [ T J ' [ [ _ J E ^ ^ ] 5.sX] U ] ` K / wX#.3 , O & % O O % % % X C yXrXeXtXeXtXgXhXgXgXe.5.sXe.6.-.%.%.%.<.lXhXaXhXsXsXu.-.r.lXxX6.-.6.2.",
"1.Y 5.6.-.i.i.8.-.t.t.aXhXsXsXsX6.%.+.$.6.6.6.sX0XaXhXgXgXtXtXeXyXrX9X9Xy % % % % + % + @ @ , 3 wX5.U E { ^ ;.5.sX1./ [ W J J [ ' [ ^ ' ^ T.[ W H [ Y.J ' [ T J T.dXT 4 R sX1.D O.r.u.t.&.X.O.r.r.t./.} ' ' } T R &. .B ..i.cXcXy.-.y.y.8.q.7.%.lXfXdXt.r.X.m < < N 5 $ z HXKXOXD.J.^.).T.jX`.W.K.K.E.K.k.U.k P.z y y z >.P P jXDX(.,XJXKXKXUXUXUXKXGXKXKXgXp @ & O X O O o O O o * 2 a A A wX>.p p u g q 0 u j ~ c wX:.# 6 SXSXjXFXvXlXsXsXfX&.S < y SXGX3X3X-X-X[.F.F.f.b.n.n.m.m.m.v.v.oXc.j.h.c.c.a.g.@X3X3X}.}.}.b..X.X4X$Xn.c.c.c.j.g.c.E.E.j.c.c.c.m.N.VX@Xg.f.'.-X:X-X-XOXGXUXA , , e.fXfXaXsXnXPXhXSXKXk.. n wX,.@.C c 2 : : > s 4 y ;.C a 3 @ O + o o o & ; ; < = 3 a I.gXKXAXJXUXUXHX<X1X6X5X,X<XDXT.s a C f t d w d k.c.d.r A.W.Q.DXDX).).(.Y.1X,X,XKXUXP.$ y Z < = ..X.r.fXdXfXlX&.-.i.8.i.cXi.xXy.y.y.7.....O.&.} } ' } } } /.} r.&.&.-.y.6.6.*.D *.fXt.J 4 [ fX[ R [ [ T ' /.Y.J ] qXaX0X[ [ | ] [ J J E 1.3.1.qXe.U ^ { K ,.sX2.1 , @ o o O X X X % % y A B.BXBXtXE.U.tXhXkXaXe.5.sXsX6.+.%.%.-.<.wXhXhXaX5.t.6.6.y.u.-.6.u.6.",
"Y 5.sXsX8.8.i.8.8.r.] aXkXhXwX0.<.-.-.$.6.lXsX4.aXhXFXAXQ.L.E.yXSXrXz.A y % % X X O + + O @ 3 C 6.wX^ ^ ^ ^ Y 5.5.] 0X[ J J T [ [ [ ^ [ aXaX[ J E /.T.' ' | R T e.aXJ 4 R fXe.D D &.t.-.-.r.r.&.e.e.^.} !.^.} [ R X.....%.0.i.y.y.y.i.i.0.zXw.<.t.xXfXr.r.X. .< m @., @ eXUXGX4X1X,XY.^.' /.2XDXOXQ.c.a.k.E.k.w d f f f v c 4 aXjX_.1X5X5X5X4XJXKXJXCXHXSX0X~ 3 3 3 3 ; * % % X O o @ - y a A a 2 4 t 2 > 2 a C C :.wXc @ Q KXFXhXPXkXvXhXkXfXe.5 @ B.UXGX{.=X:X>X-X'.f.].@X#X#Xc.c.c.c.c.oXoXv.j.g.c.g.a.].3X3X X X}.}.$X.X.X].g.m.m.c.a.c.M.oXoXc.oXR.g.c.m.#X%X.X'.'.-X:X-X;X;XJXUXyX@ , *.dXkXkXfXkXPXhXgXUXSXi t :.2.Y 3 2 > @ 2 4 2 @ * y 2 @ O o o o o , y y N 3 3 m y a x 8XSXNX+XGXKX4X*X~.,X2XDXgXwX~ 5 i y f l.k r d.R.d.R.R.W.+X<X<XY.e G `.`.2X6X4X<XHXtX0 - 3 M N ..X.r.t.dXkXe.5.t.cXi.zXcXcXy.r.y.y.7.7.....&.R | _._.} ^.} } r.r.r.r.X.*.r.6.D O.t.sXR S R fX] T R | [ ] aX/.J J e.aXaX] U R [ [ ^ q J aXaXU 5.[ U ^ _ ^ ,.sX6.a 3 * O + + O X % % ; ; A B.eXBXMXtXQ.tXhXSXaXe.1.sXxXwX-.6.0.0.<.4.hXhXhXqXe.u.u.zX0.+.6.u.lX",
"1.sXxXt.o.8.i.y.u.e.aXhXaXaX6.<.uX0.2.-.t.lXsX6.4.aXhXSXgXQ.eXBXrXrXV.A ; % % X % O + o O * 3 C wXsX{ ^ ^ ^ U 1.*.3.aX[ J q T R T R [ aXaXaX[ q [ aX[ T [ [ [ R aXaXT J 5.fX5.O.&.r.-.X.r.r.r.r.| | } } _._.} R X. ...o.8.i.y.-.y.y.cXcXzXbXlX2.r.fXfXr.r.X...m N , @ x AX<X<X4X6X2X1X_.D.G W.4X,X+XR.R.R.d.K.k.h.l.j.f f a 5 *.{ jX2X1X=X:X,X6XJXNXQ.SXBXc a 3 y C m C N 5 < O o o O . o @ * - @ * 2 2 > @ 2 , C 9XV a p SXFXgXaXnXkXkXjXFXhXP 2 2 BXUXKX*X*X>X-X-X'.'.$X%X@Xm.c.g.XXXXc.XXMXM.c.p.c.oXm.g.|. X;X Xb.}..X.Xf.f.f.g.XXm.g.c.M.oXXXR.oXm.g.n.n.N.XX@X.X X-X-X>X>X*XJXUXSX4 2 4 aXjXFXkXnXnXFXFXSXUXLX7XI D 4 @ , * @ * @ * o . .     . o @ @ @ , 5 C y N C C C 3 y >.SXAXNX<X<X4X1X1X2XDXjXU a 1 2 g b x.v.E.R.E.K.G.W.+X+X+X+XOXD.,X^.1X2XDX6XOXA.+XDXtXt * N N m X.y.dXsXaXR R sXmXcXcXcXi.8.X.8.i.q.q.....&.&.' } _.S.G } } R r.y.r.D S r.t.D L t.e.Y J U aXe.R T R R J R aXU u ] sXsX| R [ ^ T K : S aXsXU 1.U J ^ { ,.4.wXwX@.3 & + * + X O % % * - ZXyXv.MXeXBXtXNXyXkXaX] e.sXxXsX6.<.6.zX0.2.4.yXnXkX5.t.i.cX8.-.0.lXzX",
"5.sXlX-.0.8.i.zXt.5.kXFXsX/ $.0.iXuX-.6.u.xXsXe.Y sXFXQ.E.AXBXrXeXz.BXrXy * % + X % O % * @ , 6.sX4.{ { [ ^ U L U 5.hXU J 4 T R [ [ ] [ fXaXS J | e.J J e.R J R e.e.L U 5.5.&.D -.y.&.S -.y.r.r.R } F ^._.!.} &.&.X.B o.u.i.u.-.t.i.i.i.mXnXaX| R e.r.r.y.X. .m 3 * v SXGXW.G.,X6X2X6X_.(.<XOXOXW.,XAX+XW.K.K.E.K.E.v.x.v t 2 4 5 ] jX2X1X1X5X3X+X+XyXZX9Xa V V V V C m N C 5 , & * @ . . . . . O & * @ @ : , : 2 a @.7XPXIXUXUXnXnXkXFXFXjXe.4 > i SXKXKX,X:X:X:X X X$X|.XXXXn.g.c.].XXXXm.XXm.m.c.m.XXn.a.f.b.}.|.f.f.|.].F.f.s.g.m.n.m.XXc.XXXXg.G.@X].].XX@X].].@X$X X-X-X*X3XJXKXUXv $ p e.gXFXnXhXPXIXUXUXPXIXyX2.L L L I < 3 < * * @ * @ , @ > , 4 4 4 5 5 5 C a C <.Z V V <.ZXyXQ.+X,X*X1X2XDXkX2.1 , , > g U.h.k.v.k.+XK.K.Q.DXJXOX].G.4XJX,X2X2X1X6X,XJ.(.KXFX8X- O < ..-.y.e.e.e.R R | sXmX0.0.q.X.-.8.i.w.o.B B -.&.| } } _.F !.} r.y.y.r.X.S r.y.&.&.5.*.*.R R e.*.J S | R S [ aX[ S L sXe.] ] aX[ ^ J J J e.hXU J J R { ^ ~ ;.wXsX@.* O % % + X O X % * V pXBXBXV.v.BXBXU.E.FXnX] 5.xXnXkXsX6.6.zX0.2.4.sXhXnXsX5.lXi.-.u.-.lXzX",
"6.u.zX0.0.8.i.u.5.sXkXFXhX4.%.0.lXwX6.sXfXxXxX*.5.kXFXT.U.SXMXv.eXyXZXpXC ; % % O X X O @ O * :.wXqX3./ _ { ] L L 3.kX[ F q J T e.{ e.5.aXY 4 ] 3.] J T e.T S L e.1.R *.*.&.5.X.t.i.-.X.r.y.y.y.e.F F _._._.| &.o...B ..8.u.8.-.%.8.q.i.lXfX} T [ | r.| r.-.m m % - qXKXDX,XW.<X2X1X2X1X6X6X$XG.A.(.DX<XW.K.K.Y.K.k.j.V.V.f 2 2 , 5 | FX2X1X1X<X4XtXtXwX9X<.A V 9.V C C 5 N 5 5 5 5 3 2 , , , , = = , , , 1 L L D #.:.wXLXUXLXIXIXPXkXFXjX`.e.a , ( HXHXKX4X=X&X-X-X.X$Xm.n.@XXX@XXX].G.G.OXXXc.m.c.g.n.a.f.b.b.|.].f.f.'.F.'.f.f.g.f.g.g.g.].{.OXG.f.].$X$X|.@Xn.@X$X6X3X-X&X5X6XJXAXSXP.2 4 [ ).DXFXPXIXIXIXLXIXvX6.:.=.#.#.:.C C C a a @.>.C ~ I s a a I 5 D @.C Z <.<.uX<.<.<.pXwX9X<XAX6X6X1X2XFXR 1 5 5 a E L.U.E.R.k.d.K.A.Y.W.<X<XW.XXG.3X6X6X2X1X~.5X2X6X(.DXKXtX- O =  .X.&.5.aX| T } } e.xX0.8.7.X.8.y.i.0.7.M o.8.X.r.| _._.!.} } fXr.r.y.X.X.y.y.X.=.&.O.*.*.*.e.R S S R e.J R [ 5.] U 1.5.e.e.aX[ U J J q { aXU P ] ] 3.` 0X0XwX<.N * & O + O X X X % * y rXBXBXMXE.MXBXBXtXSXPXsX*.fXnXaX5.wXsX6.0.6.2.wXhXdXaXR 6.u.u.u.u.zXlX",
"t.6.cXzXu.0.lX6.*.aXhXaXsX2.-.0.<.wXsX6.5.fXsX5.hXPXSXtXCXHXMXMXBXyXBX9Xy ; X X X O o o O @ , C <.qXqXT.{ { 1.U J ] gX[ J K U T aX5.5.e.e.L Y e.{ ] U ] e.J S S 5.2.*.*.R O.&.X.y.y.r.-.y.y.r.y.r.} S.} `.dXt. .q.o.B o.0.i.i.i.7.7.8.y.t.dX} } } R e.&.X.X.B < % t SXKX<X(.2X6X2X1X1X1X6X6X%XF.*X(.,X<XW.K.Y.A.A.k.k.eXeXA a a 5 5 4 e.FX2X6X6XJXAXqX4.wXwX4.9XuX<.<.$.C @.@.a s 5 L I ;.#.Y ;.@.C C a L #.#.#.#.$.<.:.vXLXLXUXIXIXPXFXjX/.] 4 $ I.KXAXJXJX5X[.;X>X6X%X@XXX].@X$X].].F.F.3X{.g.g.G.g.f.n.n.b.b.b.f.a.s.f.f.f.f.f.f.f.f.G.f.g.OX.X{.H.{.{..X|.].@X$XGXJX6X*X[.5XJXJXJXKXtXt 2 ^ /.DXFXLXLXIXIXIXLX9XM C <.;.@.:.$.@.@.:.$.:.4.,.,.,.;.c a 5 s I $.%.2.6.<.9.<.%.uXuX6.7XgXJXJXJX6XDXkX5 @ 1 1 4 j ( P.U.k.K.W.W.).Y.W.W.D.OXOX$X4X3X4X2X,X2X2X2X1XD.2XKXSXi O < m m  .&.5.T T } /./.sXlX8.8.u.i.zX8.q.o.o.o.o.X.r.dXjX`.} _._.r.y.r.y.o.-.y.y.r.&.=.&.&.1.*.*.R S 4 R e.R T ] [ 5.U Y aXe.] e.[ T ^ ^ J T.5.K J U ] { ` 0XwX4.@.3 ; * + X O X o o O * a yXvXeXBXNXeXHXUXBXtXFXPXsXe.aX{ qXsXlX2.6.6.=.6.sXaXsX5.=.u.0.6.zXzX0.",
"8.-.zXzX0.0.0.e.aXgXsXqX4.2.-.0.4.sXsX2.5.| 5.kXFXhXT.AXUXBXMXHXBXeXyX9Xy * % X O X o o @ * ; a :.4.qX0X{ ^ ^ U S / qX[ W ' U ^ e.] [ aXe.Y 1.e.R R J 5.e.S S L L =.&.&.&.-.&.-.y.y.8.8.y.r.r.r._._._._.jXkXt.X.o.o.o...7.-.i.cXi.8.8.8.r.| /._.T T r.X.D m 3 * * n KXKX2X(.2XDX2X(.1X6X3X$X3X{.,XJ.D.W.Y.<X<X).R.R.K.x.b v t 2 3 , , R dXDXJXJXJXDXqX,.lXuX:.:.<.6.uX<.$.:.;.I p p s / :.;.;.:.<.:.$.@.#.*.#.@.@.<.Z V 9XLXLXIXLXLXLXFXjXaXR 3 4 T.KXJXKXJX>X&X>X6XJXCX%X@X.X{.].].{.H.[.*X].F.F.s.s.f.b.f.f.b.f.f.s.a.f.f.f.s.f.s.s.s.f.f.F.[.{.[.{.{.'.'..X$X$X$X%X%X5X;XH.3XJXJXKXUXBXz 5 1.gXjXUXIXUXIXIXZXbXuXV %.<.@.V <.:.a @.#.:.~ A ~ s ~ ~ s u P / ;.:.C <.uXuX<.V N <.uXwXqXtXHXJX2XDXgXL , , @ @ 2 t h P.h r W.<X4XAX).(.D.Z.J.;X4X$XOX3X4X<X1X1X2X_.(.DXJXSX( * & 1 1 1 +.r.U } | /.| e.6.-.8.i.mXi.7.o.q.o.q.8.X.r.fXkXjX_.jXdXr.r.y.y.y.o.y.cXy.O.t.-.=.=.*.L D D S *.e.] J J R 3.R ] fXaXR [ [ W [ T.[ aX[ J J J U _ ` >.0X4.a , * * + X X O O O O @ a yXBXeXNXBXv.BXHXBXE.yXPXPXe.] qXaXqXaX4.6.t.=.*.2.e.hXsXt.6.6.-.zXlX-.",
"$.-.i.0.0.6.2.t.sXhXaX4.2.2.t.sX4.sX5.qXe.[ aXPXkXtXE.BXNXNXE.BXU.P.yXwX3 % % O O o X o O @ * - C :.>._ _ ^ U J J K T.qX' [ U U { [ { hXe.R ] U J J U 5.e.R L D D &.=.&.r.-.-.-.i.i.8.8.y.y.r.r.e.jXjX`.kXxXy.o.q.q.o.o.o...i.cXzX0.%.8.r.] | /.} T r.X.m m < @ $ P.AXJX6X(.2X2X`.(.1X6XOX.X3X3X{.F.G.,XQ.<X<XAX<XW.r l ( h > 2 * @ @ , / jXJXAXJXSXqXwXiX9.Z V Z <.pXwX:.@.,.~ ! j x ! c s a ~ ~ ~ >.;.I @.:.C V <.V V 9XZXbXZXLXIXPXPXjXdX1.5 i tXUXKXKXJX;X[.;X3X%X%X%X$X.X.X'.[.[.;X*X[.F.Z.Z.Z.s.e s.f.s.f.f.f.f.s.f.f.f.e s.s.e s.s.f.Z.F.[.*X&XH.[.{.{.$X3X%X%X%X6X=X[.;X6XJXJXKXtXy 2 D /.dXFXIXLXLXLXpXpXZ %.V A A V C A I ~ >.~ x x ~ i x n ~ ) I.7X>.@.:.<.uX0.<.Z C $.uXvXqXgXAXAXDXFX[ , O @ - - 2 i n P.h H W.W.(.(.(.2X(.H.H.J.,X3X3X$XOX<X(.2X2X2X2X6X<XSXtX2 O < 1 m X.r.R } dX| [ e.0.-.0.zXmXi.m o.o.i.y.y.o.y.xXkXkX_.2XjX} r.cXy.8.-.y.y.8.+.-.-.=.6.=.D D *.R *.e.R J J J ] U U aXaX[ [ [ T _ T.T.aX^ K K J ^ { I.I.qX;.3 & O O X X O X o o & - a 4.yXqXE.NXx.E.MXCXNXeXtXSXaX{ aX{ [ ] sXsXt.6.#.Y t.sXsXlX6.6.0.0.w.<.",
"-.6.0.-.0.-.5.sXfXaXt.=.L 6.sX5.e.{ ^ e.0X{ gXgXtXQ.NXBXeXE.E.oXl.tXyX8Xy * O O O X X   o + @ * a 4.wX` T.[ U J J T [ /.T.T.J E [ { 5.aX3.U ] U J S T [ ] ] R R D  .6.&. .&.r.-.u.u.u.r.xXcXxX| dX`._.jXkXxXy.y.i.i.i.i...B i.cXcXw.-.u.t.e././.| | -.X.m m 3 @ i yXDX<X2X6X2X2X2X2X4X;X{.3X3X5X{.H.J.2X<X).W.<XW.K.r E ( ( t t t , @ o , sXFXJXAXAXqXuXbX9.Z Z Z uXuX<.:.;.` ` I.( P.I.n x z c x ! ~ >.A C V V V <.Z B.V pXpXZXLXLXIXPXfXaXL , t qXKXJXJXJX>X[.5X6X%X%X%X$X$X X[.F.F.&X*XH.Z.s.G s.e s.s.s.s.f.f.f.'.f.s.g.f.s.s.A.s.s.s.s.s.S.&X&XH.H.F.[.{..X4XGXGX4X6X5X[.*XJXJXJXKXeX- , 1 e.dXPXUXLXZXZXpXV V V C C A V C ~ ~ ~ ) c x c b h ) 8XqXI.P.L.) A :.<.uX<.Z Z Z Z zXvXwXgXSXAXKXaX4 > @ 2 t 2 i h I.h u W A.Y.(.(.<X2X(.D.J.~.3X4X3XOX$X6XJX`._.2X2X2X2XSXSXy * = < <  .r.r.} | dXsXxXlXw.zXzXcXy.X.X.o.y.y.y.r.y.r.fXjX(._.`.| fXcXy.y.8.y.y.-.-.X. .&.6.=.D D D *.R R ] J J L { / U 5.5.[ [ J W ^ W [ T.T.[ T.[ ^ T.0XqXwX;.2 , & O X X X o O O @ , c >.7XeXtXeXE.tXNXHXBX+XtXgXjXgX{ { qXT.e.5.sXsXO.#.5.qXqX6.5.6.u.-.u.w.",
"6.lX0.0.u.-.5.aXaXaX6.O.O.5.aXe.aXT.aXT.T.gXFXAX+XNXNXHXMXMXQ.tXtXtX0X>.C 2 @ O o X o   o @ * @ 2 wXhXqXT.T.^ 3.5.T./.T.W ' ^ ^ ' [ [ qX[ R ] R J J R ] ] R *.S D +.6.-.D O.-.-.u.u.-.t.t.xXxXe.`._._./.fXr.y.8.y.y.y.y.....8.i.zXiX0.zXy.fXdX).} | r.m m = = - p SXDX6X6X6X2X^.2XJX3XOX$X3X1X,X~.D.W.(.AX).).).Y.A.W q j ( j t d t 5 , , 5 gXKXGXSXyXpXbX9.Z C Z Z 9.wX:.~ ( ( U.U.tXeXP.b v n b b ( ) n >.A a C A A V V V 9.ZXZXLXIXIXfXe.5 , 2 I.KXJXDXJX;X-X5X6XJXHXGX3X;X;X[.F.F.H.&X&XZ.Z.e e s.R.s.Z.s.G.s.f.n.a.a.g.g.G.A.W.W.A.s.G Z.H.!.H.H.H.Z.[.3X3X,X4XJXGX6X>X-X=X6XJXKXKXeX2 1 D r.xXIXIXLXLXpX9XB.Z :.>.~ ( c n c b c ) b n z.b b P.tXtXU.L.K.L.) qXwXwX<.@.%.%.9.bXpXyXyXhXFXSXa @ 2 y v b f n E I.g g W W ).).`.AX(.W.(.,X,X1X,X;X3X;X6X6X,X~.1X2X6XDXDXSXt - = < m m -.r.} _.fXfXmXlX9.w.iXi.y.X.X.o.o.y.y.o.y.X.| `._._.`.dXfXy.y.r.-.r.y.u.r.-. .+.6.-.L D S *.*.] 5.U J U 3.] ] aX[ ^ ^ ' ' W J W T.aXaXaXT.^ T.gXqXyX4., , , - X X + X o O O , a 9X` P.BXtXtXNXE.oXNXNXAXAXKXjXI.5.aXaX[ aXaX5.2.5.2.wXsX5.aXsXt.6.0.i.",
"lXlX8.8.u.r.e.5.aXt.2.=.6.5.e.jXT aXsX^ [ FXSXAXAXAXMXE.eXBXNXtXtX) ~ 9Xa * O O o o @ X o - 3 ; 3 wXyX0XqX' ^ aXdXaXgXK.J W W ^ ^ W W { [ [ ] R J J R 5.R R R 4 5 =.t.&.&.-.=.u.u.u.u.y.y.r.r.dX`._._.dXe.&.r.X.o.y.o.o.....8.i.w.0.6.u.cXxXkXdX/.dXy.X.m < m t j gX4XJX6X6X_.S.~.6X4X3X6X3X,X*X*X1X_.Y.^.jXDX).T.W q q I.I.U.l.k.k 3 4 @ @ 7XSXSXyXyXpXzXiX%.<.%.<.0.uXwX,.b ( l.U.E.eXeXn n P.E.P.b x z x c i v 8X9X9XV 9XV pXZXIXIXIXmXt. .D 2 ) UXKX6X6X;X;X3X6XGXJXGX3X3X;XF.Z.H.H.H.&XH.Z.s.Z.A.W.A.d.G.g.g.a.c.g.c.c.d.G.A.R.R.Z.Z.H.S.H.!.&XH.H.S.[.5XJXOXGXKX+X3X:X;X X*X6XJXKXz & N X.y.mXIXIXZXZXpX9X<.A P.0XQ j i n n x b P.8X8X7Xb P.) P.E.U.K.U.l U.tXyXsX2.$.%.<.iXpX9XbXyXhXUX0X$ @ 2 t 0 d l.P.U.Q.Q.Q r W /.jXgX).H (.DX2X(.~.,X3X6X3X;X6X,XD.2XJX6X6X<XHXf 2 3 < m  .r.y.e.dXdXt.xXuX9.0.0.w.y.X.o.o.o.y.X.o.y.-.| `._.~._.`.| r.r.y.y.-.u.u.8.u.-. .-.t.O.1 D &.R *.[ U U U ] / ^ 3.T J J W T W 9 J _ gXgXaXaX{ T.qXU.gX4.2 O , - O + @ o   X O , 5 4.9Xx tXSXeXNXR.R.+XGXGXAXDXFXqX^ qXaX[ gXjX5.aX6.1.sXsXsXe.e.6.0.-.u.",
"cXlX%.-.t.r.r.fXdXaX5.6.sX5.hXgX_ T.aX1.qXhXFXHXJXGX+Xk.E.SXQ.SX{ ^ 4.C a * X O   o $ o $ 3 O & 3 wXqXgXtXT.qXaX5.T.).K.9 J ^ T ^ W J [ 0X] U 1.L L 5.*.R R S S X.X.-.X.+.u.u.lXy.r.y.i.y.t.e./.(.(.`./.&.&.i.r.r.8.o.8.o...-.t.-.-.%.6.lXsXdXfXfXr.o.m m = 3 t W AX<XJXJX6X2X~.,X3X{.4XJX1X1XJ.(.6XDXY.H ^.`.gXT.' q [ gXQ.K.c.h.d h t - + t SXLXwXvXpXwXbXuX%.Z <.6.uXhX8Xb L.E.k.E.U.U.P.c b 8X7XI.P.( ( ( j g x I.>.:.:.<.<.uXIXIXIXIXi...m O 2 AXKX<X*X;X X*X{.%XJXGX4XJX5XH.Z.H.*X=XH.H.J.H.G.G.G.R.G.R.c.c.c.h.h.v.c.c.R.oXc.G.J.H.*X*XH.!.=X>X!.Z.H.6X6XJX4XKX%X.X{.'.;X{.OXKXBX8 % 1 o.y.mXmXIXZXpX<.:.;.! j l g g j ( P.7X8X8X8XP.x s ,.,.P.U.U.E.R.K.U.AXhXwX4.<.%.%.uXbXvXvXLXLXhXt o $ y j h g k.h.K.NXJXQ.K.T.aXaXQ.Y.Y.^.DXDX(.OX3X6XJX$X{.3X,X1X2XDXJX2X2XKXl.t ; = = m o.t.fXdXr.t.lX-.N -.X.8.r.8.8.8.X.X.y.y.y.y.e./._.=XY.Y.| r.xXxXy.r.-.y.u.i.u. .-.6.&. .D D O.&.e.R R R *.L e.0X[ K J W ' ' q q T.T.[ [ ` gXT.gXgXhX5.@ % ; ; - X $ @   X O * , a 6.:.~ hXtXE.Q.k.+XKXHXGXQ.gXhX0X5./._ /.gXaXhXt.R 5.sXnXkXt.t.e.-.u.",
"zXzX-.r.t.e.fXkXkX5.] 4.aXgXgXY.Y.aXaXqXsXtXQ.AXKXGXQ.E.oXE.BXtXP Y 2.y * % O X X   o o 3 - ; * 2 wXhXaXtXgXaX5.] [ Q.Y.r H _ { J J E e.qX] ] 5.R L e.&.D D R S  .-.-.&.-.xXlX0.-.-.u.i.mXxX| Y.~.*X_.^.r.y.cXy.r.r.o.o.8.y.t.t.r.-. .X.lX6.5.sXnXy.-.B = % - t T.KX<X6X2X2X`.1X5X$X{.$X6X2X,XD.(.DXDX(.Y.Y.).aXaXqXT.gXDXW.c.k.E.K.l.k t + + A ZXvXvXIXuXlX0.<.<.6.2.wXhXE.l.U.E.U.E.U.0X7X~ x n >.I.7X0X( ( g g w h x s c :.C 9XbXLXvXmXcXo.m * t AXJX,X[. X'.;X3X4XKXJXJXJX,XS.Z.!.=X=XH.&X;X{.{.J.G.G.XXc.c.c.c.j.d c.c.g.XXR.d.G.{.[.*X5X~.*X1X=XS.Z.Z.5XJX6XJXKX4X4X3X[.;X3X,XKXSXf *  .8.cXcXzXbXbX9X@.C a P g r w k.b z c ) 7X7XP.) / P / ,.9X8X8XQ.W.W.Q.tXgXqX4.-.$.%.0.0.IXbXvXhX0X@ @ $ t l K.E.+XK.R.+X+XQ.gXFXkXqXY././.).DXDX<XW.,X6X4X{.[..X*X,X2X6X2X,X<XKXE.> = = m m ..y.y.r.| &.0.-...-.r.r.r.y.8.y.y.-.8.y.cXnXe._.!.!.(.^.T e.nXxXr.-.r.-.i.lXu.-.-.&.D D &. .D R *.R S e.| L T.aXT.^ J W [ W q J T.T./.{ sXhXgX/.gXFXP * m ; ; ; +     o X o o & < <.:.I tXSX+X<X<XR.HXKXAXQ.qXaXhXkXgX).Y.gXgXaXe.1.5.t.xXkXsXsX6.t.lX",
"u.zXu.-.t.fXnXkXfX4.2.sXqXkXgXY./.gXkXkXhXqXQ.AXKXAXQ.GXNXQ.NXqX/ 2.:., O % X X + o   @ - & 3 , @ wXPXqXtXhXaX5.[ | ).Q.r H W U J W T aXe.U ] 5.*.S R R D R &.&.S &.-.&.0.lXu.u.X.r.r.xXxXdX' ^.(.~.^.^.r.y.cXxXr.X.y.i.w.i.u.r.r.-.O.&.6.=.*.e.xXu...m m = ; - tXKXW.<X2X2X_.~.{.H.$X;X5X1X,XW.2XDXjX)./.Y.' T.kXPXjXQ.R.W.E.+XQ.k.k h t $ + 2 wXvXbXIXlX<.<.%.$.u.5.T.gXQ.Q.T.qX7XP.0X3.Y c >.8X>.>.>.P.) b b b k h k x ~ ~ @.<.pXbXvXzXcXy.m * t AXKX6X>X;X}.3X4X4XJXGXJXJX1XS.Z.H.=X>X~.=X5X*X{.{.Z.Z.XXg.m.m.j.h.a.k.g.c.].].F.{.-X[.;X5X*X>X=X!.S.S.F.<XJX6X4X6X%X3X5X-X[.5X6XKXSXt & 1 8.y.cXlXvXpXA a I P P j g k z.B.c ~ / ,.>.>.,.;.I L ;.wX7XP.tXQ.Q.Q.).T.{ sX2. .-.<.<.bXIXbXwXy o - t h g r K.NX+XR.R.d.<XKXKXaXW W T.)./.jXDX2X,X1X3X,X3X{.F.H.J.2XJX`.W.Q.UXqX- * = = m ..8.8.&. .O.-.-.X.X.r.r.y.y.y.i.y.X.X.y.cXy.r.| ~.~.1X(.G ' fXnXr.r.r.y.u.u.t.6.t.-.X.D &.=.D D *.S S R 1.J / aXaX_ T J F J W Y.T.gXT.[ qXhXgXT.T.FXs @ y ; % - - .   . X o O O * a :.4.` tXtXNXGXQ.GXGXFXAX0XqXkXPXaXT.T./.kXaXaXt.6.lXxXnXfXt.=.-.i.",
"u.cX-.O.e.fXnXfXfX5.t.sXaXhX/.).qXgXnXkXT.qXSXKXGX<XQ.GX+XNX0X,.qXL , @ X % X X   o   - @ @ 3 3 : yXgXL.T.SXhX5.[ aX/.Y.T.Y.J J ^ ' [ aX| U R 5.L S  .&.L &.r.D 1 &.t.-.-.u.lXu.r.r.r.r.fX' G ~.=X~._._.&.r.xXr.X.X.i.i.i.y.r.y.&.X.X.X.-. .L  .-.-.M m = = % ; qXFX+X(.2XJX`.~.J.'.3X3X,X,X1X1X`.jX).gX/.W W I.tXFXFXW.A.A.+XNXE.r g k x i . @ A vXvXlXuX$.-.%.C sXaX/.(.,X<XQ.qXI.! 3.#.a a @.:.:.:.7X>.) ) b l.l l h l x ! s a <.vXbXzXy.o. .O v SXKX6X3X[. X5X3X%X4X%X4X6X3XZ.S.!.~.=X>X5X6X,X{.*XJ.F.{.g.XXc.c.k.w k.G.g.'.{. X.X*X;X5X6X6X=X!.&X&XZ.Z.,XJX,X$X4X.X;X;X X[.*X6XKXKXy & 1 X.8.cXbXuX:.a a L P u g l l.b n >.~ ,.7X,.,.:.L 5 5 a 7X! b T.qXgX)././.aXaXt.$.6.-.<.<.uXuX9X& X $ b ( K.g K.W.Q.W.Q.W.AXFXgX/._ E _ /.`.`.`.2X1X1X,X,X6X;X[.*X1X2XJX,XQ.NXHXn - & = = m B 8.%. .O.=.+.X.X.X.r.y.8.u.u.i.y.-.X.r.r.r.R | _.!.~.,XD.G | fXr.r.r.r.xXu.-.&.-.r.&.D -.t.-.6.t.D 5 R e.U U aXaX' ' J q [ gXY./.gX[ [ aXaXgXT.T.SXsX@ ; ; - - - + X   X   O O O & 5 6.,.( tX+X+XGXCXAXKXFXgXqXhXPXaXqXT.T.gXdXsXsXt.sXfXnXsXt.&.=.u.",
"i.u.-.5.e.sXsXkXt.6.lXsXsXaX' T.T.aXkXgXT.hXKXHXAX<XGX+XQ.NXI.,.;., @ O O X X + X X + - 2 , 3 * u hXFXT.Q.hXkXaX[ /.T.' ).gXJ q H J [ aX[ U ] e.D D e.t.-.6.-. .O.6.r.&.&.u.xXcXr.r.r.r.| D.J.=X~.~.2X/.S r.y.&.r.X.y.y.y.8.r.y.r.X.X.X.X.u.6.N %.q.o.m = = = % n SXAX,X<XJX2X1X*X{.3X3X5X,X1X6X_.).jXgXqX' _ aXgXAX<X2X<XW.K.R.R.K.U.T.I.u . . u :.uX%.<.6.u.t.6.sX| _.(.(.DXjXqX/ u / Y D a a @.:.2.:.,.>.I.P.l b l j h j ! i a :.yXIXmXu...m % c SXJX6X;XH. X;X.X$X%X4X4X6X,Xe H.&X~.*X1X6X6X5X3X*X;X{.'.F.G.g.k.r d.d.G.G.F.[.;X;X;X5X6XJX6X=X&X!.!.S.s.OX6X3X4X4X|..X-X[. X>X6XJXKXv & 1 %.u.mXmX9XA c s u p p l L.K.l.( 0X! / / ,.1.I 5 5 D s ! p Q aXaXjX).} aXaX*.sXxXlXuX$.@.<.<.3 & @ t L.tXgXK.Y.Q.R.A.+XJXJX(.).gXgXT.T.jXjXdX`.2X5X,X5X6X5X;X{.{.2X2XJX<XQ.UXLXf % % = = m q.w.o.7.i.u.&.X.r.X.8.y.y.-.8.i.y.-.X.&.r.t.D R `.=X*X*X=X^.' aXt.y.r.y.cXxX-.&.=.t.&. .r.-.-.6.t.t.R O.5.R U aXqXT J F q ' jXT.W /./.T.hXsXgX).gXAXSXt & 3 3 3 * + + X o   X O O O , 5 2.,.tXQ.NXKX<XAXAXPXFXgXqXkXhX0XT.[ T.hXkXxXsX-.sXlXt.t.t.u.t.",
"8.o.t.xXfXaXsXt.$.u.nXxXkX/._ /.[ kXdX{ gXPXFXSXSXAXJX<XAXT.,.:.3 , @ @ o X   + + X % - 3 3 , @ >.PXSXAXtXaXsXsX| jXY.H tXgXT : J J ' aX[ R R 5.Y 2.lXu.&.-.t.&.D r.6.&.-.u.mXxXr.r.r.r./.^.=X*X=X=X2X' R r.r.&.X.r.y.i.8.X.y.y.r.X.r.X.X.i.cXq...i.q.m = = % % c LXKX+X).JXDX1XJ.{.3X6X6X=X1X<XDXjXgXdXdXgXgXjXgX).(.DX6XA.K.NXQ.r Q.SXT.j q @ @ 5 wX<.@.6.zXxXmX5.R /._.).`.jXaX' J J L 5 5 5 a ;.#.I P ! { I.Q L.L.L.j j x i I s / vXIXmXo.m & z KXKX6X3X;X X X.X{.%X4X4X5XH.Z.H.&X!.=X5X6X6X6X5X*X*X;XH.F.G.d.d.r k.K.G.].'.[.-X;X>X6XJXJX6X5X!.!.!.&XZ.{.3X4X4X$X|.$X-X-X-X5X6XJXUXz + 1 -.cXcXwXC z c x u j j l.K.k.K.K.` E K P / #.L 5 4 s P K H W gXdXaXdX/.dXe.1.xXmXmXcX=.<.lX5 o - 2 l.L.SXAXH K.DX+XA.Y.<X<XW.).AXDXhXjXjX/./.`.2X1X,X,X6X6X3X*XJ.1X1XDXAXtXUXLXf % = m = M w.q.M q.cXxX&.X.r.X.y.y.y.X.o.i.y.8.X.&.r.fX&.T `.1X=X=X=X=X`.aXdXy.r.xXxXxXr.5.r.r.&.&.t.t.-.r.u.t.&.L &.T T ] [ J J : J F ).T.H /.jX[ e.sXFXqXgXSXhXwX2 2 * ; % O & + X X X o @ & , , I qXI.NXHXJXGXDXSXSXPXhXT.gXsX[ 3.aX[ kXPXnXxXO.&.r.t.lXxXxXr.",
"..-.lXmXfXsXt.+.O.u.nXnXkX{ aXaX[ aXaX{ FXUXAXSXKXAXHXGXAXI.4.5 , 3 O o     X   @ - X ; & 2 * I sXgXAXAXjXkXaX{ aX/.[ ' T.[ F J F J [ /.] R R R &.-.lXr.&.r.u.-.D r.t.t.t.xXcXxXy.r.r.| /.(.=X>X5X1X2X' r.r.r.&.r.X.8.y.8.o.i.cXy.X.r.X.X.y.i.w.o.q.q...< = * % A SXHXAXAXDX`.,X*XOX4XJXJX,X,XJXDX)././.gXjXjXgX).<X<X<X,XA.W.AXAXH Q.DXT.^ ^ > @ @ :.uX<.lXmXmXnXsXe.sXfXdX/./._.' W J K 4 a a a #.I / K K W W K.K.W Q l z h i ! p u [ vXcX-.1 * d UXKX5X*X;X[. X3X|.$X4X4X5XF.H.&XH.H.*X6X6X6XJX5X>X;X-X[.[.{.R.A.K.T.A.G.{.{.;X-X>X5X6X6X6X6X=X:X!.!.&XZ.{.6X3X$X].$X3X-X>X>X-X*XJXUXf * N %.lXt.~ x ( x l b j b l.k.k.A.H H E K ! ! Y I L a u K W Y.Y.Y./.dXdXfXhXsXvXnXnXmXmXlX6.6., @ 2 s ( l Q.).Y.Q.<X).Y.A.J.(.<X2X).gXjXhXgX^.^.`.JX2X,X,X6XJX6X{.,X1X(.gXAXSXLXyXt % % = m M q.q.o.w.q.8.-.r.y.-.y.y.cX8.8.y.y.8.r.X.r.y.r.R `.1X5X>X=X_.`.aXr.r.r.y.cXnXy.r.&.-.&.D u.u.-.&.u.u.&.&.5.R ^ 5.aX[ J T T F T.Y.T././.aX5.aXPXgXhXDXhXSX` , @ * ; - * %   X X   X o , * 1 ;.` tXGXGXAXFXFXgXFXFXgXqXaX] 5.gXT.gXnXnXlX&.O.t.lXxXmXu.&.",
"y.X.t.nXnXlXt.=.-.lXsXnXgX/.aX[ [ 5.e.aXPXFXgXSXFX<XGXAXQ.` Y , < *       @ - $ O - ; 3 * o , sXyXtXSXAXhXhX5.e./.' ' /._ W J ^ J ^ 5.5.R R &.e.R r.u.r.-.y.t.X. .-.&.=.u.nXmXxXr.| r.e.jX_.=X5X5X(.2X/.e.y.r.X.r.o.i.8.8.y.i.i.y.X.y.y.y.q.7.q.q.q.o.m m = = & - rXSXSXGXQ.D.).,XOX6XJX6X,X,XJXJXgX^./.`.jXAX).W.4X<XS.G D.W.).AXAXY.Y.W q u p 3 @ 3 6.lXmXmXxXnXnXxXlXxXkXaX/.' D.W.Y.E u a L I / ~ ^ W q H W W r r k.L.l.v v ! ] ^ K T.sX-.N @ l UXJX,X;X>X5X;X3X$X].|.3X6X&XS.&X&X!.=X5X6X6X5X5X5X>X&X&X[.J.A.r W W r Z.J.[.*X&X>X5X3X,X6X6X1X&X&X:X&XH.;X6X3X|.|.4X3X X>X5X5X,XJXUXf % N 6.6.] E _ U.l.l b l.l.k.g d.K.A.H g E _ ( / I I P P W A.).^.G } fXfXnXxXnXmXbXIXmXIXnXlX, > 2 u i g r r e <XDX).W.W.A.G A.(.<XW.<X).`.`.(.).DXJXJX<X4XJXJX{.OX4XW.W.Q.AXFXBXy - & = = m m o.q.q.q.o.8.y.y.r.r.y.y.i.y.i.8.y.y.r.r.&.r.t.aX2X1X5X5X1XD._.dXfXr.&.r.xXxXt.r.&.t.r.X.r.y.t.&.t.r.&.&.&.R R 1.aX[ J [ [ W J W /.K.J /.sX1.aXkXSXgXtXqXqX, @ , 3 3 % * - - $ X X   & , 4 a 0XgXCXGXDXDXkXqXFXPXgX[ 5.aXe.aX[ aXkXsXfXt.t.y.u.t.cXxXD ",
"u.-.lXnXxXu.lXy.t.6.nXFXaX[ aX5.sX5.U aXPXFXhXSXSXKXGXAXQ.] Y 3 ; & O O   + - - - ; 3 3 , * I 4.0XgXSXHXgXU 5.aX[ G [ /.K [ [ [ J U aXe.] R R &.R r.r.&.&.u.t.X.r.y.-.&.t.t.xXnXr.r.r.dXdX' 1X5X1X(.2X/.t.y.e.&.y.y.cXi.8.8.i.i.y.X.X.y.y.y.o.o.q.q.o.N < < = * * z SXUXNXQ.Q.W.W.A.OXGX4XJXJXKXKXDX).D.2X2X<X).W.,XW.D.A.D.).Y.gXAXH 9 q W p u y 3 * :.IXmXmXnXIXmXcXcXxXu.fXdXG D.JXW._ ! I I :.>.) ( Q E r H H r r g l.P.z.h p ^ W J ] wX=.N @ k UXJX,X5X5X-X X3X$X$X$X$X5X-XH.:X&XH.=X6X6X6X*X5X5X>X=X;XH.Z.9 F q W q 9 Z.[.=X=X=X5X5X3XJX6X5X*X!.:X*X[.;X3X.X3X%X$X X[.:X>X5X5XJXUXk - < L e.[ W W H g l l.l.k d k k.l W r ( h ) ` 4.:.@.,.) T.H Y.`.' } kXfXlXnXmXbXbXIXnXnXIXsX@ 4 a p E U.Q q 9 K.).Y.).Y.D.A.D.J.,X<X<X2XW.(.(.DXJXKXJXJXGXGX+XG.e A.W.Q.tXAXLXBXy & * , < m ..8.B 7.7.o.i.y.y.X.y.y.i.i.8.8.i.cXcXy.8.r.y.X.fXDX(.6X2X2X^._.kXfXr.r.xXxXr.-.&.D y.y.-.6.u.-.&.&.r.D R &.R &.5.5.] J U ] /.W W T.T.J T fXS ] gXFXhXT.tX0Xs a , < N ; ; O + + + + + O * 1 5 / tXHXAXKXDXhXaXhXFXgX[ 1.e.t.sXaX[ sXkXt.u.t.xXu.y.xXr.t.",
"cXt.=.t.u.y.y.t.t.lXsXhXe.aXaXt.e.] e.hXFXgXhXgXFXKXGXKXqXI 5 1 * % X X X # .   y y 3 * a #.;.qX0XT.gXAXaX] e.aXJ [ e.| J { 5.[ U R 1.1.R 5.&.O.D D O.X.X.u.t.r.y.i.&.D +.5.sXnXr.| fXfXkX' 2X6X6X(.<XaXr.y.t.-.i.cXcXy.o.y.i.i.y.y.X.y.y.8.o.q.7.B q.0.1 < < & O y yXSXtXQ.).Y.r e R.+XGX<XGXKXKXJX2X(.(.(.2X6X(.,XJ.G.H Y.Y.W Y.R.H q q Y._ j ~ A - 3 vXvXkXIXIXmXmXcXi.xXfXdX^.`.<Xe W / $.:.,.8X7X) ( Q Q g U.K.l.g d k z.l.u g W ' qX3.5 3 2 g KX6X>X5X>X-X[. X$X$X3X.X;X;X&X&X*X[.=X6XJX6X,X6X5X=X>X=XS.e 9 q J T G G 9 H.1X>X=X>X1X1X6X6X6X=X&X&X-X[.;X;X.X4X|.|.{.[.[.&X>X>X6XKXf $ 3 5 5.[ T.W H g Q l h v n B.P.L._ I.` 7X7X,.4.:.:.@.~ E q Y.DXjX`.dXnXxXmXmXIXmXIXmXnXvXL @ t ,.p p U.K.g H Y.Y.H W T.Y.G W.(.,X,XJX2XJ.,X4XJXDXGXGXCXNXNXQ.R.d.r W.W.Q.tXyX8X- O * < , 1 i.i...7.7.o.o.y.X.S y.i.i.i.i.o.8.cXcXy.y.r.y.r.r.<X~.JXJX`.} dXkXfXr.| xXxXt.X.D D t.cXr.-.r.-.&.X.&.D S R &.| R ] ] R R e.e.J J T./.^ J e.sXsXaXhXqXU.qXhX0X6.a O 3 C ; o + $ X X X * & , 1 L tXKXGXKXFXgXkXhXkXkXaX5.aXe.aXaXaXaXsXsXu.t.u.u.t.-. .&.",
"fX6.O.&.r.8.8.u.lXnXsXaXaX5.aXt.fXe.e.kXgXhXkXhXFXKXSXKXqX4 , & & % X X + - + @ ; C 2 * :.4.3.hX{ T.hXhXqXsXfX3.T T.[ J J [ e.[ R 5.] D R 5.&.R S X.&.&.r.r.&.X.u.y.X. .X.t.xXfXr.| y.fXkX| `.2XJXD.(.dXr.y.i.0.y.i.y.y.o.y.i.i.y.y.X.X.i.8.7.q.8.m 8.cX .* , * & 2 ) SXtXQ.<XW.A.W.Q.E.NXAXGX+XGXJX6X3X~.J.JX4X,X4X,XW.W.^.' ' W Q.K.W W U.` i A A - @ wXnXnXPXPXmXmXmXcXnXxXdXjXFX2Xq u s @.:.<.<.4.9X8X7X7X7X) ( _ I.( Q l p u E Q _ 0X7XL 3 2 l KX5X>X>X&XH. X'.|.$X3X3X;X;X[.[.:XH.&X6X6X5X*X5X1X=X1X*XG e G J 4 J J H e Z.(.5X=X1X1X*X6X6X6X&XS.&X[.H. X X3X3X|..X[.[.&X&X>X*X<XUXU.$ 4 P 5.{ { _ E q j W P.7X7X>.>.>.7X3.9X9X:.4.<.:.$.@.5 4 : T.FXjXdXdXnXxXmXIXIXmXnXPXnX5.@ @ y c i x I.I.K.W T.H q H Y.`.).2X2X<XW.<X6XJ.{.4XJXGXGXNXHXGXE.U.<XAX<XgXQ.AXHXyX>.; & * , , X.cX-.N q.zXq.o.y.o.X.y.i.i.i.i.8.8.i.cXy.y.y.y.r.aX).Z.<XFX_.} dXkXfXe.r.fXcXu.-.X.X.y.xXO.-.-.r.r.X.r.&.S R r.e.S L e.sX5.[ R U u J { aX] [ nXsX4.hXhXT.qXaX,.4.2., & C 3 3 - y $ X   @ + @ , 5 0XHXHXFXFXgXkXgXaXkXaX5.fXt.5.5.sXsXe.sXxXu.-.-.=.&.&.O.",
"1.5.&.-.-.X.-.u.lXfX5.hXsX1.=.t.nXsXt.sXhXhXgXkXFXKXAXSX] 4 , & % X     + y y 3 y 5 @ 5 wX4.qXqX{ aXvXhXsXfXdX5.{ aXJ 4 J R [ 5.sXfX*.S L &.R S R r.r.&.-.-.X.X.-.y.-.X.r.t.nXy.r.| r.e.nXdX`.DX1XG (./.&.y.i.8.y.y.y.o.-.y.i.i.i.i.8.o.q.7.q.w.q.B -.y.-.1 , * = 3 c SXUXtXQ.).).tXR.d.R.CXHXCXGXJXJX,XJ.*X4X,XW.4X2X(.).).W H q K.Q Q I.I.c i c a -   ~ hXnXnXbXmXmXnXxXIXfXdXkXkXhXW 4 5 @.$.$.:.<.:.:.9X9XqX0X) ~ ` ` _ W j u j _ I.0X0X@.3 $ U.KXJ.:X>X:X*X[.[.].OX%X3X.X[.F.-X&XF.*X5XJX6X,X1X1X5X1XS.e G ' q 4 S J J G G D.2X1X1X5X1XJX6X5XH.H.&X*X[.-X;X3X$X|.$X'.&X=X:X5X;X{.KXtX> 2 I 4.^ ! ! g q E L.) ,.>.) ;.7X4.9X4.:.>.<.wX<.$.@.5 4 J gXFXkXdXdXnXfXmXmXIXmXnXnXnXqX: . 3 2 t x ) tXI.q W r W I.' Q.Y.D.2X6XOXOX,X,XJ.3XJXHXGXGXCXMXl.w k.r K.Q.Y.AXLXyXA * < < , D y.xX-...0.zXq.o.q.y.y.y.i.i.i.i.o...y.i.y.8.8.8.-.e.`.A.(.DX_.e.nXdXR e.r.r.u.y.r.X.&.r.y.-.X. .X.&.R r.r.D S &.&.S R e.fXe.] R ] K J K aX{ R aXe.sXvXkXaXqXgXqXwXwXC , 3 5 C y y +   X   X & , 1 Y BXAXSXKXnXhXsXhXhXaXsXnXfXR L e.fX5.t.lX6.-.r.-.-.t.t.",
"5.sXr.-.-.8.-.&.t.6.1.xXsXL =.fXnXsXsXsXvXhXsXFXPXKXAXtXL , , * X   X X + 8 f y 3 2 3 *.wXqXgXqXaXsXvXsXsXwXT J 5.1.p J R T R ] r.fX5.R R R &.T &.&.X.D  .D X.-.y.i.r.X.X.X.r.r.| e.T *.nXjX^.2X(.S.`./.r.y.o.8.y.y.y.o.X.w.i.w.i.i.i.8.y.o.8.zXi.....u.y.8., < * * y 8XLXSXW.T.W 9 w g E.+XNXVXGXGX4X{.{.OXOXW.6XJX(.H ' T.T.T.r g q ( 0X7X) y y - # o ,.hXFXnXIXmXmXnXkXnXkXaXkXPXkX^ 4 5 L $.2.6.6.$.:.:.:.4.4.;./ / E E ^ _ g h p W _ ) c 5 7 tXJX{.3X>X:X&X[.{.].XX%X3X.X[.[.3X[.H.>X6X6X6X6X5X6X6X1XG 9 H W U L S R H W q G 2X6X6X6X6XJX6X5X*XF.[.-X[. X X{.$Xn.|.{.H.&X&X5X5X<XJXeXt t ^ ~ s s i p _ L._ j E ^ ! ~ 3.0X,.I @.4.wXuXuX+.5 D 5 I aXnXnXdXe.kXkXnXIXmXnXnXnXFXvX2   + - t s 7X~ ) j j q T.T.T.' D.H <X6X4XW.G.,XOX$XGXGXCXHXCXoXx.k.r 9 K.Q.tXKXUX8X; & < ,  .-.cXy.X.-.i.cXo.o.q.i.i.y.i.o.i.q.....y.i.y.y.o.o.y.dXDXJ.D.`.} /.jX} S R r.X.r.r.X. .X.y.cXy.X.D  .D D &.r.&.&.R R R R e.r.r.R R 5.U ^ U 1.] J S sXxXlXkXhXqXqXhXwX4.$.C , * y 3 - + + + X X & , 1 4 yXHXFXFXkXhXhXvXfXsXaXxXfX5.R r.t.2.#.e.&.=.-.t.=.&.t.",
"fXt.&.-.8.-.X.r.5.=.e.sX=.Y 6.sXxXe.t.nXvXfXkXhXAXKXSXtX5 1 , O o X - - - ; V 3 @ , :.;.3.aX0XhXaXkXlXlXlX4.J J { *.Y ^ ] R *.R e.r.R R R R r.r.r.&.X.S D S X.-.cXy.-.D X.X.r.X.R e.S S e./.^.1XD.D.DXdXy.8.o.y.y.y.y.o...i.zXw.i.i.i.i.q.o.8.i.cX8.o.y.i.y.N m < < 2 9XUXUXQ.).).q r k.k.oXCXHXCXGXGXOXOX$XG.+X6X2X(.Y.Y.Y._ _ _ E ( x x ) 9Xy - @     qXPXkXnXIXnXmXmXnXkXdXdXkXPXnXI O.$.5 5 6.lXuX2.#.:.:.,.#.s P ! K J W _ L.Q p q u ( >.a t tXKX4X6X5X*XH.H.].G.G.@X].$X;X.X;XH.F.5X3X3X6X6X5X6X6XD.G G W E 5.S 4 e.J T G 9 ,XJX5X5XJX6X{.3X;XF.H. X5X5X3X{.$X@X|.G.F.!.*X;X6XJXKXtXy t / ( h i j Q L.L.E g E E ! ! ^ ` ,./ I 4.wXwX6.D 5 =.6.1.6.nXFXjXdXkXPXIXmXmXnXnXkXnXgX$     @ 2 A :.z x E ! p x E T.T.W W.<X2XJXOXA.XX$X%XCXHXKXCXCXv.w g r Y.DXQ.T.SXIX8X3 3 N 1 X.y.y.o.-.y.i.i.q.q.q.i.i.o.i.i.i.i.o.8.i.y.y.y.o.o.y.fX`.~.G ~.' F /.R S R R S -.-.X. .&.y.y.y.X. . .D X.&.r.r.r.&.R R e.e.R R e.5.R U ] ^ R e.] u sXu.t.sXnXhXgXaXqX/ @.:.3 o ; C - - 3 X 8   O , 1 5 yXHXSXhXgXnXnXxXnXsX5.t.t.t.O. .t.t.5.5.t.&.-.t.t.&.-.",
"t.2.&.8.y.6.=.t.5.t.t.-. .*.5.wXsX5.t.cXmXPXnXaXgXFXSXqX4 1 * o o - @ - + - y ; * a $.Y / hXtXgXkXfXu.6.t.Y ^ aX5.Y ;.U U R t.e.R R | R S &.r.r.r.r.r.X.D X.&.u.cXu.-.X.X.X.r.r.S R S R jX' G G G H.`.jXy.o.o.y.y.y.i.8.o.8.cXi.i.8.i.y.q.i.q.w.i.i.8.y.i.y...1 m < a yXUXSXU.).DXK.w r a.R.CXHXUXHXGX4XXXXXc.JX6X<X(.H W T.I.j q E x 4 t a A t $ +   # s hXPXnXnXxXnXmXPXkXdXe.dXkXwX;.t.6.L 5 #.5.qX,.` ` ` ` _ E E E E l L.K.L.W W g r I.>.2 f V.HXJX4X3X3X*XF.F.OXXX%X$X4X6X;X'.F.F.;X,X{.6X5X;X5X2XG 9 H J ] 3.4 4 [ ] ^ H 9 J.6X*X*X6X3X{.3X;XF.F.F..X6X3X$X#X@X#Xs.s.~.,X{.,XGXNXv t y ! T.l r l K.l Q K.j E _ E E _ I.0X3.^ ,.qXqXP D L &.-.=.2.sXaX/./.jXkXnXnXxXfXfXfXjX{ z t $ + + 2 3 c a t x j > j gXqXG ' (.2XJX<Xd.K.@XGXGXHXHXCX#XR.k.g 9 W.KXgXtXSXUXvXC 1 < m ..o.i.y.8.i.y.o.i.cXi.o.i.i.i.i.i.8.o.y.y.y.y.y.o.o.y.fX`._.G !.^.G aXdXS R S r.r.r.X.D X.u.y.y.8.X.X. .&.&.r.y.r.S S R 5.R D R fXfXY J J L L aXkX/ L &.-.t.hXkXSXgX0X;.4.<.@.2 & ; - + 8 + 8 X o * 1 3 tXHXSXgXsXnXmXnXmXxX6.sX2.r.+. .-.u.sXt.e.-.t.lXt.-.-.",
"L &.r.-.t.u.t.O.5.t.u.+.D 6.5.3.4.sXlXxXnXnXhXhXSXSXSX,.1 , , O o - X - + % % * 5 6.2.4.^ 0XFXkXhXsX-.+.#.4 [ nX5.D I S S | fXt.S R r.r.S S R r.y.&.&.&. .X.-.lXxXy.r.X.X.X.X.r.r.&.R | dXG _.~.S.(.`.r.y.o.o.i.8.o.y.i.o.7.w.cXi.i.i.o.q.cXi...y.y.X.8.8.X.m M = m V bXUXSXAXFXFXY.9 K.R.oXoX#XHXHXGXCXR.g.c.%XJX2X(.A.' SXqXh t P u t :.y @ * +   z wX,.3.kXhXdXxXnXxXPXkXjX_./.dX4.6.6.=.#.P u ] 5.0X{ I.T.I.T.I.I.I.L.k.K.k.K.g r H W I.>.a t t tX<XOX3X,XG.s.s.XX#X%X%X3X3X}.F.[.F.3X3X{.4X;XH.=X5XG 9 ' _ ] T , S J [ _ H e J.6X=X[.$X$X$X6X.XH.{.F.].4X%X%XCXm.XXs.s.Z.,X6X+XGX8X7 t >.) I.K.g r g K.U.K.K.K.T.T.I.T.T.T.{ { 0X0X{ u ^ 1.5.sXsX2.sXkX`.jXjXjXkXkXnXfXr.kX5.` PXpXy O O   @ a a > u n p ) aXgXQ.K.<XGX6X+Xd.g.oX%XGXCX+X%X+Xc.R.W.r ).DXKXSXvXIXIXC * = m m < o.X.X.8.y.o.8.i.i.o.i.i.w.cXi.8.o.i.y.o.y.i.8.o.r.r.dX1XD.~.6XS.T ] S r.r.r.X.X.&.X.r.u.cXy.8.X.-.X.&.&.r.r.R R T R e.R R | t.t.L 4 L Y R 5.sXY 4  .5.2.3.sXnXFX,.~ 0XwX6.C * O + % + $ + X O , 1 , 8XyXhXFXhXhXlXvXt.sXt.1.&.=.-.=.X.6.t.4.&.2.y.t.t.u.6.",
"-.-.y.t.-.t.t.&.-.t.t.+.-.t.2.*.#.5.6.2.5.wXyXSXSXyXqX~ 4 1 * O X + . o + O O ; @.4.qXqX_ T.nXnXsX6.6.1.5 D 1.sX6.1.#.4 D R r.kXe.R R R R R *.&.r.X.&.X.&.X.t.y.xXxXu.-.&.X.S X.r.fXe.T F D.1X~.J.DXjXfXo.o.y.q.y.o.w.zXw.8.iXcX8.y.i.w.q.i.i.8.y.y.X.1 m = = M = = m LXLXyXUXPX).DXA.<XR.XX@XCX#XoX+X#XoXR.d.+XJX4X,XW.AXtX8Xh a y - t y -     O a <.vXvXI vXnXkXkXkXkX`.`.`.`.DXPXwX<.mXsX4.aXT ' T.T.T.aXI.{ T.I.I.T.U.E.W.E.K.g w g W _ / :.C - v SXGX4XOXA.d.d.d.R.%X%X4X4X].[.[.H.5X3XOX3X3X;X5X5XA.9 W { ^ J 4 S J ' K.9 e J.6X3X3X.X.X$X3X.X[.F.G.$X3X4XCXoXc.c.d.G.Z.G.+XHXeXf t y ) 0X) g g l k.K.Y.K.E.K.L.[ { { I.{ T.[ T.aXT.{ ).hXvXlXu.-.lXPXDX`.!._.`.DXkXkXnXmX2.4.vX<.Z C ; % X + - + 2 t 2 i 0XQ.Q.W.+XGXGXOXs.XX#X#Xc.XX%X%XXXg.A.,XJ.<XDXUXPXwXLXvX3 * % < m = < m m 8.y.y.i.i.w.q.i.o.y.i.zX0.lXcXbXw.w.q.8.8.8.y.fXjX2X!.=X!.F T e.fXr.R 1 S &.r.y.y.cXu.0.-.X...-.&.-.r.&.*.R S R | &.fXfXe.5.L L 1.L O.1.=.5 5 2.sXsXsXvXnXqX,.qXqX:.:.3 = @ + $     + % & < 5 @.7XyXtXyX,.4.6.6.2.5.2.&.5.5.6.6.6.6.-.-.6.sX=.lXlXt.",
"r.6.fXt.5.r.t.t.6.-.0.-.-.2.2.5.2.2.e.sXhXqX8XeXyX9X7X#.5 < * O   .     @ % < C <.,.yXqXqXhXnXnXfXlXt.L 5 O.2.*.D L *.L *.sXt.fXe.R 5.R D *.*.r.-.r.r.X.X.-.t.8.u.y.y.y.r.X.S S &.xXe.' ^.G ~.S.2XDXdXy.y.8.o.i.i.i.zXcXi.i.zXcXy.o.i.i.q.cXi.y.y.o.m < = = m = = = C pXvXyXLXUXDX).(.).e g.n.%X%Xm.d.VXCXc.a.+X6XOXW.R.Q.U.8X2 - 2 @     X ; C V <.V wXwX#.sXPXPXFXjX`._.^.1X_.FXnX0.9.zXnXkXgXT.Y.T./.T.T.U.qX( _ _ K.K.K.K.K.U.U.l.r r j ^ @.3 ; 8 P.NXK.a.R.d.A.d.g.XXCXCX4XOXs.F.H.;X.XOX$XOX3X>X=XS.e e L.K J : 4 J ' Y.e e J.*X*X;X$X3X.X{.{.H.Z.s.OX4X%XHXoXE.k.r e d.A.k.P.z.- - y s b i t h K.K.K.d.K.A.K.K.K.Q _ I.T.[ T.T.Y.Y.Y.`.FXPXxXu.6.t.kXFX<X=X=X=X2XDXkXnXvX2.4.<.@.Z 9.B.9.V 8 + X o @ $ i 0XU.Q R.+X4XGXOXg.g.%XoXa.#XCX@XG.d.s.,X<X2XDXFXPXwXsXuXC < = = m = % = 1 8.cXi.cXi.o.q.y.o.y.i.cXzXzXbXzXzXw.q.i.i.i.u.t.dX_.^.G G ^.' [ fX&.R D D r.t.y.u.u.8.0.-.-.-.t.y.r.&.&.e.R L R R e.e.sX5.sX*.S R S R *.t.R 4 Y sXxXxXmXmXhXwXgX0X,.4.C 3 @ + .     + O & < N :.,.tXqX0X7XwXyXsXt.6.2.5.*.=.5.t.u.8.-.u.t.r.-.t.t.t.",
"6.r.r.t.6.&.t.t.-.-.u.lX6.6.6.e.5.sX6.wXwXrX7X0XqX7X4.:.5 2 & O   o     + * N <.9X,.tXgXgXPXnXnXnXxX6.4 5 sXsXL 5 D L R 5.sXe.e.sX| *.R S &.-.-.&.y.u.+.-.-.t.-.-.y.cXxX-.X.D &.D e.| T /.D.D.^.DX/.fXt.i.i.w.q.w.iXzXbXzXcXzXcXy.o.o.q.8.i.i.i.y. ., * % = m & * 3 V vXhXwXgXFXDX`.2XJ.9 R.XX#XCX%Xc.%XXXa.R.OXJX+XQ.K.g U.>.2 @ o X - A 9XuX9.uX<.C :.9X;.4.PXkXDX2X1X~.=X1XDXhXuXzX0.kXkXFX2X^.^.^.Y.Y.T.Y.Y.T.T.U.Y.K.A.A.d.d.K.K.k.w r g i 3 2 - y P.k.k.r e r k.R.CXCXCX%XXXs.F.H.F.{.XX%X$X.X[.H.S.e H T.J J 4 S J W H Z.Z.J.H.{.{.$X%X].[.F.H.J.Z.R.GXCXCX+XR.d.g.w w K.l.f t - 2 t i g g r d.K.R.d.d.d.A.U.Q.Q.tXtXT.Q T.Y.W Y.^.<X2XDXDXdXlXlX6.lXPXDX_.~.&X1X2XFXIXsX#.:.C :.C <.9.V.pXZX9Xy   o $ i ) j r k.+X4XGXOXg.g.XX%XCXCX%XXXXXG.e W.2XgXFXFXtX4.sXlXwXC 3 * ; = % % = 1 i.cXy.i.q.o.i.o.i.cXzXzXcXcXzXiXw.q.i.i.i.u.t.dX^._.D.D.).' [ e.T R X.X.X.y.xXu.u.-.-.u.-.X.-.y.-.X.&.r.L D R R sXe.e.t.fX*.5 D D D O.xXsX4 4 aXxXcXIXmXvXhXgXqXwX4.:.y @ .   . + X X O * 5 :.,.0XqX7X7XqXqXwXsXlXsXsXt.t.6.6.u.-.%.t.t.5.6.r.6.t.",
"t.t.-.5.5.r.t.5.-.6.u.t.6.sXsXsXsXsXsXwX7XqXeXI.0X0X:.a 3 * O X X .     . * 3 @.wXwXgXqXhXkXmXmXxXnXR 4 Y xXt.O.*.L 5 S &.t.r.5.r.e.R S *.e.&.=.-.u.-.X.X.u.-.-.0.y.y.y.&.&.D &.R R | [ ^./.(.)._.| r.-.i.zXiXiXw.zXzXzXzXzXi.cXy.y.o.o.q.i.y.cXy.< & & % = ; & , <.vXvXwX{ gXFXDX`.DXZ.s.OX%X$X@X%XGX%XR.g.g.+XKX<XW.r u z i - o o - 9XZXpX9X<.<.V V :.C ;.4 PXUXDX1X~.~.,X2XFXlX6.u.lXaX_._.1X1X1X(.H Y.W.T.U.).Q.U.W.R.A.d.e w k.c.d.h.r g h 2 - 2 - t P.E.w w k.R.R.+XCXCX+XA.J.H.!.H.{.oXCX%X$X-X*XH.Z.Z.H W J 4 J q W H e F.*X;X3X$X%X@XOXOXH.*XW.R.c.NXCX+XR.k.R.Q.w w z.8Xt - + 2 t h q w r k.d.g.a.s.d.c.R.R.U.E.Q.Q.T.W.Y.H ^.2X1X=X*X~.Y.kXvXt.wXkXhX`.=X*X*X2XKXPX;.4 c >.9XV <.9.B.9XpXpX9X- O X $ t h j K.Q.AXGX].G.XXXXGXGXm.#XGX4X+Xs.J.AX`.FXjX{ ,.4.wXIXwX3 ; = % % & & < -.mXy.cXi.m o.y.i.cXi.zXzXmXbXiXiXiXi.i.cX8.t.e.| _.`._.^./.dX] S S S X.X.y.cXi.u.-.X.u.6. . .-.y.u.&.t.r.O.D &.t.e.1.xXt.O.D S Y O.L t.sXL : e.nXnXmXnXhXqXqXhXyX:.C 3 $ . . .     X O * 2 ~ 7XqXqX7X0X8X7X8XwXwX0XsXsXsXt.6.u.6.r.6.r.=.t.6.5.sX",
"xXt.t.5.e.6.=.t.t.6.u.6.t.sXsXaX5.qX0X8X8X8XqXI.0X0X4.5 - O X           o - a A wXvXhX0XqXkXmXnXnXnXR 4 5.t.] R *.&.S D *.fXt.&.r.e.R D e.t.X.-.y.y.X.1 X.lX-. .-.i.cXcXt.X.D S S F /./.Y.dXgXdXaXe.=.-.i.i.iXiXiXiXiXbXcXzXi.i.y.y.o.M 8.zXzXbX%., = % % = * 3 a vXvXsX1.^ | gXjX2X(.D.(.OXJXGXOX@X%X%XXXOXd.R.GX<XQ.j x i @ O X - B.pXpX9XA 9.9.<.<.9XV a 2 qXFXDX,X*X~.1XjXkXvXu.y.fX/.!.S.~.*X1X1XJ.A.Y.R.W.K.K.K.Y.R.A.d.d.d.d.c.k.h.h.k.k i > @ + 8 A v.k.k.K.K.d.d.E.HXMXK.R.S.~.*XOXXXoX#X$X.X>X&Xs.e e H u 4 U q H s.e Z.[.{..XXX%XXXXXOX{.D.e K.E.BXNXR.e a.R.k.k.eXB.A - o $ 2 i k k k k.c.c.c.g.h.g.c.R.E.K.K.k.K.R.K.D.J.(.1X&XH.H.H.~.gXhXlXxXvXdX).1X(.*X<X2XgXs y c wX8X9X9XpX9.B.pXpX9XV ;   + $ i ( L.U.+XAXG.R.4XXX@X@XXX%XJXJX4XW.W.).jXgXaX[ / qX4.vXuXc ; ; % * % % = m i.mXcXq.M o.i.y.y.i.i.cXzXpX9.iXiXiXw.zX%.X.t.dXdX/._.Y././.F F S S &.u.y.cXcX8. .+.y.&.S  .u.cXi.&.&.t.&.R &.e.&.r.t.5.&.D 1 &.r.O.R sX5.P 5.xXnXnXmXnX0X{ SXvX9X@.y - . . .       O @ @ 4 :.0X` tXeX7XI.8X8X0XqXqXwXsXsXt.6.6.u.6.&.6.5.sX5.6.",
"nX6.1.e.e.t.5.6.lXt.-.6.lXlX4.sXqX,.>.8XeXeXqXqX^ ;.@.2 O O X X         + 2 C ,.4.PXhXI.qXfXmXxXfXkX5.] e.5.D *.5.D 4 D e.&.5.e.R &.R &.t.&.X.r.mXcXu.X. .u.6...+.u.i.cXy.u.&.S F : } /.' ' T.dXdXt.X...w.w.iXiXpXiXiXiXcXcXy.i.y.y.o.o.7.mXbX7.< * % % = % - C ;.wXqXwXaXU [ /._.2XY.W.,X+XJXJX%X@X].OXOX<XG.K.NXQ.L.( c 2 O O & C 9XyXwXpXuX9X<.pXV 9X9Xa 4 K Q.<X,X,X`.).aXsXxXnXdX/.(.*XH.H.!.*X*XOXJ.A.d.K.k.R.E.Q.R.k.k.d.R.k.k.c.v.j.j.k.k u @ o - A 8XeXx.k.d.r w h.eXBXtXk.e A.G.J.XXoX%X%XF.[.[.Z.s.J.H K 4 P J H Z.s.H.[.[.{.%X%XVXR.G.D.r e U.BXMXx.w r e c.h.x.rXB.y @ @ $ h k z.k.k.E.k.k.h.c.c.c.c.R.E.oXE.R.d.d.A.G.J.J.!.H.&X&X;X1X(.gXnXnXfXsXdXjX2X<X4X).j 2 a C yX:.V B.9.pXpXpXpX9XpXV * @ @ 2 n ( K.U.Q.A.G.4X4XXXG.#X4X4XGXOXOXW.).gXT.aX[ ^ kXsX0XwXwX:.y % - & % % = m zXcXq.M o.i.y.i.8.i.cXi.iXiXpXiXw.w.q.+. .-.fXe.[ ' W ^./.: F } &.u.y.i.cXi.-. .&.r.&.X.u.cXmXu.+. .r.&.&.&.S &.t.D =.t.S S O.=.*.L 5.fX] e.fXsXxXxXvX4.{ kXPXqXwXc 2 @ .         X o . @ ~ ,.P qXtX0XeXU.7XeXhXhXvXxXlX6.*.=.lXsXe.fX6.e.*.1.",
"nX1.Y 5.sXsXt.t.lX6.=.2.sXnXhXnXhXyX8XeXtX8X0X` U Y 5 @ o X X         o @ y A wXqXPXhX{ sXvXxXxXfXdXaXaXaXR R R 5.D D &.e.D &.t.D &.&.&.&.O.D r.xXmXcXr. .+.-.+.-.u.i.y.y.y.r.e.| G ' ^.' F T e.t.y.X. .q.q.q.iXZXiXiXiXi.i.o.y.i.y.o.o.q.zX7.= % % % % ; ; y wXvX0X4.vXnX] [ jXY.jXW.W.W.%XGXGX4X].f.4XGXOXA.A.Q.K.g z y @ O - y pXpX9XrXpXpXB.Z uXV pX9Xa u > Y.).DXDXkXdXsXfXnXkX`.(.{.3X=X:X*X[.H.F.].R.d.c.R.+XeXoXE.R.v.v.k.g k x.v.x.k.j.k.u t @ + t z.B.k.d w d.d.w d z.yXP.Q A.d.G.OXOXCX%X{.{.;XF.s.A.H g J J q G G.Z.G.{.XXOXCXoX+Xd.d.A.K.U.eXE.d 7 r R.h.a.h.d v f - + $ t k v x.k x.k l.h.d h.v.v.x.v.R.E.+X+XR.R.R.J.J.F.H.&X;X>X;X*X(.Q.jXnXxXr.r.fXDXDXDXgXJ 2 a a 9X9X9XpXpXpXpXZXV.pXpXpXC & + @ s j j K.U.A.A.OX4XOXg.XX$XJX4XOXW.W.).gX/.gX] [ PXkX3.3.vXZXy - * * % % % = ..zXw.7...w.i.y.7.q.w.q.iXiXiXiXw.9.7.%.X.y.y.r.5.T W ^.^.T } e.r.y.y.u.u.i.u.+.X.&.D r.xXcXmXu.X.D O.&.&.&.S e.sXD =.e.*.O.O.R L S R aXdXsXkXfXxXxXxXqX3.hXPX9XpX>.2 @ . . .         o @ u 1.3.` I.eXtXtXeXtXyXhXhXhXsXt.6.6.lXsXfXsXe.t.] ] ",
"xXsX5.sXaXsXnXxXt.6.sXwXsXvXhXqXqX8XqXtXE.tXT./ 4.#.2 o X           . + @ t ,.hXyXPXhX3.fXnXt.t.fXaXfXaXR L S L D 5.e.&.5.*.t.fXR R *.&.R D R X.y.y.cXcX-.X.=. .0.i.8.y.r.t.r.fXjX} D.^.' [ e.e.xXcXt.7.7.7.9.iXiXiXiXq.w.i.o.i.i.q.B 7.i.w.M = % % % = % ; B.LXqX,.hXnXkX1.[ /.jX2X<X,XOX%X4X4X].XXG.].W.W.d.H T.L.i z 2 o @ , 9XvXZXpXpXpXpX9.pXpXpXB.A a 4 4 jXDXFXnXnXxXlXmXkXDX(.,X3X4X5X*XH.[.[.].OX%XoXc.oXE.E.v.v.v.v.v.h.d k l v v j.x.k.h q $ + - 8 f k j.k.r l g $ t v rXU.g d.s.g.c.+XNX%XOX].Z.Z.Z.e q u q e e Z.f.G.{.%XNX%XE.d.w g r l.eXx.k 7 w h.k.h.k.v.d f ; * - $ t l.h.x.h.v f z.z.k.j.x.v.v.V.v.E.R.E.R.G.4X$X{.[.[.[.-X5X6X5X,X<X`.kXnXxXy.xXkXkXFXFX3., 3 C C 9XV.pXpXB.ZXpXpXZXZXbXV - @ @ t u u W I.r d.Q.G.G.$X$X].$X4X3X<X(.).JXjX/.[ | kXPXhX_ wXLX9Xt - % % % = = M q.w.w.o.i.cXcXw.w.q.9.q.iXiXiX7.9.-.0.i.y.cXr.5.aX/.^.Y.^.jXdXe.r.-.-.-.w.i.-.-.&.&.xXcXu.0.-. .O.O.R 5.&.R e.fXt.*.*.t.r.R D T L U { sXdXdXe.t.sXnXsXaXhXSXhXhX,.t @ .             +   $ I 4.,.I.( I.tXeXU.eXrXhXnXhXsXfXsX5.lXxXt.sXsX5.5.",
"sXsX5.sXsX5.nXsX5.6.xXnXhXyXhXqXwXrXtXtXU.Q ! ;.1.5 O                 @ - 4 ) hXPXhXqX6.nXnXt.sXdXaXdXaXR T R S S e.t.e.R 5.t.e.R X.} r.R D R D &.-.r.xXu.&.6.X.0.zX..8.r.&.&.| dX`.2X' ^.dX&.r.y.cXcXw.w.q.Z iXiXiXq.9.q.iXiXiXmXzXq.q.q.M M M m = % * - t vXPX>.,.nXPXsX{ T.aXDXDXW.OX4X4X4X].G.4X,XZ.R.W.r r Q j t t 2 o * y pXZXLXZXbXpXpX9XpXZX9XA V v > :.PXnXfXlXlXi.cXxXkX1X,X3X%XJX5X;X&X[.[.{.$X%XXXc.oXMXoXv.MXV.M.V.eXx.x.U.P.v d j.h.g i 2 @ - - 8 v h.l.h.k w 0 t 8 h U.eXh.w d.d.E.eX+X+XG.G.Z.s.G 9 q q 9 e s.].G.R.VXMXE.k.d.r k.z.B.k 0 0 0 w d j.x.h.j.f 8 % - $ 7 d k.h.d k z.P.8XE.V.eXE.eXv.MXE.v.oXoXXXg.OX|..X'.[.H.&X1X4XJX3XJ.(.jXfXxXxXy.lXxXnXPXvX5 , a a :.pXpX9XpXpXZXZXbXIXZXrXm O o y 4 u W E r H W.OXG.4X4XF.].3X6X6XD.D.2XDXjXT.T gXnXFX` p vXPXy $ - * % M M M M M q.w.zXmXbXzXzXw.7.q.7.iXw.M 9.w.w.i.cXy.X.&.e.jX^.^.DX`.} T &.&.r.8.w.cX8.X. .&.t.t.=.-.&.=.*.&.*.*.| R R *.e.R R t.e.5.S S | U R aXdXe.dXsX6.nXhX5.qXhXPXvXA 3 , @   .           . o 2 P 3./ x I.tXtXyXtXtXhXhXhXnXhXwXe.sXfXsX;.aX5.aX",
"aXsX5.aXsXsXsXsXsXsXvXkXhXvXyXtXeXyXNXtXK.Q ^ I , & o X   .         @ - 2 t 8XhXhXgXqXsXlXsX=.e.e./.dX| T [ 5.U R sXe.e.*.R *.R T &.&.R R &.&.&.&.-.t.y.&. . .+.i.cXu.u.-.X.R T _.`._.Y.dXdX&.&.r.lXi.w.iXq.Z w.q.9.7.q.9.iXiXzXmXmXiXq.M M M M = = % & - ) LXSX( ` kXPXaXT ' jXDXW.D.OX6X4X4XG.].<XW.R.W.Y.H E E p u a y O 2 9XLXIXLXbXpXZXpXpX9XpX9XA a y , wXnXnXxXcXy.zXcXxX_.^.H.$XGXJX,XH.[. X[.'.].@Xm.XXMXoXc.v.MXC.MXMXMXE.U.L.U.U.x.v k d d 0 o O O - f v n v h 8 w d t 7 8 x.U.x.k.h.h.U.NXNXd.K.R.Z.9 9 q q 9 e G.R.r k.MXeXx.h r l.B.B.f 8 0 w w 0 7 f B.B.V y ; % + - t d g g l.U.( L.L.U.E.E.eXoXMXoXv.c.oX#XXXXX@X].}..X-X[.H.*X6XGX4X{.D.^.aXcXy.xXzXcXvXmXvX5 , C V <.wX9XpXvXZXpXpXZXLXLXbX9X@ @ 4 4 4 u W W r K.W.R.G.3X{.{.3X4X<X<XW.<X<X(.' T dXPXhXU j PXLX8X2 & % = = = = M M M iXIXmXzXzXw.q.7.7.7.w.iX9.iXbX9.8.y.8.8.X.e.jX[ ^.jX_.T T R &.y.lXi.zX8.X. .&.t.u.r.&.&.5.&.&.R R 5.R R R ] 1.e.aXsXfXT U 5.J T e./.[ | 5.5.lXxXsXqXtXhXyX8Xy > $ @         X X o . O , u I P ( 8XtXyXE.eXtXyXhXvXhXsXsXsXsXxXsXaXqX5.",
"sXaXaX1.sXnXsXt.xXhXvXvXSXyXtX8XeXrXtXU.K.E p 2 o O                 $ 2 2 ) qXyXwXqXqXfXxXfX2.e.U | aX[ J U | R e.kXsXaXt.| R R R R T R R &.R &.&.&.y.t.&.X.O.6.cXi.cXcXt.r.e.} } jX`./.dXt.&.t.t.u.7.9.bXw.7.w.iXq.Z 7.q.q.zXzXbXbXq.M M M = = = % O @ s hXUXhX^ ^ aXFXjXT.Y._.Y.W.,X6X3X,X.X*X4XOXA.Y.Y.W E W ! p u i 4 o 3 IXIXLXZXZXpXvXpXyX9XrXrXB.8Xy 5 6.bXlXxXcXcXbXcXnX/.~.{.%XKXJX*X&X&X&X X.X].$X#Xm.#XoXR.M.v.v.MXMXMXoXR.K.K.U.8Xx.l.d d i $ O % ; ; z B.B.f d 7 6 w w d d B.8Xn z h t l.eXh.r R.K.9 9 9 G e e +Xd.r l.V.f t k b L.B.f t d d w 0 8 t v B.v 8 ; * % + t f g g Q L.U.K.K.K.R.Q.+XoX+Xv.c.E.M.oXoXN.N.$X@X|..X-X&X=X1X6XJXGX3XW.).kXmXmXcXzXzXzXvXpX4.3 a C :.yX9XpXZXZXpXbXZXLXLXIXpXO @ 4 u p P ^ W H W K.D.G.OX6X{.{.1X,X,X<XD.A.(.).T.jXFXT.E _ gXPXhX8X@ X % % = M M M M w.bXbXzXpX9.7.M 7.7.w.zX9.w.iX7.X.i.w.y.8.e.fXgX`.jX).} | dXr.xXcXu.cXi.X. .X.r.t.r.5.=.*.R ] R T R [ R [ R e.kXfXkXkX[ [ | J J [ | [ [ aXsXlXxXsXwX0XtXwXwX:.2 2 2               o   . @ 5 P ~ ) T.tXtXtXtXyXSXPXhXhXkXsX3.nXkX5.e.sX",
"hXfXsX3.sXkX5.sXnXhXkXvXPXyXtXtXyXeXU.I._ ! 4 @ o X           o   o 2 , 2 wXyXqXgX3.wXnXxXvXsXsX[ /.T.T J T e.{ e.fXkXfXdXe.[ [ | R S R | S R r.r.r.r.y.&.D X.u.u.6.y.cXy.t.e.| `.DXjXjXkXe.6.y.cXi.7.Z q.9.q.iXq.w.7.M M 9.iXiXiXbXq.M M M M M % % O 3 yXPXFXQ.W W Y.jXFXjX).Y.G J.2X1X,X*X{.3X6XG.D.A.r q q ^ ` ` s i 2 o y pXZXbXZXZXZXZXZXZXyXSXqXb v 3 wXzXlXzXzXcXbXmXIXPXDX<X<X4XHXJX5X5X-X-X;X;X$X%X@Xm.m.XXoXXXXXc.E.oXoXR.K.A.r k.l.P.P.k z z y , * * & - y V f f d d w h.d 0 8 f a v f 7 t k B.k k.W.G 9 : G : 9 +Xk.L.z.y - 8 z h t t 8 8 t t 0 t d z t t y % % - - - y z h l L.K.r r d.A.A.d.R.R.R.c.XX#X#XN.N.N.#X%X$X.X3X&X:X>X5XGXJXJX4X,XJXUXIXIXbXzXbXzXiXbXIX:.5 y c vXSXyXZXZXZXZXZXZXbXbX9X* @ 4 5 I U J J u q H A.D.H.3X1X~.4X,X2X2XA.G W.`.FXFXgXJ J K.qXSXPXPXc & O % = M M M M M w.mXiXiX9.M 7.o.q.w.zXiX7.9.%...i.i.i.t.6.fXkXjX/.jXdXe.fXt.t.u.0.8.0.-. . .r.r.r.r.r.R D R | S T | aX[ [ 3.dXkXfXdX[ /.e.J J T /././.fXsXxXvXkXaXqXaXwXhXwX5 3 2 o             o X   O 2 P ;.` ( U.tXtXtXyXSXhXPXnXnXsX5.fXnX1.aXkX",
"sXdXsX5.sXsXqXhXnXnXvXhXtXtXMXtXBXU.L.I.,.P $ X X             .   * a 3 a yXhXhXtXqXsXlXxXsXsXaXT.aX/.F J [ dXaXe.aXkXdX[ [ [ [ dXR S R | R T &.r.&.r.r.&.D X.r.-.-.-.r.t.fXe.| jX/.aXjXxXsXu.8.cXi.q.9.9.Z q.w.q.w.7.M q.7.q.iXbXiXM = M M M = % % ; wXPXhXgX).' q 9 ' DXJX).D.Y.D.(.,X,X6X6X5XJ.Z.A.K.H u q u p P s a 2 @ C pXZXbXZXZXZXZXZXLXBXUXBXh > a bXmXzXzXcXzXuXbXLXUXKX,X4XGXGX6X6X5X-X-X3X$X$X%X@X@XXXXXOX$XXXG.c.g.g.d.s.A.A.d.r l l.l.b v h t - @ @ @ @ - 8 y f h.k k.d 7 8 - - 8 t 8 $ - A 8XQ.Q.9 q q : 9 W tXtX7Xt @ $ t t $ - 8 - 8 d k f v f y @ @ @ O o $ - t z k l Q L.W e d.d.A.d.s.s.s.f.G.G.@X#X@X#X@X#X%X@X$X4X;X&X:X5X4X6XGX4X,XJXUXPXvXpXlXzXbXbXbXmX<.2 2 I.UXUXZXZXZXZXZXbXiXZXbXpX5 @ 2 a P P 4 4 K W H K.A.Z.,X6X6X2X,X).(.(.<XH ).KXgXH 9 H _ gXgXaXSXhXy X = % M M M = M M zXzXq.9.q.7.M q.w.i.iXZ Z q.%.w.mXi.0.u.fXfXe.| aX/.| fXfXr.-.t.X.X.-.X.&.r.r.&.r.e.R R | 5.T T /.dX[ | ' [ kXkX/.aXdXaXU 4 J ).).' aXsXsXlXlXaXqXtXhXwXwXa y 5 @ . o   o         X X @ 2 ;.,.! ( tXtXeXNXtXhXvXPXnXsXsXaXsX5.aXsX",
"aX5.5.aXsXaX6.sXvXPXSXhXtXtXrXNXQ.L.( ,.@., o       .     o o   @ 2 a C :.wX3.yXqXwXnXsXvXsXaX[ ' kX/.q : [ fXdXaXaXkXaXU ' | dXdX] T T e.e.&.5.r.r.-.r.r.X.r.X. .&.r.&.fXnXfXdXdX/.aXhXlXlXi.i.cXi.q.9.Z 7.iXiXw.o.M 7.iX9.9.iXiXq.= M M M = % % X A vXhXT.AXjX/.H 9 Y.AX).W.H DX<X`.(.(.6XJX6XD.Z.G A.W J P 4 4 U 4 p 4 * <.ZXbXZXbXZXZXZXLXZXLXUXSXg $ 4.zXw.zXmXzX0.uXvXFXKX<X,X6XJX4X3X6X>X;X>X5X3X|.@X@X#X%X%X$XG.G.s.s.s.s.s.g.d.d.d.r r k b l.v k t d $ @ o   + - - t f z h t t 2 - - + 8 $ @ * - a tXT.q 0 u 0 : ( I.z.t $ @ @ - + + $ 8 7 8 t t y y - - & @ + # $ t w d l b l g k g k.d.d.A.s.s.s.s.s.s.f.G.XX%X4X%X@X@X@X$X6X5X>X>X5X4X4XGXJX4X,XAXSXSXvXuXuXbXmXzX0.iX5 0 U.HXUXLXLXLXZXZXZXZXZXZXbXy @ a 2 4 1.U 4 ! Q W A.9 S.~.5X2X2X(.W.W.DXJXD.Y.Y.<X).H ' gXDX).T.T.hX9XO % % = M M M M M i.i.q.9.ZXq.M M w.w.iX7.B 9.8.w.bXu.0.xXxXxXfXe.kXjXdXkXnX&.D r.X.X.-.&.X.r.r.r.r.r.R r.r.| S T e.dXe.[ T [ aXgXdXjXdXdXT : F gXgX' T.sXu.lXxXhXgXaXqX;.4.:.I s y , .   o             X 2 a 0X0XI.Q.NXNXNXNXBXSXkXhXsXsX3.sXaX5.3.",
"5.] qXsX5.6.6.sXhXhXvXSXyXBXHXCXE.Q.qX1.3 @ X X . . . . o + O @ t y a @.wX:.! { tXsXxXlXfXsXaX^ J jXT.J q T jXkXkXaXjXaXT W [ aX| T T T e.aXe.e.sXr.r.y.X.X.X.D S D D D sXfXfXkXkXkXPXnXlXlX0.i.i.i.w.%.9.9.w.w.q.B = q.bXq.9.iXq.M M = = = ; * + t yXwX^ _ DXDX/.T./.2X(.A.A.W.JXjX).Y.2X2X(.,XJ.H.H A.W u P P 5.3.4 L 2 @ <.iXpXpXZXZXZXLXLXLXUXHXtXg > vXzX0.zXmXlX6.lXnXDX2X,X,XGXGX%X3X5X>X>X5X6X3X%X%X#X%X%X4X].G.f.e s.s.s.s.d.g.g.d.A.K.w l l.x.k.h.k.d 2 $ @ $ - - - * + - $ $ # $ - . $ + + * % $ q Q Q > h > > ^ u > + @ $ # . # + $ $ + $ + X X % + - ; - $ $ d k.k.d.k.l.l g d c.R.c.k.d.s.s.A.s.f.s.f.G.G.3XGX%X$X%X#XCX4X5X5X>X>X5X$X%XJX4XW.,X2XkXvXuX0.zXmXiX0.mX:.0 Q.NXUXLXLXZXZXZXZXZXpX9XpXC O 5 4 4 wXqXu p K W H G H.J.D._.2XDX).).jX`.W.A.e ).AX).Y.).jXjXY.W _ wXy O % = = = M M M 7.w.9.q.ZXiX= m 7.w.iXw.7.7.9.iXzXzX-.0.u.xXnXnXPXPXkXaXfXR S S D D &.&.X.r.t.r.t.fXe.e.e.| T S T | | J J [ aXaXaXkXdXaXJ F J ^.^.H { aXlXlXxXsXhXqXI L :.,.~ a a 2 @ @ @ .       X X X @ 2 ;.qXI.U.NXHXHXBXSXSXkXsXwXsX5.wXsXaXU ",
"aX] aXsXqXsXsXsXvXPXPXBXtXHXHXNXK.Q.qXa & O X   # # . .   & , 3 4 a C :.4.I P / sXsXsXsXvXsXaXJ W [ J J W [ dXkXkXaXaX/.' J F ' [ S T e.e.| aXxXr.&.fXy.r.X.r.X.D S S R e.| e.PXPXPXPXmXcXlX7.q.i.zXw.Z 9.iXiXi.8.M m q.zXw.q.w.M M = M M = * @ t 8XyXj u T.gX`.Y.).(.Q.W.d.A.Y.Y.Y.`.FXDX).D.D.(.~.W.Y.W p 4 P sX6.: 4 @ % pX9X9XpXZXZXZXZXLXLXUXAX+XQ.b IXbXw.zXmXbX0.t.hX2X,X3X4XGXNX$X6X5X-X5X3X4X%X$X+X$X%X4X$XF.G.{.F.s.Z.A.d.a.d.c.A.c.K.g f h.k.c.k.R.k.w 7 0 - - & X O X X + +     # + . # # @ @ # # j j $ y 4 : ! > . # . $ # + + + +     . $ X + - % + - - 0 w d.d.A.A.k.k d k l.c.v.c.k.a.a.d.g.A.s.Z.{.J.F.].$X$X3X%X@X4X%X6X5X-X>X6X$X$X4X4X,X,X(.kXsXlXlXcXzXu.u.mX4.U.GX+XHXUXIXZXZXZXZXpXpXA bX<.o , 4 s 1.e.U 4 K Y.Y.).W.~.D.^.^.DXDX).Y.A.H A.A.R.Y.<XW.H 2XjXH H E qXyXA * = = M M M M M q.q.9.iXiXM m 7.q.w.iX9.Z q.bXiXiX0.lXcXxXnXIXkXPXfXR | 5.S S D D X.r.&.r.y.r.&.fXfXr.| r.e.T T T F J J [ aX/.aXFXkX/.R J J ' W J K wXwXlXsXsXhXqXU P Y 4.qX@.a a 5 4 @ .   +     X X X o u 0XT.L.eXHXHXeXNXPXnXnXsXsXsXaXhXfXU ",
"aX^ aXkXwXsXlXxXhXIXLXBXE.HXBXv.K.P.s $ o o X   . o . X @ 2 3 a I ,.6.wX1.R J L 5.sX6.wXsX5.3.J J J J ' [ /.dXFXFXT././.' q q ] R | e.r.| | xXfXe.r.sXr.R r.S S &.S S } e.} T e.nXPXnXsXxXzXzXiXiXw.iX<.9.iXiXq.M B M q.i.7.q.q.o.M M M = = % % 8XSXtXQ J ' T.`.D.Y.OXG.A.OX).G G ' gXDX).D.(.G ^.`.`.Y.K ! a Y 5.Y J K @ * uXA pX9XpXZXZXZXvXUXHX<XHXAXx vXIXbXiXzXmXlXxXjXY.J.4X4XCXoX4X6X>X;X3X6X4X%X%X%X4X$X{.}.'.F.XXG.s.d.s.w d.g.g.d.c.U.x.x.f d h.d.g.a.d.w q 0 $ @ * * o o @ +   o @ $ $ d 0 6 # # # q s , 5 5 > p # : 0 # 9 _ g 0 - + # + o @ + o * $ 7 7 w w r s.s.e d.d.d h.z.v.x.c.h.c.g.h.p.r d.f.G.H.F.[.'.F..X4X4X4X#XGX6X3X;X>X;X5X%X%XGX4XOXD.T.kXnXmXlXlXmXmXbXs BXKX<XAXKXLXZXLXZXZXpXpX9X9.9XO 2 P U ^ 1.U J W W qXDXgXY.' ^.D.).DXDXY.9 A.<XW.A.d.,XW.D.).Y.' W j tXhXpX+ % = = M M M o.q.q.o.w.i.B ..M 7.iXiXiX9.iXiXiXzXzXxXcXu.cXnXnXgX[ [ e.| S S R X.S X.r.R R r.r.dXxXr.R r.fXr.R | T : J W gXaXT.KXjX/.aX[ ] ^ J q T 5.6.sX6.6.sX5.S P Y 4.6.wX<.;.C a 2 @ o . o   X + + . o 4 ^ ( k.CXHXVXMXSXnXlXkXvXhXsXsXaXK ",
"aX{ aXaXaXsXsXhXvXSXyXNXBXHXQ.k.P.x > o           o @ $ 2 a C 6.:.2.1.] R R L D O.6.6.6.6.aXsXU : [ aXaXaX/.T.jXDXT.tXT.^ F F | e.r.dXr.e.r.xXfXr.5.5.&.R R &.R } S S r.dXe.| T aXnXnXnXnX0.zXzXw.w.iX0.iXiXw.q.M 7.w.w.q.M o.q.o.M = M = = % ; tXyX0XW _ ' W Y.W.OXJ.F.Z.OX2XA.9 /.DX).Y.Y._.G ' _.jXT.W ! s a L 5./ K @ > uXV pXpXpXZXbXZXFXSX<XGXHXHXL.tXIXIXpXwXcXmXfX/.W.4X4XGXGX%X4X3X;X>X3X6X%XCXHXGX4X*XF.'.{.F.G.G.g.g.k.d.h.d.j.a.h.j.v.B.z.k.h.w a.e a.e r r q > $ $ o - - $ $ 7 t 0 b U.E.9 e H 9 : 4 : , > > : : e D.e d.W.U.k.d f 7 8 8 2 $ $ $ 2 d w r d.d.s.a.9 r h.x.x.v.v.k.j.a.h.j.g.c.c.c.d.XXF.F.[.[.F.{.3XGXGXGX+X4X5X3X3X;X6XGXCXGXKX4X<X/.kXnXmXuX0.bXIXvX` BXHXGXAXSXFXLXLXZXpXpXpXf ZX<.o 2 P [ [ J u W W _ T.hXgXH D.`.D.D.).2XY.G Y.(.W.G.G.G.OX,XH H T.' I.T.yXyX2 X % M = M M M o.o.q.q.q.w.7.B 7.iXiXpXiXiX9.9.zXcX6.u.cXcXnXaX[ } /.dXdXF S R D } } S R &.e.e.r.fXfXr.R r.r.r.| ' F T _ T.T.T.FX`.aXaX5.aXaX^ 4 ] sX5.4.sX6.$.J J L Y #.#.$.2.:.4.,.s 5 , o o X X     . . . 4 ` l.E.HXHXNXyXhXvXvXhXsXqXaXhX{ ",
"{ sXhXqXqXhXhXhXvXPXtXtXHXBX8XP.) u o         X   + - 2 A 4.wX4.2.:.#.Y L L L L L I 6.6.2.wXsXJ 4 aXdX[ | aX[ gX/.T.T.T.W J F | | e.e.e.| e.nXfXsXe.R &.&.R r.S S S S T dXdXdX} aXsXnXmXcX-.zXiX9.9.0.iXbXiXiXZ ..8.zXw.q.o.M M M M M = % % % v tXeXgXgXT.J H A.,XA.Z.OX6X,XA.D.Y.<XJXY.H Y.2X^.G /.jXQ.K.u u 4 4 ^ K K # - bXV B.ZXZXZXZXIXFXDX<X4XGXCXK.I.IXIXuXuXnXkXdXjXJXJXGXKXGXGXJX*X3X3X4XJXCXCXKX4X,X*X[.[.].G.g.c.R.c.c.R.c.g.g.h.h.c.h.x.x.x.k.r 9 a.s.a.e a.r w d t t d k k k d w h.w K.G.A.~.(.G 9 # 9 : 0 # 9 G J.,X,XJ.A.d.w w w k x.x.x.d w k d w w p.e 9 w w w d x.x.x.k.j.h.a.h.d.g.j.M.c.c.v.m.g.f.{.{.F..X$X4XJXHX%XJXJX3X3X{.4XKXCXHXKXKXKXDXDXjXPXvXuXbXmXwXL.+XCX%X3X4XFXPXPXZXpXZXpXy pX9Xo 2 j ^ W p q q p _ gXSXY.H DX).G G Y.DX).W.A.G 2X4XOXf.J.<XD.H W T.gXgXU.rXyX% % = % M M M M M o.q.q.i.i.B o.w.iXbXbXiX9.q.zXbX-.u.mXxXxXaX/./.jXfX| S S S S r.r.} &.&.&.e.fXxXfXe.r.t.dXe.| } F ' W T.T.' /./././.^ qXkX5.: U sX6.$.6.#.L L I U L L Y #.;.2.4.wXqX:.y @ @   +     +   . 2 >.) 8XZXHXtXtXhXkXhXhXkXqXqXkXhX",
"] hXFXqXqXPXFXnXSXSXtXtXLXBX7Xn t $ . . X X X O o @ 2 z 4.sX4.;.;.;.#.I I L Y *.#.@.#.2.Y 3.6.J J e.aXR J [ aX/.[ T.T.' ' T q | | e.dXfXe.e.xXfXr.e.r.5.r.r.r.&.S R : F dXfXdXkXkXhXnXmXzX0.zXzXiX9.<.pXbXbXw.7.7.i.cXo.q.o.M = M M M = % o - rXSXtXSXSXT.H W ).<XZ.J.OX,X,XA.W.AX<X<XR.s.G `.DXG ).<XY.H q J U ^ J u P @ + pXV V ZXZXZXbXvX/.2X6XGX%XNXU.Q PXnXvXwXkXkXDXJXKXKXKXUXGX<X6X,X4X3X4X4X%XGXJX4X.X&X[.'.{.].c.XXXXc.c.v.c.h.h.c.a.j.j.j.j.l.l.k.r r a.a.9 9 a.h.h.k.k.l.x.v.c.d.d.a.d.g.A.,X6X1X~.S.e 9 e W.G Z.!.=X5X5X*XG.A.d.h.h.j.x.j.v.v.k.h.k.d.a.w w w a.r k.k v x.x.h.h.c.h.c.c.c.c.XXm.c.@XoXR.XX].].{.;X{.4X4XGXNXCXGX%X4X3X6XGXGXKXUXHXKXJXJXDXFXvXuXbXLXtXY.+X%X4XJXJX).gXhXIXZXZXpXV 9.A . u i u ( ,.` K q q T.DX/.H DXW.G H G.<X2X<XY.W.,X{.,XG.G.<X<XW W T.gXSXqXSXLX- X = = = M M = M o.q.q.i.i.o.o.w.zXbXiX9.9.iXzXbXzXu.mXlXlXkXFXjXkXkXF : F e.r.r.r.r.&.&.r.e.fXnXfXR dXxXfX[ [ T G [ ' { 3.[ [ aX/.| U R aX[ J J 5.1.#.#.@.#.2.2.;.I @.@.#.#.#.1.4.4.wXc 2 - X . . + .     @ , y B.BXSXBXtXhXSXFXPXPXhXI.kXvX",
"I hXnX0X{ FXPXFXSXtXyXSXLX9Xu $ . . .   X X X X @ - a 7XwX4.] 2.;.#.@.;.$.;.2.#.#.#.Y L a Y 5.Y 1.[ 5.T U | aXaXaXqX/._ [ ^.J | e.dXkXkX| | fXxXr.R r.&.&.&.r.r.r.r.F S dXdX| dXPXkXvXlXu.cXmXbXzX9.9.bXmXzXq.7.%.0.i.X.q.o.M M M B = % % o > SXSXtXSXtXT.W Y.DXW.Z.2X3Xs.G.,X<X<X<XW.W.H G ^._.W ).).D.r H [ T.` / x s 2 o C V B.ZXZXbXmXsX^.1X6X4X%X4XAXQ.hXmXpXvXkXDX).<XKXGXUXUX+X4X6X5XGX4XGX+X#XGX4X3X;X[.[.F.].@X@X#XN.n.m.XXg.g.c.j.a.h.j.j.h.h.h.l.k k d.h.a.h.j.j.h.h.h.k.U.h.d.c.c.g.g.G.Z.,X1X1X1X=XH.H.{.;XH.~.=X1X=X*XH.Z.A.Z.a.d.d.k.k.c.c.h.j.k.k.k.d.w h.f k x.v f d d h.h.d.a.a.g.g.n.XXm.n.m.#X#X%XXXG.{.{.[.3X4XGX%XoXNXHXJX4X6XGX%XHXUXHXHX6X3X<XjXvXpXbXmXgX<XJX4X$X4X6X`.[ hXIXLXZXpXV V 2 . y i P.0X>.qX_ p W Y.).Y.Y.(.Y.9 A.W.(.(.<X2X(.Z.Z.4X4Xs.W.).' W T.gXAXT.AXUXv   $ % = M M M M M q.o.8.y.o.o.q.i.bXbX9.9.w.iXmXmXw.0.lXlXPXkX/./.jXT F R r.fXr.X.r.} -.r.R r.nXkXe.r.nXnXaX| ' T T.T.3.qXaXkXaX} | U U e.5.[ ] ;.L a a @.Y ;.;.,.:.$.#.Y R Y 1.] 3.wXwXa 2 * o . . .   X     @ 2 B.SXSXtXyXSXFXPXPXaX` hXnX",
";.wXkXT.[ FXPXnXhXyXyX8Xz.t @   . .     X   X X - c 9XwX0X;./ 1.#.#.:.$.:.;.@.I @.;.I 4 S 5 I 4.e.5.R U R R R fXnXdXgX[ /.' ' /.dXdXkXfXr.r.xXfXR R r.r.r.X.r.y.fXfXT } dX_.| dXnXsX0.0.%.zXcXzX9.<.9.IXmXi.8.8.u.i.y.o.q.o.= M m M = & O   i IXSXT.FXFXY.K.W.A.e OX6X3XF.S.,X6XJ.Y.R.(.Y.e ).DXY.A.Q.Q.H J K / P :.,.a 2 O C 9.9.ZXZXbXmXkX/.2X5X.XOX4XKX/.wXIXbXnXDX(.(.<XCXGXHXCX+XGX4X4XJXKXCXMXGXJX4X.X X'.{.].XX%X@X@Xn.n.n.XXn.a.a.a.w w w w d w d d k l.k h.k.j.v.x.j.j.h.E.v.k.k.c.g.a.f.s.s.Z.!.(.=X=X&X-X&X[.&X=X=X1X*X~.Z.e Z.d.r d.k.c.k.v.v.h.j.j.c.x.c.j.k.j.h.v d d 8 w h.w p.9 w a.a.f.n.|.b.n.n.@X%X$X].'.[.[. X3XKXHXNXCXKXGX4XGX<XGX%XHXBXCX4X*X(.).PXbXIXvXT.2XJX3X{.OX2X2XdXPXIXLXZXpX9.pX3 . a ) qX,.a / K g T./.Y.G (.DX).e Y.(.Y.s.D.AX,XA.F.3XJXJ.H K.Y.' U.FXFXE.tXUX8X. + % = M M = = M q.o.y.y.y.i.8.w.mXmXpXZ 7.w.cXcX-.-.u.t.kXjXaXdXkXdX} | fXxXr.S X.r.t.t.O.e.fXkX| e.fXfXdXdX} ' /.[ 3.sXkXkX| T U R U [ 5.e.] S 4 5 a O.I I @.@.#.;.;.#.#.#.Y 1.] 4.wX9XA t @ o   o o           - z A wXSXhXPXFXFXqX_ vXvX",
":.wXvX0XT.kXFXnXhXvX9X- +   X   .       o o @ 2 c wXwX0X/ 3.1.Y #.2.2.:.@.a I @.I I P L u S s Y 5.5.R R S S J sXnXhXaX{ /.T.T ^.| e.dXr.} r.fXr.r.r.fXy.r.&.X.r.r.r.} /./.jXkXkXkXt.t.6...iXzXlXZ V pXIXIXiX8.0.cXcXi.8.i.o.M = = = % *   . yXUXtXQ.SXKXQ.W.W.e A.6X1XG.J.3X<XOXe e Y.).Y.H gXDXH e W.).W K u s :.4.,.>.2   %.<.9XZXIXbXnXnXjXDX<X6X,X,X2XY.,.IXmXvX).).4X+X+XGXGXtXGXHXGX4XGXHXNXCXKXJX3X X[.'.XX#XGX%X].b.b.|.b.b.a.p.w w w h.h.h.h.d d d d h.h.f f j.j.x.x.j.x.x.x.x.E.k.h.j.g.s.e D.(.,X=X1X:X:X&X&X>X5X~.1X(.~.A.e e d.l k.v.E.x.x.x.x.x.x.h.h.h.h.j.h.j.h.h.h.k h.h.k.h.h.a.a.p.a.b.b.}.}.}.n.$X%X$X{.].'.{..XJXKXCXCXGXHXGXJXJXJX+XNXGXCXOX4X,X_.kXnXIXnX' `.1X,X4XJX<XjXnXPXIXbXbXpX<.pX=   a A :.9XY L p p H ).^.G G DX).H ).).H 9 e W.2X6XJ.S.3X4XA.e H ).).DXSXAXtXSXSX7   X = = = M M o.q.q.y.cXi.i.-.iXmXIXiXM Z iXzXzX%.-.6.5.kXkXFXkX/.} } T r.r.&.R r.y.y.t.r.dXr.e.| e.sXe.| aX' T /.5.e.aXfXkXe.F S L U 5.1.R U 4 a L a L Y I I a a @.;.2.1.*.Y 5.3.;.0XwXyX>.2 @ o o     X X X       + c yXyXPXFXkXqX{ hXsX",
"$.wXhX3.qXkXnXPXlX9X; X + X X X   o o o o @ t A yXqX,.` 3.5.3.1.wX6.:.@.#.@.a I I K L J U L L S R R e.] S 4 J 5.fXaXaX/.aX| H } | | dXr.&.e.e.r.fXfXfXr.r.r.S R T T F T } jXFXkXkXsX6.0.8.w.cXzX9.V 9.LXmXzX8.i.mXmXu.i.q.o.m = = = & *   y UXtXI.AXgXAXDX<XG.Z.W.W.OXOX,X6X(.D.G q Y.gX).^.2X).H G ).).q W P I >.wX>.~ c   3 Z V bXbXIXmXnXkXAX4XJX5X,XjX/.4.bXIXIX`.^.4XGXGXHXNX+XUXKXJXJXHXCXVXGXGX4X;X X|.|.#X%X%X$X}. X}.}.b.f.a.f.g.k.x.x.x.k.x.v.j.j.x.h.j.f f h.d h.x.j.x.x.d h.v.x.k.R.k.A.A.A.D.~.!.=X5X:X-X-X>X5X,XS.D.S.H A.K.k.k.U.l.v.h.d x.j.x.d h.d k h.h.x.j.k.h.j.v.x.k.v.E.v.U.c.n.a.b.b.b.}..X}.|.$X4X4X|..X X{.4XJXGXCXNXHXGXJXJXKXGX%XUXHXGXJX,XY.nXIXmX6.T dX_.<XJXJX(.DXnXlXIXIXbXuXV Z O O @.a ;.qXL L _ K.H (.(.e G ).)./.).jXY.G H H (.6X,X,X{.,XJ.A.J.2XDXgXAXtXQ.U.LXz.  $ = = = = m M o.i.y.i.i.i.0.iXIXbXiXZ 9.zXbXiX0.0.-.fXkXFXjXkXdXJ F F F S S | r.y.xXxXxXr.e.r.R r.fXe.[ | ' ' /.aXaXaXe.dX[ 4 4 R 1.e.1.J L Y Y I L I P P I I ~ I #.2.4.sX1.2.3.3.! ) qXyX#.5 $ +   + .     + + X X * C uXPXPXPXwX3.sXqX",
"I sXsXqXwXvXmXmX<.* % % X + O X X X   o * t >.7XhX) E / 3.;.1.6.sX4.#.a L @.I I Y U J L U R Y L D R 5.5.R S Y e.aXR 5./.aX/.T [ e.e.fXxXe.r.r.e.fXxXr.e.X.D S S : S F F jXFXjXkXkXkXsX%.i.w.zXmXV 9.9XZXbXbXi.0.mXy.8.o.o.M M = m = = % # yXUXtXU.gXKX).2XJXJ.OX<XG.D.,XJX2XD.G G /.' aXDX/.Y.(.D.G Y.Y.W _ ~ L I 4.) ! t   O @.wXbXmXmXmXnXPXT.<X6X6X`.FXaX@.vXnXnX).W.JXHXGXUXGXAXKXHXGX%XHXCXCXGXGX4X|.}.$X%XCXCX%X|. X X}.b.b.f.n.XXE.E.k.v.v.k.j.k.k.c.c.j.j.j.j.h.h.j.j.j.h.j.j.h.h.x.v.E.k.R.K.r e Z.Z.H.=X5X>X;X5X{.Z.Z.Z.e d.R.k.v.x.V.x.h.f j.j.j.j.j.j.f j.j.j.x.j.c.h.d.k.k.k.k.c.v.v.E.XXXXb.b.b.}..X.X|.$X%X4X%X@X.X|.4XGXCXGXCXHX%X%XJXJXJX%XUXHXGXKX,XY.kXnXvXt.R dXdXDXDXGXW.FXmXcXIXmXbXZXiXN   @ a u ! 0XJ u K.Q Y.^.S.G ).Y.T.).jX/./.`.W q H JX2X,XZ.{.4X4XJ.6XDX).FXBXQ.yXSXLX. . ; = = = M M o.y.o.y.cXu.w.mXbXZXiXV 7.bXbXiXw.%.-.nXnXFXkXjXFX/.F T F S S S D D &.r.r.r.r.r.r.r.nXfXe.aX' | | aX5.] R e.e.L L #.2.*.R U R R Y I L P U Y Y P L s I #.6.wXwX2.;.,.,.E _ yX0X:.4 - @     . + . + X O O % C uXIXvXsX2.nXsX",
"D lXnX6.wXuX<.C & O % % X X X O     o 2 t a ,.qXI.! ! ` 3.4.2.4.4.2.;.I I I I I / Y U U U L U L L L D R L Y R 5.2.L R ] | T.' /.e.e.xXxXy.y.xXr.r.e.R S S S 1 S S } e./.FXFXFXFXkXnXu.-.0.9.zXbX9.9.pXZXbXbXuXu.mXcX8.y.q.o.M = = = % X $ SXLXSXFXAXFX<X<XW.OX6X6XJ.Z.W.2X2XG G ' dXdX/.aXY.Y.).2XG A.^.Y.p u u s ! ^ _ q . $ uXzXbXmXIXIXmXPXgXAXJX`./.nX5.4.mXcXkX).).4X4XKXKXNXGXGXGXCX%XHXHXHXGXJX4X|.n.@X$X%X@X|..X X}. X}.b.@X#XoXXXc.k.k.k.h.a.d.d.h.k.k.j.c.eXx.h.8 7 h.h.j.j.h.h.k l.x.x.U.k.d.d.G.Z.F.*X3X5X.X3X{.Z.G.R.c.k.v.v.v.V.j.h.h.x.j.f 8 8 8 7 h.j.V.V.j.k.d.h.r a.a.d.h.c.h.c.v.oX#X@X|.|.}.b..X.X.X|.@X%X@X].'.$XJXGXHXCXHXGX%XJXGX4X%XGXUXGXAX<X).hXnXmXsX5.fXkXgX<XJX).jXnXmXIXIXIXbXbXC   . s { _ ^ J q q Q D.Y.G G `.^.W /.gX/.gXjXW F Y.2X1X~.Z.J.6X5X3X,X<XW.AXFXhXSXSXLX>   O = = = M o.i.y.r.y.cXzXw.IXbXZXpXpX9.iXbX<.0.-.-.nXkXjXjXjXkXjX| | } S D D 1 S &.&.r.r.fXxXr.xXxXt.e.e.[ ' [ [ R J T e.e.] Y #.#.L S L L U L Y Y / ^ ^ U P I P I ;.:.4.2.2.4.4.3.( Q I.qX>.s a > @ .   + + + X O % % X 2 C wXwX:.vXmX",
"&.xX6.5 V V = X % + + X o O O o @ $ y ~ ,.,.7XT._ E _ { qX4.4.2.;.U I P I Y / Y Y R R U L S J D L S S U R *.1.5.] L U ] U T ' | e.e.y.nXxXxXxXfXr.r.e.R R &.r.r.} } | dXFXjXgXjXdXkXt.+.9.Z w.iXuXpXbXZXbXIXw.zXmXmXy.y.y.o.o.m = = % O t LXSXAXUXFXQ.H W.3X6X{.OXZ.~.(.D._._.F | kXdX/.[ /.' ).(.G D.Q.K.r q E W Q Y.Q.Q . . :.lXzXmXmXmXIXhXtXDXJX)./.mXsX2.nXlXxX/.`.<X4XHXHX+X4X4XGXoXCXHXCXCX%XGX%Xn.n.#X$X|.]..X3X.X}.}.$X#X$XXXXXXXR.a.a.d.a.9 a.a.p.a.h.h.j.c.v.x.d w 7 7 h.h.h.h.d k x.V.E.E.E.R.R.g.F.{.3X6X{.{.G.A.g.R.v.M.MXoXv.j.h.d d h.8 7 8 8 j.B.V.j.h.h.d w h.w 9 w 6 w a.f.a.g.c.XX@X$X%X$X|.b..X3X.X'.@X%X#Xm.n.@X4XCXCXNXHXHXoX+X4X4X%XCXHX<X<X<XQ.aXvXlXlX=.cXfXT.<XJX<XgXIXmXmXIXbXbXuX>   > Y.T.K.W W r q K.Y.D.G G ^.).Y./././.kXkX[ ' gX(.~.,XJ.H.{.3X3X,XOXY.T.SXPXhXSXPXi   = = = m ..o.o.y.y.y.mXxXuXmXLXbXZXbXpXpXiXZ 7.0.6.xXkXjXAXgXFXkXr.} &.r.r.-.&.&.r.&.r.r.xXcXy.cXcXt.e.e.[ T T [ ] T J [ ] 1.*.#.L 5 S U S S D L Y U R U U ] / P P I I ;.$.4.6.4.` _ Q _ U.qX0XwX4.a 2 - o o + O X X X % O % 3 m , @.bX",
"xX5., X % % % % X X o . . . o @ s :.yXvXhXqX0XI._ ! ^ ,.wXwX6.:.I P / ;./ Y R U J L P L L S S D L D L R ] Y R Y L L ] e.U J [ aX5.r.xXmXcXxXcXy.&.R &.r.r.r.&.&.r.S aXkXFXDX2XDXjXxXxXi.9.N uXbXiXbXZXZXLXbX0.cXcXcXy.o.o.o.M m = = = X t UXBXtXKXFXQ.Y.W.W.6X*XF.Z.,X`.G } `././.jXkXaX} Y./.`.Y.H Y.W.A.H H q J ' W T.T.0   2 uXmXmXbXmXIXPXgXDXJXjXqXmXu.#.sXt.nX/.D.<X3XGXGX<X4X4X4XXXGXHX+X%X%XGX@Xg.N.%X%X|.}. X;X}.}.|.%X%X%X@X].g.g.a.f.a.a.p.p.w w d h.w h.h.j.v.x.h.h.j.j.j.h.d d d h.x.v.oXv.R.g.d.g.f.{.*X].G.s.g.g.c.c.v.M.v.v.j.j.j.h.j.j.j.B.j.j.j.V.j.h.d p.h.d w w w w 9 p.a.a.f.G.].].$X%X$X@X}.}..X;X'.}.%XCX@Xg.m.4XCXCXoXGXHX#X$X4X4X4X4XHXGX<X<XW.kXnXsX0.$.xXsXT.JXJXW.FXPXmXcXmXmXbXA . # Y.T.T.T.K.Q q r W Y.W.^.G ' `./.' T.jXjXdX/./._.G ^.2X~.Z.f.{.6XOXA.).T.UXUXtXtXUXi   = = = M o.o.y.o.r.y.cXcXuXbXIXZXZXZXpXiXbXC Z u.zXnXfXjX`.DXDXkXdX} S S &.t.r.&.&.R R r.y.xXxXxXnXr.5.e.| T J { qX1.R S R Y #.#.O.Y L L L 4 4 L L L S J U R R ] ,./ c @.:.wXwXwX,.` ( Q U.U.T.sXsXsX1.s 2 @ o + o X X O X % % * O & C ",
"r., X O % % O O X o . . # : u p ` 0XqXaX0X( ! j j ( 7X0XwXwX2.#.I ^ 3.aX{ U U S 4 S L L D S D L L L Y Y / P S p J R 1.] R J U 5.*.*.t.cXmXcXcXxXr.&.&.t.r.r.&.D } R r.fXFXKXJXDXjXfXlXzXN < bXbXpXbXpXpXbXbXzXmXxXt.y.y.o.y.o.X.m = @ . P UXHXAXUXPXQ.).+XJ.JX3XF.Z.J._._.G G jXjXjXjXdX' F `.).H W Y.W.A.r q q J { /.[ T.qX> . A bXbXmXmXmXPXQ.W.JX).3.cX$.O.sXnXnXdXY.J.*XGXCXGX{.3X3X4XKXGX#X%XGXGXXXj.#XHX4X.X[. X'.'.@X$X$X$X@X].].'.f.a.f.a.p.h.p.d h.x.j.h.h.d h.f j.j.j.B.V.j.V.B.j.f f j.v.v.j.v.c.d.g.s.G.F.G.g.c.g.j.c.c.v.c.j.j.V.x.j.B.x.V.V.j.f h.8 j.h.h.h.h.x.k.d d w a.a.w a.a.f.b.'.'.|.$X%X$X$Xb.'. X X].%XKX#Xn.g.CXHXCX#XCXHXJX4X$XOXGXGX+XW.G.W.).kXmXvX0.+.lXsXT.JX4XW.KXPXmXmXzXbXuX@ . H T.T./.gX` g q r q H T.T.H H jX^.F ' gXjXjXkXjXG D._.(.S.Z.H.3X6XOXW.AXQ.FXUXUXBXUX>.  & = m ..X.o.y.y.y.u.cXmXzXbXbXbXiXbXpXbXIXV < <.zXnXdXDXJXDXDXkXkXr.} S X.r.t.t.r.&.&.y.cXcXxXxXxX&.R R [ T J U ] 5.] S J 5 L L #.Y L D L D D L L D S K S L U { aXqX/ ~ :.:.4.4.0X7X` l l.L.E _ 3.5.0X3._ x u @ o . +   X % X % % X * ",
"1 @ X + + + O O & @ @ $ u _ [ W _ T._ ` E p x ( x 7XqX0X/ I #.2.,.` 3.{ [ U J S D D D @.O.Y L L L L L L U J J p L 5.R L R U J J R L 2.t.xXmXmXcXr.&.X.r.r.-.X.X.r.} fXdXjXJXDXDXdXfX-.B Z V bXIXiXbXuXpXbXpXmXmXt.r.i.y.y.y.X.o.B < @ @ hXSXBXUXUXSXT.AXGXW.4X3X{.H.D.(.~.G D.jXFXkXaX| T G DX^.' ' T.W.r r E K L L aXkXaXqXi . - V iXbXvXhXPXW.W.JXT.jXmX$.sXlXlXlXgXY.D.Z.A.OXJX{.-X3X6XHX%X#X%XGX4Xn.g.VXHXGX.X X X'.G.$X%X%X$X|.b.'.b.b.a.a.a.a.d.h.h.j.x.h.h.d h.d h.8 f f d f B.j.j.V.V.V.v.v.v.v.V.M.c.g.g.d.s.R.d.R.c.c.E.v.v.x.v.v.V.x.B.j.f h.8 d d d j.j.j.h.p.w k.k.j.h.h.h.a.d.s.f.f.}.'.'.'.{.4XCX%X}.[. X;X.X4XHXCXM.g.%XHXCX#X%XGXGX3X;X{.6X4XR.d.A.W.).kXlXlXlX6.sXPXY.<X<XA.FXgXvXmXzX9.C . # ).gXhXxX6.a ^ J W q W U.Y.W ' `./.G ' /.dXjXFX/.G D.~.(.D.J.{.4X6XOXJXGXQ.FXPXUXSXSXvX- % = m X.o.y.y.y.xXt.t.xXbXiXbXZXpXpXbXbXbXuXZ N @.lXdXDXJXJXFXgXdXe.&.r.&.-.-.t.-.+.r.xXmXmXxXu.6. .D R J T U U I / R J J K P P L L L L L L O.#.O.D D L S T U [ { I.,.,.4.I @.:.4.0X7X( L.Q u K ^ T [ ' W I.[ 4 , > 2 @ % % X % O X O ",
"% X X + +   o * , 5 s c E H G q H ' _ W K p ) 7X7X7X>.) s I I 4.4.7X^ U T U U R L L O.O.O.O.Y L L L L P P U ! ^ K U S L U R R U Y L Y =.t.xXcXcXxXr.&.r.y.y.-.y.r.S e.dXKX2X(.`.dXnX+.m iXpXbXIXbXbXbXbXiXiXzXlXr.r.y.y.y.y.X.X.m < @ , BXSXQ.KXFXSXSXAXAX4XJX,XJ.H.1X~.G D.(.).FXFX/.T T ' 2XY.T.^ E Q K.I.` I L D 6.nXnXfX{ #   y pXbXbXnXFXQ.Z.4X(.jXsX+.lXlXsXnXkX).~.J.W.%X6X;X:X>XGX4X%X+X%XHX%Xg.c.HXHX4X3X3X}..X$X+XGXGX$Xb.}.b.b.f.f.g.g.k.h.k.j.k.k.k.d j.j.x.j.V.j.f f f 8 f d h.j.V.V.V.v.v.v.v.k.c.R.k.d.R.k.c.k.k.v.v.E.v.V.V.j.B.h.h.h.f h.f j.B.x.x.x.v.k.h.c.j.j.c.j.c.g.g.g.F.b.b.b.}.F.OXGXGX%X$X.X}.;X3X+XHXHXoXg.@XCXGX%X%XGX4X>X>X;X6X,XOXOXW.<X`.kXsX6.cXt.1.kX_.,XOXK.hXPXIXbXbXZ %   : gXkXmXzX%. .L J W _ _ ( j _ /.).`.' ' } jXDXFX^.D.D.G W.1X,XH.OXJX4X<X).).UXKXSXNXtXvX- % = 1 X.o.y.y.y.y.r.-.u.zXi.pXbXbXbXbXpXbXIXiX%.5 sXkXjX~.(.KXdXe.&.X.r.-.u.lXu.-.-.u.xXnXxXt.6.O.O.#.R T R ] / I I U J U K U L U L D R D R O.+.O.O.L L *.R U U E ^ ` 0X0XI s I I ) >.I.8XP.E K W ' ' H e H q J ^ I a 2 - @ X X O X X ",
"% % % + + . # 4 #.:.~ ! q q G G H ' _ _ ( x I.7X7Xc s s ;.,.;.,.qXI.^ E R T R *.R O. .@.O.L L L #.*.Y / U P U ^ P 4 U Y Y 1.1.] ] #.#.L  .6.lXxXy.r.r.u.y.i.8.X.&.R e./.2X2X~.2XkXsX9.9.bXbXbXuXuXiXIXIXpXiXzXt.r.y.y.y.y.y.o.X.< < * @ ) yXE.HXFXFXgXtX<XGX6X,XS.1X1X~.S.S.Y.W.).DXkX} G /.`./.aX^ K T.tX` ~ N @. . .&.sXsXR o   - pXbXlXPXUXAXG.,X6XDX^ O.mXlXvXnXFXDXD.J.JXOX3X>X*X3XJXGXGX%XCXGX4X].XXHXHXGX3X$X'.$XGX%XHXJX$X}.b.}.b.b.].G.c.d.k.U.c.d.c.R.k.k.x.j.j.v.V.j.V.j.B.j.V.j.j.v.v.V.V.C.v.v.k.E.k.h.j.v.h.k.E.k.v.oXeXx.V.x.x.j.B.j.f j.V.x.V.B.x.x.h.k.k.c.R.c.j.c.v.k.d.c.].G.b.b.b.}.}.3XGXGX%XGX4X'..X%XCXHXHX#Xg.%XGXGX%XCXJX4X5X;X*X1XOX+X<XH 2XFXkXxXlXxX5.J /.2X4XA.Q.FXIXLXuXbXN X . t T.e.2. .m  .D D U ` qX` p T.gX^.`.' G /.FXjX_.' S.S.G (.2X(.J.,XGXGXQ.AXgXAXFXHXQ.BX>.O = = = X.o.o.y.y.y.r.t.u.i.iXiXIXbXbXiXuXbXvXiXiX+.lXFXDX(.~.DX_.e.} S &.-.y.cXy.-.t.u.cXxXlX$.L O.#.*.Y ] { 1.Y I a 5 Y ^ U P P L Y R R L D D O.D  .O.R R R U ^ ^ E { qX0X;.>.;.a s ) 7X7X>.s ! ' W K.H H F : q J P ~ ,.s $     X + X ",
"% X X o   . 2 c a 4 p u q q H W _ _ ( ! ) ` ) c ~ ,.,.I ! ` 3.` I.( Q ! ^ ] ] *.L L =.=.O.L D S L L L L P ! / / I P L I I #.] #.1.1.#.O.+.&.t.lXlXu.zX-.8.cX .X.R e.dX} 2X1X~.2XFXlXq.w.<.pXbXwXzXbXIXIXbXw.zXlXt.y.y.r.y.o.o.o.1 < * - z tXtXFXDXgXAXFXR.W.6XJX2XJX2XJ.G S.S.G ^.jXFXjXF J jXW T.3.^ P p 4  .5 1 1 , , , L P , X X V bXvXvXPXhXA.G.6X(.q S mXlXlXsX/.^.S.~.^.D.5X=X;X3XGXGXCX%X%XGX%Xn.@XHXHX%X{. X}.4X4X#XHX4X.X.X}.}.|.b.g.G.R.c.c.k.d.K.d.d.d.k.w w k.x.x.x.v.v.x.f x.V.v.v.V.v.v.v.v.E.E.E.k.k.k.k.k.v.E.E.v.v.c.j.v.V.v.V.x.x.j.B.B.j.x.x.x.h.j.h.a.d.d.c.g.k.c.c.R.c.g.g.n.}.}.}.}..X4X4X%X%X3X.X'.$X%XHXHXVX].@XGXCX%X%XGXGX4X3X>X5X(.A.,XD.G ).e.t.lXmXlXu ' 1X<XG.Q.FXIXLXbXiX* X o a 2.4 , , < < 1 D @.1 D s ^ T.' ' /.J H jXFXDX' G D.S.S.D.DX2X6XJXJXW.K.SXFXgXKXFXAXqXa & = = 1 X.o.o.r.y.r.y.r.y.zXzXzXbXIXbXiX0.bXbX9.uX0.lXFXDX*XJ.DXT./.dXR D D y.zX=.0.cXlXu.t.6.#.L @.*.*.#.Y *.;.I I I I ~ / Y P L P U L L L L L O.&.&.D L *.*.] U K K ( ( ` 0X,.~ ~ ,.,.A c A >.) ! E W ' ' W J q J u 4 K I u @   . +   ",
"X + +     2 y u 4 4 4 J J E ' T.( ~ ) I.>.) x s >.,./ I ,.wXqX` ( j j E _ ] I L D L =.2.R R L L L U L Y L Y Y I / Y / I #.Y #.@.$.#.O.L D O.+.2.u.u.0.-.t.i.&.X.e.r.e.T `.,XH.5XDXnXzX7.N uXIXbXbXbXbXmXcX0.lXlXt.y.cXy.y.8.X.X.X.< < O t SXUXUXFXgXSXAXK.K.JXJXJX2X<XD.(.(.D.D._.jXjX/.F /.jXq J / P 5 1 , 1 , < 1 5 @.S #.Y 4 O X y ZXIXIXPXgXR.R.6X<XW aXIXbX6.sXqXY.(.(.G S.=X5X5X6XJXGXGX%X%X%X@Xm.#XHXJX$X$X]..X4X%X%XGX%X|.}.b.}..X|.].g.g.d.R.k.G.d.r e e e r k.k.k.k l.x.z.V.x.x.x.j.v.v.v.v.c.c.k.v.E.E.v.h.k.E.E.v.k.c.E.E.v.x.v.x.x.x.x.z.x.x.B.x.k.k k g h.w a.e e A.A.d.k.k.g.R.g.@X|.}.}.}.|.4XGXCXCX4X.X[.;X+XHXUX%Xn.].%X%X%XCXCXKXJXJX1X=X~.G G 2XY./.sXsX0.bXbXI.Y.6X,XG.2XhXIXbXLX9X& O * C $.L O.a 1 1 < < < , 5 s ^ W q ' DX' J /.jXjX_.D.D.(.(.Y.2XDXJXJX<XR.A.gXFXAXSXUXUXSX2 % < < m X.X.X.y.y.y.y.y.y.u.0.lXbXzXbXmXzXIXZXV Z w.mXFX2X*XS.DXY.| kXe.| &.y.zX6.-.6.u.u.$.$.O.O.O.O.O.#.Y #.Y I I ;.#.;.Y / I L Y L U L S L R *.5.&.D D L U / / ! p j ! I.qXwX7X) ,.7X:.c c ~ ) ` _ ` _ { ^ J K J u : 4 4 t u o . + + ",
"X X o   o u u , 4 4 u L ^ [ T.{ qX7X! s x ~ >.,.,.0X,.>.7XqX7X( Q l E ^ ^ P L S D O.&.e.Y D D 4 S U Y Y Y Y Y Y ;.Y #.#.#.Y #.L #.O.*.O.O.O.+. .6.6.-.6.-.r.-.&.e.kX| S DX2X~.,XFXnXw.M < uXIXbXIXmXbXmXlX6.lXu.&.6.cXy.y.y.m X.m < , O y SXUXPXAXFXUXHXk.k.GXJX2X6X2X,X,X~.G ^.jXFX/.T W gXkX/.q P a D 1 1 1 m  .C C <.$.c a 2 O X - B.bXIXPXFXW.s.OX<X^ vXbXuXzXvXkXDX2X1X9 D.=X1X5XJXKXHXGX%X4X%XXXR.CXKXKX4X4X{.$X4X4XGXCX4X@X}.|.|.|.@Xg.g.K.R.K.A.K.A.e e 9 q r r g w g K.K.l.x.x.U.v.x.x.j.v.v.E.E.c.k.c.E.E.v.k.v.U.U.k.v.v.R.v.c.k.v.U.x.E.U.v.x.x.k.g r g 0 q r e e r D.W d.A.R.G.g.s.XX|.|..X}.}.%XGXCXGX4X$X{.$X4XHXKXGXg.].%XGX%X%XGXKXJX6X=X~.^.G S.JXDXkXnXlXzXbXLX7XW.4XG.s.AXFXIXIXvXy X X * y a $.;.@.@.@.Z m 1 < 5 S J J J gXkXaXJ [ `.jXDXY.S.~.(.(.2X<X4XKXAXd.k.AXUXSXSXSXUXSXy O * m  . .X.o.y.y.cXy.-.u.lX6.lXmXbXmXmXmXIXbXV < 8.xXFX2X~.~.JXY.J kXr.e.r.-.0.0.-.-.-.+.O.+.$.+.#.O.#.O.L #.O.#.#.;.;.#.#.;.#.Y Y Y D S 4 D L &.&.&.L D L L P ^ _ E j E ( 7X0X,.,.,.7X,.>.>.A ~ s ~ / 3.` { { ^ K K K > : 2 a 2   o o ",
"X X   o a i > 4 p P P P / { { ^ 3.~ I x ) :.0X7X3.,.7X0X) ( ( P.( L._ _ U K J D R L O.&.R L L S L L *.L Y ;.1.;.I #.#.#.#.O.O.#.O.*.*.&.&.-.=.+. .-.-.t.0.+.&.&.e.dXR T FXJX*X1XPXlX%.N C bXIXIXmXnXxXlXwX6.xXlXt.r.xXy.r.y.1 1 X.m = * y f SXSXhXSXSXNXk.A.GXKX<XGXJX<XW.D.G /.DXFX/.K ' /.).jXJ u 4 5 m < N %.%.C a C :.C a * X X % V bXIXFXKX,XZ.K.Q.,.vXpXiXbXlXPXFXDX(.e D.1X1X2X6XGXKXCX%XJXGXXXs.oXHXKXGX4X].%X4XGXHX4X$X].}.$X|.].XXs.k.d.K.d.9 r Y.W H W p q r w g h.k.l Q k.l.L.E.E.v.v.v.x.c.v.v.U.v.k.v.E.v.k.k.k.v.R.k.c.v.v.v.E.E.c.E.U.l.k.k.k.g q u u r E W H ' W G 9 H R.A.A.g.G.XX|.$X'.].@XGXHXGXGX%X.X4XGXHXHXGXg.f.4XJXGX+XGXKXGX2X1X=X(.G G 2XKXPXnXlXpXuXbXqXAXW.f.OX2XFXIXIXpX* X X + 2 a >.@.I a N <.C N < 5 4 : u T././.dX' ' aXFXFX^.D.D.^.2XDX<X4XKXKXd.w gXAXSXAXKXyXi y , < m m 1 S r.y.r.y.8.t.xXlXsX6.sXxXmXcXmXbXZXuXM ..t.FXDX~.2XKXgXT e.dX&.=.+.-.0.0.-.-.N %.-.6.$.+.+.O.O.O.&.#.Y #.#.I Y ;.#.#.Y *.Y L L S D &.L O.*.O.R J J J P ` I.( ( L.) I.I.7X7X7X7X9X0X,.~ s c >.,.~ 3.3./ P P K P u > 4 y $     ",
"      u ,.4 > Y / s L 1.4.;./ ~ P I ;.,.,.qX0X,.,.~ ) ) I.) P.U.( Q _ E K J J L *.L L R R *.R R Y R *.#.#.Y #.#.#.#.#.O.O.O.$.O.O.O.+.O.+.-.-.-. .$.0.6.0.6.O.D R | | aXFXJXW.<XFX6.%.%.9.bXzXmXlXsXu.lX6.u.xXsXsXu.-.t.-.y.D 1 m m < , @ $ tXUXSXtXE.k.r E.HXUXHXGXJX<X(.D.Y.^.jXkX/.^ gXgX' H _ K 4 1 1 < m  .C C y A A A a % X X X ; lXIXkX2X1XOXR.I.4.vXbXpXbXmXPXFX2XD.9 Y.2X6X2X6XAXGXCX4XJXGX].a.oXCX%X4X4X].%XCXKXHX4XXX].b.n.XXXXR.c.R.A.H G 9 q Y.Y.Y.^ J g g g k.k.g g K.U.K.k.E.E.eXv.v.E.v.c.c.K.R.k.c.x.k.k.c.U.R.E.l.x.E.E.E.E.E.U.R.x.k.K.g k.g g j p r W ' ' ' W G : r A.d.R.G.g.XXXX].f.].].%XHXHXGX4X].4XGXCXCX%Xf.n.%XGXGX4X%XHXGXGX6X6X`.e G ^.DXFXnXbX0.pXIXyXeXK.OX4X<XFXLXbX<.X X X X - A >.A a a C V N < , 5 4 > K _ J ^ hX/.^ jXFXjX/.D.D.(.2XJXAXJXUXHXE.w k.Q.tXNXUXhX$ + ; < m m S D r.t.0.-.8.t.lXxXsXe.t.lXsXu.mXbXbXiX9.B %.kX`.D.2XKXjXT e.*.D +.-.0.0.0.-.%...-.-.-.+.+. .+.+.O.+.O.L #.#.Y O.@.O.#.O.#.*.#.Y R *.*.Y L O.L R P K K E E ( L.Q L.I.` ) ) ) ) 7X7X0X0X4.,.:.:.~ ;.;.~ 4.wXP 4 ^ Y u 2 I a o   ",
"    @ c s > u U P u ~ 4.,.;.:.;.I ;.4.4.;.;.,.,.) ` ! x ( P.I.L.L.E E E K U L L R L L L *.*.U R *.O.*.=.*.#.O.O.O.@.O.@.O.+.+.+.O.+.@.+.+.%.-.$.+.%.6.-.-.-.&.R R } R [ jXDX(.DXkX6. .7.iXbXzXzXlX6.6.zXlXlXnXfXt.u.6.lXt.t.&.S  .1 < , o 2 A yXBXtXE.E.c.tXHXKXHXAXJXKX<XW.D.^.dXgXaX_ hXFXW q _ K u 5  .m < m C C a A A v y + X     - uXIXFX(.~.,XT.x 6.bXZXpXbXmXIXkX_.G : G 2XJX6XJXHXGX+XGXGX%XXX].%X%X#X%X%X@X%XCXHXGX%X|.f.n.].XXm.d.R.R.r q G G ' G H ' J J Q K.d.d.k.k.l l U.E.v.E.E.eXv.E.E.E.E.E.v.k.c.L.E.k.k.v.R.v.E.v.E.E.x.v.E.E.E.v.R.U.K.k.g g g g H W H W W J ' ' H H r A.G.R.d.R.XX].g.g.m.%XCXHXGX%X].%X%X#XCXCXn.N.%XGXGX%XCXGXJXJX6X6X(.q G G jXPXmXbXuXbXIXpXz L.NXW.W.DXPXIXa   X X   - y n A a 3 a C N 1 N C 5 P ^ E u T.kXaX[ gXgXT.Y.D.W.2XDXDXAXHXHXHXeXk.U.Q.SXNXtX8Xy + ; < m  .S &.sXsXlX8.i.6.sXmXfXsXxX6.-.t.zXbXbXbXq...+.nXDX(.^.FX/.[ R R &.+.-.-.%.8.%...%.%.-.%... .+.+. .O.+.O.L O.L O.L O.O.&.2.&.*.*.*.*.R *.*.L D L L J ^ ^ E j ( ( ( P.` ( ) ) ) ) ` ,.,.>.:.4.9X:.C :.:.,.;.0X,.K p / s > t >.-   ",
"  . 2 ~ 4 : K ^ K ,.3.;.>.;.;.:.#.2.4.;.~ ~ ~ / ,.0X0X,.I.I.I.P.I.W E E ^ U L L D L L D R Y U R O.R *.2.6.&.*.O. .O. .D  .+.+.+.+.+. .+...+...%.%.%.9.%.+.@.=.e.e.| T [ gX`.).DXnXsX%.w.bXbXbXzX-.+.0.zXzXzXnXxXsXxX6.6.t.e.e.S X.m 1 < ; - $ 7 rXSXtXeXv.E.eXSXHXGXKXKX<XY.W Y./.T.qX_ gXFXT.W q J K L =.+.N 3 3 y f z f z a @ + + X * <.IXFX`.~.<X_ a lXbXbXiXZXbXIXjX' F q G 1X6X4XJXJXGX%X4X%X$X@X].%X4X@X#X#XN.#X#XCX%X@Xn.n.].XXR.k.k.R.K.e H ^.} ^.^.G H H W K.R.d.j.k.k.k.k.K.R.E.oXE.E.E.E.c.x.U.E.E.R.v.R.c.l.k.R.c.E.v.U.v.v.E.c.v.oXE.E.v.U.c.k.k k.k.d.K.K.A.e H W Y././.Y.G e A.R.K.g.R.c.m.n.n.@XCXCX%X#Xn.@X#X@XCX%X|.|.@X4XGX%X4XGXKX6X5X6XJ.9 F D./.PXIXbXpXuXbXmX@.s U.W.2XDXIXbX3 O X + X 8 v v c a y y y 3 C 2.4.I P P J E qXFXgX[ T.[ T.Y.Y.Y.DXJXKXAXHXCXMXE.E.eXtXSXBX$ . - 3 ; m  .X.S | dXsX6.-.i.lXxXnXlXlXcX0.%.-.w.bXbXbXzX%. .nXFXDX' DXT.T R e.r.=.=. .@.<.-.+...+.%.%.+.%.+.+.+.+.&.+. . .D O.O.#.O.=.6.2.O.O.R Y D *.R D L L L L U ^ ! E ( ( I.I.I.) ` I.0X7X7X,.;.~ c ;.4.4.:.:.:.:.;./ 3.4.! ^ K > > ~ z   ",
"  o c x > u K 0X0XaX` ~ wX:.a ;.4.2.;.s a P ,.0X,.` { I.7X7XI.I.I._ _ _ K J J J 4 S 4 L Y R L U *.O.O.2.5.=.+.$.O.O. .@.+.+.+.+.+.+.%.%.+.%. .%.Z %.-.<.$. .=.&.dXdXR [ jXT.Q.FXlX6.8.zXzXzXzXzX-.%.iXbXzXuX6.6.t.t.$.@.t.aXdXT D  .1 m C +   $ tXBXE.E.k.E.K.E.HXHXHXAX).Q.Y.T.qX_ T.{ qXgXT.Q H ^ { wXlXwXI C a y c A a c f #   X   % C vXkX).2XQ.! a lXbX9XpXbXIXPX[ ^._.G e W.OX$X4XGXGXoXGX%X@X@Xb.@XCX%X#X@XN.#X#XVX%X@Xb.|.XXg.c.d.R.oXA.G A.^.^.D.^.Y.A.e Z.R.G.g.c.g.w k.R.c.c.c.c.v.v.v.E.E.c.k.c.U.E.L.U.k.k.x.R.E.E.x.x.x.E.E.E.v.c.c.R.c.R.k.k.d.g c.g.G.W.Z.G A.J.W.Y.(._.G e H W.XXg.c.c.XXm.n.@X%X#X#X#XXX@X#X@XCX%Xb.n.].%X%X%XGXGXGXOXJ.,XS.9 ^.jX[ hXIXbXuX9XuXzX%.a T.).).jXnXwX* X   X X t A y c A C a N @.<.wXvXwX` E p E [ hXqX_ T._ gX_ Q.U.).AXHXHXHXE.j.E.K.l.eXBXrX7   X V M <  .S S | aXsX@.+.u.5.4.6.wXzXcXcX8.%.i.zXbXbXzX0.o.t.vXgXG /.dXJ dXfXe.=.O.O.-.0.%.@.+... . ...+.+.+.+.+.+.+. . .O.O.+.=.O.=.t.&.O.L *.L L Y L J S 4 S J J J K _ _ _ I._ I.0X7X` ,.7X,.3.,.Y a a ;.:.4.2.a ;.qX/ >.qX0X` ` ! > s c @ ",
"  y c u 2 u K T.qXT.` 7X7X;.:.wX4.I s I ;.qXqX3./ 3.3.0X0X` 0X` _ ! E p K J U U 4 L L Y I S P L *.&.&.*.=.6.-.&.-.O.+. .O.+.+.+.-.%.+.%. ...%.%.%.%.<.$.$.+.O.*.e.aXR aXjX/.gXhX6.6.q.zXbXiXw.zXlX0.zXzXiXlX6.#.*.sX@.2.lXaX/.} S m m < m ; @ . d U.U.k.E.x.k.K.E.NXNXAXQ.Q.T.T.T.0X! { hXtX( ( _ _ { qXhXhXwX:.C y y C f a f # . + .   , wXhXY.<XgX2 C pXiXpX9XpXLXnX| `.`.^.G J.G.|.4XGXGX%XGX%X$X].f.a.%X%X@XN.N.#XVXCX#X@Xb.].XXg.c.d.E.R.e A.D.!.^.D.S.D.J.Z.Z.F.G.G.d.d.w k.g.c.g.c.c.c.v.v.E.E.E.R.E.k.L.L.E.x.v.E.R.v.R.c.E.E.E.E.c.c.k.c.c.d.c.K.d.d.a.g.G.G.Z.Z.Z.H.J.A.W.(.!.S.F G Z.W.d.c.c.m.@Xn.m.#XCX#X#X#X@XN.#XGXg.a.].@X%X%X4X4XGX4XOXG.J.A.G `.jX/.aXbXbXuX<.zXlX-., ^ Y.^./.vXy O o       - A f y c a 3 C <.6.uXhX7X~ ) _ ( ^ hXgXL.Q I.T.tXtXQ.tXtXNXNXQ.K.k.k.E.U.8Xz.t # % ; m = < D S } /.aXnX6.5 t.4.1.4.t.lXzXzXi.i.zXuXiXzXbXw.8.0.wXhX/./.dXT ] fX5.*.#.O.O.$.+.$.-.+.+.+.+.+.+.+.+. .-.+. .+.+.+.-.-.=.r.=.*.*.1.*.L L J Y ] L J J P J U K p K E ^ ` ` ` 0X3.0X0X/ ,.wXqX/ I K L 4.4.3.;.3.,.,.0XqX` K ! > t c >.",
"+ 8Xy 2 u P ^ _ tX0X_ I.,.>.qX4.;.I s ~ ,.0X0X3.qXqX3.^ { / { ! E E K K K ^ ^ Y Y Y Y Y I J L L #.&.=.&.=.t.6.r.-.=.+.&.+.+.-.$.@.+.+.+.+.+. .@.+.@.N a  .L Y *.fX5.L aXaXaXkXsXlXiXiXiXw.iXi.zXcXy.i.u.6.0.lXsXxXlXL wXsXhX_./.r.D 1 < = = @ @ # l tXeXl.l.R.r R.R.E.NXNXyXtX0X_ Q Q qXSXqX( ` ) ! E ~ ,.8XwXwX<.V 3 - y c t . # + .   O :.vXhXhXwXy N iXiXpX9.9XwXhXaX^.2X<Xe J.,X$X%XGXGX@XXXGX%X@XXXm.#X#Xm.m.N.VXVXCXCX@Xn.$XXXg.d.K.R.A.d.A.!._.!.!.G Z.H.&X[.F.F.Z.e e k.A.c.g.c.g.c.g.k.k.h.k.E.E.E.K.U.l.E.U.k.L.l.K.E.Q.E.R.d.d.c.c.g.g.d.d.c.c.d.d.d.s.G.F.Z.H.{.[.F.F.H.!._.!.S.G S.R.R.g.g.n.%Xm.N.VXHXCXVXXXm.m.@X%Xn.n.@X%XGX#XR.%XGX4X<X$XOXG.S.`./.).hXvX9X9XpXuXiX<.< / gXdXkXvX, X X   +   $ c f 2 2 a <.<.uXwXwX>.c ~ ) ` ) ` qXhX0X( _ T.U.tXyXBXNXE.E.k.d.R.k.l.eXeXd $ X % ; = = m  .| /./.dXhX4.S sXnXsXlXlX0.0.i.i.zXmXw.w.iXzXi.q.i.uXPXjX/.aX[ R aX5.L Y L L L C O.@.O.O. .+.+. .+.+.+.=.O. .&.-.=.-.t.6.5.=.&.5.*.Y L J J L U U L Y R U U P K J P P ^ / / ] Y 3.qXqX{ 3.4.1.I P K Y 3.3.` ,.~ ` 8X0XT.K K P 4 t wX",
"- 9Xt u / p W { T.T.T.0X! ,.wX4.s I P / 0X0X3.3.aX] U L ] / / Y / / ] ^ ] ] / Y ] Y P L L J L J L =.=.=.&.&.=.-.&.&.+.+.+.+.O.O.+.&.#.&.O.O.O.D  .5 L 5 L D L S 5.5.aXsXaXsXnXsXlXzXw.w.w.9.w.zXy.u.t.sX6.*.t.e.IXfXL 5.wXkX`.jXe.R 1 < m < ; @ # $ z.8Xl.E.AXk.w d.E.SXBX7X7X7X( ! ! I.I.~ n 9X,.9X7X7X8X7X9XwXuX9XC ; 3 f t $ $ + .     3 vXhX7X:.N C uXuXiXZXuXwXPXjX^.J.~.J.4X4X$X].%X%Xm.m.%X#XXXXXc.#X#Xn.m.m.oXVXHXVX@Xn.@Xg.G.R.XXW.Z.Z.Z.~.1X!.H.Z.F.H.-X*XH.Z.e e K.A.d.d.g.d.g.c.c.d.c.k.k.R.E.E.E.E.l.U.U.L.U.U.E.E.E.E.v.c.c.d.g.k.R.c.g.d.d.g.d.R.s.e G H.~.*X[.'.F.S.S._.~.G G G J.OXXXm.g.@XXX@XCXCXVXoXm.m.n.#XoXc.@X@XoX%XM.c.+X%XoXXX4XGXJ.J.~.~.`.FXhX9XpXpXbXuX9.N a 0X{ PXvXO     X $ $ - t y 2 2 A wX6.wX9X:.,.,.7X7X7X7X) ! U.I.l l L.I.8XyXBXBXv.w r A.NXQ.l.eXB.- @ @ - m m m 1 S gX`.jXdXqXaXY sXnXsX5.2.-.8.t.t.u.u.zXuX9.w.q.q.zXiXfXkXaXdXdXe.] *.D L L S D 5 5 L O. .O.=.+.O.+.=.+.+.+.+.+.+.&.+.&.-.=.&.=.5.Y L 5 J S P K L R R R R R / ] / ^ U Y / Y ] p U 1.aX3.,.4.3.^ P P J 3.aX{ ` ` 0X7XqXqXJ u / u 2 wX",
"2 v - u ~ q K T.T.U.0XI.j ` qX3.s ~ ~ ,.qXqXqXaXaXL J L 1.Y ] 5.3.3.{ / ^ U U Y Y Y L L 5 L L D S D *.=.=.&.&.O.D O.O.O.&.=.O.O.#.#.O.L D O.O.O.L @.L O.L L S 4 S &.t.sXvXkXt.$.zXw.iXw.9.w.i.i.8.-.t.t.2.1.aXt.kXsXwXlXhXSX).^.`.*.5 < m m < @ $ . 7 b E.yXAXE.d.w d eXtXeX8X7X( P.I.L.x x ~ >.:.9X9XyXyX9X7X9X9XuXZ C y y 8 $ # @ . . X C IXpX:.C C <.lXbXZXbXpXsXPXkX(.,XJ.G.,X<XOXR.XX%XoXoXM.#XXXc.g.N.VXM.c.m.v.MXBXVX#Xn.XXg.G.R.+XG.Z.G S.~.!.S.S.!.*X[.H.!.Z.e r K.W.e s.s.a.a.j.v.k.d.R.E.E.k.K.E.U.U.E.L.x.l.E.E.U.x.E.k.R.E.E.c.h.c.c.j.a.d.d.d.g.XXR.e G G D.S.H.*X[.H.!.!.=XG Z.Z.Z.OXR.m.n.XXm.c.VXVXMXoXc.c.c.VXoXh.c.c.oXoXM.C.MX+XoXR.%X4XG.J.*X,X).KXPXuXLXpXbXpXpXZ C V <.IXpXO   X + + # - t y y C <.wX<.4.4.7XyXwXwX7X,.) ) x b P.) P.I.7XP.eXrX8Xd w k.E.AXtXz.d 8 + @ ; ; m m m 5 *.jX`.`.gXe.fXaXsXxXaXaXe.&.r.t.-.-.y.zXw.w.w.q.i.zX9.$.nXkXaXfX5.L S S L L L L L O.@.L O.O.+.O.#.#.O.O.$.=.=.+.O.O.D &.&.=.5.*.O.L J L L L L D U Y L L L Y R ] 1.1.5.5.] R 1.L J U qXaX0XqXaX] P U U [ qX` ! ) 0XP.0X{ ' q P p $ ~ ",
"2 >.2 > K K ^ T.I._ T.L.j ,.0X3.P I P ,.gXsXaXaXaXR R R 5.R 1.5.1.] Y U L L U D Y O.*.L O.*.Y R S D L &.r.&.&. .D D D D O.#.O.L L L L D L *.*.*.#.#.Y Y L R L D S D 6.6.vXnXu.%.zXiXiXw.9.iXiXi.-.u.y.e.*.aXe.sXsXsXlXvXhXSX).DXjXkX2.N m m = * O . # i BXSXSXNXk.g k.eXtXtXtXB.n 8XeX7Xn >.:.A <.9X>.9X8XqX9X9X9X<.:.V y y 8 . . $ X X   ; uXbX@.N N 9.bXbXZXZXpXvXnXgXJ.6X6XOXA.J.R.R.c.oXVXVXv.oXoXc.w j.VXN.a.c.h.x.eXMXm.g.c.XX].G.G.Z.Z.D.~.=X!.S.H.=X*XH.H.S.H T.gXT.W.G.G.G.d.c.v.R.k.k.c.E.E.R.U.U.k.L.U.8Xz.P.P.U.U.l.E.c.E.E.E.v.c.v.R.c.k.g.g.G.G.G.Y.gX/.G H D.H.*X5XH.S.S._._.!.G Z.Z.G.XXm.m.c.h.eXMXeXj.h.d.v.NXj.p.g.M.oXv.MXHXoXR.R.oXXXR.F.,X5X~.D.FXPXsXpXZXZXZXbXZ y V 9.bXV % X   @ +   $ y t v A :.4.9X4.7X9X9X,.7X:.8XA >.) n >.8X7Xn P.tXrXtXeXk.d k.T.AXSXSXd + X O & < < m m *.hXDX<XY.jXhXfXvXsXlXsXsXsX&.&.xXu.7.iXiXiXiX9.q.zXzXw.6.xXnXe.5.#.O.5 D R R L O.$.#.#.2.2.*.L 5 D L @.#.#.O.D D D  .D O.&.r.&.O.L D 5 Y *.Y L L Y D R L U L S L I 1.1.1.1.R e.] Y R aXaXaXhXaX] U P P / 3.` E ` 0XQ I.I._ K P 4 @ P ",
"2 ,.4 2 1.{ U T.T.U.Q.) _ qX3.3.a J Y 0XsXhXgXqX] [ e.*.] *.R L L R Y L L L R R Y O.*.O.L O.L O.D L O.R =.5.&.&.&.O.O.D L #.I L I @.#.Y L *.*.Y Y #.O.L O.L Y L D  .1.2.$.u.i.i.w.w.iXZ 9.iXzX7...y.mXr.e.fXsX] 5.t.nXPXkXT.G H 2XFXfX..m m m = * @ o $ yXeXl.x.k.L.Q.E.8X8X8X8X8XrX8X>.n :.9X9X9X8X>.>.:.8X,.>.9X:.9X9XV y 8 X + @ + X X O A zXC m m 9XbXZXbXpXlXbXsXW Z.{.OX{.A.K.R.U.l.v.BXBXv.MXeXx.w 7 j.M.R.w 7 z 9XB.h.c.c.OXXXG.Z.s.S.~.`.!.S.S.=X5X=XH.S.G E hXtXQ d.G.].G.R.R.E.E.E.oXE.E.E.oXE.E.l.U.b P.8XP.z.b l.l.E.E.oXE.E.v.E.E.E.oXXXR.G.G.G.d.K.tXgXH G D.D.[.5X~.S.F !._.!.S.G A.].].@XXXc.g B.8Xf 7 w v.E.x.6 w k.MXMXx.MXBXeXc.E.OXXXg.G.*X*XS.Y.T.hXvXpXZXZXbXiXV V M 9.iX; + X   - $ + + t y A :.8X9X9X>.,.7X>.>.:.9X<.8X>.>.n 7XyX8X>.7X8XI.eXE.E.k.L.E.Q rXyX8   O ; < m < m X.xXUXAXW.H /.sXnXnXlX2.5.aXdX&.r.cXzX%.7.iXiXw.Z %.zXiXiXiXu.t.*.L O.@.@.O.R O.R L O.$.O.#.#.#.L Y #.#.L L O.L L D Y *.&.&.&.&.&.&.O.L D L Y #.O.O.O.&.O.R L R L L U Y L R *.R 5.] 5.] ] aXaXhXhXqXU p K ,.0XqXI.I.Q.I.U.T.T ^ 0Xu 2 :.",
"$ ;.5 K sX{ J _ I.T.tXx ` yX] / D p { aXgXhXaX5.U [ aXR R *.*.L L *.&.R R R *.O.R O.O.O.D R L D *.*.O.&.*.&.*.5.t.r.&.Y *.1.5.;.$.:.;.*.#.L #.L I O.@.#.O.$.O. .&.D D N @.%.q.w.q.q.9.<.9.w.iX7...w.zX6.e.xXkXt.O.@.6.nXaX).Y.Y.).FXnXt.m m m < 3 % o $ c B.B.MXv.E.U.l.k b I.rX8X8X9X9X>.:.:.:.:.>.:.:.4.,.,.` 7X7X8X8XA z t + @ - - % O & C <.N %.Z 9.iXpXbXpXpXbX:.{ (.F.s.A.G.R.E.Q.E.8X8X8XB.x.8Xz.d 7 d k.tXK.: @ 3 z f v.+X%XOXOXJ.G G S._.!.G S.5X5X&X~.G G 3.aXI.K.R.'.'.{.R.R.E.R.oXoXoXE.E.Q.E.E.L.U.b L.8X8Xz.n P.U.E.E.+XE.E.E.oXE.R.R.R.].W.{.].J.U.( hXT.: D.1X&X5X=XS.S.!._.!.S.s.Z.W.XX%XoXK.k a y t 7 l.E.U.d 7 t j.v.z.B.B.rXz.U.eXE.oXR.D.Z.A.H T.3.wXbXpXZXbXpX9.$.Z V <.9.; % O * * $ . $ y c >.9X9X8X8X>.8X9X4.:.:.A <.<.<.>.A :.7X9X9X8XI.h g v.E.L.L.8X8Xn 8X8 + & < < m m D X.nXPXAXW.K.T.e.lXlX%.@.qXkXkXu.-.i.i.7.Z q.iXiX7.0.u.q.iXw... .L  .L +.C O. .L D L  .O.@.L @.#.;.2.;.1.#.#.4.2.*.*.e.5.r.&.&.&.&.&.&.O.O.O.L O.D O.O.O.R D R *.*.1.1.R L S *.5.R ] e.] U T.gXgXaXsX1.5 s ~ ,.yXT.Q T.Q.T.T.J ^ aX,.i wX",
"$ ,.P / aX[ K [ T.aXtXE T.hX/ I P p 5.hXqXaXaX[ J R e.5.5.5.*.L D O.5.&.R D R &. .O.L  . .O.+.&.D O.&.O.R *.&.&.5.5.&.*.2.5.6.1.I @.@.@.O.O.#.=.O.#.@.@. .@.@. .D -.+.@.%.N o.i.zX0.iX9.iXiXw.7.%.i.w.lXlXfXxXsX2.@.2.hXI.DX2XW.DXDXnXr. .M M m < ; , o # $ x.x.x.tXBXU.g g b P.z.8XrX8XA >.:.:.8X9X>.A A I c c ) 7X7X7X7Xn t + X + y * X X * , N 9.Z Z 9.pXpX9XpXwX;.{ H G W.+XY.E.K.L.z.z.z.A A f v t y t > i W u : . @ @ 0 l NXR.R.OXD.G !.!.!.!.!.H.=X5XS.=XY.F qXqXx U.OX.X;X3XOXW.R.Q.W.R.R.R.E.E.E.E.U.U.8XP.) 8XP.7X8XL.E.Q.E.E.R.E.R.R.OXR.W.,X,X{.{.,XK.l hXI.G Y.~.S.5X>XS.!.!._.S.S.D.D.W.R.OX+Xl 0 $ @ # # l ( i $ y t i z f B.B.B.z.8XP.K.E.K.W.Q.A.H ` ~ 4.uXpXpXpX9.<.%.<.%.3 < % X O y - +   $ z A 8X8X8X>.z 8X) c c >.:.:.:.9X>.A 8X9X8X>.>.) b g g Q.NXeXl.b v $ . @ @ ; m < M X.1 r.PXFXAX<X).jXqX6.6.@.2.sXnXfXsXu.i.i.q.Z iXiXpX9.0.w.0.zXq.B  . .+.+.%.+. .D  .O.+.+.O.O.2.@.L #.#.@.I #.5.t.5.Y *.*.1.e.&.&.&.O.O.O.O.O.=.+. .O.O. .O.O.&.*.Y L *.2.*.L L 1.*.*.e.sX] T [ aXaXaXhXqXs P ~ ~ hXqXg tXtXT.' ' ^ qX3.a 0X",
", / 4./ P U 0X_ I.gXgXj qXhX! P Y L qXhXgXgXaX^ J e.e.=.*.2.2.O.L &.*.*.R R &.O.=.+.+.+.O.O.&.&.O.O.O.&.O.&.&.=.&.5.-.R L #.1.1.$.+.+.+.+.+.-.6.+.%.+.+.%.%..... .%.0.-.%.Z %.9.zXiX9.9.iXiXiX9.8.w.8.lXu.sXfXsXlX=.$.wXFX).OXW.Q.kXhXxX-.m o.m m = ; + . $ $ 8 x.BXSXz.g d 0 k h l.z.n x c c a >.>.9X9X:.A >.A >.>.:.>.,.7Xa 2 $ 2 $ O O X * < m %.B N %.uXpXpXuXV C :._ W Y.gXK.Q r r l l.z.8XA A f t > > : # : : . : # # : : T.' W W T.' S.} !.S.S.!.5X3XH.*X' [ aX` u Y.4XJ.3XJX<X<XD.W.W.k.R.K.E.E.+XNXR.l.I.8X) ) 7X7Xk U.NXE.oXR.k.R.R.W.W.W.(.<X2X,X{.4XK.u 9XwX[ T ~.S.>X5XS.S.F !.!.F ' } T T [ T.q : . # # . : : @ @ , 2 2 t h c 8Xn B.l.k g k.K.Q.AXW Q I.~ a <.pXuX9.9.M V <.M 3 = % % O o , $ > 3 >.9X:.A >.>.) ) ) ! 7XwXwX:.C a a a x x b c z h w 0 g eXZXyXv t $ @ . . * < m m ..m -.xXfXFXQ.K.W.tXFXsX<.-.t.sXnXsX6.lXi.8.q.q.w.iXiXpX9.iXiXzXZ B ..%.8.-.%... ...%...%.+. .-.6.$.$.$.O.$.#.O.*.R Y D R 6.t.=.=.&.R  .&.O.O. .-.+.+.+.+. .+.=.O.=.=.R 1.*.L L O.5.6.O.5.t.e.J U aXgXgXjXqX~ I P s hXgX( tXAXT.{ [ { K / / 0X",
"@ { 4.~ I P ^ { T.gXQ.K gXqXP / Y U aXFXSXhX/.U ] e.e.2.#.2.6.=.=.6.e.e.&.&.=.=.+.+.=.+.+.X.O. .O.O.O.O. .O.+.&.6.t.6.=.Y #.*.2.+.+.+.+.+.-.<.+.+.%.%...B ....%.B %.8.%.B B Z 9.w.w.%.9.iXiXzXw.w.u.0.i.2.6.lXfXlX$.6.yXtXU.,X+XAXFXkXmXy.o...m m = ; * @ @ + $ z.rX8Xd d d 0 0 h j i 0 t u s x c n 8X9XrX9X9X8X9X0X8Xc >.7Xc a u s y + X X % m N Z N N %.iXbXbXpXZ C :.wXqXqX( L.W l.U.l.L.b b y t t 7 > @ : 1 S F G F F G F : F J S U T F F } F !.D.!.5X*XH.~.9 W wX~ 2 U.AXOX4X6X4X2XJ.D.A.A.U.K.E.+X+XGXNXk P.P.>.7XP.z.l.BXHXMXQ.U.U.K.A.Z.D.J.2X2X2X<XOX<XE.t 8XyXP q ~.H.&X>X!.!.!.S.} F F T S S J F F : F F G G F S S : : , @ > t u h b z.v x.L.l l U.U.sX0XqX>.A 9XbXZXbXiXN M B N N & % X   - s p u u >.7X>.>.7X8X7X) tXtXrX>.A c a a a u u u p g d 0 0 k i t 8XyXA $ # $ $ @ , < m m  .o.mXmXkXhXgX<XQ.W.qXyX4.2.lXxXlXt.6.u.8.8.0.w.iXbXiX9.7.9.q.q.7.B B 7.-.8... ...%.%...%.%.+.%.%.-.-.%.+.@.=.2.*.&.L O.5.t.6.5.O.&. .Y O.&.O.O.+.+.+. .+.-.+.+.=.$.&.=.5.t.r.*.2.2.*.#.5.5.=.{ ^ /.gXhXFXaX/ / #.p 0XgXQ Q.SXqX_ ] ^ K P 0XwX",
"@ 7X7X;./ P ^ qXgXhXU.g hXqX! ;.U ] kXFXSX).T.R e.R 5.5.*.=.2.=.=.6.r.5.&.5.&.-.%.%.+.&.&.O. .&.O.+.O.L O.O.O.O.t.6.6.&.-.=.6.=.=.X.+.+.-.+.+...%.-.%.%...B ..%...Z 7.7.Z Z %.9.9.9.Z Z 9.bXiXiXi.w.w.i.6.2.t.t.2.5 wXnXT.K.Q.<XQ.aXkXnXmXy.O.1 1 , ; * @ o . o y A B.z z n b x ( ( g q > q q i j z h x ,.8X) >.>.>.:.>.>.:.a s i j ) t   X O & 3 < < N 7.bXiXpX9X<.<.9X4.) ,.( I.L.tXtX8XP.P.h t u 0 d i : : e.fXjX_.!.!.1X2X/.F U S S S : F F F F G !.5X&XH.A.q ) qXa - c Q.,XJ.J.*X*X!.G H Y.T.L.L.tXQ.AXHXl.b P.8XP.P.k eXHXNXQ.E.I.U.Y.' G S.~.=X{.J.OX+XQ.Q $ C 9XP : A.H.&X>X!.G F S.} F : : : S F } ' _._.!.!.1X_.dXe.4 @ 4 4 0 u q g L.U.L.tXyXI.) ` ! 4.<.wX9X9X9XiXiXbX0.N m 1 5 3 o X   o s I u u i ! :.>.>.7X>.7X>.>.>.A z f c b j u 0 0 q g ( b j b b i x >.n 8 +   . $ & , < < <  .u.mXnXkXhXQ.<X).Y.T.kXsXO.$.6.t.5.t.i.0.u.zXw.zXbXiXZ Z 9.7.9.9.Z Z Z %.%...B %.......-.8.%.+.+.+.-.+.-.+.+.-.-.=.&.&.6.t.-.6.O.O.+. .D O.+.+.O. .+.+.+.-.+.X.=.+.=.r.r.5.t.*.=.5.1.=.6.e.R e.[ [ gXjXFXFX` / / s qXhXQ L.SXtX0X] K U / 0X3.",
"i 0X7X~ / / ` qXyXFXT.E hX0Xp Y Y { hXFXgXgX/.[ [ R e.5.2.5.5.*.=.5.e.&.e.&.-.-.-.+.+. .+.O. .D L I O.O.=.&.O. .&.-.r.-.6.t.r.-.-.-.+...+.%.%. .%.-.8.%.Z %...B B Z 7.Z %.B 7.iXZ Z Z Z uXiXiXiXzXmXi.lXlXt.;.#.@.5 sXvXT.Y.Y.Y.K._ kXnXxXxX*.4 , , , , & O @ + @ 2 y c z x c ) x b j u 0 0 q j u t 0 t x x z c c x A ,.4.~ a i p j x 0     X O & < 1 B <.iX9X9.pXV <.9X:.a x s b b 8X8Xz.z.n s p u 0 u : : F dXdXdX_.!.!.`.DXdXsXdXr.T F : F F F F F !.1X~.D.A.Q n A 3 - 3 h K.{.Z.H.!.!.D.Y.' [ I.I.T.U.eXUXtXb P.8XU.l.x.SXHXE.U.T.I.{ [ ' D.D.!.*XH.Z.W.U.g > $ y A :.l A.J.*X5X!.G F F F : F F T r.dXe.| `._.!.!.=X_._.dXF : q u 4 u g j l l.b 8X8XA c c a a V <.<.V 9X9X9.0.9...3 < , @ o X   o x x P p u s >.,.;.:.s c c A a z y t t i l r 0 0 q Q ( ( x c z z x z 2 # . $ + & * , < 1 1 X.sXnXxXsXT.I.Y.W.Y.Y.kXlXa a =.$.6.u.lXi.zXcXw.iXbX9.9.Z V Z w.q.Z M Z 7.%.B %...B %.Z %.7.%.+.+.%.%.+.%.+.-.-.-.t.t.-.&.6.-.&.O. .=.&.D D L  . .O.+.+.+.X.+.-.-.=.6.r.5.=.5.*.&.6.6.*.*.sX*.[ [ T.).jXFXhX1./ L P T.hXI.Q FXhXaX{ P ` ` ,.` ",
"0X0X7X` ~ ~ ` ` 0XFXqX_ hX/ u U ] { gXhXAXjX/.T.[ R e.] 5.5.=.t.t.e.e.r.5.-.-.-.-.-.+. . .O.D D Y #.O.O.=.=. .O. .-.6.u.8.t.-.-.-.-... .-.8.%. .B %.%.%.%.%.B B Z 9.9.7.V M 9.iX9.Z Z 9.9.pXiX9.zXmXzX0.lXmX6. .5 I aXqXT.)./.Q._ K hXnXsXhXe.] S 1 , 1 , & % O . + $ t y y i a s x i 0 t 0 j L.0 > 0 i i h x i x ) ) ~ ~ ~ s 4 q r j h $   + O & 3 = N 9.9.uXuX9X<.V <.A a a y i y z y z z i a K 4 : : : : T e.dX`._._.`.2XkXkXnXIXnXdX} F F F F F G S._.=XG ' P 5 1 * * & , H R.Z.~.!.!.} ' ' 3.3.0X0XI.U.SXSXl.b U.P.k.E.KXNXI.I.I.3.3.] R ' D.~.~.J.Z.K.u , @ , , , 5 K D.J.~.6XD.G G : : F G ^.e.nXmXnXfXdX`.2X1X`.jXdX} } : : : 4 4 K j h l h z z i y i y C C <.A V 9X9X0.9.i.%.< * * O + + . 2 x i p q u ! ~ ~ ~ ~ ~ a 4 a c z t $ 7 0 l.g 0 w q g h x c i i i t $ # + + * * ; < , 4 D *.5.fXfXfXhX/ Q Q.Y.).Y.| sX$.5 C 2.mXlXu.zXcXzXiXiXpXpXV 9.V 9.iX9.M M 9.q.7.Z Z Z B B B 7.7.+.....-.-... .+.8.-.6.y.t.-.-.-.-. . .O.&.&.O.O.L D D D +. . .+.-.X.=.-.t.-.5.r.5.t.t.2.5.*.R e.5.[ /.T.jXSXgXhX{ 3.Y s U gXT.I.PXqX,./ ~ ^ ` ` 7X",
"tXP.) ` ~ ~ / p ! qXI._ qX^ U Y U 0XFXFXhXgXjXaXT [ R e.sX] R sXlXfXe.&.&.r.r.-.-.-.-.+. .L O.&.*.*.I O.O.O.O.+. . .X.8.y.8.8.X.8.8... ...%.%. .B %.%...B %.B Z M Z 9.9.Z M 9.q.9.Z 9.9.9.9.iX9.zXmXzX-.0.mXlXC @.uXhX[ T.jXjXgXK 3.sXsXgXkXjXFXdXU 1 1 1 = % % - + + $ * > t s x ! i h h x b b b i i j i h x u i ! s ! ! s u u q q g ( t . + X & ; % N bXpXV C a V <.:.C a A c A z z y i a y u 5 : : : : F _._.jX`._.2X2XjXfXnXmXIXnXfX_.F F F : G G G _._.G J 2 , @ @ * * @ : H ,X2X2X} F ' [ 0X9XqX8XeX8XtXSXU.l P.L.l.tXHXE.T.I.0XqX5.1.R T ' (.2X6XW.W > @ , @ & & , 4 W H ).).G F F : F F !._.fXnXIXIXnXfXjXjX`.DXjXdX_.} F : : : 4 u t i h i y y f A a c @.V V :.A V C V uXzX%.* * * % + + $ v b q > > q P ! ) ~ c c a i z i z i h k L.P.l k g h h z z c y - $ $ $ . + - * = < < 1 L aXkXhXhXaXhXfX3.! gXAXjX/.' sXwX:.C 6.mXiX-.zXmXzX0.9.pX9.9.9.V 9.9.pXM Z 9.9.9.M Z B Z 7.Z %.7.Z ....-.-...B ..8.8.X.8.8.u.-.X. . .O.O.O. .O.O.&.*.#.O.D  .X.-.-.-.-.t.&.&.r.sXt.fXsX*.1.t.5.R ] U aXgXDXDXFXFXqX/ ;.P ! qXT.I.yX` s ! ` ! ~ ) 0X",
"eXj ( ` ~ / ` s ! ) ^ ` qX/ Y Y ^ aXFXSXjXgXgX| T | ] aXe.R R e.fXfXt.5.&.r.-.-.8.8.-.&.D O.=.6.2.O.L Y O. . .X.X. . .X.8.y.8...7.8...B %.%...B ..%.7.Z B Z Z Z M 9.9.9.9.Z 9.9.9.Z 9.9.Z 9.9.Z iXbXbX9.<.mXzX@.uXLXwXT./.aX[ T.! hXvXsXsXgXAXFXFXaXS 1 1 < = ; - % + X . # $ t t i t t v z.A f P.z.8X) x x x z i i u ( ! u u E p q E l 0   + + X % & 3 9.<.V N a V C V <.:.<.C V C A A y 4 2 2 1 , : : : F _.} `.dX`.`.`.dXxXIXIXIXIXkX_._.~.!.G F S.F F T U S , @ : : 1 1 , : T.KXDXDX^.} [ { 0XqXqXyXqXU.I.BXtXz.( U.U.tXNXU.U.qXqXqXqXT.[ [ Y./.DXKXjXQ : @ 1 , * @ , : J J /.F F ' F G !.!._.jXnXPXIXIXIXnXdXdXjX`.jXdX_._.} : : : > 2 2 y y 3 a A A A >.A A A A V V C 3 C V uXC * & % X X . $ i b j E E K u u P s u a i p x b b b P.I.P.k z.v z t f y t t $ # # + . $ * & = < 1 1 L aXFXFXFXhXaXsXfXsX/ 0XgX).aX^ qXbXuX:.uXmX0.<.zXmXiX<.V 9.9.9.9.V 9.9.q.9.Z Z 7.Z M Z Z B Z B 7.7.%.N ..X.X...N 8.8.....8.y.-.X.X.X.X.&. . .D O.L O.2.5.*.O. .&.8.8.-.-.r.-.&.r.t.fXfXe.R Y aXsX] [ T | gXgX).FXFXaX/ / Y ^ qXI.! ` P s >.,.~ ! ~ ( ",
"L.Q ( ) ! ,.,.~ ! ! ` 3.qX/ U U ` aXhXgXgXDX/.T R aXe.hX{ L ] *.sXfXt.e.e.-.-.8.y.8.-.&. .*.=.=.O.D O.O. . .+.....X.....8.i.y...8.8.o...o.8...B ..9.q.7.Z B Z 7.9.9.M M 9.Z 9.7.9.Z Z 9.9.Z 9.V 0.IXbXw.w.bXuXuXbXvX) T./.Y.J ] _ sXnXvXhXgXgX<XjXjX] S S 1 m = ; - + X X     . $ $ $ $ - - 8 - - y z v P.n x z p x p j ! u U [ E K ) b - #   + X O O * C :.<.:.<.<.:.C :.V C <.V C V >.a 3 5 4 2 4 : : F !._._.`.`.`.`.`.jXmXmXmXnXnXIXkX_._.~.!.G F F F S S 1 1 @ # : L R S : I.gXT.Y./.`.T.T.T.T.Q.gXU.L.U.tXBXP.l.P.tXyX7X7XI.qXtXtXI.Y././.)./.Y.T.qX^ 4 K ] L : @ : : 4 F T : F F F !._._.`.kXPXmXIXIXIXmXdX_.`.`.jX`._._.!.F : : > 5 3 5 a 3 C V C A <.A A :.9X:.4.<.#.<.:.:.3 * O O X %   # t ) ) p ` ` s u ! s i i i p l n P.P.z t - - 2 2 $ - - 8 $ o X   . + + * 3 = < m  . .U jXDX).gXgXaXhXkXhX~ { W Q aX` ~ vXpXuXpXbXuX0.zXmXiX%.9.Z V 9.9.9.Z 9.9.Z 9.9.Z 9.9.Z 7.Z Z Z 7.w.7.B N ..7.o...8.i.7.7.i.i.o. .....X. .X. .O.+.D L &.5.=.O.L -.-.u.-.-.-.t.r.&.r.sXsX1.*.L 1.aXe.aX[ J gXgXgXAXhXaX;.#.P ! qX0X^ ~ s ~ ,.~ ,.) ( j ",
"L.g L.) ) ` ` ,.,.3.0X3./ K P Y { aXqXqXgX).' ^ [ aXsXsX] R ] t.kXfXe.e.r.-.t.y.y.t.-.O.&.*.O.L D  . .&.+.X.X.+.........8.8.8.7.8.q.7.o.Z B B B 7.7.7.Z Z B 7.9.9.9.Z Z 7.7.Z 9.Z 9.Z 9.9.Z 9.Z 9.pXZXpXiXpXpXpXbX9Xs T.gXT.J T.0XsXsXsXhXFXDX).AXFXaXT S , ; < = & & & X + +     $ + . . + + @ $ - t y z z z x x x x ~ ! s u 4 u s ,.) 2 X X O % X O * $.2.5 I :.<.a 5 a N C C V C <.y 2 5 , : : : F F } !.!.} 2X2X2X_.^.kXnXmXfXxXnXmXnXFX_.!.=X_.' F : S S : : q r H ).dXF J gXNXQ.)._.^.(.(.Y.gXT.U.Q.tXU.eXtXtXk 8XtX9X8X8XtXtXI.Q.T.W.(.(.^.^.Q.T.aXtXW W jXT.E > 4 : 4 F : F F } ^.=X~.~.jXmXmXnXxXnXmXnXkX} (.2X`.`.=X!.~.S.G G : : 2 1 3 1 5 C C C C V a C y a :.:.Y I ;.wX4 @ o X % X X + t :.~ s t u i c ~ x c x z z n z f t t - $ + * + + o X .     X X   * % % * < < 1 S D aXDX<X(.SXkXkXhXaXwXqX3._ ' aXqXa <.bXpXbXZXiXpXbXbX9.Z 9.9.7.9.Z Z 7.9.Z Z 9.7.Z 9.9.9.9.B B 7.7.7.7.B .. .....7.q.q.q.q.i.8.........X. .X.+.+.+.O.D O.L O.&.O.O.-.u.u.u.t.-.r.e.e.fXxXe.1.Y 1.aXfXaX[ ' ' ).gXgXT.aX3.Y P P ^ T.3.,.;.,.>.~ ,.( I.j ",
"K.l I.( s ~ ;./ ` qXqX_ K / Y P 3.0XT.Q.gXT.W J T.dXhXaX^ { e.sXnXnXfXe.e.=.-.-.8.u.t.=.&.D D O.=.+.O. . . .+.X...%.o.....8.q.q.q.q.o.B B B o.Z 7.7.B Z 7.B 7.Z 9.7.Z 7.7.Z 7.7.7.Z 7.9.9.Z <.%.V iXiX9.iXiXpX9.9XpX9XqXaXT.{ aXhXwXsXsXaXT.Q.AXAXDXFX/.: : , * = < = = % % ; + + + X X + # . # $ - t 8 - 2 t i a x x i i u u y ~ ~ C 3 @ X O X X X o o > a 4 > : : 2 2 2 4 a 4 3 3 a 5 4 4 : : : 9 G S.!.!.!.!._.2X2X(.' dXIXnXr.xXcXmXnXFX`.~.1X2XjXdX} S F q q K.A.<X2XW.G /.UXUXUXFX^.G (.).T.K.Y.Q T.FXtXL.eXrXx.x.rXrXA yXSXI.L.T.Q.Y.(.~.D.).FXPXUXPXT.r (.6XW.D.K.: : T F } } dX2X_.*X`.kXnXcXcXcXxXlXmXkX} ^.1X2X2X~.!.!.S.!.G G : : : 4 , 4 S 5 4 3 y a 4 2 2 4 2 2 > 4 u @ . o X X X + + - c >.c i 4 u i i s x s i y - 2 3 t - - @ & O O + X X + O   - % X & ; < , & @ : : | FXDXDX<X).Q.aXsXfX6.sXqXT.T.qXaX:.9X9XuX9.iXpXpXiXuX<.%.<.V Z 7.9.7.7.Z 7.Z 9.Z M 9.9.9.7.Z Z Z B 7.7.7.......B M 7.q.q.q.8.7.........%. . . .+.+.+.O.&.Y L R &.-.t.u.u.r.-.=.r.e.fXkXnXsX5.] ^ 5.kXdX| J W T.Q.T.T.qX0XI / / E _ qXqX3.;.;.>.) ! ` x ",
"l l ( ! p ~ / 3.3.0X` ! ^ / ] / 0XqXqXgXqX_ J J [ aXaX{ ^ { 5.aXfXkXaXsXt.&.t.6.t.t.t.r.t.t.=.=.=.X.-.X.+.....o...%...B ..8.8.7.q.7.o.M B o.o.B %.7.B B Z Z Z B o.Z Z Z M 7.Z Z Z Z Z 7.Z N Z %.Z 9.9.iXpXpX9.B.V pX9X0XT.T.T.qX3.3.kXkXdX/.).DXGXAXDX/.} F u 4 < 1 m < = = = % ; * % X   . @ @ . o $ $ 8 2 $ $ - z a y a a a y y 5 2 & X + O   + @ o   . q 4 : : : : : u F q : q u p q 4 F : F G G !.^.!.!.!.S.(.6XDX} T kXIXxXu.mXmXcXxXnX`.(.`.DXFXFXdX} ^.G J.,X{.{.3XJ.D.2XFXUXUXKX_.' Y.Q.gX{ qX0X7XhXyXz.BXBXv.l.BXtX8XyXyX{ { 0X[ T.^.D.(.2XUXUXPXFXDXW.J.3X{.{.,XH G /.^.dXDXFXDX2X^.(.FXnXnXmXcXy.i.IXnXY.D.2XDX1X!.!._.~.!.G G F F : : : 4 : 4 q 4 2 F q q : : : : : : > . . O o X X X o @ - y a c a a a y z z t 7 - - - 2 - + o + + X X X   O * = % = & = < N 1 , 4 4 W T.W.DXKXAXGX).).).kXnX4.3.aXT.^.T.aXwXuX<.V 9XpX9.9.uX9.V %.Z %.N %.7.B M 7.7.7.7.Z 9.Z M M Z Z Z B M 7.q.Z ..7.B B 7.q.q.7.9.8.7.........o.+.X.%.X.-.+.$.=.&.&.t.5.r.t.t.t.6.=.&.fXt.aXkXfXaXaX] ^ [ aXaX[ J W Y.T.gXQ.qX3.3.;.` ! E ` 3.4.,.;.~ ! x x l ",
"L.( ( _ ~ / ;.0X` ^ ! ^ ` { 3.0X] 0XtXtXQ W H T [ { T.{ _ / [ ] e.dXe.sXe.R 6.u.u.xXt.5.sXxX5.=.-.X.X.-.-.....%.....B ..9.q.q.7.7.7.Z o.B B 7.B ..7...B B B Z Z Z Z Z Z 9.9.q.Z B B %.%.B N +.%.V Z 9.9.pX9.9.V uXpX9X7XqX[ W 0X/ / e.sX/./.`.<XAXAX<X^.DXDXT.^ 5 D 5 , , < < m = % % % o o + o o o o + $ - - - 2 y y y y 3 - ; * % O O o o .     # # u K q : G G 9 : 9 9 : : 9 q q G : G G F _._.!.S.S._._.!.G ^.DXDX' T nXIXlXy.cXmXxXnXkXjX`.KXKXFXFXFXDX6X{.5X6X{.'. X,X1X6XDXUXPXjXjX_.T.{ qX3.qXwX,.wXLXBXyXHXeXl.SXrXtXLX0X{ 5.6.5.e./.} ).jXFXUXKXDX6X1X;X{.'.[.6X6XD.DXDXFXFXFXKXJX_.`.kXnXnXcXmXy.lXmXIX[ H DX2X^.F !.`.1X!.G ^.^.^.F F F G F G q q 9 : : : : : 9 G : q 4 4 @ @ o   o O o o O @ * - - t t y i z f 2 $ - - & + o o + o O O X % & * ; < < 3 < < 5 1 1 L gXDXDX(.OX<XQ.DX`.)./.sXt.Y ] T.' ' T.7X<.pX9X<.9.9.pX9.uXZ Z %.Z B N %.o.M M 7.7.9.Z Z M 9.7.Z Z B Z B B 7.7.o.B B o.Z M 7.7.9.7.q.q.%.B B %.....%.%.%.%.%.+.+.O.t.fXr.&.t.xXlXu.r.*.e.aXe.dXe.[ { ] ^ { T.T.[ ^ E W ' gXtX0X;.3.3.{ _ ^ ! ! ` qX,./ ~ ( ) ( ",
"l ( ( ` ,./ / { ^ _ _ ` { I.{ ` { qXgXT.r J [ [ e.T.{ T.{ _ ] R e.aXe.aX5.L 5.lXfXnXt.e.e.fX=.-.-.-.....%.......%.Z 7.B o.7.q.q.q.7.B o.o.M B B B 7.7.B B Z Z 7.7.Z 7.7.7.8.8.7.N B 7.8...B  .%.%.C Z 9.9.pX9.V uXpXwXwXhX[ T.gXhX5.R e.[ ' `.2XAXAXDXAXKXDXaXqXsX5.L 5  .2.+.+.1 = & * * & + X O + + @ + @ + - - ; - - - + + O % O O X o o o # # > t T.AXe 9 ^.(.G G G G G G D.S.S.G S.D.S.D._.1X_.' D.`.DX} F `.FXFX| | nXPXsX6.i.cXxXfXkXjXDXKXKXUXUXFXDXJX5X1X6X;X[.[.5X>X1XJXKXAXqXFXkXdXsXwX6.$.6.<.wXLXLXBXHXBXv.HXBXLXSX5.1.6.$.&.t.e.aXFXDXtXKXUX2X1X1X>X[. X-X5X5X,XKXSXKXUXFXKXKXjXjXFXkXnXxXxXr.r.mXIXaXY.DXFXjXF G DX`.^.G (.`.1X^.S.G G G G Z.S.G G G G G G D.(.H q _ T.K > $ X o @ o o o o o O o o & - - t t 8 - @ @ o o @ o o o O % & * & & 3 @.C 6.D <  .6.sX{ ).KXJXJXJX<XAXAXgX/.[ aX#.2.sXgXY.' tXwXwXpX<.V 9.pX9.9.Z C Z %.B ......7...B ..7.q.7.%.B 7.7.7.7.Z Z ..Z o.B M B ..M M 7.7.9.q.q.w.7.%.B %.7.........%.%.%.-.-.-.e.t.e.5.xXxXxXt.&.D e.e.e.aX/.[ ^ ] [ { [ { /.[ W E q Q.gXqX0X/ ` { I.[ _ ^ / 3.;.` ` ` ` I.",
"l I.( ) ] / / U { ^ { T.0X{ ` 0XqX0XI.W K W [ [ T.[ [ ^ Q { [ [ [ { e.aX5.R Y e.xXxXfXfXfXr.t.t.u.......7.%.B ....o.7.B B Z 7.9.q.q.Z 7.7.B B o.B B o.7.7.o.B 7.B %.B B B 7.7...B ..7.%. . .N ..%.Z Z Z Z pXpX9.9.bXiXvXhX_ Q.FXPXnX6.sXaX/.jXDXJXKXHXDXDXgX/.kXhXaX/ P wXsX=.=.O.C 5 < = ; = O X X O + + + + $ - $ + - * + X % X X o   . @ > > b E.K.K.Q.A.A.(.D.Z.S.Z.G S.H.~.!.S.S.J.H.S.S.1X2X2XY.} dX_.G ' jXFXPXhXkXIXIXt.=.u.mXnXfX/.`.2XDXKXPXPXFXDXJX6X1X5X3X[.[.>X*X=X1XJXAXQ.FXPXhXsXwX6.<.<.<.<.wXZXZXLXUXeXLXHXSXwX4.=.$.-.-.6.e.kXPXKXQ.<XJX6X5X=X;X[.[.>X5X1X2XKXDXKXUXUXKXKX`._.`.kXnXmXr.&.r.nXIXkXhXFXKXkX} F _.dX^.D._.2X1X!.S.H.&X!.S.H.!.~.G G G G Z.D.J.D.G W.Q.K.b ( t $ @ . . o o o O X X @ * + $ @ $ - + + + o .   o O * * ; , 3 C $.2.4.vX2.a :.6.nXhXT.jXJXDXAXKXFXgXjX).5.hX6.nXkXFX).Y.hXvXpXiXuX<.9.pX9.V Z Z %.%. . .N ..7.8.B B %.8.%.B Z Z B 7.Z ..o.7.o.B B B M B o.7.7.q.q.q.9.%.%.B ..7.B B ....7.7.o...%.u.t.r.t.fXfXsXfXkXe.R R e.dXaX| [ [ [ { ^ ^ ] T.T.{ { W q Q I.qXqX3.` I.T.T._ ` / P / ,./ ) ! ) ",
"b I.! ^ { / ] K ^ _ T.tXqX_ { wX0X_ E E W W ' ' [ _ _ W W [ T.[ T [ /.| ] ] 1.5.nXnXfXnXkXt.t.6.8.%.%.8.8.7...7.B B ..Z o.Z o.Z M q.7.7.q.Z B Z ..B ......B B ..7.B %.B B ............X...m N %.%.@.Z Z 9.uXuXuXiXbXiXwXhX^ K.jXaXvXlXvXnXkXDX`.DXKX).AXDXQ.tXPXqX>.~ ) gXqX( 0XqXhXwX$.N N m = % X X X + * - * + + + + + o X X O + O @ > t i r L.Q.R.d.G.W.{.S.H.Z.H.S.Z.S.!.&XH.Z.S.H.J.S.!.5X1X(.G /.jX^.G _.kXPXUXIXIXIXIXsX&.r.mXmXfX| _.2XJXKXKXPXPXPXUXKXJX6X*X&X[.>X:X:X=X3X+X+XFXDXdX5.2.6.6.<.<.<.9XpXLXZXLXMXLXZXwX9X4.:.:.wXwX6.sXhXDXAX+X3X5X3X:X:X;XH.&X;X6X2XKXKXPXUXUXKXKXFX_._.e.fXmXmXfXe.e.nXPXIXIXIXPXFX_.G } jX`.} (.2X1X*XS.&XJ.H.S.!.&X!.H.Z.S.S.S.Z.H.J.{.J.G.K.Q.E.g j u > @ o X X O X X % + + + + + - + + + + O o & < m N C :.6.sXqX[ { gXtX` >.~ qXPXgXT.jX).).FXDXjXAXjXnXnXsXxXhXFXY.Q hXpXpXbXbXuXuX0.V Z %.%.%.+.N N  . .X.%...B ..7.B B B o...Z B ..B %.o...B o.o.B o.q.M 7.q.7.7.%.B Z 7...B o.....7.8.o...%.u.-.t.t.kXkXfXnXxX1.*.R ] aX| ^ T { qX{ K K [ T.^ [ { _ W W g _ 0XsX` _ qXtXT._ ` U / ] ,.` p ) ",
"( ) p / 3.] / ] ^ { qXqXT.I.0XaX{ W E ' T.T.[ ^ ' [ T.W _ ] | [ T [ [ J J ] Y 1.e.kXfXfXxXsXxX6.-.%...8.8.%.B 7.B 7.Z o.Z 7.7.M 7.q.7.M 7.o.B B o.B B B B B B 7.7...%...B o.7...B ..8.-.-.X.1 X. .B Z N V Z uXpXbXbX<.2.hXT.T.gXe.6.0.mXIXnXkXkXFXSXgXFXgXAXIXIX9Xz s ` hXhXtXkXPXsX5.2.+.m m N = * ; ; - % + % + @ % + X O + * - $ 2 z z.L.K.k.r k.R.A.d.{.OXJ.*XZ.Z.Z.Z.H.~.*X&XF.Z.H.~.H.H.!.(.G H jXDX^.F ^.jXPXIXIXUXIXPXnXt.r.xXcXnXkX`._.2XDXPXPXPXIXUXUXKXJX,X*X[.>X>X>X&XF.F.R.<XKXkXqXqXsX<.6.6.:.9XV.ZXLXLXBXLXpX9X9X<.wX<.wXwXqXgXjXFX).G.G.{.-X>X>X=XH.=X*XJXKXUXUXUXUXUXUXKXDX`.`.dXnXmXcXr.e.dXnXIXIXIXPXPXPX/.F ' DXDXG S.S.*X*XH.*X[.Z.Z.H.!.&X!.F.Z.Z.Z.H.{.G.OXG.d.g.R.d.r K.L.b i t $ - * % % X X % % + + % - - * ; & & * m m N +.-.sXhXkXgXqXhXhX` z k qXPXFXaXFXkXjXDXKXSXhXnXIXxXt.sX{ kX[ I.ZX9XuXiXiXbX0.9.V M C Z %...N N ..8.-.%... ...q...B 7.Z %.%.B B N B B ..B o.o.M Z 7.o.7.q.M B 7.7.7.B 7.Z B %...o.q.q.....-.r.xXfXxXfXkXnXaXR ] U J T /.^ [ T.T.[ _ _ [ [ _ ^ { T.T._ E ^ { qX0X` T.qXqXT./ / / { ` ` ! ) ",
"qXj ! / U 3.^ P ^ 0XhXtX/ 0XqX5.[ ' ' [ [ T.[ ' [ [ T.| { [ R T ' [ [ J J ^ [ aXaXe.fXkXxXxXsX-.-...7...7.9.7.7.Z 7.7.B 7.7.7.7.Z 7.7.7.%.B ..B m o.m m o...%.+.-..... .......o.....w.u.-.N 1 +... .B Z Z V <.iXbXpX<.:.sX3.jXhXD u.i.cXmXcXnXnXnXaXhXkXqXgXUXyX~ u p wXnXvXhX4.sXmX6.6.+.< < < = = ; = % + % % % @ % % * ; ; * 3 z x.eXNXc.a.w d.k.oXXXR.R.OXG.J.F.F.F.Z.F.&X*XH.F.H.J.H.S.S.H.*XA.Y.FXFX} F /.kXPXkXPXIXIXPXvXlX6.cXcXxXnXDX_.jXFXPXIXPXPXUXUXKXKXJX,XH.*X5X1XG S.S.Z.JXUXFXgXwX4.<.<.lXvX:.:.wXSXHXHXZX9X<.9XuXwX6.qXqXaXhXFXKXAXA.S.Z.S.>X1X!.!.~.JXKXKXUXUXPXPXUXPXFXDX`.jXnXnXmXzXr.t.fXnXIXIXPXPXPXFX`.F G FXDX^.G &X!.H.H.H.H.H.F.F.*X*XS.Z.Z.F.F.H.{.{.OXG.c.E.R.d.a.r d.E.tXU.y y 2 & = * % % O @ + $ + + % ; ; & < < < 1 $.6.6.mXsX6.hXnXvX` p s ` SXUXhXT.FXkXgXUXkXnXmXmXi.lXsXS nXkXqXqX9X<.uXbXiX%.V N C Z @.N %. .m ..w.i.-.B %.%.%...%.B %.9.%.%.....N m ..m M M B ..B 7.7.7.Z 7.Z 7.7.Z 7.7.Z 7.7.7.Z o.o...-.-.y.xXfXnXkX5.qXe.] W F J | T.' ^ ^ aX[ e./.^ [ [ { /.T._ ' [ [ aX0X0X{ qXhX0X( ^ U 3.,.~ ! P ",
"I.K ! 3./ / I ! x 0XqXI.{ qXT.5.T ' ' T.aXT.[ ] W U ] qX5.[ U J ' ' [ ' ' W ' T.^ 5.sXt.t.xXbXu.8.8.8...B q.q.7.7.o.B 7.Z Z M 7.Z 7.w.q.B B B B o.M o.B ....%... . . .N ......7.7.%.8.i.8.....u.-.%.N B C B 9.bXuXV uXwXL a t.t.0.cXy.o.r.X.&.&.e.D ] sXqXwXvX0Xu a 9XvXvX4.a , N -.<.N < = = < < = = ; % % + % + & + - % * = ; c 9XU.k.g.c.c.g.a.a.R.oXc.G.OXG.F.F.F.F.s.F.*X.X[.Z.J.H.H.Z.Z.S.S.S.Q.KXFX/.| dXkXFXkXkXIXIXIXIXmX6.i.cXxXfX`._.jXkXnXmXIXPXUXUXDXFXDX^.S.1X6X(.!.1X!.S.2XUXUXUXhX4.wXuXvXZX<.A 7XSXHXLXyXB.:.wXvXuXwX5.qXhXUXUXKX<XD.!.~.!.1X1X1XS.~.DXFXDXKXUXPXPXIXIXPXjX_.} fXmXmXlX6.xXnXmXIXIXnXnXPXkXkX} | FXUX).S.!.S.S.Z.F.&XH.Z.F.&X*XH.s.s.'.F.'.G.].R.R.R.oXk.a.g.g.g.R.h.k 8X8X3 * ; = % % * % % + + % - - * = < < & < m +.0.lX5 1 $.sXIXvX:.u 2 ` nXqX3.hX5.R sXt.-.-.y.y.y.cX2.y.sX/ ;.wXuX<.iXbX9.Z B Z ..N %.0.8...%.i.0.....8.%.+...@.B  . ...%...........X...o.B B 7.q.q.Z 7.M 7.M 7.7.7.M 7.9.q.7.B ..8.8.-.u.xXxXsXfXfXe.[ 0X[ T W ' ' [ T.K E [ [ /.{ T ^ _ { [ T.[ ' T ' [ [ 0X0XT.yXqX! P U / { ` ` E ",
"I.p K { { 3.^ P ( hXgXI.qXaX{ ] ^ ' [ /.aX/.[ _ ^ ^ [ [ [ [ [ | [ J ' ' ' W ] T.5.5.e.r.t.xXcXcXi.u.w.7.7.9.w.7.7.M B 7.o.M 7.Z M 7.w.w.......B ....o.....X.B  .N N %.%.%.%...7.7.B Z 9.%.N +.%.+...N N C N 9.iX9.<.lX0.@.O.xXu.i.i.o.o.X.X.X.D 1 1 1 +.#.O.6.6.:.:.:.@.5 , , & = 3 3 < & = & = ; * % * - % $ % + O + + % % % * a 8X8Xd w h.d.d.d.w g.XXXXXX+XOXG.Z.f.F.s.F.{.{.H.F.H.H.S.S.Z.Z.D.Y.T.FXFX| aXdXkXkXjXkXIXIXIXIXmXu.i.cXxXfX_._.jXkXnXnXkXUXUXKXJXDX2X=X=X1X2X_.`.`.~.S.G W.KXPXPXhXbXIXIXLXvX8X8XNX+XHXBX8X9XuXbXbXvXvXvXhXUXFX).Z.S.1X1X2X2X2X1X~.(.DXJXJXKXUXPXPXPXPXPXkX_.} fXmXmXcXt.mXIXIXIXIXFXkXkXkXkXe.aXjXPX).D.G Z.Z.F.H.H.[.F.H.J.*XF.Z.s.F.F.f.].OXW.R.R.E.d.a.g.d.d.d.w k.yX8X3 ; % % % % % % + % % * * % % ; < = = = & < 3 N , * , < C 2.:.#.:.wXlX2.=.=. .1 1 D X.X.X.X.o.y.q.o.lX@. .6.uX<.9.zX9.B N C N ..-.X.%.....w.%.N %.8.B  .%.@.%.N m B ........o...o.m ..m B 8.w.q.Z B 7.Z Z 7.7.M M q.q.q.q.Z 7.8.0.w.cXcXxXt.sXe.] ] 3._ ^ ' ' ' W ' { ] [ T.[ ' J ^ [ T.[ aXaXY.' W [ { qXqX_ qXhX` ! ^ / { _ E p ",
"I.E q K 0X3.! P qXhXhX{ aXgX0X' W ' | aXaXaX{ T.aXT.[ U ' ^ [ aX[ ' ' W W [ T.3.aX5.2.6.u.u.-.u.w.w.q.0.9.q.9.7.7.Z 7.Z Z Z Z 7.B Z q.q...B B ......B ..B B B ..%.N N %.Z %.Z 7.<.Z %.%...B Z N N N N  .B Z Z 9.%.7.0.8.8.-.-...o.o.o.o.m m X.X.1 1 1 1 , , N C C 3 ; & X O * = & % = % % = % % * & & & + % - $ + o X X + O O X o y v v h.d w w r a.p.d.XXoXE.+XXXf.s.F.F.f.H.;X[.Z.F.H.H.{.Z.D.S.H Y.kXkXaXsXkXFXkXDXjXPXIXIXIXmXu.lXcXxXfX| _.`.kXkXnXnXUXUXJXJX6X5X5X5X1X`.2XDX_._.G G G JXUXyXvXIXbXZXZXvXwXL.tXNXHXeX8XwXLXZXIXZXIXLXhXUXAXH G G ~.`.2XDX`.1X5X1X5XJXKXUXUXPXvXnXnXFXdX_.} r.xXmXzX6.mXIXIXIXPXjXkXFXkXkXe.aXfXkXT.Y.D.A.Z.J.H.F.H.F.F.{.*XF.Z.F.f.f.G.+X+XR.oXR.w a.a.w d.a.w g b h 2 @ X X % X X % + % * ; - % % % * = % = % % = & & * * * @ O * 3 C @.<.5 < 1 1 1 1 1  .X. .X.o.o.o.o.o.8.%.-.6.uX%.%.9.7.B N B  .N  .m  .N N %.%.%.7.%.%...7.....+.N %.B B ..B ......o.B ..B q.w.7.B B 7.Z Z M 7.7.7.7.9.7.q.q.q.w.w.w.y.0.t.t.6.5.5.aXqX{ ' W ' ' W { aXT.[ ^ ^ ' [ T.{ T./.aXgX| T W [ T.aXqX0XgXFXT.K U 3.qX{ u u ",
"I._ q ! aX/ p P qXgXhXI.T.aXaX' T [ /.qXT.[ ' [ aXaXT.[ ^ ' ^ T [ T.T.W W T.T.T.1.5.t.t.y.u.....q.9.9.q.iX9.7.7.7.7.Z Z Z Z Z 7.Z B 7.0.%.N ....m X...X...B B %.%. .B  .Z N <.zX0.%.@.%...o.....m  .....N ..Z N B B ..8.y.o.M o.o.M M o.m m m X.m  .< , @ & * O & O & O X X % O X X % % X % % % @ @ @ o o @ $ o @ # @ * & O O o   $ 8 f n v g g d.d.a.a.c.XXE.MX+Xm.s.g.f.s.F.;X{.F.Z.*X{.J.J.D.G G T.kXkXkXkXPXPXFX`._.FXIXIXIXmX0.w.cXxXdX_.} _.jXkXnXkXFXKXJX1X1X1X>X=X1X_.2X^.Y.D.S.(.A.AXUXeXhXLXbXZXZXvXyXb NXGXHXeXz.vXLXZXZXLXZXpXhXUX).D.~.S.!.(.(.DX`.1X1X1X5X5X6XJXUXPXnXnXFXkX_.} } dXxXcXlX6.mXIXIXIXPX`.`.kXkXnXkXaXnXkXqXY.H D.J.J.{.&XH.Z.{.*X[.Z.F.f.f.g.XX+XE.E.R.g.w d.h.w h.k x.z.v $ + + O % % % + @ O O @ $ + o @ % & * & % & X % & O X & O O O O @ * * & & @ & , 1 m m X.m m X.o.M o.o.o.o.o.i.y.%.N %.@.Z B B  .B  . . ...+.%.B B %.9.uX8.N +...N ....%.....N ......m X...m X.o.8.Z B Z Z M 7.Z 7.7.7.Z 7.7.q.q.9.q.q.q...%.u.u.6.wX5.qXqXT.' H W T.[ T.[ ^ U W T { gXgX{ [ [ T.aX/.' T ' aXaXT.0XgXhXqX^ K ^ qX{ u E ",
"T.T.K { aX^ u J ` T.gXT.T.gXdX[ [ /.aX/./.^ J ^ T.aX[ [ T.[ T J T [ T.Y.K.T.aX3.1.e.t.0.i.i.o.8.q.9.Z 9.iXq.7.9.7.7.7.7.Z 7.7.7.7.%.9.w.7. .N  . .X.m o...B ..%.%...%.$.@. .+.lX0.@...N ......m m N m N m Z %...B B m ..i.q.o.M M o.M m m m m < < 3 , O & * * & O X O O O & O X X O X * X + + - O o   o o o # o   o + @ + o X X +   + - t z i d g r k.c.g.c.oXoXoXR.g.f.f.s.Z.F.H.F.H.{.J.s.Z.A.G H FXUXPXPXnXPXFXFX_.' jXUXIXIXmX-.8.cXxXfX} !.^._.jXkXfXdX`.`.(.=X&X&X1X5XW.Y.H K.D.D.,XA.Q.KXyXLXpXZXLXSXZXSXeXNXBXCXtXeXSXyXZXbXpXZXZXBXFXQ.W.(.D.J.D.D.W.(.1X=X=X=X;X,X).jXfXfXkXkX`._.!.} r.xXcXu.-.mXIXIXUXPX^./.jXFXPXnXkXPXIXFXG G A.A.Z.{.*X[.F.'.{.F.f.f.f.f.R.E.oXE.oXc.a.c.h.d.k z v A t $ + X X + O % + + @ @ o o + + o o . + @ * X X X O X X X + X O o O O X O @ , * O & < 1 1 < 1 m < m M M M o.o.o.i.o. .N +.Z B %.B N  .N m  . ...%.B %.%.<.zX0.5 N %. ... .%. .........m ......m B 8.q.%.Z 7.7.7.7.Z Z 7.7.7.7.7.9.iX9.9.9.q.8.8.u.y.t.t.4.] qXT.T.W Y./.[ K J U [ [ [ T.aXaX[ ^ ' /./.aX/.[ [ jXaXI.T.gXgX0XE 4 U T.T.u ` ",
"qXT.E aXqX^ J u ^ { gXgXaXjX/.' ' T./.aXaX[ ^ /.[ [ [ { dXaX' T F W Y.T.Q.).Q.aXqX5.6.-.0.8.7.8.iXw.9.q.iX9.9.9.9.7.Z 7.7.Z 7.7.Z Z %.0.8... . .X.m m ......B +. . . . . .5 5  .+. . . ...N < < 1 m < < < 1 N N ..B m m M o.M M M M m = m = * * 3 - O X O & & O o X O X O 2 ; o - + X - + + + $ o o o @ # o @ $ . o o . X     X X   X + + - 2 0 t w k.c.h.c.M.oXc.oXR.c.G.G.s.F.Z.F.H.G.Z.G.G.R.s.K.AXKXKXFXFXFXDXjX_.G jXPXIXnXt.-.0.mXmXfX_.} !._.`.dXe.} } } `.~.H.H.*XOXJ.G.R.J.W.W.J.J.Q.LXLXLXyXBXUXSXSXyXV.BXUXVXMXeXSXSXLXLXyXZXZXLXHXR.G.J.J.OXJ.A.A.W.<X*XH.H.*X1X/.} | e.dX`._.!.^._.fXxXcX0.$.lXmXIXPXjX} ^.DXDXFXnXnXPXUXFXA.G Z.A.A.Z.F.J.G.F.F.f.f.b.G.g.c.E.oXoXR.a.j.c.d.d t t 8 8 + + X X       . + + . . . # # # # . . . @ @ @ X + - X $ - X y - + X +   X * & O O O & , < = * = m m M M M M M o.o.m m  .Z +.Z N m < m 1 < m <  ...@.+.C C -.@.N  .%.%. . ....... .....m X... ...%.8.q.7.Z 7.9.7.Z 7.7.7.7.7.7.q.q.iX9.9.9.iX7.8.8.y.t.6.4.wXqXT.Q./.Y.Y.W F J T aXaX/.[ [ [ [ J ^ /./././.[ ' /.jXgXgXaXT.^ J u ^ qXaXW { ",
"T.T.[ hX[ J { [ _ T./.aXT./.[ T ' [ T./.aXR T { [ U T /.kXdX' T T W ' Q.gXgXQ.aX3.2.=.-.8.0.o.7.w.iX9.9.iXiXq.7.7.Z o.7.7.B 7.9.7.B %.%.%.-...B .. .N  .......X.X. .D 1 D L S 4 S  .1  .N 1 m < < = = = & * < < < m m = m M = M m m % = m = O % * O   o O X X O X O - O X - *   @ $   + # + # + @ @ $ $ @ $ - 2 $ $ + o + o X X X   $ +   . @ - t i d w h.p.g.oXoXMXm.c.R.g.s.F.{.F.G.F.A.G.G.W.g.W.Q.).).W.).).`._.!.G jXPXnXsX&.=.cXmXxXr.| !._.1X`.jXdX} | _.`.<X{.{.J.W.XXR.R.+X+XQ.+XR.eXUXLXZXyXBXSXKXSXyXB.HXLXHXtXE.SXFXFXSXyXBXLXUXSXMXR.R.%X+XoXR.G.R.OXJ.H.J.1X2X`.} | e.`._._.~._.} fXxXcXxX=.2.fXnXPXdXD.D.(.).gXjX).gXgX).Y.Z.A.J.G.G.F.G.f.G.H.Z.g.n.XXR.E.eXv.m.a.g.g.h.k t 2 $ - X + $ +       o . . . # @ @ 2 $ # @ $ $ . o # + o $ +   - $ X - - X + * + o + + o @ + X & - O % = m = = = M m m M m % < N m m 3 = = = * < < < < m N  .N N @.5 1 N D D 5  . .X. .......X.m m o.B %.8.%.%.Z Z 7.7.7.M 7.7.7.Z 7.7.q.iXiX9.9.pXiXo.8.q.-.+.=.5.qXhXtXgX).Y.Y.' ^ U [ dXhX[ [ ^ [ aXT [ aX/.[ | T ' T.aXaX/.aXT._ ^ [ K [ gX{ T.",
"Q J T.aX^ J ^ { _ aXgXgX/.| ' H [ aXT.| [ J J [ e.e.[ | fXkX| J [ /.' ).<XAX/.kX3.*.=.-.0.0.7.7.q.9.9.w.iXiX9.9.Z 7.7.7.7.B 7.7.7.%...+.%.-.......m X.m ..-... . .D D D Y Y L L L D L N N m < = < % = < & & = * * < = = = = = = = = = = = % X O o o X X X   X O X + % + + + + o @ + . + o # $ $ # > > $ $ $ > t $ > $ $ $ X           o     + + t y f d k.j.g.a.M.oXoXc.k.g.g.d.OXOXOXR.G.G.R.OXW.A.A.Z.Z.G G W.W.(.(.^.`.FXjX5.5.t.zXzX-.-.| G !.=X_.`./.| dX`.Y.(.+XW.c.E.oXoXoXE.K.v.c.c.v.ZXUXBXrXHXKXSXSXeXz.HXHXBXrXU.SXSXSXKXhXrXLXUXHXU.E.E.E.v.oXoXQ.XXE.R.W.<X(.Y.jXe.e.} _.1X1X!.} } e.t.lXcX6.*.5.kXFXjXY.(.(.J.W.D.e H H A.A.J.J.J.G.J.G.G.OX+X{.g.g.g.c.U.E.E.m.j.g.c.h.d f t - + +   o .       . . $ # # $ > $ 2 > # $ > > @ $ @ # @ @   o $ + + % O X O * + X + X X o o o o O o X & ; % = m = = < = = = = = = = = = % = = % = = < m N N D D L D L L  .D 1 D  . . ...X...X.m ......-.8... .%.%.%.7.Z %.7.7.7.7.%.7.7.iXiXw.uXw.q.%.7.q.8.-.&.Y wXhX).gX).(.Y./.T U | dXkX[ [ 5.| 5.J F { | [ /.[ J | T.T.gXaXT.{ { ^ K K hX{ W ",
"K g ^ qX] J P { T._ W aXgX[ ' T /.aXT.[ T S ] e.R | e.e.dX/.T q F /./.<X).).T.jXaX=.$.%.-.0.8.7.7.7.7.w.iXiXw.9.9.7.7.Z %.%.Z 7.%...N ..%.%.%...B B X.o... . . .D O.D S L Y L P 5 Y @.5 < < < = = = ; < & O @ & & * % % = % = = % = % % % , * * * $ @ + o     o X + + + X   + o     + $ - t 2 > > > 2 u p i x s i z x i > $ # .                 % 8 y f k w a.h.k.c.eXE.c.a.k.R.R.XXR.R.R.G.G.G.OXG.A.A.D.G e e K.W.(.D.).DXgXT.[ t.cXcXu.&.T } G S.!.^./.aX/.| W K.R.R.v.x.E.oXE.v.x.j.v.v.x.x.ZXrXSXHXKXGXtXU.8XLXLXVXBXP.U.BXFXHXSXBXBXyXeXj.x.j.j.V.v.v.E.E.v.k.R.Q.Y.K.aXdX| /._.!.G S.' } R r.cXzXsX5.[ gXDXgX(.(.(.D.Z.e G D.A.A.A.J.W.G.A.XXR.G.OXR.R.d.k.j.v.E.R.c.g.p.j.c.h.i y 2 +       .   . . . . . # $ t y i t i 2 4 2 > > > $ $ $ $ $ + . + X   X X O + % X   X X     o o o @ @ & * & & % ; = = ; = = % = = = % % * & < = = m = < < < N  . .5 D S L Y O.D  . . . .X.+.o...X.m N ....%.....B %.7.7.%.B 7.7.%.7.7.7.q.zXbX9.7.<.7.7.8.8.-.-.&.2.aXhXgX).<X<XY.Y.J S T aXfX| | aX] e.T S U [ [ aX/.' ' ' /.jXT._ { 3.E U K aXT.u ",
"E E _ [ K 4 ^ qXgXL.Q T.T.W W W [ /.aXaX] J ] R R e.aXaXsXaXT T F /.).<X(.Q.T.aXaX=.$.%.%.w.0.8.%.%.Z 9.w.w.w.9.w.8.7.7.7.7.7.8.+. . .+.................8.%. .X.1 D 5 5 5 a L a @.$.+.< = = = = = % % % % ; - X O O O * * % % X O O % & 4 5 4 , 2 2 4 2 2 @ o o   . + # @ $ $ $ t t i x x ~ c ( ` Q _ _ qXgXtXqXtXqXtXqXn 0 # . . . . . + #     + - 3 y f d d.c.k.k.v.oXE.v.h.k.c.R.R.R.Q.R.R.G.J.A.Z.A.J.W.W.W.A.A.R.A.Q.AXDXAXaXvXvXu.y.r.R } G G G S.Y.T._ E W g l.E.x.V.V.V.V.eXrXV.C.BXMXeXV.eXBXBXSXHXtXP.V.BXHXHXBXz.8XSXHXSXHXSXrXx.V.eXeXV.V.V.rXV.8XE.V.x.U.K.r W Q T._./.D.G G G ' R r.t.cXmXvXaXgXAXJX<XG.A.D.A.D.S.S.W.D.Z.G.W.R.G.G.R.OXR.E.R.k.k.j.x.eXE.c.h.g.c.a.j.h t 2 @   . . . . . . . . . # t b 8XtXqX7XqXqXqX0X) x s x ! ! s z t 2 $ $ $ @ + . X o o     o . @ > > 2 2 > 2 1 , O O o % % & & & & % % % X & ; % % % % = = = = < <  .*.L D L 4 D 5 5 D  .D X. .X.-...X.....%... ... .B ..%.8.%.7.7.%.7.7.0.7.q.iX0.<.Z <.%.7.8.8.X.X.O.6.aXaXT.).<X<X(.Y.F F S | dX| aXdXR ] e.J J [ aXaX[ W ' ' T.T.E W gXaX^ K p ^ { J ",
"E _ _ ^ ^ p ! qXqXqXQ Q H q J ' [ qXT.{ ^ T R R [ e.e.t.dXe.[ aX' ^.<XAXJXJXgX[ 2.O.$.$.<.0.0.%.%.-.%.Z %.9.9.<.9.7.%.%.7.%.%.7.%.%.+.B  .N ..-...m ..o.o.X. . .X. . . .D C C @.<.C m < = = % = % X X X   O @   X X @ - + X + o o o , 3 5 4 2 : > > t i P P u t 2 7 - f c ) ~ 7X,.) ! p p p x P W K E E _ _ _ { ` L.I.0XT.U.g $ . . . . . # .   + % * ; z z j.k.v.h.h.x.oXeXE.k.x.x.R.R.R.R.c.A.R.G.A.D.A.J.W.Q.W.R.G.R.R.+X+XtXqXsX4.@.-.-.R J D.D.Z.A.K.K.l r r l x.x.B.B.B.B.z.B.rXV.V.MXMXV.NXtXtXeXNXCXrXB.8XBXHXHXNXz.rXrXHXMXeXMXeXrXV.rXBXrXV.V.V.B.B.V.V.x.z.j g l g j Y.' G S.S.!.T T 5.6.$.uXhXqXgXAX+XQ.R.G.G.J.~.(.J.J.G.G.XXR.c.G.R.XXG.R.k.k.k.k.x.eXeXk.h.c.M.c.h.d y 2 O X +     . . . . . # # h I.eXqX0X7X0X0X0X0X` ! ! _ _ E ! p ! ! x ) ~ z a i i $ # # $ > 2 u p u 4 4 4 , , 5 5 2 @   X X o O O * % % X X + & O X X % % % = & = < 1  .5.O.D s 5 L D D  . . ...o.X.o.m X...-.X.m  .......%.7.%.0.8.7.%.9.0.8.9.9.%.%.<.8.%.7.8.8.-.+.+.&.5.{ /.<X<X2X<X/.' [ T aXdXaXaXe.R R [ T R e.aXT.[ _ ' q H E Q I.qXqX) E ! _ { E ",
"L._ j p ^ ! ! ) tXT.L.g r q W W T.T._ ^ ^ U R ] R 5.R e.aX[ R aXgX).<XGXJXKXgX] &.O.+.-.0.0.8.-.%.%.%.%.%.%.%.%.%.%.%.8.%.....%.8.%.+...N N ..o.o...X.m X.X.m  . .m 1 N 5 < 3 Z N < = = = & % % + O @ @ + o o @ o   @ @ . o + $ > > u 2 : 4 : @ : 4 > > p K K x I.( I.7X` p p ! / ! u q q 4 q u u q q > q u q g u q g j l L.U.j > # . . . . . . X X   - y v x.j.k.h.h.v x.v.v.v.v.k.k.c.k.c.R.k.K.E.R.k.A.A.D.J.G.G.G.R.oXE.v.v.eXI.,.4.lXlXsX{ F ' H r k.k.x.k.K.l.x.V.V.V.B.x.B.z.V.V.V.V.V.x.V.v.v.MXMXE.V.z.8XUXKXHXBXE.B.eXrXMXeXeXV.V.V.B.V.eXV.V.B.B.B.B.V.x.x.k.K.L.k.h.H r G D.D.D.T 5.e.wX:.:.qXT.Q.E.E.E.R.R.R.G.D.J.J.G.A.R.E.c.c.R.c.R.R.k.k.k.x.V.eXz.x.h.j.c.v.k.x.z y *     +     . . . . # 2 t 7XU.L.Q j j g q u q q q q u u J J > u u p ` I.^ ! I.0X0X( ! j ! K ! K 4 : : : : @ 1 1 4 4 2 @ . . . o @ @ + X . X + o X o O % & * O % ; * < D @.C 5 5 5 5  . . .N .... .N X.....X.B N N ..%.%.8...%.%.%.7.7.7.%.%.%.%.%.+.%.%.%.8.0.9.-.=.+.=.*.[ DXKXJX4X<X).aXdXR /.fXaX] e.R R U U ^ ^ ^ T.T.Q W q q W L.tXqXI.) p _ j E _ ",
"I.Q u u x ( P.T.8XP.L.k.g r r W I.T._ ^ { ] L ] R R R 5.5.R U /./.).<X4X4X<X).aX&.&.-.%.<.0.0.u.-. . .-.%.%.%.7.8.-.%.%.-.7.%.7.8... ..... .m  .o.o.8.o.......1 < < = = = & % m < * * * & & X X o - 2 - - 2 - @ o @ @ - $ - 2 2 z p 4 > : > 4 : : u u 2 > u 2 u > q u p p u u K ^ E g : : q q u u q q q u K u p j h i g u g g d g 0 0 $ . . . #       + - t f B.l.z.x.h.d k x.x.E.v.v.x.k.k.v.k.j.c.k.k.k.K.R.A.A.G.R.R.v.MXeXV.z.b I.tXhXhXhXgX' G H K.k.k.x.U.v.U.v.v.C.v.x.V.x.x.v.V.V.x.j.V.rXeXeXBXCXeXeXB.V.LXKXHXSXz.B.rXV.VXVXeXV.C.V.j.v.V.V.v.x.B.j.B.V.eXv.R.E.k.v.v.k.k.H d.H ' /.kXvXvXwX7XL.L.U.E.MXoXc.R.A.R.A.R.A.c.g.k.c.c.k.v.c.k.k.v.R.x.v.z.x.d h.x.x.x.n v f y -   . + + . . . . $ $ 0 i b l.h h g g q u p u j q 4 q q q q q q q q u ^ ^ p u u g E E p p q u u : > : 4 > : : , : 2 4 i 4 2 2 @ @ @ @ o o + - @ * @ - - + O % % * = * * < 5 ; ; = ; < < m 1  .X.......o...o.N  .X.....%.-.8.%...%.8.-.-.7.%.7.%.%.-.%. ...6.0.0.0.-.%.=.=.*.T.jXDX4X4X4X).gXaXJ [ qX{ R R R R U Y ] ^ _ 0XT.W Q r g l l.U.eX7X7Xj x u u ( ",
"l l j j ( ) 7X8XU.z.l.U.k.w g U.Q.T._ _ ^ / U R R R *.3.] U ] qXH Y.4X<X4X+XT.3.&.&... .-.0.-.-.-.X. .-.%.%.%.8.%.-.%.....%.7.%.-.....+. . . . .X.o.i.i.o. .m < < < = & & % % % & * = * @ @ + $ 2 8XwXc a A c y 2 2 c c ~ ,.>.~ s i 2 > 4 4 4 4 4 4 a u s 4 y u 2 > 4 u u K p ! p p u > > > > q > > > > > p i i i t t g h k k l.k g j t : $ . . . . .   O - 8 A v x.x.k h.d k x.x.x.E.v.v.v.v.v.R.v.c.j.x.x.l.R.R.R.R.c.x.E.V.eXv.v.8XT.E.eXtXI._ W _ L.x.x.l.l.k.E.v.c.M.m.j.j.x.V.oXM.v.V.V.VXZXC.V.M.E.v.v.B.V.BXUXUXMXl.P.x.MXMXMXV.C.ZXC.V.v.v.v.v.M.M.j.C.v.v.v.v.c.c.v.v.x.l.L.K.K._ 0XgXyXqX8XP.L.l.E.eXeXv.v.R.R.R.R.K.c.K.k.c.v.v.v.v.c.k.c.v.U.v.z.l.d d h.v.x.b c a 2 - + .   . . . # $ $ 0 h i z h h t h h u q j p p j 4 t > > 0 q > q 0 : p ! s ! p u K u > : > 4 u 4 u u p u > 4 4 4 u > > p s s a a a 3 t 2 $ 2 y a a a :.A - + X % % ; = = & & % % % = = < < = m ..o.o.i.i.o..... . . .......8.o.%.%.%.%.%.8.8.9.%.%.%.-. . .0.0.-.0.-.+.-.&.&.5.T.OX+X,X4XW._ aX^ U [ T.] *.R R U ] { _ ` I.T.L.r 9 g K.l.L.z.P.7X) P.l p j ",
"j l j b ( ) 7X8XU.x.h.g g r K.U.U._ Q _ ^ ^ U / R U 5.R U J ] T.K.W.+X$X4X<XT.R &.u.8.-.0.0.-.X.-. . .+.-.-.-.%.%... .....7.-.o.......X... . .-.X. .8.%.m m < & & & & O % % X X % & * - o + 8 h P.qXwX7X9X4.:.C :.:.9X0X0XqX/ p i ! u 2 a a 4 4 4 u a 4 u a 4 2 u u u u 4 > u u u p u 4 u 0 > u > > u 2 u s i c b x i t d t d z k l P.j q 0 $ # . . . . o o % - f f f d d x.h.k k.l.eXeXx.x.x.v.v.c.v.x.v.x.k.k.R.x.j.x.j.x.x.eXrXeXE.eXeXx.z.8X` ! _ P.l.z.E.x.x.eXv.v.M.oXv.v.j.C.oXv.V.V.rXZXMXV.V.MXMXMXeXB.B.BXUXHXNXU.v.eXV.C.V.v.C.ZXZXC.V.M.M.C.M.j.j.V.M.v.v.E.v.v.v.V.x.z.z.P.P.L._ L.z.8XrXeXL.eXE.V.v.j.k.k.c.E.c.h.U.x.k.k.v.v.x.E.x.x.V.eXB.x.h.k l.h.h.k f v y * @ +   . . .   # # 0 i ( n i h i t i h 0 t z n i x z > > 0 $ 4 0 > > > > p i 4 p u q 4 i 4 4 4 2 4 a a 4 s s u 4 4 4 p 4 t p j p ;.qXqX0X) ~ c a :.:.>.>.wXyXn t $ X + ; = % = % % % % % % & = = < < N o.y.8....... . ...X...X...8.%.%.%...%.%.-.7.7.-.%.+...+.-.-.-.0.%.+.-.6.&.] T.<X4XOX<XY.Y.T.U U ^ 5.3.1.L ] U U / ( _ L.T.T.k.r g k.g x.U.tX7XP.b x j h ",
"b I.I.( ( L.( _ ( l g l k.E.tXT.T.Q W ^ K K E ^ ^ [ [ R S U 3.` T.Q.+X4X4XAX/.R &.u.0.%.6.lX-. .=.-.-.%...X.X...X.%.+.X.....%... .X. . . .+.%.B < = = < m < = & % O % % X % % O + ; -   @ y z.9XqXI.( ~ >.~ ~ @.wX~ / _ K E W E 4 p u 2 4 s 4 2 t a s c ~ c i 2 t i u t > > t i x 7X7X( z z x z i i z z s c n c P.) n x t t h z h t t r l r r 6 # . . o       . * f B.f d x.l.k f l.x.x.v.eX8Xv.x.x.x.x.v.v.v.x.v.v.x.j.j.x.x.x.x.V.V.x.B.B.B.B.v f A f x.x.j.B.E.E.E.E.v.M.v.v.v.MXC.V.MXV.C.V.V.C.VXZXBXMXV.V.eXyXyXeXrXeXV.MXBXZXVXVXrXC.C.C.C.C.C.MXoXv.v.v.v.v.E.E.E.eXeXv.x.x.z.v f x.z.B.B.B.8XV.eXv.v.x.v.j.x.j.k.v.k.k.R.R.x.x.x.x.v P.eXP.V.z.x.f d x.j.f f v a t - o   o   . . . # > 0 r l j t i s i t 2 u z z b P.n n z a z y i y i z i i n ) c s i > > 4 4 u i u 2 2 s a i u a a 2 4 4 s 4 u p q u W ^ _ { I.3.7X` s ;.,.! ` qXqX7Xc - $ X X ; ; + O % O X % % % % = = m M m < m N %. . .X. .X. . .%...%.%...+.....+.X.-.-.+.%.-.-. .0.i.%.%.0.lX*.Y aXgX4XOX4XOXU.{ 3.Y L ] 3.] Y Y U J J ^ W _ L.T.eXU.k g g K.k.I.L.7XI.b b P.",
"7X8X7XeXT.L.E E Q l K.E.tXtXE.L.Q W W ^ ^ P ! ^ ^ ^ [ U J P P K T.+XNXNXQ.).{ R =.-.-.%.0.lXX.D +.6.u.0.o.N  .X.-.%.+.%.-.%.-... .-...-.-.%.N m = = * % * = % * * - - + X O + X X @ - + y yXyX7XE Q ~ ~ ~ s a s ~ ~ s u q q W W : P L i 4 2 u a ;.c >.>.>.8X>.n s x i i i t u j v ) 7Xn x x z f z y i i t h x n n c n v z v z y t t u 0 r r Q l 6 $ . + o       + - y j.x.f h.j.k.h.k.h.h.h.x.x.x.V.v.x.x.x.j.v.v.v.v.v.v.E.x.v.j.v.v.B.V.B.9XB.A A B.j.x.x.x.V.z.l.x.x.E.E.v.V.M.MXeXC.MXC.C.MXVXrXC.C.rXrXV.rXrXrX8XrXBXMXV.C.MXrXC.rXC.rXrXC.MXC.C.C.MXv.v.v.E.v.x.v.v.v.v.v.x.z.z.z.B.B.B.8XB.B.V.B.j.x.v.v.M.v.v.v.x.v.v.x.x.x.v.x.V.x.B.x.x.l.k x.j.f d x.x.j.v f 3 * o     X o . . # 0 g Q g w u 0 t t i z i i b b ) n b c z i y z y z i z z x n 7X7Xn i t 0 > t u y z s >.,.:.>.c c s 2 3 4 5 4 u u q W W p q p E ` 3.;.s L P ~ ~ ! ) I.qXtXy + + ; % X % O X O * % % = = % = = & = = m  .+.-.X. .-...X.%.%.%.....-.%.X. . .+.-.6.0.6. . .-.u.-...-.6.=.Y aX).<X4XOXQ.Q.P Y D J U ] { ^ U L J U W W W K.U.eXtXeXL.l r W Q ( ( U.I.8XI.",
"8X8XtX7XU.Q j W L.K.E.NXtXE.K.l Q T._ E E ] _ ^ E ^ E K K P p p U.tXAXAXgXQ.1.=.u.-.+.<.lXu. .5 +.0.lXu.-. ...-.%.X.%.+.%.+.B N 1  .%.%.N < = = & = = * ; = % % % ; % X X % X + X $ - x yXSXqXg u u p p P c a I I 4.~ u q u q u u u u 4 i t a s c c c x x v x x ) z h z h t t i t j n c x x z i z a z c z h x x x ) 7Xn c x z t 2 t t 0 r q r _ g 0 # . . o     o o $ f x.f j.j.j.p.d.k.k.c.c.c.k.x.E.v.x.j.h.x.j.c.E.v.E.v.v.v.v.x.x.V.B.B.B.B.B.B.f B.B.x.j.V.x.x.x.v.v.eXC.rXBXVXMXVXVXrXMXMXrXrXC.rXrXMXV.9XrX8XA 8XrXrXrXrXrXrXrXC.C.VXrXC.BXMXC.MXVXMXoXE.v.v.V.j.x.P.v.x.x.x.v A B.B.B.B.8XB.z.x.c.v.v.M.v.v.v.v.v.x.k.k.j.x.V.V.v.v.v.j.h.k.d.k.h.h.h.k.h.x.z y - o     . + . . # > Q Q r u 0 0 t t t i c z x P.7X7Xn x z i z z z z z i c b ( ( c h i i t u h x i x n ) c ) >.) ~ ) >.~ i 4 4 u i u u E p q > u p ~ I s I s s ~ ! p i j 7XLX9Xi - @ + + O X X X % * ; % % = = = = & & = < B %.+.-.0.+. .%.%.7.%...%.+.-.X. . .-.0.lX-.D D X.u.0.X.%.0.t.#.5.T.).HX+XtXI.u s P K K E ^ K P Y ^ K J W _ K.K.L.tXtXtXU.K.Q l Q l P.tXqXI.",
"7XqXqX( g j Q Q U.T.gXtXL.g l ( T._ E E ^ _ ] ^ ^ ^ Q E E l s E W T.Q.hXyX0X+.+.y.8.%.0.zXlX+. .+.t.u.u.0.-.%.-.........N < = & & = < < * & % % & = = % % ; * % % - - + % % o @ 2 y i tXhXqXE g K j u u s ;.>.;.;.9X:.i u u u 0 p t t 4 i t t t t i i x z x j h ) h h k g t 0 d i h k h t i i i i i x x i t i h h c ) x z h z i u t > u E u q j W j : # . .   o +   + 8 f j.j.j.c.c.a.d.d.c.m.g.a.k.x.x.E.x.x.h.k.k.c.c.v.M.M.M.v.v.x.f j.B.B.B.B.B.A B.B.B.B.V.V.E.v.v.eXeXVXrXBXMXVXrXMXMXC.rXrXrXrXrXrXrX9XV.A A A >.B.B.9XrXBXrXrXV.rXrXMXC.rXVXMXBXVXBXMXMXv.V.V.V.v.v.B.z.B.v A B.V B.V B.B.l.x.j.v.v.v.c.oXv.v.v.k.c.j.j.x.x.v.V.j.h.c.c.m.g.d.a.a.g.g.g.d k i $ o o o X . . . # > E K.g q h h t d t t y v x z c n x z i i i z c z i f h i t j n b h t t 0 t j h i b b z z i z h z i i i t y y t i i u q q u u p ~ 4.4.a I ~ s p j p u u ) qXSXwXt t - + X X + + % ; ; X % * = % * = & % % & * < N 1 , = < 5 B ..%... ...-.%.%.0.zXi.6. .D X.i.i.8.%.6.lX#.;.qXqXDXgXT.( p P p E E W _ ^ ^ { [ W W W T.I.Q l l U.NXtXQ.K.Q Q g E I.tXT.",
"yXyX0Xg q g _ Y.L.Q.tXL.r j K.T.K.E E I.{ ! U ] ^ _ Q Q l l x ~ U [ T.qXwX9X%.+.8.X.-.zXuXlX0.X.-.u.6.-.6.-.%.%.8.o...m = = % % % % % % + % % % & ; ; O O % % % - - 2 y a y a a ) wX( ! I._ Q _ ! ! p u s ~ ,.,.,.>.s a i s h x x x b z t t t 0 t i c z x ( b h l h h h g h h g g t q t t j n ) c x c c i u z ) I.x c ( b x x i i z t 2 p P K G H K.K.q > .   @ o   X $ d x.j.a.g.].XX].g.g.n.a.a.j.c.c.E.E.v.k.l.k.x.c.v.v.M.v.v.V.x.j.j.f B.j.B.B.f V.V.V.9XV.V.V.MXV.C.rXC.C.eXMXrXV.V.rXrXrXrXrXrXrXrX9XV.9XA V A :.A B.9XB.rXV.rXrXrXrXrXrXrXV.rXC.rXMXrXMXC.V.V.rXV.V.V.V.B.A V B.V B.B.B.v x.j.x.v.E.v.v.E.v.v.j.j.v.v.v.V.v.k.k.k.a.a.n.].g.g.g.G.g.g.a.k.z t @   o + . # . # u W W W g j ( u t i h t f v n x x x ~ s x t t i z x h x x h i 0 t h h h d d h l h g h b h ( b l b x d 0 0 t t t i h s h i i u i a I ;.:.#.;.>.s u i x ! x ( j qX0Xv ` >.i 2 - t 2 * - - o * & O X * < % % % % % % & & O & O % = < +.o.X.-.%.-.8.0.0.0.t.-. .u.u.y.u.-.-.0.+.@.wXwX0X0X7XK ! ! g W Q Q I._ { _ E [ _ E W L.I.Q g W U.tXtXK.K.W E q r T.hX",
"hXT._ E j W K.U.K.T.I.W j _ T.I.E Q T.I._ E U ^ ^ Q l l.l b ) ,.5.5.wX<.9.<.7.8.-.o.0.xX6.6.u.=.t.u.-. .%.%.8.q.8.%.N = & = % X % % % % % % % V ; ; ; X X O 2 3 y y a :.7X>.>.7X` qXE u _ ` E ( j p 4 t c 4.4.:.4.>.c c x x c ) z n z.b d t t t 0 t h t 0 u u g h h h g i d h 0 d 0 0 i b I.I.,.) ) 7X) x j ~ ) 7X) ) ) ( x c x i z i i c ! u q q H Y.K.g $ o o X o o + - k j.g.a.g.].{.].g.f.a.c.g.g.a.h.c.R.E.E.x.x.x.j.v.v.v.v.x.x.V.V.V j.V A B.B.B.V.pXrXrXrXMXMXrXrXrXrXrXV.rXrXeXV.rXZXV.rXrXrXV.9XB.V B.>.A A 9X<.A A 9X9XB.V.rXrXpXrXrXrXrXV.rXrXeXrXrXrXrXrXC.rXrXV.rXV.B.B.B.f V f V x.B.x.x.v.v.v.E.v.v.x.x.v.v.v.M.v.v.k.d.g.d.a.g.g.n.].$XXXs.a.d.l i $ .   o + o . 0 g _ W r r q ! ! h t i f z n n b b ) ) >.,.,.x x ) P.>.P.P.P.7XI.j 0 > 0 d 0 b g g j h h h h b h i h h i t t d y t v z.v b n b c c s a c ;.>.,.,.I i t i x ) x x I.p x qX0X,.>.c >.8Xz t t 2 - @ X X * ; = ; = % % % % % O % % * = O m %.8.8.-.7.7.%.%.0.lX=.=.u.8.8.i.-.-.-.9.<.$.wX2.1.qX] ` Q g l K.l L.( I.Q W T.T.^ W W T.Y.W g Q T.Q.K.K._ Q r q _ tX",
"qX! E _ _ Y.T.Q.U.Q Q _ { I.T.Q ( T.I.Q E _ _ _ ( Q K.l.l.P.,.;.*.=.2.$.<.7.8.o.%.8.lXlX2.-.u.-.u.lX-.N %.7.w.zX7.m < & % ; % O + * ; % % % + 3 - o * + $ y 8X8X7X~ I.7X` E p j ! ! ! x I.I.x x j i u t ~ 7X7X,.,.>.~ ) >.v h b k b n b h t d t 0 t t q t i j b b h h l h g g t g i h j E x p i x x c ! i t u u u i p x i u x ) b i i >.) x q q q e r A.K.g 0 . . o o   o > g A.s.G.f.'.].f.a.m.n.n.g.a.g.g.c.v.v.V.v.B.x.B.x.z.j.B.x.V.V.V.B.j.V B.B.V 9XV.B.V.rXrXV.rXrXrXV.rXrXV.V.rX9XrXrX9XV.9XV V.V B.B.9XB.A 9X<.A A A B.B.9XB.9XrXrXrXrXrXrXrXrXrXV.V.rXC.rXrXrXC.rXrXV.rXV.B.B.V.B.f j.B.V.x.x.x.j.x.x.x.v.x.x.v.v.v.v.c.g.a.d.d.A.d.a.g.b.|.'.f.s.d.K.0 $ o . o o # # $ l K.W q r r q i b n x i z v P.b x x ( x p s p p i s c b c x x j ) L.l h h h i d 0 0 k h h i h h i t t 0 0 t t f t t l.P.v b n z x n ~ ;.;.,.4.0X7X) i i i s ( x I.7Xp ! _ ( ! ` ! I.0X` ! ( c v a $ X % - - y ; % * % * ; * X X * , & , m  .-.i.8.7.B N 0.xX6.-.u.-.-.i.u.8.%.q.0.%.<.6.2.4.4./ _ Q K.L.l.l L.K.T._ Q _ ` I.W _ _ T.K.Q K.L.U.T.Y.T.W W W _ ",
"T.W W T.Q.T.Q.Q.Y.g q [ T.{ W Q T.Q E Q I.L._ P.Q.U.U.eX8X8X4.C @.@.<.Z <.7.8.B X.u.u.lX-.+.0.u.zXcX-.%.%.q.i.zX..< = O % * + O + % O + * -   + +   t f P.8XwX7X_ _ ( ! p 4 q u ! p ` ( c ) ! n ~ c s p s x ~ ` x ` c x ) h t b l.b P.b t 0 t t i i i b ( x ) ` I.n P.I.b L.L.b h g h i t 2 u s >.~ x s u u i t u p p u q t p j ) b z c ) ( j q r r H r r l.h $ . o @ o . . > W K.].f.f.f.f.d.R.m.n.a.g.g.g.a.c.j.x.v.x.B.B.B.x.B.f x.B.V.V.B.B.V.V.V.V.B.B.B.V.V.V V.rXV.9XrXrXB.V.V.rXrX9XB.B.V 9XV.V B.9XB.B.A A A B.A A :.9XV B.V B.B.B.B.9XrXrX9XV.rXrXrXV.V.V.V.rXV.rXrXV.V.B.B.9XV.B.B.B.V.V.B.x.x.x.x.x.x.x.v.x.v.v.c.c.g.g.a.a.a.R.R.c.a.f.f.f.g.G.K.h > .   + $ X . $ l Q H r H q q g j ( ) z i n >.x x > t p p u u u u 0 u s ~ x s s t u u i j h k b b b b ( n ( P.I.b x h h i i t 0 0 d t k z.z.b b z h x ) c c ;.) >.,.~ i i s x c x ) ) _ I.! ! p 4 q p ! _ I.0XI.tX8Xc t - + X % % % - * + * % X O * % & O < m 8.cX8.o.o.B 0.cXlX6.6...-.lXu.8...Z 0.7. .%.$.O./ / I._ I.U.P.l.U.L.U.L.L.Q Q _ { W W T.T._ j j L.T.Q.T.T.Q.K.H ",
"W K.W ' T.Q.Q.T.g W W [ ^ W I.T.T.j Q Q K.K.K.E.E.eXtX8XwX:.:.$.+.%.<.%.9.0.%.N ..0.lXu.6.-.-.0.lXw.8.7.w.i.w.B = % * & O * - 2 - 2 @ @ $ @ # @ t h 8XtXP.L.l l u q q E W p q E j u i ~ ) A c c n x c z i i i j ( i x 7X( b h h h g l ( P.l j c i x i ! ~ i i s x x x b b j i 0 > $ 0 t u u s ;.qX4.7X,.;.` ! ! p j s j p u u u z ) 7Xv h L.L.g g r r q 9 r K.w # @ @ o O @ # : r G.G.F.F.g.A.G.g.g.s.c.g.a.d.c.c.k.k.h.k.P.z.B.B.j.B.z.v x.B.B.B.rX9XB.B.B.B.V V rXB.9X9XrX9XV.V.B.rXV.B.B.B.V B.9XA 8XB.A 8XB.A B.8X8XA n A 8XA B.A B.A B.B.B.V.V.V.9XV.9XV.rXV.rXB.9XV.V V V.B.V.B.V.rXrXV.B.B.B.B.f x.z.x.z.eXL.k.k.k.k.d.k.a.g.c.a.g.E.R.g.G.F.f.f.G.K.g $ @ o o $ $   # p W q q r g q q l b ( b x ) ) s 4 u u u u p p j p x s / >.>.,.,.~ u u u t 0 0 t i j b P.) ) ( ) ) x x ) ) z i x i h h j l.b b l.k h j n P.x h ! x j p i i ) ) b x c ) ) ! x u p ! 4 q p K p p g E L.( I.rXz.f 8 + + X @ + o @ - @ - * O O & * = N 8.i.i.q...-.cXu.u.-.<.-.u.zXu.B B %.0.7.+.%.<.#.;.,.,.qX7X8XI.tXU.K.K.I.g W E T.' _ _ T.I.Q Q E T.Q./.gXT.W Q ",
"E Y.W W T.).Q.K.Q T._ ^ T ^ T.T.W r W T.Q.U.E.E.NXeX7X,.:.$.-.<.%.Z Z %.0.lX%. .+.=.0.-.6.8.-.-.8.u.w.i.w.q.o.= O X * , 2 y a @.C a a s a t i b 8XtXtXL.l.g w k.r g p g u q q u u j ! ) ) >.>.c z t i i i u u ( I.E j l ( l i 0 u h l _ 7XP.j i u t > t t > > 2 t i u t > $ $ 0 0 > 2 i ~ ;.;.Y ,.4.4.,.,.,.` ~ ! ! ! ! E ! ! x s ( ) b b z.P.L.g q q q q r W r q # . o o o . @ : H A.A.F.s.G.Z.s.f.g.d.g.d.c.A.d.A.A.K.K.k.l l.f A z.z.z.B.B.B.9XB.B.A B.V B.9.V 9XB.B.B.B.B.B.8XV.9XrX9XB.8XB.V B.A B.8XB.rX8XrXeXB.V.eX8XV.8X9XA B.A B.9XB.B.V rXV.V.B.B.B.B.B.9XB.9XV V.B.V.9.B.V B.9XV.B.B.A x.B.x.v x.l.P.k l g l l A.A.G.a.g.c.d.a.g.g.R.f.f.F.F.H q : @   o @ . # $ 0 W r q 9 q r g l n L.l k ) >.! i p s K E E E ! b ( ` ,.:.,.4.wX4.~ ! ~ ! 2 > $ $ > $ > t u i i t 4 2 > 4 t t 4 i h x L.I.U.l l h 0 d b P.L.l j ) ( u i u i i i x c x ) >.) x p u u u 4 K u p r u g g g l U.eXtX8Xv 8 @ 2 2 2 3 y a y y , - & & O O ..q.q.o.w.i.u.-.-.0.-.6.0.uX<. .B %.uX0.Z %.Z <.<.<.:.:.7XqXeXeXU.R.K.Q.L.j j _ T.{ ^ W _ _ ( ( W T.Q.Q.K.Q Y.",
"H Y.W Y.).).T.Y.W T.[ ^ J W T.Y.W q K.Q.+XQ.+X+XCXtX:.:.$.+.%.%.Z Z 7.%.0.6.+.-.%.%.-.0.0.0.u...N 7.zXzXq...m = % X - a >.~ ;.;.I ~ / ,.0X` ` 0X( L.L.K.k.g r g j l j u j x ( _ ~ ` ,.) ,.7X>.i i i x b h j i u E ( I.j P.( l l L.E g E ( ( i 0 t u u i s s u i s s c x u t t j ) ! s s P I L a ;.4.4.3.,.,.,.` ! P j ! j ! ( ! ~ P ! ( ( l.b b b u u q q r r q _ i > $ X + . o # 0 H H e s.Z.s.s.g.d.s.s.s.A.A.D.A.A.A.A.K.A.K.k l ( P.z.A B.B.B.B.V B.V B.9X9XB.B.B.9X8X8XB.V.8Xz.z.z.B.z.B.8XV.B.B.8X8X8X8XrXeXB.x.z.eXeXeX8X8X8X7X8XB.B.B.z.V.B.V.B.B.V.rXB.B.8X9X9XV.B.V 9.B.V A B.B.9X9XV.B.B.B.v b l k Q K.W K.K.A.A.D.A.d.g.f.g.g.a.f.b.F.Z.Z.G q : O O o o . # > g E q q q q 9 w l l.L.l l.( b ( ! ! P K K K K E j ( ) ,.;.:.2.2.:.#.a I ~ ~ p u i h t > t t i s p 4 2 2 4 4 4 4 2 2 4 u Q I.Q u l l t h Q Q b ( L.I.E t g u j j i i i c 7X7X7X) c c ! p u s u u j g g g g l k.U.U.U.7X,.~ ,.,.;.~ >.c >.c c a , & X O < ..q.q.i.i.X...-.6.0.0.0.<.%.-.+.-.0.0.%.Z Z Z %.<.%.V :.0XtXQ.Q.Q.E.gXtXK.q Q T.T.W E [ I.I._ K.T.tXQ.Y.W Y.",
"W T.Q.).AXQ.Y.W _ [ [ [ ^ _ [ _ _ H W ).+XR.+XHXUXyX:.2.%.%.%.%.Z 9.9.<.%.+.+.0.-.%.9.lXi.i.u.8.%.q.w.w.B m = & * * a >.,.I c I P P P / ` ! E g g q Q L.r r k.r l ( ) P.P.I.! x b ! x ! ( 7XI.) ( z b i 0 0 i u j L.0X( L.Q ` Q I.Q u 0 q j p p ! x ! s ! ,.s a c I ~ ) ) n ) I.P.) ! u 4 s P I ;.:.:.;.Y ;./ / ` ! P ! ( ! ( ` / / ) ` L.( l.b ) b p u u q q e r K.b $ + + o o o > u W G G s.Z.A.G.F.A.A.G Z.D.^.H H D.W Y.K.g l.l l ( b 8X8XB.B.V B.A V A V B.V B.B.B.z.8XB.8XeXE.U.l.l.B.eXeXV.B.rXeX8X8XB.l.B.z.z.x.V.B.B.8XrX8XrX8XP.B.eXeXV.B.j.A 8XV.V.B.) ) 7X8XB.V 9XB.B.V A V A A B.B.>.v n l.l Q l K.K.K.W A.A.A.J.Z.Z.s.e G.].f.f.s.s.Z.G G q @ o X @ . o 0 l l r q q G q g l l.l.l b U.P.( ( ) ! U P ! P E E ( I.7X;.;.;.:.4.2.I L L u u P ) P.` L.x s s ~ ~ ~ s u u ` / s s ! i u u j j u g I.U.Q L.L.( L.I.U.Q 0 u u u j x i i j ) 7X>.) ) ) ) ) c ~ ~ x Q ( Q g q r g K.K.g r Q ( ! 3.` I ~ ~ I ;.~ >.:.c , O * < < M w.i.w.....-.u.lXzX0.%.%.9.6.$.-.8.9.7.<.Z 7.7.7.<.$.:.qXFXNXQ.E.+XgXY.r W W _ ^ ^ ` { { E K.T.).gXQ.Y.Y.",
"Y.Y.Q.Q.Q.Q.Y.W [ [ [ ^ [ T.T._ ' H H W.W.R.+XKXUXwX2.0.%...Z %.7.9.7.%.+.-.-.%.%.%.%.w.zXi.8.u.8.7.q.Z m = = O @ 5 9X,.I 4 s L L J 4 p P p u q j r l k.q w K.L.l.P.I.P.I.P.x i p i x ( ! ( I.0XI.i u p u t u ) ) j ( ! ( p ! 0 0 u u 0 u ! ( ~ ( ! P i p ,.~ s ~ ! s s j x ( b x j u u p I Y P $.:.4.2.;.;.;.` / s ! ) _ ) ` ` / / ) ` I.L.P.L.b ) ( x E u q r q r l x 8 +   + . @ 4 J [ H H D.Z.Z.Z.S.S.S.S.~.D.H H K.K.K.K.r K.Q Q E j n >.A f A V A V A A 9X8X7XqX8XeXU.E.U.eXMXeXeXE.rXMXV.eXB.eXP.z.8Xz.n 8X8XV.B.B.z.z.B.8X8XeXeX8XeXeXyXeXv.P.E.eXE.z.U.U.P.I.8XA 8X>.V V C A V a A A B.n x b Q Q L.Q K.W A.H A.S.D.D.S.S.S.Z.Z.Z.F.F.Z.Z.G G S : @ .   . # 0 k.K.q q q q u g Q l.U.l.l.L.L.P.I.I.` ( ` _ / _ ! E ( ` >.~ ;.:.2.4.2.#.;.Y s 4 u i j ( ) ) x x ! ! ~ ! P P ` / u s ~ ~ ~ j j u > u p j p Q ( _ I.I.( ( j u q > u p i ( 7X7XI.c ! ) c h x s >.7X7XI.I.L.l k r 0 g L.g r g q u _ ^ u a s L P s s ~ :.@.* @ & & m B o.q.q.8.u.u.lXzXlX%.%.<.6.-.%...%.9.9.Z 9.Z Z q.6.$.qXKXKX+XR.W.Q.A.H ' ' T.T.] ] { ^ ^ W W ).AX).Q.Q.",
"H Y.Y.Y.Q.).' W T.e.^ J ^ T.[ H T.' A.OX<X+X<XHXgXwX6.%.%.B Z 7.9.q.-...%.-.-.%.%.7.%.9.cX8. .o.B B m m = = & O , >.4.I / p L s K 4 4 K / p p j u L.( L.l.k.k.L.L.b b k n n n ) x i j ) ( E Q I.( Q ( ` ` ! p p ` > > ! ( p ! u > u u p x ! E ! u p P p ! 0X` P s s s p x ! b ! x j u u P / Y L #.$.4.4.4.;.3.4./ ! ! ! ! x ( x ,.>.~ ( ( L.L.l.k.l.L.b Q u q J r 9 r K.b 7 . . o @ @ S ] 5././.W H e G S.D.!.^.S.D.D.W W W W Q W Q l l b ( n z n A A f f A 9XB.8XeXeXrXeXeXeXE.eXeXE.E.z.eXeXB.x.x.x.x.B.8X8X8XeXrXeXrXeX8XB.V.x.x.x.z.B.B.E.eXeXeXeXrXMXeXE.eXeXeXeXtXeX9X8X8XA V C v A A A B.) x x l Q Q r W K.W ' A.D.D.~.J.S.D.S.G e G D.Y.| T L 4 @ o . . . > j Q r e q G q p ( L.L.l.l.U.( L.( L.I.I.) _ ! ( ! E x ~ ) ,.;.;.;.2.4.$.@.I Y Y K u u j l b ) ! x x x ! P P / ~ s u p s j ) ~ ! i u q 0 > q p j x ( p u _ ~ g p h l ( j ( 7X) ) ( ) ( i i x x n n ( n z.U.P.U.l.g g l Q j u E u ~ ^ K 4 4 J u P P I ;.9X3 O O = = m M M o.o.-.-.zXzX0.%.%.%.%.-.%.%.%.%.9.9.7.Z M 7.<.6.wXSXHXGXQ.OXW.H H Y.[ T.qX{ U [ aX[ Y.K.Q.Q.Y.Y.T.",
"W Y.W.W.Q.Q.' E [ /.[ u _ T.W J ' Y.A.<X4X4XGXjX3.6.u...%.B 9.q.%.8.%.%...%.7.%.%.9.%.0.zXw. ...m m < = = & & * C :.I a ;.P p 4 P P p P P p p p i I.U.I.8Xl.h d h h b b P.b b c i t t j x ( _ ! _ T.I.j ! ~ i u s 4 > s ~ ! 0X0X! ! ! ! E p p p u p ! P p ~ ` u u u s ! j x j Q ( j K u u P U ;.#.$.2.6.4.4.0XwX3.` ` ` ) ( ) ( 8XP.P.b ( ( b k.x.L.l.l.( j u u 9 9 e q g g 7   @ o @ , 5 t.xXt.aXT.' ' Y.^.D.D.S.D.J.Z.A.H Q r Q g l j b n n z c A A v v A >.n 8XB.V.eXeXU.v.x.v.v.x.j.x.x.x.x.j.x.V.rXyXeX8XB.B.B.B.B.9XV.B.9XrXV.V.x.x.j.j.B.l.x.V.v.v.V.v.eXeXeXrXeX8X8XB.B.A z f c A v v n b j j j l K.l K.H H H A.D.Z.D.~.Z.D.A.H W T.| e.fXX.< , @ X . # # K W r 9 e q q p p b P.L.l.k.K.j ( ( x ( 7XI.( ( ( _ ` / ` ,.wXwX4.4.4.2.;.#.Y P P P u j ( ( b b x x j p p p u 3./ s P ! p u p ! x ! ! s p u ! _ ! P p > > p u u ( _ I.I.` ` ( j ( ( b h t i b ( L.b l k h k k d l z.P.) ) c u p q p P s L u L 4 S / / P :.@., O = = = m m m ..%. .i.cX8.Z %.%.%.%.%.o.%...6.9.9.9.M 7.Z uXsXtXAXGX<X<X<XA.D.D.H E [ ^ u U /./.K.K./.Q.K.Y.Q.",
"Y.Y.<X<XAX).W ' R [ R T qXT.J G ' H A.,X+X+XAXaX5.lXu.N %.7.iX0.%.%.%.8.8.B ..%.Z 7.7.w.zXi...B m = m m = O & a :.4.L 4 #.4 4 p u P s 4 u ! ,.I.) 7Xb b b b P.k g k l b b h i h z z p p x ` 0XI.0X0X^ u ! ! u p x / u u ~ / 0X3.) ~ ! ! x p u p u ! K u q u ! p / / ` ^ ~ ! ) ( ( ( E u u 4 P ;.#.;.:.2.1.2.4.wX,.,.,.,.) ` I.I.P.P.P.I.P.L.l.l.x.R.x.k.b P.^ q : G 9 9 r g > # . . @ * & -.cXy.fXxXfXkXkXgX).G A.D.A.G G A.H r K.Q Q x ( ) >.c z A A n A B.A B.B.V.V.eXv.v.v.j.x.x.v.v.B.x.x.V.V.rXrXBX9XA A n A C f f B.A A B.V.ZXBXeXV.x.f x.x.x.x.x.x.x.v.x.v.v.eXv.V.x.f B.A A c A >.z z n ) x ( l l K.g K.K.H r Y.D.H G D.).).gXaXdXfXr.y.y.N * & O . # # q r r e q 9 q g ! b v b l.L.L.g L.) ( P.P.P.L.P.( ( ) ,.,.,.4.wX4.:.2.4.2.;.Y Y L u q u p E x l l ! x ! x P p u ^ p u u P i u u u u s P / ~ ! ` qX` ` K > 4 ! t t ! ! s ( 7XqX` I.` l u u u u g g l l L.L.k l k k k n 7X8X7X>.) E j ! p 4 U L p J 4 P / 4 ;.4.a * O % = M = = B .. .0.zX0.%.-.%.7.%...8.8.%.%.Z w.w.Z Z N zXsXqXSX<X<X<X,XA.Y.' H J T.{ J T 5.T.' W ).).).Q.(.",
"K.W.).).AXT.W ' U T T ^ T.T.W F G D.,X$X+XGXgX3.5.lX0.Z 0.u.8.7.%.X.%.%.%.C %.%.8.%...o.8.zXw.m = = = = ; % 2 4.4.L a L Y K 4 J u u a L U ~ ! s z h k k z.x.U.k 0 d q g b b L.7X) ) ) ) ~ ~ ) ~ s ;.~ ~ ~ ,.` ` ` qXP u u P I ` ~ ~ ! ! ! ^ P U p 4 u J 4 p Y / 4.5.0X3./ ,.,.~ ` ` / ! / / / / 1.#.1.2.3.4.4.,.;.~ @.,.,.,./ ` 7XI.P.) n P.L.l.k.x.x.k.l.l.b l q 9 q 9 : G j 0 . . @ @ o 1 i.cXy.xXu.mXIXkXkX/.Y.Y.H e H K.H Q Q ( ( ( ~ ( ) ) >.7X8XB.B.rXyXyXrXrXeXeXx.j.x.k.j.eXrXV.V.V.rXrXrXrX8Xc z a C A A c y A f V A A A B.rXyXyXeX8XeXV.V.V.C.V.j.j.V.B.V.eXV.8X8XrX9XB.9XA A B.n x 7X/ ( ! ! Q l Q g K.r r H ' Y.Y./.fXPXnXmXcXxXy.cXy.@ , @ o   . h G q 9 9 e q r l U.b l l.l.K.l.L.P.P.P.P.P.I.I.` ` ,.,.;.~ ;.4.4.4.2.2.2.1.Y Y Y U K u K ^ ) / ) ` ~ ~ / 3.4.3.P P 4 4 4 K p J P K s P P p s / 3.3.Y s u s ` ~ ! s / c u ~ ,.>.,.0X7Xx ( ) j b j b j k l.l d k g l.P.z.z z v x >.,.) s s u L P 5 S 4 u P P P / 4.c @ o 3 N = = = B q.zXi.7...%.%.%.Z %.%.-.-.+.%.q.w.w.7.N w.bX5.qXgXJXOX,XJ.D.G G q [ aX^ R [ [ _ Y.T.gXDX).W.",
"R.W.(.Y./.L.g _ [ U J J / T.W G } ^.OX3X%XKXjX5.lXzX<.%.0.0.7.8.-.%.X.%.%.Z %.7.8.......8.w.Z = = = % % * y :.3.a I L a 5 K u 4 P I P p a p s p x n z.P.P.k l h 0 g h ( L.( ( 7XI.~ s p i s I s s ;.,.,.3.0X0X` ( { ! p P s P / / / / / P P J u u J L I 5 a ;.2.;.Y 1.2.;.I / ~ ;.,.` 3.3.] ] R ;.@.Y ;.;.1.4.4.4.;.~ >.,.` ! ^ ! _ I.I.) ) z.l.l.v.E.E.k.k k l.j r r q : q J p # . o @ o < i.i.cXcXu.xXlXfXkXdX[ W J H W W W g ! ( ( ) ~ ! ( ~ >.8X8X8X9X9X9XrXrXeXrXeXV.B.x.x.x.rXrXrXV.8XrX8XB.B.z z A A A A A V A 9XA A A A V f f A rXrXrXV.V.rXrXrXC.V j.V.j.v.eXrXrXrXrXyXrX8X8X8X8X7X) ) ! ! ! ( L.Q K.K.K.Q W H W ' /.kXnXnXmXvXy.y.i.i. .@ @ @ . . $ j F 9 : q q q k l.l.k.l.L.L.k.l.l.z.z.( P.I.I.) ! / ,.,.~ I #.:.2.4.2.:.#.$.#.*.] 1.{ / ] / / / ~ ;./ ,.4.4.1.2.1.#.4 4 K L 4 u P K U ^ P Y / / / ~ s u u ! 0XI.` 3.3.;.;.,.;.s c >.c s x ! ) I.0XI.L.( l j w 0 0 l.l.z.l.n v z i s s ~ I a p K u u u U I P K U / :.5 * * * % = = m q.i.7...%.-.9.<.%.Z %... ...8.8.7.0.9.Z 9.cX6.{ DXKXOX,X,X~.} F J T.0X^ K ] E W W K.).).Q.W.",
"R.Q.Y.Y.Q.Y.p ! U e.] u ^ 0X^ G D.D.{.%X4XHXkXe.lXu.7.0.0.8.8.8.8.X. ...%.%.6.7.%.....X.7.7.= = = = & & 3 ~ ,.,.L a 5 a s s P ! ` s u 4 p x ~ ( ) n b b h h k l b ( b ( ( i i x ~ x s s s ~ I a ;.0X4.3.,.` ! ! ! ~ ^ ! ! P / / P ~ / Y P P K P P P Y #.#.4.6.2.@.I ;.4.2.L a I ;.;.;.;.1.Y L L L L L I $.2.6.6.4.;.Y ;.3./ ~ P p ! ` ` ) ` ) b l x.E.E.x.x.l.P.l g q q : : F E u # . o O @ 5 0.cXxXt.sXe.aXkXaXW W E H W W l j ( ) ) ` ~ x ~ >.>.8X8X9X9X8XB.9X9X9XV.8XV.B.B.B.B.V.V.B.A B.B.B.n A 9X9X:.A :.A v V A A A A V <.A A >.v v A A 8XB.B.V.rXrXV.f B.B.B.V.rX9XrX9X9X9X9XB.8X8X8X) x ! ! ~ _ ( ( j j K.W W H W W aXkXfXaXsXsXxXcXcX8.< % o . . @ j W G 9 q r g h l.L.k l.U.E.K.l.l.b P.) ) P.) ( ! ^ ~ ,.4.;.#.;.2.4.2.2.$.@.@.Y Y Y / 1.3.` ;.,.;.I I #.4.4.#.#.#.;.2.I L Y P s p P p P P ^ / ^ ^ s / ! ~ ! ! ^ ( ! ` 3.,.0X0X,.~ s s c a s s s ) ` j z b l.b l k k g j j b n P.n b ~ p i u p P ! s u a L P s 4 P I 4.:.a - % % = = = B q.......%.-.7.%.%.%. . .%.u.8.7.0.w.%.%.zXuXqXFXHX4X4XJ.D.G G ' { ^ p J ] { W W W Q.Y.Q.W.",
"k.W.W.U.).U.q p U e.5.J K T.^ F Y.D.G.4XCXAXjX6.lX0.%.0.u.u.8.i.-.%.+.+.%.%.0.-.......%.7.M = = % % * 3 ~ ;.,.;.I P 5 I I I ~ ,.I.p u t p ! ) c ) b l P.h h g j l j p i i p p ! ,.~ s ~ ;.4.;.c 4.wXqX,./ ! E ! ! K E ! P ! { ;.P I ! P / Y Y I Y I #.;.2.wX6.<.$.@.$.2.$.a D @.#.~ Y I L L L S D  .@.@.$.2.<.4.2.;./ ] 3.] / ! ^ ! P ~ ~ ` ) ( b l.l.x.E.x.U.x.l.l g q F : : : u : . . o   & N cXfXt.sX{ [ aX{ K P K E _ ! l x ( ~ c ~ ~ ~ >.8X>.A A 8X9XB.V A B.B.B.B.B.9.B.B.A A 9XV A >.A 9X>.rXpXpX<.A A A A c A V C A C :.A 9XpXwXA C :.B.B.A B.9XV B.B.B.B.V.B.8X9XB.A B.B.9X9X9XA >.>.>.~ ) ) ( ) ( l j E W J J W J [ aX| e.e.sXxXmX8.< % % @ . @ : E q : : q u g l L.x.l.v.U.x.l.l.l.L.P.` ` ` ! P ! ! ~ ;.;.;.#.;.5.4.2.<.$.I L O.L a P Y / ~ / :.;.C a C $.:.@.C @.2.wX6.:.;.#./ I I P K P / U s P / / ^ ^ ! E ! E ^ P ! / ,.3.wX4.~ ;.;.~ s a s P s u i p x ( l Q ( l w h l b L.P.( x ! s u 4 u ~ ,.I P s P s L a ;.,.:.C 3 = % = = = = 7.q.......%.0.7.%... .X.-.-.0.8.0.u.8.%.u.lXsXSXAX4X4XG.D.G W ' T.^ ! 1.5.{ E u E ).Y.Q.W.",
"d.K.R.Y.Q.L.g p / 5.] 4 ^ 0X' F ' D.{.4XGXAXaXsXu.%.7.0.i.y.i.y.-.&.-.+.%.-.0.8.....8.%.B = = = & O * a ,./ ~ / U I I :.:.,.c i x x x j i p x ( P.) U.7Xl j u u u t u i x ~ ,.,.4.,.I ;.I ;.;.;.,.qXqX3./ ! _ ` ! E p ! ~ / 3.3.3./ Y Y I ;.;.Y a O.$.$.$.$.2.<.<.$.$.6.@.@.O.I #.#.#.L Y O.Y L  .*.+.+.%.$.$.2.1.Y Y ] ] 1./ Y / U U I P / ,.) ( b l l.x.E.V.l.l.k i u q : : : 4 u # . o   X , 2.fX| | T.' W ^ K P P P / ! c c ~ c c ,.,.>.7X9X>.8X9X8X9XA B.A V B.A V B.9XB.V A V 9X>.A <.A <.<.9X9X9XA A >.A C c @.a C A C >.C 9XuXpX<.8X:.A A A 8X8XA a A A B.9XB.B.B.B.B.A B.9X9XB.A 8X4.8X>.>.>.~ ) ~ ! ! _ ` K J U J ] ] R | aX/.xXxXN % X X o . : J q : : F q q g b z.x.v.x.x.l.l.l.L.( ,.Y P ! / / / P / 1.:.;.Y #.2.2.$.2.$.O.@.#.@.L Y Y I Y @.;.#.@.a C @.2.:.$.6.<.6.2.<.:.:.;.>.I #.U / / / P / 3.3.P P K E ! E ^ ! K ^ { 0XwXwX~ ;.:.;.;.I I ,.,.I s p u u i g g l h j U.L.Q b ( p s ! p u u s ;./ ~ ;.I ;.a a ;.;.;.;.I ; % % % = = m %.o.%.....8.0.%.%.X.O.X.-.u.i.u.i.w.%.%.u.4.hXGXGX%XJ.W.Y.G W T.] P 3.qX3.p u W tXY.T.K.",
"a.w K.K.Q.I.x p U ] R P / 3.' q G D.W.4XGXNXqX5.i.8.7.0.u.u.y.u.-.X.-.=.%.0.0.7.N %.i...m % = % @ @ u ,.4.K u { Y s #.,.:.~ s u h j j x i i ( 7XqXI.( g u u i u p p p ! ` ,.,.,.,.;.;.:.@.#.#.;./ 4.0X,.` ` / ` ! U P ! ;.1.3.,.4.1.;.I I #.#.@.@.@.@.@.C @.@.<.<.2.-.<.$.@.@.L #.;.Y Y L R &.D R O.O.@.@.@.2.2.*.] ] ] ] ] Y ;.R Y R U L P / / ) ( l.l.z.z.B.x.x.b x i 4 S S 4 q U 4 . . o @ @ 5 t.| ' ' ' E P P a L L ~ c c x a c @.:.4.:.:.:.9X>.B.9X9XA A <.9XV A A B.9.V V V A V 9X9X9X:.A <.V <.A A A A c a a 5 I a @.A >.A :.9X9X9X<.<.A :.>.9X>.A A V V V B.V A A A A 9XA 8X9X8X8X:.9X:.>.,.>.~ ~ I s ! P / U p 4 J U U T ' | ' kX2., & % X . # q F q q q q q u h b x.x.E.P.l.l.l ( P.` I P L U / ] / Y / 1.1.*.#.#.1.*.#.$.#.#.O.O.O.L *.Y I / ;.#.#.@.+.@.%.<.<.$.<.-.<.$.@.@.@.@.a @.;.;.Y I / ;.3.1.3.{ ] E K K E ^ { ^ ^ 3.qX3.;.~ I ;.;.;.Y #.2.4.,.~ ~ s u u u u g u g ( L.( L.I.` p u u x ! x u s x ;.:.:.L L #.~ s ;.9XV - % % % = = m 7.q...B %.i.8.X.&.X.X.-.u.cXu.0.u.8...lX4.yXAXGX4XW.D.Y.J W qX/ 4 / 5.` P q _ tXW.K.H ",
"k.r K.K.U.L.` ~ P ] e.1.P { ^ G G J.OX4XGXAXT.6.lX7.8.zXu.u.u.-.-.&.-.-.+.0.0.-...7.q.N = = % % * 2 ,.wX/ > 4 { / s I ;.~ s x x I.x h i i s x I.8Xb x u u x p u P ! ^ ~ ` ,.;./ I I ;.,.>.~ #.I / ;.` ;.` / ^ / ~ / I I 1.1.1.2.2.;.#.I #.$.$.@.$.@.@.@.$.+.@.$.$.$.%.6.$.#.Y I / / U U U U U L L Y Y ] #.1.5.1.1.] 1.] 1.] ;.1./ Y R Y L L I U / ` ) n z.z.V.V.x.b x x p 4 q F : W u # o + + o 2 e./.G G H ( ! I L D a @.I s c a ;.;.:.:.:.:.>.>.:.9XB.B.A A A A 8XA A V B.V B.A A :.9X9X9X9XA V <.<.>.B.c x s Y L s ;.s s v n c A A V A <.:.9X9XqX9X:.a A :.9X9XV B.A A A A B.B.8X8X9X9X>.:.>.:.4.>.@.c s a L a I I L s L J K E ' ' ' fXu @ O O X o > q F F q u u p j x v z.P.B.z.x.( L.P.` / L Y Y Y U Y / ;.;.;.;.2.1.*.*.1.*.Y O.O.O.L L Y Y U U I I ;.#.I $.@.:.6.<.$.$.$.$.@.@.@.@.@.@.:.@.;.#.I #.3.4.;.;.1.3.! K ! ^ { ^ ^ / 3.3.;./ / I / I ;.#.I #.I ,.4.,.~ x x p u u u g i j I.T.qX) x i u i p x x s s ~ >.;.I I 2.Y u p qXwXy * & % = = < 7.w.7...8.w.8.%.-.&.&.r.u.u.t.u.i.o.%.cXwX7XNXGX4XW.A.H G _ T.] I 3.1.p ! K ` T.L.K.r ",
"Q.r A.K.W Q 0X0XU { qX] p _ T.' G (.OX%XGXHXI.wX0.+.7.zXnXu.t.&.-.-.y.u.-.8.u.0.0.8.B = % = % % @ i 0X,.K u K ] P ^ / ~ u i c x c p i s x x ~ ) ) ! ( u u ! / ! ~ ~ P s P P ! I ~ I / ;.I I I I ;.~ I / / ;.~ / I 3.P I ;.:.2.4.2.2.#.@.@.$.:.$.@.@.@.%.$.@.@.-.$.:.:.4.2.;.Y P U ^ ^ K W ^ [ R ^ ^ ] 5.{ 3.[ U { 1.] ;.;.;.#.1.1.U L L Y R Y L / / ! ) z.n B.8Xz.z z c K 4 F : F q q $ # X o   , 1./.' D.H E ! >.@.a @.#.@.c >.c #.>.;.>.:.,.>.>.8X8X9X<.8X<.B.A 9X>.V V V V A A 9X9XwX9XA <.V V $.A c c x p K K ! ^ hX` x x n c A A A <.V A :.>.yXwX9XB.V V V <.A V A <.<.A 9XA 9X>.>.8X>.>.,.A 8X:.~ ~ @.L a L L I a I / L P _ W H [ aX4 o O + % # 0 J q q q J u p x z b z.B.z.z.P.P.) / ~ P R L L U Y ] 1.;.1.;.;.2.1.1.] ] 5.1.] R R U L U U U U J U Y L L @.#.2.6.$.;.$.$.$.$.@.@.@.$.$.@.$.$.@.@.#.2.2.2.4.1.Y P U / P P / / ` / / / ;./ I I ~ 4.;./ I I ~ ;./ I ^ ! ~ ! u ( p q u ( ) ) ! ! ! s i i ~ I.c s u s I P a / { 4 4 I.wXA - @ % % % = m 7.o...7.i.-.X.u.r.-.X.&.t.u.zXzX7.%.lXwX7XGXGX4X,X(.G H ' _ ^ 1.qX3.^ ` ( I.K.K.K.r ",
"NXK.W H r j ! 0X! K { { ^ Q gXY.D.J.J.%XHXAXI.3.uX%.%.zXvXxXt.&.-.-.6.u.8.-.%.w.zXw.m % = = % X - ) qX~ u K K u K 0X0X` x j u u u u s s s a i ) I.j l ` 0X0X;.~ p P ! P p s P I I P P P I ;.;.;.;.#.;.;.;.;.;.;.2.I ;.@.I $.1.2.2.$.@.@.$.$.<.0.6.<.$.@.O.@.#.$.@.;.1.2./ ] { K E _ _ T.T.W T.T.[ T.T./.' ' ' T.{ ] ;.:.;.#.#.L ;.Y Y Y Y L U L Y U ! ! c n B.8Xz.b z z x u q q q q u 0 @   X o * / /.Y.H H _ x I $.L @.#.@.>.) ~ ;.,.4.:.~ ~ >.9X8X8X8X9X9XA >.@.A A A :.C A :.C A :.9X9XA V 9XC C I a P ! g L.eXNXFXHXL.I.j j x c A A :.<.V :.A A 9X9X:.V A V V C V A :.:.>.>.9X8X9X8X8X>.:.:.>.:.:.:.#.#.I @.@.;.I I ;.~ ! ! j H Y.T.aX4 o     + # 0 E G q : q u s x z v B.8XP.n b ~ / U U R R Y L L R Y 1.;./ ;.:.;.;./ ] ] [ ] [ [ [ U ^ [ ' ' ^ ^ ^ ^ U P ` 3.;.1.1.I $.1.O.#.@.+.%.$.$.<.<.$.@.@.$.$.6.6.2.#.#.#.I I ;.;.#.;./ I I ;.;./ ~ ;.~ I ~ ~ ~ / ~ P s a P U ! P ` ,.~ ! ! x ! >.~ i x x t p h s j x p s ~ / ] P U P : p qX8X2 - O * = % = M i.w.0.8.8.0.u.r.+.-.&.sXxXmXzX9...0.0XI.AXJX4XOXW.D.Y.T._ ! U qX0X! T.qXj W Q H A.",
"Q.Q A.r q q E ^ { u ^ 0XE E gXW.A.W.G.OX%X+XT.qX6.-.7.zXlXxXe.O.&.-.y.u.-.....0.zX7.% % = = X + a 7X0X) ` / K J ^ _ p E I.g q j p s 3.I 2 t s x b ! I.qX7X~ s P s P I P p u s P I I I I ;.,.;.;.2.:.#.:.2.:.2.2.2.#.2.2.#.@.@.2.6.<.@.@.$.<.<.6.$.$.:.#.I Y #.;.~ / ,.` / ` { W W K.K.Y.K.W Y.T.T.Y.' H ' H W ' _ ,.4.4.2.;.@.L #.Y Y Y Y R L L L U U ~ ~ n n n P.8Xz c x h j q 9 9 r u $ @ O O O 4 _ ' D.H Q ! ~ #.@.#.#.I ` ~ / ~ ,.,.,.>.>.7X7XA 8X9X8X>.:.>.A :.:.:.:.C a C @.:.wX<.:.<.9XV :.I L P U u l.Q.JXKXKXGXAXQ.Q p ! ~ I C C V V <.<.<.<.9XV V V V C A :.$.A C A :.8X8X8X>.>.8X>.c :.:.,.,.;.I I #.@.#.>.@.;./ ! E Q K.' Y.^ @ o X o @ > r r 9 q g u i x z z 8X8Xz.n b ~ ! L U L L L R R Y Y #.Y I @.;.4.3.3.1.[ [ W ' ' [ T.[ [ T.Y._ W T._ ^ E K ` { / 3.3.I 1.;.#.@.a O.$.$.-.6.-.<.%.@.@.$.$.$.$.#.#.;.;.$.;.#.:.;.;.;.:.;.;.:.;.;./ ~ P P ! P I a p s P P P s P ,.qX7X~ s x ) c i u s ` n t i u p j ^ ` T.I.K u K ! p ` qX>.- o O = % % m q.i.0.%.+.-.u.u.-.-.&.t.fXcXzX9.%.0.3.U.NXGXOXG.W.D.W.gXW K Y ] K E ` ^ g q r K.K.",
"T.A.K.e : q ^ ` { q ^ qXT._ Q.Q.e G.G.J.GXGXgXtX6.<.%.lXsXxXt.R  .-.cXy.X...o.8.q.m % % = * % - x 7X` ` wX3.u u _ I.q l T.q q E 3.p s P p s ! 7XqXI.( ` ( I ~ I I P P P L I / ;.;./ ;.,.3.4.2.;.4.:.2.2.2.@.#.:.@.#.2.6.2.#.O.$.6.6.<.$.<.<.6.<.<.2.$.#.I Y Y P / { 0X3.` { T._ g Q Q K.K.H K.K.Y.K.W G G G G H _ 3.wXwX6.4.#.#.;.Y #./ Y U L J J U ^ / ~ ) n n P.7Xn z v h g r 9 9 r W > @ @ o o @ ( T.W W p E I I I #.;.~ ) / ~ ~ ` / ` ` 7X7XtXA 8XyX>.:.:.<.:.@.@.C C a C @.@.<.6.<.V V Z C a Y K J E W Q.GXCX4X%X%XKXAXT.W q W ! ~ C C C <.V <.<.9XV :.C C a @.C :.A <.>.:.:.8XyX8X) qX7X) 8X:.;.;./ I I @.C ;.:.;.>.! ! j Q A.W [ u o O % & @ t K.9 9 r r i x z z A 8X8Xn n ) / U U U S L L Y Y L *.#.#.I ,.2.4.4.3.{ ^ W W H W K.K.T.Y.Y.K.K.K.K.K.Q W Q T._ ^ { 3.U Y Y Y I L O.$.2.$.6.6.<.$.+.$.6.6.$.@.+.$.2.2.$.$.:.$.$.:.2.;.:.4.4.:.,.;.,.` ~ ~ ! P u p s ~ P I ~ ~ ~ ` ,.7X,.7X) x x t z ) ( E ( u 0 E _ K K T.u q K aX` ^ 0X7X2 + + ; = % = %.i.8.....-.u.lX6.=.O.e.sXlXlX7.%.6.qXtX+X4XOXG.J.A.Q.).' ^ { U q _ _ E E 9 e H r ",
").AXY.H 9 r _ { _ E E T.tXI.Y.OXs.G.Z.R.OXCXNXqXwX-.<.0.wXkXe.R  .t.cXi.-.%.-.7...= = * % O + a >.` x P _ E u L.( W q K.l : p Q ` u p ! ~ I 7XqX0XL.E E ! ! ~ I / P s I ;.1.3.3.,.4.4.,.;.;.:.:.$.2.<.4.2.@.@.$.I $.2.:.6.6.=.$.lX6.<.$.$.6.6.4.:.#.;./ ;.;.3./ _ ! ^ ^ E _ { I.W Q r g Q K.K.K.W H K.D.H G H ' { 3.6.wXwX<.$.#.#.#.I Y #.U P S S J U U ! ) >.n b 7Xn z z l g 9 9 q q E q # * + O @ P T.' r q ! s P I 1.1.` ` ` ` ( ) ( ) ) P.8XtX8X8XvX>.9X>.:.:.Z @.C N @.$.%.C C Z V C C C C Y J u W Q.GXJX4X$X@Xn.XXOX<XJXgXY.W K K ~ C C C V Z <.<.:.$.:.C C C C @.:.:.<.:.>.:.yX8XA tX8X0X,.>.~ ~ / I ~ / ;.;.:.>.~ ! E E r W T.^ 2 X O % - # u W e 9 e q i x x z B.8Xn n ) ) _ / U S J S J Y Y Y Y ;.#.@.6.6.wXqX0X[ ^ J H W H H H Q K.W H H K.K.Q g Q I.T.{ ! T.T.^ ` / Y / #.#.2.$.$.$.6.<.<.$.$.0.6.<.@.=.6.<.2.@.@.$.$.;.$.<.2.2.:.4.,.,.,.3.3.3.3.,.,.;.I I s s L ~ I P ~ ` ! ) 7X0X7X! p x j p I.I.j : g I.j q T._ p J qXqXK ` ,.c - + * = % & m 8.0.%...-.lXcX8.O.L sXfXsX0.9.%.<.qXAXAX%XG.Z.A.Z.W.T._ qXqXU K _ T._ W 0 e K.Y.",
"Q.KXW.r q 0 J _ _ _ u W T.I.K.W.J.W.G.G.OX+XGXhXlX0.-.6.5.kXaXU &.-.i.y.r.8.0.8.m % & & + + t 9X0Xx u ! _ ! _ T.Q 0 r K.q q T.T.K q K 0X) 0XtX( ( Q Q W p p s L ;.I I I ;.1.,.4.3.4.,.;.:.:.,.4.:.<.2.<.$.$.:.:.2.6.2.#.2.4.;.#.6.$.:.:.:.2.2.4.;.:.;./ ` ` / ` ^ K p u u ! ` I.I.P.Q l Q K.T.I.I._ Y.T.^.' ' ' _ ` ;.:.2.2.$.$.@.a I L I / U J J U ^ U ! ( ) P.n 8X) c n k d 9 9 9 F G g > @ * O & 2 ` [ q H W K I I { ` _ ` ` I._ I.) ( I.I.eXrX8X8XyXA 9X:.C C C $.$.@.$.$.@.N C V <.:.:.c P J q W tXGXGX$X@X@X$XXX$XXXOX4XJX<X).W q j ! @.C C Z V C C @.$.$.@.@.a $.C @.C 8X9X>.yX8X8XeX8X8X) n ( ( ` ~ / ` ;.:.,.~ P E E j r W 0XP @ + & - $ > H r 9 9 9 q i x v c >.B.n n ) x ! ^ U J S S U / U D I @.#.$.6.6.4.5.qX{ [ W W K.Y.T.K.Q K.K.U.K.K.g l Q ( 0X` ! K E ^ ! ` { ;.3./ ~ #.;.2.4.6.6.:.$.2.6.6.2.@.6.2.2.$.:.$.$.@.$.<.<.6.2.:.2.:.;.;.,.,.4.0X4.4.4.4.#.a L I / s s ! ! p l I.0XqX` ( I.! q E ( ^ g q Q K.q g K.` u K _ K E ! qXc O O % = % , B 8.8.-.8.cXcX-.+.R e.fXsXuX%.0.wXqXAXGXOXG.G.G.D.W.K._ 0X] J W I.I._ r 9 r K.JX",
").KXA.9 e q E _ Q Q u K { T.W.K.G.G.s.s.OX<XKXhXvX6.6.<.] kXe.R -.t.u.y.u.y.i.8.* = = & X @ >.yX/ > > ` 0XqXqXI.r r U.Q 9 U.gXl q q j _ I.tXqXl L.K.W K q u s I I I Y #.;.@.;.4.6.4.#.:.4.6.4.4.<.2.:.$.:.2.2.$.6.4.;.;.;.#.;.2.;.2.2.6.2.;.;.;.,.3.` ` ~ ! ! ! ( E u p P ~ ` >.yXqXqXqXI.T.{ T.I.Q E W ' W r q ^ / ;.#.@.2.<.$.#.I a 5 L I U J J J T E ! ( P.P.>.8X8XB.z.b h 0 9 9 G 9 Q > # + @ @ @ s _ J J J E ^ _ ` ` _ ` ( ( I.U.L.( L.P.eXyXtX8X9X8X9X<.C V @.:.@.@.@.@.C V Z <.V A ! E q H T.JXJX4X%XXX$X$X%X%X$X%X].XXOX4XAXAXY.W u p >.C :.<.C C C @.:.#.>.@.:.@.C C <.9X9X9X8X9XyX8XU.P.( ( _ _ _ ~ ` ,.,.>.;.! K E W G ' ] 2 @ * + $ > u H e e 9 : q j x n P.8X) B.7X) ! ^ _ ^ J J J P Y I s a L O.$.<.2.:.;.] ^ W W W K.T.T.Y.L.U.T.T.T.Q Q _ I.0X7X/ E p u u p U _ / ` / / / ;.,.4.:.4.4.2.;.2.2.:.#.2.$.#.:.6.2.<.$.$.2.$.<.2.$.:.2.2.:.;.;.,.4.4.;.2.;.#.Y I / Y P u u p Q L.L.l U.tXqXI.! u q j T.tX: 9 T.r 9 W qX_ _ ! E : s qX9Xy X X & = & < 8.u.8.y.cXy.-.6.R e.dXe.0.<.6.vXhXSX4XW.Z.G.G.W.K.Q.I._ ^ q W _ _ _ : q r K.JX",
"AXJXW.r r r E _ p K.g E qXhXU.A.OXA.s.A.+X<XDXtXsX6.0.=.U dXaXR 6.t.-.X.-.8.8...< < 3 * o - qX0XE : : K _ 0XqXK.r U.U.r 9 I.tXq : H Q L.U.( T.tXK.W r r K ^ / I @.#.#.;.#.@.2.6.wX4.2.:.:.4.4.6.6.<.$.:.<.2.:.;.:.;.Y 2.1.#.1.2.2.2.4.4.4.4./ ~ / ` ~ ` ~ ` ) ( p p s ! ) ~ I A >.>.,.,.,.! p P ` ,.` ` I.T.{ [ _ 1.;.;.#.<.<.-.$.$.@.5 L K K J J J p W _ L.P.P.8XA A 8Xn v b q 9 F 9 G H q $ @ @ O o , / ^ F J ^ ` ` ` I._ I.( P.U.U.L.L.P.P.P.BXyX8XrX9X<.<.:.:.@.:.@.5 L #.V Z <.<.>.x J H H W.GXGXOX%X4X3X$X4X%X$X].4X$X@X%X%XGXGXGXW.H q E x >.:.<.Z C C %.C @.:.@.:.@.:.:.:.9X9X8XtXBX8X8XU.L.K.T.U._ _ ) ) ~ ,.,.! ^ K F J [ a @ o @ # $ > H G e e 9 0 u x b P.8XB.) 8XP.) ( Q ^ W J J U P I a D I @.$.$.=.$.#.Y U ^ W W W [ [ W ^ ^ _ { ( _ I.0XqXqX4.~ ` ~ ~ s p s ! ! E / ~ ~ ` ,.` / ~ 3.4.1.4.1.#.2.2.;.;.#.$.2.2.$.2.<.$.$.:.$.<.4.6.4.2.:.;.4.6.4.2.#.#.#.#.Y I P P K u g j l K.K.L.qXT.! E j q q { gXq 9 K.U.d.Q T.qXqX[ J : u / wX>.* O * = = < %.y.8.r.-.-.u.6.R | e.] 6.6.0.sXgXHX<XXXs.s.g.W.K.E.qX{ P u W K.L._ 9 q r H JX",
"Q.R.A.d.r Q K K u T.p j gXgXK.K.R.A.Z.J.OX%XGXgX2.t.lX2.W dXe.R r.u.-. .X.8.8...< = & o @ i yX( u > u ! E x Q g 0 Q.r r K.W _ r 9 W K.U.K.U.Q.tXg r q q E ` 3.#.2.;.$.$.#.;.<.6.2.2.<.2.2.<.4.wX:.:.4.6.2.:.@.:.;.#.I ;.3.3.3./ ;.2.5.2.1.4.1.~ ,.3.,.,.` ) ) ( ! ! ~ ~ @.>.:.:.4.@.:.;.:.4.;.;.@.4.4.;.Y ;.3.1.3.4.4.2.2.2.<.6.$.<.$.O.a 5 K S J q F p E ( L.8X8Xc v 7Xc v ( p 9 9 9 9 e W w # @ O O > P ^ q W _ T.I.T.K.I.7XI.I.U.U.P.L.U.l.z.eXrX8X9XyXA A :.C c ;.;.s a A @.V V <.8X( g H W.GX4XOXOX<X4X4X4X$X].G.f.$X4X4X$X4X+XOX4XJXW.H r j ~ :.<.<.C C @.a a :.C C C :.<.A 9XrX9XrXyXP.v.E.U.U.U.U.L.( I.` ) ` ` / ^ J G J { 1 @ O & # # q H e 9 q r g u b v n A c 8X7Xb ( L.Q K u J W J P s a L $.$.%.6.<.2.$.1.3.{ { [ { { { ^ / 3./ ~ ( ` 3.,.~ :.:.#.s ~ >.~ ! ! x s ~ ) ( ! ) ,.` ~ ;.4.3.4.sX4./ 1.1.;.2.;.;.@.#.:.@.2.:.:.2.6.2.<.2.2.2.<.2.<.6.6.$.@.D #.2.$.Y / / { E g g r K.Q.gXK.Q T.L.E q : W T.g r r E.U.6 P.0XQ _ u : q p 7X9X- + * ; = < ..y.-.X.D X.y.=.R dXdXR 6.6.sX6.gXJX4X+X{.s.F.R.R.K.SXgXU u _ g W _ 9 W r A.<X",
"g.OXQ.r K.K.p u K T.J J DXgXk.d.R.A.Z.F.{.+XJXgXaX6.t.5./.jX| S r.xX-.-. ...8.N & & O o - 8X8Xs : J _ qX0X( 0 q L.U.q 0 U.Q.r W g Q L.T.k.K.K.k.0 r g p E ` ^ I $.O.2.$.2.2.:.6.4.<.:.2.6.wX4.4.,.,.4.0X4.4.4.9X,./ ,.3.,.` { { 2.$.#.@./ 4.3.;.wX;.I 4.7X7XyX0X;.:.,.:.wX9X4.wX6.<.<.$.6.:.:.:.<.<.6.2.:.2.2.$.#.2.6.<.6.<.<.8.$.%.$.@.a D P u P _ E E Q P.I.z.8XA n ) v v ) b q 9 q H 9 G Q 0 # o + + a 3.W J _ K.I.U.Y.U.I.8XU.z.U.eXU.P.U.l.8XrX9XB.yX9X:.:.:.#.4.,.P c a C V V <.>.x Q <XJXJX4X%X3XJX<X4X{.'.].]..X|..X4X6XGX4XOX,X6XJXOXK.g ~ <.:.V V C c a a :.9XC @.:.$.:.pX8X8XrX8XV.U.v.E.E.eXU.P.U.T.I.I.I.I.{ _ J F ] P @ o O @ # 0 A.e 9 9 : 9 J b x.v n A c >.7XP.L.U.l u E ^ p K a 5 D $.%.<.9.<.<.-.2.4.6.5./ / ;./ ;.;.2.2.;.;.:.4.9X:.:.:.<.:.:.4.,.~ ~ ~ c c ~ ,.4.,.7X3.4.;.$.2.$.:.;.;.1./ 3.3.3.3.;.~ :.4.:.2.4.6.4.>.;.4.4.4.6.2.<.2.<.6.6.<.#.#.#.1.;.1./ 3._ u r r r W Q.U.Q K.I.j u g l L.K.L.q g E.g g l K I./ u : q ) qXy + % % = = ..w.....X.&.xXe.R | hX{ 2.lXt.1.gXHX4XOX].f.A.R.c.k.tXkXJ q /.L.q W q K.e K.A.",
"g.<XR.r Q u E q ' aXJ H hXtXE.E.k.R.G.Z.G.4XJXgXdX&.] ^ T.FX| R r.y.-.-.7.8.8.N * & % + y 9X7Xp q J _ ` ) x 0 q T.Q w q U.K.r g W L.L.K.K.K.A.r r K.E T.qX` K K I *.4.#.#.2.:.2.6.4.2.:.4.wXsX0X/ ` ,.,.3.9XqX4.,.;.) ~ K _ I./ 2.4.5.4.:.5.4.wX:.2.:.:.4.wXuXwXwX6.6.9X9X<.<.<.<.<.+.<.@.<.<.<.<.<.<.<.-.<.<.2.$.$.=.<.<.9.9.<.<.<.<.%.C 5 5 4 K ( Q Q ( I.7XP.>.>.b x n n n l.Q 0 : 9 9 q Q q # @ % & 4 / W ' ' L.U.Y.Y.K.U.0XtXz.L.eXU.x.V.z.8XrXB.9XpX8X8X<.$.@.2.:.I @.@.C @.Z V a ~ tXFXKX4X+X6X6X2X).4X{.{.{.4X.X'.F.J.4X4X4X4X,X4XJXJXAXL.c A V @.C @.@.;.C :.6.#.$.:.A 8XyX8X8XyXeXz.x.E.E.E.eXP.U.U.U.Q.U.U._ _ _ W W { L @ o X @ > K.r G F F : q x P.z.l.n c c >.P.P.U.U.Q E _ ! u p 5 S a %.<.<.9.%.<.<.<.2.4.2.#.$.2.:.;.<.6.<.$.<.2.:.4.4.:.<.0.0.<.:.:.9XwX:.;.wXwX9X:.>.;.,.4.4.4.2.O.@.1.4.3.] { / / ` ,.,.,.7X9X7X7XqX7X,.,.4.4.5.4.2.2.2.2.6.$.<.2.@.;.2.#.I P ~ ` ` W r r e K.K.K.K.U.U.Q g q K.Q.K.9 k.T.L.0 q ( 7XqXR u 4 ( wXA - O % & = B q.o.%.+.e.y.r.S [ kX0X5.e.5.e.gXDX<XR.F.F.G.A.k.k.Q.FXW F qXT.q H W K.r K.AX",
"K.Q.A.L.g 0 H W T.T.K.T.SXtXU.E.d.Q.W.Z.OX4XAXDXfXe.R [ aXjX} &.fXfX$.-.8.7...m = % % $ f wXs : J T E ` ( d h U.L.r g Q U.k.r K.U.K.W A.R.K.r r r Q W qXhXU J s I *.2.;.Y ;.2.;.:.4.6.4.4.0X0X7X7X7X` ) ,.0X,.;.~ / ,.,./ / ` ^ I Y 1.4.5.qX4.2.4.wX4.6.uXwXwXsX6.<.6.<.<.<.<.<.9.6.N ..B @.%.C C <.<.%.$.<.<.<.<.$.<.<.9.9.<.9.%.Z %.<.@.5 a a i ! ( ( ( P.8X8X>.,.c h B.z.k b L.q q r 9 G q Q > @ @ & > u G T W K.U.U.W.E.T.E.eXU.U.E.U.U.eXx.z.8XB.B.9X9X:.9X:.@.$.:.;.:.C C C %.@.5 >.FXUXJX<X<X6X4X,XW.2X,X,X<XJX<XOXOX,X,X1X6XJX4XOXGXKXKXtXc a Z %.C C 5 @.:.:.<.A <.<.9X9X9XB.9XeXV.B.eXl.E.U.P.P.eXT.U.E.Y.K.L.K.U.W ' ] 4 @ & @ $ t K.9 e : 9 q j ( l.x.z.c c >.>.>.8XeXL.l ( ^ p u D 5 5 @.<.9.%.<.7.9.6.<.6.$.$.<.2.6.<.$.<.<.<.@.:.<.$.@.@.$.<.<.<.6.9X6.4.9X6.wXwXpXwX9X4.:.:.4.4.4.6.4.2.4./ ] / / ^ ! / ,.,.,.,.wX,.7X7X,.,.7X3.sXwX4.2.2.2.4.6.@.2.2.@.2.2.Y 5 P I 0XtXK.W W r d.A.K.K.Q L.U.Q g g T.K.9 g k.T.r 0 ( ! { ` K q u 7X9X2 O % % = B 7.7.-.-.-.xXr.R | jXT.[ ] 5.fXgXDX4X].f.J.W.d.R.L.tXjXY.W T.T.g r q W r K.AX",
"Q.k.K.l : r K.T.K.T.T.0XT.l k x.w W.R.J.3X<X<XjXfXr.e.[ ).kX} | t.fX=.=.-.%.m < < % + - 9XwXu > u J p j h t l Q.d.0 l eXK.q 9 Y.T.K.r K.Q.r e H Q W ^ 0XqXu P Y ;.#.1.1.;.;.4.5.;.2.4.4.;.,.7X` ` ( ) 7XqX9XqX9X,.,.;.3.3./ / / / #.;.;.4.4.4.6.lXuX0.uXuXuXuXuX<.<.<.Z <.<.0.%.0.w.N B %.B m %.%.%.$.%.<.@.%.@.<.%.<.<.<.V Z 9.<.Z Z %.%.Z N a a s ! ` b ) qX>.A 8Xn z 8X8Xk j l l r r G 9 r g > o @ O o 4 J G Y.K.Y.Y.U.Y.U.E.U.E.E.U.v.E.eXeXV.B.9XA :.9X9X:.<.:.:.:.;.#.@.@.C %.$.C ,.SXFXQ.GXKX4X3XOXD.(.JX`.FXSXDX<X<X2X2XD.,X4X4XGX4XGXUXSXI C %.@.@. .@.@.@.:.:.:.9X9X9X9X8XB.8XV.B.V.eXx.U.8Xz.P.T.U.E.Y.E.E.Y.Y.K.H W J @ @ - * $ g k.e e G : r l l.k z.z.n z >.>.) 8XU.b ( _ U 4 a a a  .%.<.Z %.<.9.%.<.<.<.<.$.<.<.<.<.<.$.<.%.Z Z N %.Z N %.0.<.%.<.<.<.:.<.<.uXwXuXwXlXuX6.wXwX2.6.wX6.4.2./ / ^ ` / / ` / ` :.,.7X7X7X7X) I.` 7X,.3.4.4.4.4.:.;.4.;.#.Y 2.1.Y I I u ,.aXI.W H r r r K.K.g K.K.T.K.9 K.U.K.w q U.U.q l p ! K W u > ) 9Xy % % & < m ..-.8.2.2.fXr.e.| kX/.| R e.dXjXJX4X,XG.{.W.A.U.l.U.tXT.T.Y.T.T.W q 0 K.K.U.",
"Q.L.' 9 # Y.E.Y.E.Q.qXT.x 0 w d c.K.A.G.W.(.Q.aXe.r.[ R aXFX/.| dXe.#.$. .N m < < % % - 9XwX4 q J E ! i 7 0 E.U.r 6 K.E.K.0 9 K.Y.K.K.K.A.9 r A.K.T.aXqXY p Y 1.2.] Y 5.3.1.1.5.5.4.1.,.7X0X8X7X7X) P.7XtXwXwXwX4.:.;.,.1.;./ / 1.3.4.0X4.4.6.wXvXu.uX0.<.9.0.zX9.%.Z B Z 7.7.7.Z q.B m 8...N %.%.<.%.<.<.%.Z :.<.<.<.<.Z Z Z 9.9.Z V Z %.Z @.C a a s ) c ( 8X8X>.n n n n P.l.k k l.l r e 9 r L.0 o O + @ 4 T G W Y.K.K.Y.R.T.E.E.v.E.E.E.V.eXeXrXB.9X9XA B.9XA :.:.:.:.:.#.#.O. .+.-.@.I yXSXQ.).KX4X3X4XA.D.jXdX5.4 J DXKXDX' D.(.,XJXKXCXtXPXvXC  .$.+.@.@.O.#.$.$.:.:.:.9X9X9XB.B.9XB.B.rXeX8Xv.8XB.E.P.E.U.W.U.Y.U.Y.Y.G J 4 @ o @ X - k k.9 e r H g k.l.b z.8Xn x c >.8X8XI.n ) ) s 5 s a C :.<.Z V Z 9.<.V Z Z <.<.%.%.C @.%.%.<.Z <.<.%.N B ..B 7.i.w.9.0.%.Z $.$.Z <.uX0.0.uXuX0.lXlXwX:.2.;.;.2.1.;./ ` / ,.3.,.,.,.wXqXqXrX0XP.n ) I.` 7X,.3.3.4.4.5.wX3.] 1.1.*.Y 1.L u I qXqX_ W A.r 9 K.Y.K.K.K.Q.r q r K.K.r w K.E.g 0 i p s ! p 0 x yXC % % & < <  ...=.$.#.sXe.| ' jXjX| e.r.dXgX`.<X,XF.G.K.H j d q L.T.T.T.K.Y.T.W 6 q Y.K.",
"( K.: # e T.Q.Q.K.tXAXqX( h w g R.R.A.Y.W.W.).| | r.| [ T.FXaX/.fX| U #.5  .N < < % O - rX0Xq J J p ( h $ w E.U.6 w R.K.r r r H K.U.W.H 9 9 H ' Y._ 0X^ K Y 3.4.4.5.3.5.3.[ [ ^ ] / / 0XqX7X7XI.7X8X7X7X8XwX7X,.:.4.2.;.2.4.1./ Y 1.wXsXsXsXlXlX0.0.i.0...%.0.9.9.%.Z 7...7.B m = m M m ..q.o...%.%.$.<.<.%.$.C V Z Z V V %.9.Z 9.V Z %.Z C %.$.C L a ~ c c >.8X8X) A z.v z.P.l.k v g 9 9 e a.l.b $ @ * @ 4 ' ' W Y.Y.W.W.W.U.U.E.L.x.E.eXv.x.z.yXB.B.9XA f 8XB.B.9X8X8X>./ #.#.O. .=.$.I 4.hXyXgX<XW.OX2XK.' | S : , @ 0XgX`.G D.4X,X4XJXtXtXLX4.@. .&.O.@.@.@.#.#.;.;.8XA B.B.A A B.9XA 8X8Xz.eXeXv.eXU.E.R.E.U.R.R.T.Y.' H ' J @ @ + X t l.d.r e 9 H Q g k x.P.z.v c A ) 8X8Xz.n ~ c a a @.C N Z %.C Z Z 9.Z Z Z Z Z Z <.Z Z B %.%.<.<.<.<.Z Z 7.o.m M B B %.7.%.Z %.Z %.0.uXuX<.<.0.uXuXuXlX6.6.6.4.4.3.1./ / 3.3.,.;.>.:.0X9XwXwX8XP.P.I.I.0X0X0XI.3.3.4.qX3.{ { 3.] ] *.5.*.I P 3.gXtXL.K.A.9 e K.K.K.l Y.r 9 r K.Q.r 6 g U.L.> 0 u ! ^ u q P yX>.@ o & < , 1  .@.$.U aXfX/.| DX/.T | dXe./.(.W.OXJ.A.A.k.g 0 0 l Q.tXQ.Y.T.K.T.9 # r H ",
"u 0 : q T.K.Q.K.g Q.tXI.L.K.r d.G.R.W.W.).).aXe.R &.| | ' FX/.} kX| J ]  . .1 * % O O - 9X7Xp ^ q : s i 7 d v.K.9 g E.k.r K.H K.K.Q.W.e 9 e A.W ' ^ 4 4 L 1.5.sXaXsXaXqX[ ^ [ ^ E / 0X0XqX8X7X8X7XqX7X,.:.wXwX<.4.wX<.:.2.6.4.6.4.4.2.4.sXvXmXbX0.-.w.q.7.%.7.q.9.7.o.7.o.M m = = m % = B 7.8...N ..@.%.$.@.V Z 9.<.Z 9.<.9.Z V Z Z Z %.C ..%.$.@.$.A >.A c :.8X8Xn A z.v z.U.l.k l.l r 9 e w k.b - @ & o 4 U ' ' ' Y.K.Y.R.W.E.eXP.P.E.eXx.z.z.yXrXA 8X8Xz.z.z.z.eXP.L.I.( ^ Y L D O.O.L ;.sXPXgXR.W.<XgXW J S , , , @ > 4 R T Y.2XOXW.).AXSXvX#. .O.R L #.~ ;.Y / ` ` 8X8XA B.c A 9XB.8XyXeXx.V.E.E.v.E.E.E.Q.E.Y.K.Y._ W T ' 5 @ @ @ @ i U.k e 9 9 q k.k k l.P.n c c ) >.A 8XP.c c c L C @.$.@.Z %.%.Z %.<.Z 7.<.<.Z <.Z %.Z Z %.<.%.%.@.%.Z q.7.B = m m = m Z 7.9.%.Z %.0.9.0.%.%.9.zX0.0.zXlXvXsXwX6.1.;.;.1.3.4.,.:.2.4.4.7XwX9X7X7X7X7X8X( 7XqX0X0X` ^ ! [ ^ [ 3.1.5.e.2.2.2.I p ^ T.T.K.Y.e e 9 A.W.K.Y.W r r r K.r 6 w E.k.7 0 i ! q J p j qX9X* X & , , 1  .D 1.L e.dX| /.jX^.' | | e./.).W.+XOXR.K.K.g d k l.T.NXtXU.Y.Y.Y.W 9 9 q ",
"q t ^ T.T.T.).Q l T.T.g Q K.H d.G.W.R.Q.<X).aXaXr.r.e.e.^ kXdX} dXT J ] O.D < , & & % y qXl.q E : 4 ) i d k k.h.6 K.+Xg q K.K.W K.<XK.e 9 G q r ' T.u J ] 1.4.sX5.aXaXaXT.' T.T.T.0X0X0X8XqXyXqXyX9X4.4.9X<.wXwX<.6.<.2.6.2.$.<.2.6.$.:.6.lXzXzXi.8.7.7.q.7.9.iXiXZ B M M m = = = M % = m N ..8.+.@. .%.%.$.$.<.<.<.<.%.<.9.9.<.<.%.C Z @.%.%.@.$.<.:.C A >.>.>.>.) ) B.v b L.l.v z.P.r 9 e w x.z $ * O o : U [ W K.Y.Y.W.Y.K.Q.I.tXeXL.v.eXV.B.9XvXA A 8XB.z.f V.eXP.L.L.! ^ K I Y #.#.#.#.4.nXgXQ.gXDXgXu : 5 3 , o 2 2 4 R : _ AXQ.Y.W.SXPXqXY D &.R U Y ~ ) ^ _ ( P.eXB.x.B.v 9X8XA rXBXz.x.8Xv.V.U.E.E.Q.R.R.Y.Y.Y.' T ' [ 4 o @ * - y v.g 9 w q g l.l.k E.P.v n ) n 8X8X8X8XA A :.@.@.%.%.<.@.V Z @.Z Z <.<.9.<.Z <.9.V %.@.+.$.%.+.C Z 7.7.7.M = = m = = m m B 7.7.%.q.9.7.7.7.9.uX0.0.mXmXbX6.6.2.2.4.4.4.6.6.2.:.9X6.<.6.4.4.>.8XwXyX8X7XqXqX7XI.` _ T.T.J ' aXaXsXsXe.5.5.1.p 4 E { W H r r 9 A.).R.K.A.Y.Y.w k.Q.9 9 K.l.0 t z i : p _ i 7X8X2 O O & * 1 N D 5.U | fX} _.jX' | r.R *.e.kXgXQ.+XW.R.R.d.g L.U.Q tXT.E W Q.T.K.' : : ",
"u _ qX/.T.aXT._ ( gXL.T.Q.G Z.Z.G.{.Q.AXgX/.5.r.y.r.r.R e.dX/.dX| F T U R D 1 * * % X f rXtXW q : / ~ t 7 d k.k w k.Q.k.Q r Y.H A.W.9 9 H r 9 H { J K 3.I 1.5.sXaXaX[ [ ).tXT.I.T.tXtXqX7XwXwXwXwX<.6.uXwX<.<.<.0.<.<.<.6.<.<.6.6.uX6.<.6.0.0.-.q.7.7.7.7.w.9.9.0.Z < = m m % = = 3 = % ; * * 1 +.=.O.@.@.O.$.+.<.<.%.%.<.<.Z N $.<.$.%.%.N N %.$.C <.9XA A 9X:.c ~ A n v b b l.n v n g 9 9 k.l.t @ O & o , J [ J H Y.Y.W.K.K.U.E.T.E.eXz.8XV.B.A 9X9X>.A 9XB.f z.z.U.l.l l Q L._ ^ ^ U U / 1.qX/.hXFXkX/ 2 , 2 3 $ + 8 - t a , J hXFXgXT.jXSX0X] / Y R ^ ^ ! x ( L.k E.eXx.x.v A B.A 8XyXrXz.eXU.P.U.eXQ.E.R.U.W.K.Y.Y.' F ' [ , @ O @ O t b d.w 9 q l l.k.z.z.b z n ) 8Xn A 8XA A A 8X<.@.Z %.%.@.%.Z @.%.%.%.<.<.%.%.<.9.%.V -.$.O. .O.%.-.%.N m m = ; M = = = m M m N Z iXiX9.iXq.7.7.9.zXw.uXlX<.$.6.2.<.2.$.2.6.6.<.6.6.<.6.6.<.wX9X,.9XwXwXyXwXqXT.tXT.I.T.' T.aXaXe.e.sXt.1.Y Y K ! { W e H H 9 e K.Y.r K.K.K.9 K.NXw 9 h.k.0 t x ~ > : u _ I.8X2 + @ & , <  .O.] J T /.} dXjX} e.&.r.t.t.aXaXQ.+XOXR.R.A.d.K.K.k.I.qX_ g gXaXT.qXT.p ",
"! I.qXT.[ [ _ E qXqX_ gX^.D.J.[.{.J.OXGXDX/.*.&.&.y.r.R e.fX| } e.F } | R D , & & O   y yXU.E : p 1.x 2 $ 7 k.k.w K.E.K.r W Y.r gX+X9 9 d.W W ' _ u J 1.] 5.4.aXaXdX/.Y.T.).).Q.U.tXqX9X9X:.wXwXwX9X6.uXuX0.0.9.0.<.%.0.9.%.<.0.0.0.0.<.0.iXw.9.%.q.9.B M Z m % = = = = < = = = = * ; % % X O & 5 +.+.O.5 5 #.@.@.<.<.$.%.$.+.$.C @.C +.$.+. .@.%.C <.<.V V :.A >.n A 7X) v x ) A z.l.l e e k.l.z @ X O O @ J [ W H K.Y.K.K.Y.E.U.U.U.U.8X8XB.A C 9X:.V :.A A f z v z.k k l Q L.Q Q ^ W ^ ^ R K { fXnXwXI 2 > @ $ t 8 l.- - 2 , , 4.kXFXjXT.' [ [ ^ U K ^ ^ ( ( b k.l.v.V.f f A 9X:.A <.9XB.v rXV.P.U.U.U.Q.Q.R.K.Y.Y.W H W W / : o O O O t l.k.w r q l L.b z.z.c n ) n n n 8X:.>.A <.<.V Z +.@.+.@.@.@.$.@.@.C %.<.%.<.<.6.%.@.$.D D L =.+.N , & & % % ; ; = = = m m = = B 7.7.9.q.Z Z 9.q.9.7.0.0.6.6.0.0.6.6.<.<.<.0.<.<.<.0.6.6.6.uXwX<.wXwXyXqX7X0XqXqXqXI.Q././.' [ /.e.fXe.5.Y U P J ^ _ q r A.r 9 A.<Xd.H K.Q l Q Q.k.w k.l.7 7 t ,.^ 0 q _ qX9Xy + O * & 1 +.Y ] T } | | e.jX| R e.y.u.=.5.qXgXAX%X{.G.Z.A.A.E.Q.I.gXT.E T.T.T.qXaX0X",
"I.T.[ ] ] U K P aX{ ^ gXH ~.S.*X{.J.<XDXhXe.R &.D y.y.D r.fXe.| } F } /.R R 1 , & % X y SXl.q u 4 L i 2 $ d l.l.w R.K.g g W Y.e <XW.9 9 e H Y.Q.^ J U qX{ ] ] 5.dXaX/.gXgXQ.Q.Q.tXtX8XwXwX<.6.6.uX0.6.9.<.0.<.<.<.%.%.<.<.%.9.uX0.q.7.Z 9.zXbXzXw.7.B = = = % % % & = = * = * * ; - ; y - @ O o @ 5 $.*.D S D a O.$.%.%.+.@.+.@.@.@.@.@.@.+.+.N @.Z V <.:.<.:.:.c c n >.A b x ) A B.n h r r k.k z $ X O o @ 4 W W ' Y.Y.E.Y.T.Q.W.R.U.U.E.z.A :.A C V C V V V V y a A v z.l.b L.K.K.K.W W W W J J 5.#.3 ; y $ $ 0 eXE.E.t # $ - a a 4.nXaX' T ' J W E E ( L.( l.l k z.B.A f A A <.V V <.9X:.A 8X8XU.E.U.K.E.R.U.K.Y.Y.' T W ' ^ @ o X o o t l.g r w q x P.n L.n v c n P.n ) >.8X:.A <.<.<.%.%.N @.O.$.+.@.O.$.@.@.%.@.<.<.%.@.@.L S D $.=.D , @ X X * * % ; ; ; % = = = < = * = m M m M 7.q.9.7.lXiX9.%.<.0.uX9.8.%.<.6.-.%.0.<.<.8.6.0.0.wXuXwXwX:.9XqXqX0X0XQ.T.).).[ T.dXkX[ aX5.U R R u J ^ Y.g A.H 9 r GXK.r Q.r l K.E.k.6 K.k $ $ t c ,.q q j 8XyX2   X * & 1 $.Y | } F } | _.dXe.R r.y.&.&.&.e.DXDX,XH.{.J.~.W.Y.Q._ T.T.J E { { [ qX5.",
"` ^ U U ] U U 3.4.5.{ /.' 1X~.[.[.,X2XgXT.5.r.X.X.y.r.&.fXfXe.e.} F /.dXe.r.4 , * * + i BXg 0 J : s i t t d g w K.U.r r r _ K.q Q.R.9 r r q T.qXT.^ 3.sXqXK _ /./.T./.DXAXW.Q.NXtXqXqXwXvX6.<.9.0.0.9.<.9.%.%.%.%.9.9.7.<.0.0.0.0.9.%.B 7.zXbXbXzXM = = = % O * & & * & * ; , ; a y V y a 5 @ . @ , I $.Y L L O.@.+.$.@.+.@.@.N  .@.O.D 5  .+.C C :.<.<.<.A A :.c x x P.) x z n c A v i q r g k i @ X O O @ 4 K H A.K.Y.Y.W.Y.K.K.R.R.K.P.A A :.V ; < ; = < ; 3 ; y c A A n l.l.K.g r W W H W ' [ L 1 @ + $ $ d E.HX+X%Xx.7 $ 8 3 * 4 Y [ U T K J W _ Q Q ( ( b v n n A f y V V y m N 5 C V A A B.U.U.T.E.K.W.Q.W.U.Y.' W W J u @ O o o O i l.k g d u s n b n b z c 7XP.n n ~ :.A <.V <.<.C @.N +.@.@.O. .@.@.+.$.@.%.@.$.+.@.L 4 J U *.O.1 @ O O - t y ; ; ; - = = * * = % % % % = = = m Z iXzXbXbX9.C %.0.0.0.0.%.7.9.9.%.9.%.-.%.9.<.<.uX0.9X<.<.wXwXqX8XqXtXT.T.).jX/.T.jXaX{ ] ] aX[ J J T.T.K.r r 9 e DXW.r Q.r r K.U.v.0 k.h.0 t 2 s P 4 u g 0XyXt   O * < 1 1.] e.} F } | fXfXe.X.y.u. .+.5.e.dXDX,X].{.[.H.(.Y./.{ ] aXU J K [ ] ] 1.",
"! P P Y 1.#.;.6.2.3.[ aX/.2X1X~.,X<XDX).| r.r.X.y.-. .-.cXxX| e.e.} `.jXdXe., @ % - + z rXl > 4 u L i 2 t d g w K.Q.r w r K.K.9 <XA.9 e q H T.T.T.3.aXhX/.W T.Y.H Y.AX2XQ.Q.AXgXtXyXwXwXuX9.<.%.Z pX0.9.9.%.%.7.0.0.0.9.%.9.0.9.9.9.%.7.9.iXzXiXiXM % = % % O % * O * 3 - - t c >.>.s 4 y a - o o @ 2 L I L L 1.@.+.@.@.C C 5 5 5 D @. .D C +.Z Z @.<.<.:.A :.:.c z x P.) n c n A 8XA t q r g k t @ @ + O - i g K.Y.Y.K.K.W.K.K.K.W.K.g c ,.C 3 ; ; ; % % ; = % @ y y y y v n b L.l q r W H K J 1.4 , 2 $ # d E.GXJX4XOXCXU.w 7 + - @ 2 ;.] J T W W W j l b b b A A C c 3 ; 3 * = * = = = 5 Z C 8Xl.l.U.K.R.R.Y.U.Y.' ' H W u u , @ o . $ t h g g d t a n n n v c n P.z.b c ~ :.@.<.V <.<.V @.@.%. .5 +.$.@.D N N C Z @.+.@.O.L L J Y Y 5 * o o , t a c a A C - 3 - - & O & * & % = = = % M zXbXzXbX9.Z <.9.0.8.0.8.7.<.%.9.<.%.%.<.7.<.9.uX0.9.6.uXwXwX4.8XqXtX).Q.).DXDXT.T./.[ W { gXaXU [ aXT.K.r e 9 e <XW.e K.W g 0 k.NXd.w l.d $ 2 a u u p : L.hXt + - & , 3 e.e.jX_.T } | r.xXxXX.-.u.&.-.r.} } dX2X,X[.!.~.2XY.aXaX^ aXe.] U U Y J J ",
"/ Y *.2.*.#.#.;.Y 1.R | jX`.`.,X,X,X2XgX| r.&.r.xXX.1 u.y.r.R r.dX/.`.jXdX| @ . + % X a tXl q p L ~ a $ t k k w g E.r : r U.A.r ).A.9 e r W T.q E aXhXkXT./.gXY.D.).).W.Y.<XAXgXhXvXuX9X<.%.%.%.Z iXuX9.9.9.<.0.w.9.9.9.0.7.<.9.9.9.9.9.<.9.bXiX9.m % % % % % * * * 3 y t i c ,.,.c a a 4 a a @ o   $ 5 I I L 1.@.O.C B N N 5  .N 5 5  . . .@.@.C <.<.V <.4.A c A v j ( P.A n A A >.z t u r r d 7 $ - + & t x ( Y.W.W.W.W.K.Y.K.R.R.L.x I a 3 3 ; ; y ; ; - % X + - - * - - 3 t i h j q q q u u 4 , ; 8 6 7 eXGX4X4X;X'.GXGXE.8 # 8 2 2 a L S J J r q g b ( c x y y t a 3 % & * ; % * 3 , * < C >.n k K.R.U.U.R.Y.K.K.Y.Y.' Q j 2 o o @ * 7 d g w g > i >.8X) c ) A z.n v x ~ >.:.@.:.9.<.@.%.Z $.5 D O. .5 5  .5 N +.$.+.O.$.L J U / a , O   @ 3 u u i z >.B.C y ; 2 t - + & % % % % % % m iXbXzXiX9.7.9.9.9.9.9.9.9.9.9.w.w.<.9.9.9.9.9.uX9.Z 9.<.0.6.wXhXhXyXAXAXW.Y.DX).W H /.T.[ aXgXqX[ [ T.W r H 9 9 NXW.q K.K.q 9 l AXr w l.d $ 2 x u p p : ( yX- + - O o 4 sXjXjXjX} r.e.&.xXmXX. .-.y.r.&.r.} /.2X5X*X=X1X`.dXaX{ ] ] 5.1.Y Y ] L 4 ",
"2.2.2.=.O.#.@.#./ Y U [ `.`.DX2X2X,X`.jXr.r.S r.y.X.X.i.r.D r.xXdX`.^.).dXT . . - + o i tXx 4 J P / s $ $ l.k 0 r E.k.9 l Q.k.e W.A.A.H e Y.T.K u T.FXFXT./.).D.W.W.W.<XAXAXgXqXvXvXuX0.<.Z %.Z 9.9XuX9.uX9.<.9.0.<.9.0.9.%.%.9.7.7.9.9.Z uXbXq.N = % = = - ; y 3 y v v c rX0X) ~ P I I 5 a I 2 + X @ 2 s I a L D 3 1 5 m , * < 5 1 1 5 N N @.@.<.V A <.9X<.;.a ) n b l P.P.A n >.A z t d q w q 0 $ $ + - y P.K.A.D.G.D.A.R.Y.K.K.K.( / 5 * ; m 3 ; 8 8 7 + % +   +     X X X o $ 2 u > > 4 4 > @ 4 - $ 7 j.HX<X6X5X X}.GXGXCXE.7 $ - 2 , 2 4 q r q r g h i 2 , - + + - - + O - - - - 3 3 ; ; 3 C s x Q K.K.U.K.K.Y.Y.W.Y.W.K.l.y $ o $ @ $ 0 h.g h 2 i A B.A ) >.>.z.b b b ~ @.<.<.<.<.V V %.@. .N O.N 1 1 5 N 1 N N  .5 O.$.Y S K I 3 O X X 2 a a 4 u s >.9X8Xv y 2 y t - - ; = % % % = m 9.iXbXiXZ <.9.9.9.9.9.%.7.0.9.uXw.9.9.V 9.9.w.iX7.Z %.<.<.<.uXvXvXyXAXGX<XK.W.).K.Y.).gXT./.kXgX' p W L.H 9 e e ).W.q K.K.0 9 K.E.w w k.t 8 2 a I P E q ( yXt + @ O . : aXkX`._.} dXr.&.6.cX-. .X.xXr.&.r.r.aXDX,X,X~.1X`.dX5.1.3./ O.O. .*.2.2.1.",
";.;.$.L L $.4.,./ U K J [ aXDX2X<XgXjXkXr.&.X.r.r.D -.i.-.D t.y.kX`.' _.kXS . @ y O X t tXi p J u ~ i $ t z.k.6 l.Q.g 6 K.gXr H W.K.A.r q Q.T.Q J ^ kXkXY.).D.G J.J.W.<XAX).tXSXlXuX6.9.Z 7.7.V 9.uXuX9X9.9.9.9.9.0.9.9.0.9.0.8.%.<.uX9.9.iXzXZ = = % % % 3 c a a C <.9X9X7Xc s a ;.Y 5 5 a 5 ~ - X   @ 4 I 4 4 1 & O * 2 @ o O , , 3 1 N L N @.V <.V <.<.:.:.c A n ( l.n n A c 9XA c t g g g d t $ # $ 8 f b l K.A.A.R.D.K.A.K.Q b x a ; & ; ; y 8 + $ 7 + $ # # #     X X     . . @ > 2 4 > @ u y $ 8 j.#XGX6X,X5X-X;X6X4XGXGXh.# @ 2 2 @ 2 q q 0 t t > o . .   .     o . o + X - 8 - - y y - - y ) _ W Q Y.K.K.R.D.A.G.K.K.k.v ; $ + $ 0 d r d h t y >.7Xn n c n z.l.b c @.a :.<.A <.<.V @.@.N D 5 1 5 5 1 * = < 3 < , 1 D L S P a $ O o + y a a s P ;.a a >.qX8XA z c y t y ; ; % % % = M Z bXpXZ 9.9.9.9.0.9.9.9.0.9.<.9.9.9.9.iX9.uX9.9.Z Z %.%.<.<.vXvXyXtXQ.AXJXW.W.D.D.Y.gX).aXFXgXJ E W ).W 9 A.A.G.Y.r Y.T.r 6 E.Q.9 6 l.k 2 $ a 3.u K p ( rXt X + , . o [ dX_.^.dXfXxX&. .6.u.X. .r.6.D R r.dXjX<X,X2X2XdXdXU I P / $.@.@.O.#.2.5.",
";.Y Y / Y ,.4.) ! p ! I.T.Y.).T.tXjXhXe.r.-.r.y.-.X.u.u.6.t.r.5.jX^.G /.aX>   + 2 @   z tXg E g p P u t k U.h.h.NXE.q > _ gXr H W.H G e r Y.T.E J [ /./.Y.).W.e ,X2XOXOX+XNXhXvXuXlXuXw.0.7.Z %.iXuX9.uX9.Z %.9.0.w.0.9.8.7.6.7.7.%.9.uXw.q.q.M = & * * * a 9X8X>.>.7XwX:.I @.;.@.I 5 a I a 4 ~ c *   o @ a s 2 * ; * * $ + y 8 2 2 - , 5 @.5 N @.@.V A pX9X<.a c c l Q P.>.A c >.7Xc t ! j w g g $ $ + % - t x.k.c.G.A.J.W.W.A.Q ! p 2 ; ; 8 8 f 8 7 7 7 7 7 7 $ . . # . . . . .   . o @ @ @ 3 8 7 $ E.%X+X6X2X1X>X[.[.3X3XJX4XE.L.7 # t t # : 4 2 $ o . #     . .   . . + # $ # . $ $ 8 V 8 $ - - s ^ E l Y.K.R.R.G.G.G.K.k.l.y 3 * + $ d g w q x a y A 8Xc c c >.l.l.z.c a @.<.4.<.:.<.Z C N 5 X.5 < 1 , @ O % = = % @ @ , 4 a I > o .   2 c a a a L I @.s a c ` wXwX,.A c v A y % % = % = M iXiX9.9.9.<.<.9.9.8.<.<.8.0.0.9.9.<.9.uX9.uXiXZ M iXZ <.0.6.vXvXhX<X<X<XOXW.,XG G ).Y./.kXaXE J K.).W 9 G A.W.W.q T.gXu 0 W Q.k.0 x.l.0 $ s / 4 J q ( 8Xt   $ 8 o . S fX^.D.AXkXxXu. .X.u.-.X.u.r.X.X.r.fXkX2X).2XDX).[ / ^ ^ P ;.<.2.a I @.#.",
"Y / ;.~ c c ) ~ ) i j _ I.T._ T.aXnXsXfXu.r.y.r.r.8.i.zXu.xXr.L Y.Y.G /.5.$ X @ - o # ) Q.Q u u x u 0 g z.x.d h.tXL.u q J _ q r T.H H q 9 K.U.E R ] [ | ' ).2X(.,X5X4X6XGXSXSXnXlXlX0.iXuX9.Z 9.iX9.9.9.uX<.<.9.uX0.0.9.<.0.<.%.7.%.8.0.9.7.M = = % * 2 i 4.yX8Xc s A ,.4.:.,.2.a I a s ~ a 4 u ) t o   . - , @ - ; - $ $ t B.A z t 2 - , 1 D 5  .@.@.V V 9X9X:.A c l l.A A c c P.7Xc t i j g k g t $ + - 2 h z.E.R.A.G.J.J.A.W ` i 2 > 8 f t 8 8 8 7 h.j.d h.h.w 0 # # # # # . . # + . @ o o $ + 7 k.GX4X$X=X*X1X5X*X{.5X3X6X4XOXCXE.7 $ 8 2 o o @ o   X + . # . # . . . 7 # 6 $ 7 8 + + f 8 - - 3 t y ! Q K.K.W.OX].G.G.K.l z - - O $ 7 d k.r p x i y >.8Xc c A 8XP.l.n c C V <.9X9XV C @.@.5  .5 < = , , 2 2 ; X = ; & 2 , 4 a 3 @ . . > ~ s 4 a a a a #.I ,.~ ;.0X4.;.) >.8X9Xf ; * % % = m 9.w.iXuX9.%.7.9.9.6.-.0.0.0.w.9.7.%.7.uX9.9.iX9.Z 9.9.iXiXiXlXvXhXtXGX+XOX3X3XJ.Z.).^.T.T.aX{ H K.Q.G q r H Y.K.9 T.gX> q r eXAXd k.L.d t u p p u K l qXz   $ ; . . : dX^.D.).gX5.r.r.-.y.u.X.t.y.-.r.r.r.aXjX).Q.Y.T.0X{ K u ! ~ 4.:.;.;.,./ ",
"0X,.,.,.) n v z b h j ) / _ { qXhXfXsXxXu.-.y.y.o.r.y.y.sXnX5.T ' (.} /.P . o o o o - qXU.g g 0 j i 2 t n l.7 w E.h q p _ r : K.R.r r 9 9 Q Q W [ e.aX/.Y.).2XD.~.,X3XDX<XtXSXbXzX0.9.uX9.<.Z 9.iX9.<.9.9.7.<.0.uX0.<.7.8.7.7.-.8.9.9.0.9.M = = % = * 2 ,.wX>.z a a I ;.wXwX9X:.c :.,.>.c P 4 4 ! c $     @ o o @ $ 2 i ( x n b j i t 2 * , N N N %.Z C V yXhX,.A c b L.P.A A a ) 7Xc y 2 b l g k.h - X * t t k K.c.A.G.Z.A.A.W ! t $ - 8 f f 7 w R.E.k.R.k.j.j.K.v.g w 6 0 6 # . # # . # . o $ d E.GXAX4X{.H.~.5X1X{.{.6X5X{.,X4XGXQ.k.$ $ t . . o + + + . . # # # # # 7 d h.g w k.j.6 7 h.8 8 y y - - i ! K.D.J.H.G.G.c.L.l.y - - X @ 0 g k.r j u y y 8X8X~ c n >.z.l.b x A :.wX9XA V C Z N 5 @.< * 2 t i j 7X8X- @ @ 2 3 $ @ 2 @ . . @ s ~ i 4 s @.I I a I :.<.8X:.;.I P ! >.yX8XV - % = % = M Z q.q.<.%.7.<.7.9.7.6.<.0.uX9.<.9.0.uX9.9.iX9.9.Z w.iXiXuXuXzXPXhX+X4X3X1X1X(.<X2X^.' [ [ { E _ Y.g e 9 H K.Y.r W _ u q g E.NXd d U.l.i t u p q E Q tXz.+ + - @ o : R Y.' D.' U r.y.r.y.cX-.8.y.y.8.y.t.sXkXgXT.Y._ 7X,.s i x c ) ~ ) ) 7XI.",
"7Xc n >.) z k v n 7X7X` ~ / 1./ 2.6.t.zX0.7.cXi.r.8.i.i.lXfX[ /.H /././.u . O * o o t rXg g q u u t t t k d 6 7 k t 0 ^ aXq 9 K.K.r q q r L.E E { kXkX' Y.).`.D.J.~.1XGXgXyXwXlXbXiXiXuX9.9.7.w.iXiX0.0.9.<.0.iXiX0.8.9.<.8.%.9.<.8.0.9.B % % = % % - a yX8Xs s L I ~ ,.wXwX7X) n 8X8X>.c ! P 4 u ~ y o X @ o @ # t K.qXT.0 g g u t y 2 @ * 1  .N +.V C C yXLXeX) ~ b b z.8XA z v 7X) s t x l w g l t + + - > i L.R.G.G.Z.H H T 2 2 ; 8 8 8 d d M.GXOXG.Z.f.A.d.R.K.d.d.c.h.g w 6 # . # $ # $ 0 Q.AXKX6X3X3X{.,X,X{.{.{.3X4XJ.J.,X+XAXHXz.7 $ + @ + $ + # . # 6 w w p.k.v.v.R.R.R.G.R.m.j.j.7 f V 8 - , 2 K ' H A.Z.Z.G.c.E.n t y - + @ d l k.l l t 4 A >.n c x c A l.l.l.n ) wXZX8XV @.+.N  .N 5 * * 3 i u g L.l.B.b t t # o + @ o     2 ~ s 2 p s ! >.,.) ~ >.9XyXwX4.P s u s ,.rX9X3 ; = % = = m Z uX0.0.9.7.%.9.8.8.<.0.iX0.9.7.9.0.Z Z uXiX%.Z 9.w.0.uXlXbXbXyXNX2X6X,X*X!.1X2XY.T.aXaX0X` E _ q : : r A.E.r 0 Q ` u t L.k.6 8 U.k t t a u : K u eX8X- + o o . @ T /./.Y.' T e.xXr.y.zXr.-.u.y.8.u.zXlXvXhXqX0X^ ~ n c v v x b x b ) P.7X",
"c n A P.n v l.8XeX8XqX:.:.2.1.D O.+.$.0.9.%.bXbXt.8.zXmXxX`.H ^.Y.^./.| : . @ ; X X t qXd r g u t 2 t t d t 7 x.d > q _ _ q q K.r 0 r r T.T.j K 3.kXdX' Y.^.`.2X!.~.,XDXgXhXwX0.zXiXbXiXuX9.9.9.iXw.0.9.<.<.7.zXzX9.%.7.9.7.%.<.<.0.0.%.< % = % = % 8 9XqX) P #.;.2.#.;.7XqXP.x.l.k.l.n x ~ ~ u u >.c 2 & - $ $ g Q.R.Y.Y.9 g u d t $ @ @ O , N N C B C C 9XLXtXn n b n z.>.A c c n 7Xz y i l r k.U.v $ + + @ 2 L.E.W.R.A.Y.J 4 > - - 8 y 8 d E.JX3XF.H.{.F.s.s.g.s.d.d.d.r k.k.d.w w 0 w d w T.GX4X6X6X3X3X5X,X,X3X].{.,X,X*X*X*X,XJXKXHX8X8 $ 7 + + # # 7 d k.d.d.k.c.R.c.d.g.f.G.G.OXGXoXh.d d 8 8 ; , > J H Z.G.G.G.R.l.v $ - @ + - l.l.r r j t y A >.n c c A P.z.z.l.) eXBXZX8Xa C N N  ..., @ * t t g r h.w r E.tXl $ $ + O O O @ a A 4 u ! ! ! ) 7X7Xn 7X9XwXwX:.Y / L P s 7XyXA - % % % % = N 9.w.9.9.8.7.0.<.<.%.<.w.iX0.7.%.9.uXiXiXiX%.9.7.9.iXiXiXbX6.wXAX2X6X*XJ.S.<X).Y.' gXkXaX/ E _ g q q e r K.g : Q gXg $ g k 7 7 h.f t t t i t q 0 l.rXy X X @ o . 4 e.`.Y.' /.' kXfXxXzX6.0.zXcX7.q.i.8.t.2.Y ] ;.~ >.8X8XB.v z x b ) b ) ",
"A 8X8XB.B.eX9XtX9X7X>.wX4.*.$.+. . .N Z Z 9.iXiXu.u.zXxXkX/.G ^.^.| dX[ : @ o - o X t 8Xg g l h 0 8 t t d 8 x.E.w 0 ( I.q Q T.g 9 9 0 E qX` p ~ aXkXaXY.).Y.^.2X=X~.2X).gXhXlXuXiXiXZXpXiXiX9.9.uX0.<.%.8.%.%.0.iX8.%.%.7.-.%.%.8.9.8.B % % ; % % - 8XZX7X_ 3.s #.:.,.,.7XU.l.k.h.g h.l.n ~ c 3 u a a c 3 8 f U.<XW.G A.W.r q w 0 0 $ $ * O & < N N @.N @.eXHXtXP.B.n b b ) n n c n ) c v i b g r k.l.- @ @ @ > b K.R.R.U.Y.q @ @ $ 8 8 8 8 c.GX4X*X[.H.H.Z.s.s.A.g.d.A.d.a.w d.k.k.E.K.k.U.k.+XJX,X,X,X{.{.3XJ.].OX{.$X{.OX,X6X*X5X6X<XAXHXR.d d w d d h.j.k.d.a.d.d.e d.g.d.s.F.H.[.F.4XGXMXh.7 8 8 8 , @ : W Y.A.W.R.R.U.h $ $ o o y P.g w g x i a >.>.n c c >.n v n l.l.eXSXBX8XC N N  .N 5 & O @ - 0 w r r r d.W.R.Q.Q.h $ $ * - 2 >.~ t s >.) ! b n l k b 8X7X8X>.:.4.Y I P ~ yXyXy $ ; % = % = %.0.0.%.<.%.%.7.-.-.9.zXzX9.8.<.0.9.uXuX0.<.w.9.iXbXbXbXiX9.wXgXAX6X~.D.1X2X`.^.Y./.kXsX/ u / T._ r q 9 H K.q r I._ 0 0 l.x.8 d k t 8 - h u q d g 8Xy X O 3 @ . 4 | /.} ^.^.T dXkXmXcX0.0.cXbX8.7.7...+.+.Y *.1.4.9X8X8XrX8Xx z n n ) >.",
"B.8X8Xn 8X9X9X8X9X4.4.6.$.N N  . . . .Z 9.9.pXiXw.i.zXfXjX^.S.(.^.[ | T , @ @ * & + y 8Xl g l i $ d f d d d eXl.w q T.I.q Y.K.: 9 q q K 0Xp J qXkXaXT.Y.2XD.^.6X*XH.2XDXhXvXlXw.iXiXpXpXiXiX9.9.zX0.<.%.%.%.%.%.0.8.7.7.8.9.-.7.9.6.-.m % = ; - $ f yXSXI.I.1.K I ;.0XqXeXK.k.k.d.k.k.l.n >.c 3 4 y 4 c A v B.BXQ.J.S.Z.Y.r 6 l k 0 t t t $ - - C C N C c 7XHXtXz.B.z.v v ) n A n n n x c z l l r k.l.t @ O @ @ s l K.K._ j 4 @ $ 2 8 8 8 j.+XJX;X X-X[.F.Z.f.s.s.a.d.g.d.k.d.k.r a.d.k.A.A.d.W.,XJ.F.{.,X{.{.G.].$X@X3X{.G.OX,X{.;X1XOX4XJXW.A.R.K.U.R.c.K.k.9 e d.K.d.k.d.a.s.F.[.[.H.;X6XHXv.7 w 8 - - & @ u _ K.K.K.U.U.t # + + $ z L.g r Q k z c A ) c c n P.n z v ) L.Q.BXyX9XC C  . .5 * + + $ @ # 0 r w w A.W.9 Y.+XeX) t 3 y a C a a a x ~ j h g d d l.k.I.8X>.4.4.I L ,.! U.SXrX- % % = % % m 0.0.7.%.7.8.<.%.%.9.iX0.%.%.7.%.%.<.0.<.9.0.iXbXbXiXiXpXlXlXAX2X6X*X~.6X).A.W./.^.jXaX] K P qX0Xq 0 0 9 K.K.q g T.h 0 0 eXk 8 f f t - t g Q d l.B.t   O , @ o : R dX/._.W.G ^.kXnXbXlXw.zXzX7...B N  . .&.#.;.2.4.7X8XwXyX9X>.>.>.>.7X",
"A B.A >.7X,.,.qX3.2.:.$.@.+.@. .X. .+.%.9.9.Z iXuXcXcXfXDX' S.~.} e.| S : . @ & - @ y 8Xg w g 0 7 8 t f 8 0 eXk.0 Q K.g r T.r 9 r g q K ] 4 U nXFXaXT.Y.`.D.(.2X,X*X6X).aXnXzXzXbXiXiXiXbXuX0.w.lXzX0.+.%.0.<.8.0.7.%.7.0.0.0.-.<.0.%.m = ; % + 8 yXyXL.T.{ ^ U ` I.qXBXQ.U.A.d.d.c.R.l.z.8XA 3 2 5 4 y z A b Q.<X,XJ.s.d.r 6 L.P.k.x.h.8 8 t t a $.C C a 7XSXyXP.8Xz.v k b 8Xn c n c c c c h l g K.n f - O o @ s ! ( ` K 2 @ * 2 t 0 $ p.VXGX$X-X[.[.[.F.{.G.a.9 a.w 6 a.d.c.k.k.w 9 r d.r e W.W.G.G.OXOXOX].].$X$X|.$X$XH.G.G.*X{.J.].,XOXG.A.G.s.A.d.w w k.d.d.A.d.a.r s.s.d.f.F.[.[.[.OX6X%Xj.w 8 8 2 * 2 - s ( T.W ( j - @ # $ y v l g g l v c v c n n c n A n z c z.U.E.SXBX>.C N C  .y $ $ - t t t d k g 9 r R.Z.A.W.AXtXn z ~ c y 4 y i c P.P.k.l.k.g k.K.U.tXtX9X>.a L ] qX_ tXSXf + - = = = < 7.0.8.%.<.8.8.%.7.0.0.7.B %.%.%.%.uXzXw.q.9.zXiXiXiXpXiXiXvXkX<X2X=X~.2X2XD.).).Y.jXkXfX/ 4 3.T.q q q 9 r T.Q r T.L.d 0 P.x.w d d f 7 $ u K.q l.rXy + & @ & @ : T e.} ' (.G ^.jXhXbXzXiXiXuX%.%.%. . .+. . .L #.4.wX7X7XwX:.9X,.A >.:.",
">.8X:.8X:.4.4.1.O.D &.&. . .+.+.+. .O.+.<.Z Z 0.uXmXvXaX^.G ~.1X' *.R R 1 . . o O - v n w 0 g h 7 t x.x.8 d x.w w g U.r K.K.0 q E u _ 3.U S U hXkX/.T.2X<XG D.,X5X5X2X).kXmXlXzXiXbXiXiXiXbXw.uX0.u.0.%.+.0.zX0.%.%.%.8.w.0.%.%.-.0.%.< = % - $ eXBXU.L.aXW q gXgXE.Q.E.d.d.Q.oXc.d.E.l.k 8XA y 2 y a i t h U.Q.OX6X{.s.w h.k k.v.eXv.x.h.h.k.k k A 5 a a @.yXtXP.8XB.v b ( n 8Xn n 8X) v n ) j j g ( p @ @ O o y ;.~ a 2 * * 8 - d 6 w +XJX3X.X-X;X X[.F.f.g.c.g.d.d.h.w w h.r h.d.r w r s.s.K.XXG.R.XXR.].@X$X.X|.3X$X.X$X$XG.W.{.J.G.G.J.Z.s.Z.d.w 9 w d.k.k.k.w 9 w e 9 a.G.F.F.[.[.-XH.;X4XCXc.6 7 8 8 ; - 4 4 ^ ^ ! s - o @ o t n Q g g j v c z A c x c B.P.n y c n U.E.SXyXA C N @.a t t 0 t h v v P.P.d 0 d.r Z.OX,X<XE.( p s t 2 3 y y B.8Xl.x.E.d.h.k.d.R.Q.NXeX>.;.P ^ T.Q.U.yXyXy O % = = m %.0.-.%.0.0.0.0.%.7.8.7.8.0.7...-.zXzXiX0.0.iXw.iXiXbXbXiXzXhX).6X1X~.1X,XJ.W.(.Y./.sXnX5.4 K T.E q W q 9 K.gXq l L.g 0 b E.7 0 x.8 - $ 0 r 0 l P.y @ - & & @ : S } /.} (.D.G `.vXvXvXbXiX%.%.%.+. . .+. . .O.O.#.#.1.5.4.9X7X,.>.A c ",
":.4.4.4.2.*.R D R X.D O.=.=.$.+.+.O.*.&.<.<.Z <.iXlXsXhX/.' (.jX[ S T r.R @ o O O ; z z 0 9 g k 7 f B.x.d k.k.w 0 k.Q.K.U.H 9 q W W _ ^ 4 U 5.dXkX/.^.DX(.G ,X,X4X6X<XgXkXbXlXiXbXbXbXiXiXiXzXcXlX-.-.<.-.8.0.i.7.8.7.7.-.zXlX+.-.6.N , = O O t eXE.r _ jX[ J Y.W.W.W.R.A.k.Q.%XK.a.k.k.l.z.A f 3 a s s j k K.W.OXOXG.s.p.a.k.x.v.E.E.v.c.E.oXc.l i 5 5 C c LXyXP.z.A v x b b n A c n n n A c j E q ( s $ O o O - C @.5 @ - - - 7 $ 0 E.4X6X;X;X-X>X;X[.'.f.g.XXR.k.k.k.h.c.h.r g k.w w w w r d.R.c.oXoXR.R.XX|.|..X;X$X.X|.XX$X].OXXXR.R.R.G.s.s.e e a.d.j.h.w w w a.a.c.g.G.].f.F.'. X;X-X;X;XJXMXd 7 8 8 ; - @ , a L @.a *   o # i ( Q p j l z.A n 8Xn x >.) n b c ~ ) I.Q.BXwXa @.C a z l.v.k.h.h.x.8XV.x.x.h.d.e s.,X4X%XQ.Q 0 4 s c y 2 z n z.k.v.E.k.c.W.W.k.k.Q.Q.T.tXgXJ W gXU.U.yXB.- % % % ; Z 0.%...-.0.u.9.%.%.8.0.i.0.%.%.0.uX0.lXzX0.zXiXiXbXbXbXiXbXPXjX,X1X1X,X~.G J.2X(.T.jXkXaXL p ` T.E Q q 9 q Q.r K.U.q q d x.7 d x.f t 0 l g 9 d z.c * & O X . S T S T } DX(.S.^.gXvXbXzX9.Z %.$.$.O.O.+.+...@.+.O.#.D R 4.4.9X9X9X4.:.",
":.;.;.#.R D D S D D D  .$.=.$.@. .L R L =.-.<.9.uXuXhXkXjX^.^.jXdXS &.fXD @ @ @ % * f n k.q l u $ t v.z.d v.k.0 9 R.<XU.Q.H q W K J [ P 4 U sXkXaXY.DX2XJ.D.,X4X4X6X<XgXPXmXzXpXiXbXbXiX0.0.i.zXlX0.-.-.+.%.8.0.-.7.%.%.%.0.0.2.6.-.3 = = %   8XSXR.r T./.' Y.W.OX{.G.XX+XoXc.d.c.k.k.E.U.P.8Xn y y y ! x g r K.Z.f.g.g.c.c.v.v.v.R.R.E.+XXXc.g.c.q 2 2 a 5 vXBXeXz.v n ! b b 7XA c n n n ) x i g q ^ K 2 @ + + - , N , O - - - 7 w R.+XOX.X;X>X-X;X X'.'.f.G.XXXXk.w d.d.k.k.h.w h.r d.d.w d.d.k.c.oXoXR.XXXX.X|.'.;X3X].].$X|.g.XXXXc.c.c.d.w w a.g d h.h.w h.k.j.c.h.g.XXoXg.f.'. X;X>X-X-X>X4XGXQ.w 7 8 y - @ & 2 @.C , @ o . # i L.r p j ! ( z.A A c c 8Xn l.n a c x P.tXSXyXy @.3 2 j k.R.XXR.v.E.eXx.x.v.j.w a.s.{.$XJ.OXK.p j ~ a y y y B.B.x.k.d.a.R.NXR.G.c.W.E.W.Q.Y.G K.gXT.h 8XyXf X O ; = N 8.-.+.0.u.0.<.7.%.-.0.i.0.-.-.-.%.0.zXzXzXiXw.iXbXbXiXzXbXvXFX).2X6X,X,XZ.D.DX2XY./.kXe./ 4 J I.W E W : 9 K.K.K.T.q 0 w l.k d V.z.t 0 Q r 9 w b z $ O O o : &.r.S S /.2X(.D.^.aXlXpXuX9.Z %.<.$.O.O. .@.%.-.%.O. .D D L I 1.4.5.4.3.",
";.#.Y L D O.R O.S D R L O.O.+.O.@.L L U O.2.$.$.<.wXwXkXjX/./.dXt.S r.fX1 @ , o + @ y 8Xl.9 r 0 # 8 eXh.w K.k.w 9 U.tXR.tXW r W J K { K J { fXdX/.Y.DX`.D.W.W.OX4X<XQ.hXPXbXbXbXZXbXiXiXw.-.0.0.zXcXzX6.+.-.8.-.8.-.%.-.$.$.-.t.6.%.m * * + $ tXNXR.T.).W D.W.G.3X'.G.OX4XR.c.R.R.R.E.l.k.k.U.eXf 2 - i j u q e g.G.].XXm.XXM.c.R.XXc.XX@XG.f.g.g.k > @ 3 3 >.yX8Xl.n c b x b z.8Xn c n n b z s u q E ^ > # + * O 3 ; O & 2 7 6 6 E.GX<X;X{.-X;X>X X'.}.|.].G.XXR.k.d.k.d.g k.v.k.k.h.h.w d.k.c.R.v.XXR.XXOX].|. X'.{.{.'..X@X].XXXXoXoXv.c.h.k.h.r h.h.d h.k.k.v.j.k.d.d.XXXXg.b.].}. X-X-X-X>X[.3X%XR.p.7 7 8 - @ & 5 a @ o @ o $ E _ q q s p n n z.) z n 8Xb b ! c c x n tXSX,.5 N * t k d.g.].XXoXE.v.v.v.v.c.c.g.f.F.G.f.A.q g ! s y 2 y 8Xz.v.E.c.k.k.G.c.c.XX+XXXG.G.(.D.Y.Y.).Q.k k BXyX+ + 3 = 3 -.8.-.u.0.%.%.%.7.-.u.0.-.%.%.-.0.lXcXlXw.0.w.iXbXbXiXpXbXvXkX).<XJX<X<XW.D.).DX/.' kXsXe.J u _ E K ^ g q K.gXK.Q.r 0 w L.h.w 8XB.7 # r r r l b y + O & & @ R y.} S r.DX^.^.jXkXvXlXuX9.%.<.2.;.Y D @. .+.<.=.O.D D R S L Y L U *.5.",
"L R Y O.O.L D D L L R &.&.L O.5.#.Y U R R *.@.@.@.6.2.[ aX/.dXfXfXD X.y.D , * O O @ f 8Xr # 9 q # > eXl.w v.k.r r E.Q.K.T.g u T J ] 0X( P { aXkX/./.DX).Y.W.R.+XGXNXqXhXwX6.bXmXbXbXbXzXzX8.0.lXlXlXzX0.-.-.8.-.8.i.0.-.+.$.+.6.6.O.< & *   k SXR.K.).Y.Y.).R.{.{.|.OX$X+X+XOXoXd.R.R.R.r w k.L.A f 2 t u t r k.R.XX].|.@XXXn.m.XXR.G.s.F.f.g.].d.d # o 3 a A BXeXv c n x x ( P.8Xc n n L.b a s K u J E u # @ - @ - * - 8 $ 6 a.R.%XOXJ.{.[.[.-X>X'.'.$X3X].s.F.G.c.d.d.d.h.k.K.k.d.k.k.k.d.k.k.R.oXoXXXOX$X}.[.{.-XH.H.'.{.'..XOXXXXXR.oXv.j.j.h.d h.j.j.x.c.x.h.h.h.c.g.XXXXf.b.|.}.'. X>X>X-X&X{.3X4XM.w 7 7 8 - + ; 3 @ # o @ > W W q u K s n n ) n c A 8Xl.l ! c ~ c z.yXBXa a , o t h.G.F.F.XXXXXXR.XXR.c.XXXX@Xg.G.G.g.d.q u i t 2 y f rXv.k.c.R.oXXXR.d.R.+X%XOXf.{.3XJ.J.D.Y.T.E.L.NXBXd X - = < @.8.-.-.$.$.%.%.8.8.8.-.%.+.-.lXcXzX0.w.0.w.w.zXbXiXbXbXmXnXvXaXQ.AX%XW.Q.D.^.DX).} ).kXaXU u ` / K K J r K.AXK.tXQ 9 w k.k.0 B.B.$ # q q 9 k.P.f O O O * @ S y.X.D sXkX/.^.jXsXsXwX<.%.%.<.#.Y Y D @.+.@.@.@.#.O.D D R R O.D D R  .",
"D  .L L R D D J L L D *.&.L O.=.#.L U T L Y #.L L 5.*.L e.e.t.fX-.X.D y.+.1 * @ * + y n 0 0 g Q $ t rXz.d x.K.w r U.Q.k.K.W u ^ ] aXqX^ K [ aXkX/.jXjX^.^.<X+XGXAXtXhXhX2.@.iXbXbXzXzXzXi.%.w.cX0.+.+.u.u.-.%.X.%.zX0.-.-.=.#.6.sX5 & & * + eXHXK.A.(.W.W.,XG.|.$X3X3X].G.%X4XR.a.s.G.R.d.h.d.k U.B.y t t u g U.R.XXg.].|.f.G.|.XXf.s.Z.e Z.].G.d.9 # @ ; C 8XLX8Xb c ~ x ( ( ( ) c v n P.n s a K q q J p : @ @ - + $ 8 7 # A.<X4X4X3X.X;X[.[.[. X'..X3X3X].f.F.d.a.d.w w r d.d.r a.d.c.c.d.g.c.v.R.XX].{.{. X X-X{.Z.S.[..X'..X$X@XXXXXXXc.c.k.d.k.k.k.k.c.c.k.d.h.k.d.c.G.G.f.].3X.X'.'.;X;X[.H.[.J.,X%XE.d 6 $ $ - - * > @ @ @ > W W q J a a b z.n n c A 8Xb b x ! c n B.BXBXa 3 & o t w d.'.F.F.g.g.g.XX].].n.].N.n.].XXA.r r i i 2 2 c v v l.d d.R.R.R.g.Q.oX+XOX$XOX$X{.H.J.W.Y.Y.Q.K.E.NXz.X * * , N 6.t.=.+.%.8.6.w.0.-.-.+.-.u.u.zXzXu.iX8.w.zXbXzXbXIXbXpX6.lXhXtX+XCXOXW.Y./.DXjX).jXdXe.U K 0X3./ P K K W R.K.Q.Q r r U.x.7 x.B.7 $ q 9 6 k P.f O O O = , D fXD  .r.sXdX/.aXO.$.2.$.C @.2./ / Y D O.=.+.@.;.1.Y  .D D L R R Y D D ",
"O.O.O.L L L P / / P L Y Y D D O.*.Y Y U J L L L 5 Y R O.e.fXsXt.+.-.X.y.6.1 & O - @ v n g r K.Q $ $ 8Xx.7 k.U.w w k.tXk.l u 4 U 5.qXqXl u { dXkX' _.FXY.).FXAXHXSXhXvXvX0.6.9.bXbXzXbXcXcX-.u.cXu. .+.lXzX0.+.%.%.-.=.-.$.+.L 2.wX3 & * - - VXHXR.A.2X).A.G.{.$X].$X%X$XOX$XOXg.s.s.G.G.A.E.c.l.x.B.A z y t d U.NXoX@X$X}.'.'.|.'.F.s.F.Z.Z.F.F.A.6 # o 2 y B.LXeXn c ! x x Q L.) n v v P.L.x c s u : H W : > @ @ t 8 7 6 E.4X,X{.;X5X>X-X[.[.F.'.[.3X.X{.[.F.f.d.d.d.d.a.d.c.c.d.d.d.a.s.a.d.g.c.G.].{.[.[. X&X;XH.S.(.J.*X[. X;X.XXXXXR.c.g.d.g.k.c.k.w d.d.d.w r w r r s.f.F. X3X3X.X'. X[.[.[.&X*X;X5X4X+Xc.6 $ 7 $ $ @ $ @ @ u W q q J s c n ) b v A A I.b ( ! x x v V.ZXBXA 5 & O $ 9 Z.J.F.s.s.a.s.].].[.f.n.].XXR.R.R.l.t y y 2 a 8X8Xk h.d.g.XXR.a.r R.<XOXG.OX$X$X$X$X{.W.W.).).A.R.CXrX+ - - & 1 6.t.+.+.%.<.0.u.8.X.-.-.0.u.-. .0.zXzX8.w.bXbXbXbXbXbX<.%.6.hXyXNXGX+XW.).^.).DX/./.gXe.^ K 3.qX4.3.K u K.K.K.tXk.r r E.k.w B.8X$ $ u r 0 r z.y @ * O * 1 r.xXX.X.r.fXdXe.e.O.$.2.a L #.1.U ^ ] L Y *.#.1.{ / U L L a S D D L L O.",
"D  .L L P P ! ^ ^ ^ / ] Y L L L U U U U P U U L u S 5 L &.e.t.6.-.r.D r.lX5 @ % O @ 9X8Xr q g q $ @ f k 6 g U.0 r r Q.K.l q 4 T ^ ^ T.p q qXFXjX/.| `.`.DXQ.+XNXBXwXwXlXzXuX0.bXiXiXzXcXcX0.w.zX0.$.-.u.y.0.%.X.%.%.-.<.O.Y L L Y , * * % 8 MXUXW.<XDX2XZ.s.].].OX|.].OX4X].G.'.s.s.G.G.g.+XE.k.g b B.A A z t l R.XX$X3X.X'.'.'.F.F.Z.e Z.Z.Z.A.r 6 # @ a f k BXtX) ~ c s x ( ( >.A v b P.) a a p q 9 J W J 2 $ - f f w oXJX6X*X&X-X-X&X[.[. X3X.X;X3X;X{.'.F.F.g.c.c.d.d.d.A.g.d.G.A.d.g.d.s.a.s.d.F.{.;X;X[.[.*X~.~.,X!.;X&X X[.'.{.].].G.d.d.d.s.w a.d.g.G.d.d.r d.d.d.s.s.F.[.;X;X3X{.'.F.[.[.;X>X5X3X{.OXAXE.w 7 7 t 2 @ - 2 P H q q K a a n P.b v A A P.P.j ! I x z.B.BXBXc 4 @ o # w G.F.F.F.F.F.Z.F.[.'.'.].|.XXXXoXQ.K.t t i x n 8Xl.k.R.R.G.G.d.a.e G.+XOX{.$X$X$X@X{.OXA.D.).DXG.G.HXHX$ - * & < 6.6.D +.$.-.0.-...+.X.-.lXzX%.N -.zXzX8.0.mXcXzXbXbXvXV 6.zXlXyXAXHXAXJX2XY.jXjXT.gXkXaXJ 4 3.qX1.3.K q L.g R.Q.r 0 w v.d d V.8X$ > I.L.q g z.f @ ; & &  .r.y.D -.&.t.r.aXt. .+.*.L L Y P J U U L *.#.L U / / U P L L L I Y Y @.I ",
"D D L P K K W W W ' U ^ I Y ! P J E ^ _ _ ^ ! U ^ L I L 5 6.t.+.i.-.r.lX=.4 @ X O y yXQ E 9 6 q $ # f x.w x.U.w l Q.E.K.K.q q K _ [ qXE W Y.jXjXT.`.`.gXgXW.CXCXhXyXvXlXxXu.w.iXiXiXzXcXi.y.y.lXzX-.u.zX-.8.u...-.+.lXlX4.Y / L a 2 * * ; 8 eXKX<X4XJX1XZ.e f.$X%X$XF.{.4XG.f.{.f.s.G.%X$XXXXXk.d.r k d 8 f k k.k.d.].3X'.[.3X[.Z.{.J.e s.s.s.R.w # 7 t eXE.g AXtX7X~ c ~ x x P.8Xn v x L.) z a ~ K q q W q 2 u i z U.Q.GXJX*X{.:X:X[. X[.'..X{.[.;X5X>X-X;X'.F.f.f.s.e a.e e e a.s.d.d.d.G.A.s.d.f.Z.{.3X3XF.H.,X<X,X,X{.,X[.[.;X;X{.f.g.s.s.f.f.s.d.g.G.g.s.g.s.s.d.R.c.g.F.F.[.&X;X5X3X{..X X X[.-X-X-X[.OXJXJXQ.0 d z - > > u x G : q u s a >.P.v z A B.P.) j ! u ~ A eXBXE.w ) $ # 7 w d.F.s.G.Z.e F.S.F.[.'.F..X3XOXOXR.g t h j L.P.k g c.+XXXXX].g.e s.G.F.OX4XOX].$X|.XXG.s.A.`.JX<XR.AXSX8 - - * ; @.I P #.I $.-.-.%.....u.lXu.-.-.8.zXzX8.zXmXcXuXw.bXpX0.zXi.lXyXtXGX+X<X<X2X`.gX/./.kXjXJ q ^ T./ / p : Q K.K.K.g w r U.7 7 z.f   8 g q r q I.B.@ % % O  .xX5.D t.X.r.lXt.$.+.5 4 L P J P ^ ^ I I Y #.I P P ] ^ ' ^ U ^ P L L I @.",
"*.#.#.I s q J W W K J p s K u J J J ^ [ _ ( ! p s P #.$.+.+.<.%.i.-.-.6.4 @ % O + y 8Xj r q r q # $ x.x.w L.L.9 g Q.Q.K.K.r q W ^ _ Q.W H T.jXgX/.FX`.).W.W.HXAXAXhXlXlXcXcXzXw.iXiXi.i.xXy.-.r.u.-.-.y.u.%.-.0.+.+.6.sXsXY I / ;.4 * - ; - eXKXOX<XJX6XA.d.XX@X%X.XF.{.4XF.s.[.F.s.b.4X.XF.f.R.k.k.x.B.f d k l K.A.R.OX].{.;X'.Z.Z.G.Z.e s.s.d.p.# # p.E.+XOX).T.` c c P x P ) 8XA k x ) ) z a ! K q : J : 2 a z z Q HXKX4X5X[.-X-X-X X}. X.X X[.H.>X5X=X;X[.f.f.f.s.w w e s.s.s.s.s.d.s.d.s.d.d.Z.G.J.{.,X*XOX<X,XW.J.,X*XH.H.3X,XJ.G.d.s.s.g.G.s.d.s.d.d.s.s.e e d.a.a.g.F.F. X&X>X5X;X}..X.X X[.[.-X>X;X.X,XJXGXtXU.n t t u i E q F J K a z n >.b z n n 7X) ( ! s @.P.8XHX+XK.T.h $ # 6 c.G.a.s.e Z.!.F.F..X3X[.{.$X].d.r l.x i 0 g k k h.k.XX|.%X@Xg.s.F.G.s.{.6X{.F.%X%XXXg.e Z.<XJXJXOXGXtX- 8 - % 3 c I Y ;.5.fXsX+...%.0.-.0.zXu.-.u.y.t.u.cXcXzXzXiXiXiXlXzXzXlXsXhXBXGX+X(.`.jXjX/./.jXaX' q I.T.^ _ E 9 Q K.k.Q.Q.r w U.d 8 f f # 7 q 6 q q I.qX8 + O O 1 6.xXr.6.t. .6.6.%.C L S I U ^ ^ _ ] ^ ! P I L P U ^ ^ ^ W ^ J u K P I a ",
"Y #.#.Y P K K J J q u u u J u J q J J ^ ^ ! P P L L @.+...N B %.8.8.@., o O O   - 8XL.q g q l d # t 8Xx.0 x.K.0 r tX+XU.T.r q K ^ [ tX' J T.DX)./.FXjX).(.W.GXNXSXPXlXlXy.cXi.q.zXzXy.cXcXy.r.-.u.-.-.0.i.i.u.-.6.-.$.$.2.Y Y 2.;., + - + - yXUXR.OX6X4XA.s.oX%X4X].F.;X{.f.s.'.*XF.'..X.X.XOXR.K.U.x.z.v t k K.Q k.R.+X+XG.F.{.F.e F.J.s.e e d.7 6 6 c.XX].4XA.K.` c a ~ s x >.8Xn n l ) ) c t ) E : : q 4 4 t >.P.Q.KXJX,X;XH.H. X:X X'. X;X5X3X*X&X:X:X>X;Xb.F.f.s.d.s.9 e d.d.s.s.d.d.d.d.s.d.G s.A.Z.,XGX<XW.W.Y.W.6X(.J.~.*X{.A.d.G.s.e d.d.A.s.d.e e e s.e e a.a.s.f.F. X-X-X>X5X X{.;X{.[.[. X-X-X-X[.*X6XJXKXI.f c i > 4 u q : K / i a n P.b x n >.8Xn x ~ s c ) 7XQ.+XOX+Xk.7 . 7 c.d.9 s.s.Z.{.F.F.OX3X{.XXOXR.R.k.l.f t f v z.l.k.R.G.'.$X$Xf.s.{.F.s.F.3X.XF.$X4X$XXXs.Z.6X6X4XW.KXtX- ; ; % 3 @./ U Y e.lXt.+.-.8.u.+.-.cX0.-.u.-.-.y.cXy.zXzXzXuXlXzXcXi.u.sXSXAXGX<XW.^./.DXjX).jXaX' q T.aXT W J q _ K.K.NXQ.q r U.d d B.v # $ q 0 q g b 8Xf + O & * 5 6.6.6.t.%.-.%.@.$.#.L P p K E [ _ ^ E K J J p J K J J W W W u J P / ;.",
"Y Y Y U ^ E K u q 4 4 J u u q q W T W W W ^ ^ P I L 5 N N m B B %.%., @ @ o X - c 8Xj u q u l t 7 d 8Xk w k.l.r g gXgXK.U.W q J J q ^ _ H ' gX/.' dX`.Y.H H AXSXhXvXuXzXxXcXi.8.iXcXu.xXcXxXu.t.-.8.-.8.i.cXcX6.=.&.O.L 2.wXt.6.$., O * + - SXUXW.OX,X3XA.s.XXGX4XF.H.;X[.F.F.[.[.{.[.f.[.>XOXG.K.l.k v k h l.L.l g l E.Q.g.s.F.G.s.s.G.F.e e k.w # 6 %XF.].3XOXY.) ~ c s ! s ) >.v x b b ,.s y ) J G q F 4 u y >.qXKXDX,X,X,X[.[.[. X X X.X;X6X5X;X[.-X>X5X;X'.'.f.s.s.e 9 9 e d.d.d.K.K.d.A.d.d.s.Z.Z.A.,X6X<XA.W.,X<XW.W.4X6XW.G.Z.Z.A.d.e e e A.r A.e d.G e e e d.s.f.f.f.;X5X:X>X-X[.>X3X.X X}. X-X-X'.[.;X,X6XUXtXA >.s 2 > u : : J { t z ) n z v n B.8Xx j ! I s c L.K.OX$XOXR.w # 7 r e a.s.G.J.F.s.].].s.G.+XOXc.v.x.v y 8 B.V.B.x.R.G.{. X{.[.F.f.*XF.s.s.3X;XF.].4X%XOXs.A.<X2X,XG.HXSX$ + ; * 3 #.5.Y R *.2.O.+.6.0.8.u.i.u.-.-.r.&.r.r.cXzXi.zXzXw.0.cXcXi.lXlXLXNXAX+XW.).`.FXjX).jXgXW H T.T.W ^ q q K.Q.K.AXQ.6 w v.d 0 x.B.7 $ g g W q g P.n - o O @ O , -.6.8.%.@.N  .$.O.K L K K ^ W _ W H J q J 4 u u 4 u K p J p J P 3.3.",
"r.L L ] / J 4 4 4 p P ^ U ^ K W [ Y.W W W E W K L L  . .5 N o.B m * & & o o t A n ( q q q u i t 8 v x.k d k.g 0 q gXQ.Q Y.g E J u : J T.W ' Y.[ T.dXjX' D.Y.AXNXyXvXlXcXy.y.cXi.i.zXt.t.fXy.xXxX-.X.q.i.8.u.cXxXr.&.=.O.-.sXlXlX-.< O * @ - BXUXR.OXOXOXJ.d.g.GX#XF.{.;X.X[.{.[.H.;X;X'.-X XF.W.r g K.l L.U.K.U.U.L.d d x.R.G.s.s.s.a.a.F.A.d.g 7 . p.OXF. X6X6XE.I.) c x p ! ~ >.c b ( n ) c i P J q F F 4 a a a tXFX).J.;X:X&X X X[. X.X X-X;X;X&X*X5X>X-X X[.'.f.s.e d.H r A.e d.A.d.H A.c.A.A.Z.d.A.G.W.XXW.<X4X<X4XR.W.4XGXW.G.s.s.s.s.d.A.d.K.d.r s.e e e 9 s.A.s.f.F.F.;X>X>X:X[.-X6X5X3X.X.X}. X-X[.[.>X5X,XJXSXhXA z u 4 J F : J _ u z z.n b v b A 8Xc s ! ~ a ~ ` W.,X;X'.$Xc.# $ g r e s.J.G.e f.].f.s.R.oXU.g k.l.v n f l.z.x.k.R.J.;X;X[.[. XF.[.[.F.F..X;XF.].4XGXR.d.Z.,X3XOXG.KXUX8 X ; & * O.t.5.t.*.R L &.-.0.zXcXlX0...-.r.r.y.y.nXcXu.zXzX0.w.cXcXi.lXsXvXSXNXW.A.Y.).FX_.' dX/.J W T.J q J q J W Y.U.AXT.0 r L.k.0 x.z.t 7 i j h q u b L.z - X X O & m Z %.B N 5 N @.5 K Y ^ _ E W W W H ' q J q J u 4 u 4 q J ^ ^ ^ I ~ ",
"sX2.1.] Y 4 s I I I Y { [ [ [ W Y.W E r E W E J P L L +. .%.%.N & & % O @ z B.) g 0 q 0 t t 8 t t n k t d k g 0 g Q.U.K.U.W J W ^ u ^ qX_ J /.dXgXdXjX/.).`.gXtXwXlXlXxXy.cXcXcXlXxXt.xXxXxXcXy.-.-.i.i.8...t.xXxXt.5.&. .-.lXcX-.< O * - - eXLXR.XX4X4XOXa.6 oX%XG.{.;X{.}.[.'.[.;X X[.-X[.F.OXA.A.E.R.K.R.A.K.T.Q h t f k.d.e s.e s.s.e A.Y.j # 6 n.].Z.J.5XJXY.L.b x s p s ~ ) x x b c n c s u q : F q 4 a C a hXDX<X*X*X[.[. X-X}..X;X}. X X X-X5X3X'.'.-X XF.F.G.A.A.r d.A.A.K.Q r r K.A.G.f.G.G.f.G.G.R.$XGX4XOXOX4X+X+XOXXXG.G.f.Z.A.G.R.G.K.A.d.A.H d.e e d.d.s.f.'.'.-X-X>X>X-X&X;X;X;X.X.X X[. X X-X-X&XJ.).SXvXc a a u u J q q ^ i c ) n b n c >.>.c s c s s ;.I.+X6X;X'.@XE.# # k.r d.s.s.e a.s.f.s.R.K.k.k k U.U.P.P.L.x.j.k g A.G.[.-X[.[.;X.X[.[.'.H.[.3X].F.4XCXg.a.G.3X5XOXG.HXLXy % * & * +.t.y.t.5.D &.2.6.lXcXu.8.0.y.-.X.y.xXr.xXy.u.zXzX0.cXcXi.y.cXsXhXSXSX+XY.D.Y.gX/.Y.^.[ J Y.T.: q J J W Q K.K.gXQ.q r k.d 0 l.z.d t 0 h d 0 g u l ) v - + X O & = N %.N  .C L U U Y K ! W W H W Y.Y.W W W ^ / s u u u q u ~ / Y L ",
"6.6.sX1.L U #.;.;.;.P K K ^ E E Q Q g g j W E p u q S L =.$.5 * = & * 2 A v b l q 0 q q 0 $ $ - y h t 0 d g h 0 j tXU.W T.J q E ^ P K 3.J W | hXkXdXjX/.Y.^.T.gXqXlXmXxXy.xXxXcXxXy.xXfXfXxXcXy.-.y.i.cXi.6.t.t.dXt.y.=. .-.i.zXo.< % - - # d HXtXR.4X3XOXa.6 c.CX+XG.3X.X'. X[.[.;X X X X[.J.*X,XOXOXd.G.A.s.Z.A.Q h f k d d.d.9 s.s.s.9 H Q.p . h.R.F.Z.Z.(.W.K.l b x x p s ~ >.z z x ) n i c u : : q J 4 a C :.SXDX6X5X*X&X[.-X X X X.X X[.-X>X-X>X{.F.[.-X Xb.F.F.A.H r r H K.K.A.k.K.d.A.g.f.].].G.R.OX+X4X4X$X.X].GXGXXXR.R.c.G.G.F.G.G.d.d.d.d.d.A.A.A.d.r K.A.f.s.'. X X[.-X>X3X;X[.[.[. X;X.X}. X X&X&X&X*X<XAXBXc a s 4 u J : q u x x z.n n b z c ,.c s s x c ! L.).6X3XF.b.@Xp.# 0 K.A.r e 9 s.s.a.a.k.k.h t d ( T.K.W K.R.R.R.R.G.J.F.[. XH.;X;X[.}.[.H. X3X|.G.%XoX9 f.OX3X4X{.R.HXBX- - % & < -.u.cX6.X.&.=.t.fXmXlX-.8.y.cX-.X.y.cXy.xXy.t.xXcXcXcXcXy.cXxXsXhXyXgX+X).).jXjXjXgX/.[ W T.T.u J ^ J J W U.W Q.qX0 w k g 7 d x.v d t t i i t 0 q j 8Xn y * O % % = B %.$.+.@.Y P P ! ! Q W r H Q K.' _ _ { { / ^ I P u 4 L 1.2.2.",
"6.6.6.5.] R Y ;.4.1.U J J K ^ ! x h g 0 t 0 u 0 : 4 u L ;.5 o O o * A 8Xz.h l r r 0 t t $ @ - - h t 8 h.l.d 0 > g T._ K.U.q u J ^ / / aX3.{ aXaXaXkXkX/.' Y.qXtX7XhXIXxXr.xXcXxXfXy.fXkXr.y.cXi.8.i.i.cXbXi.t.t.e.xXnX8.....8.u.7.m < % - + 8 BXHX<XGX].f.W.6 9 CXoXG.$X4X}.[. X[.;X.X$X X'.1X*X*X3XJ.F.F.s.Z.G H Y.p t f t w r 9 d.A.9 9 H U.> 6 Q.G.s.S.G W.K.d.k k x E p s >.~ x j c 7Xn y s q q F q u 5 V <.7XSXDX5X3X-X X[.'.[..X X.X-X X-X>X&X[. X.X-X X}.}.'.f.d.d.K.A.Q K.d.K.K.K.A.A.Z.F.].XX].R.+X+X$X$X$X|.].$X4X%XoXoXXXG.G.Z.Z.G.R.R.k.k.K.K.K.H r d.d.A.G.F.F. X-X[.'.[.;X5X*X&X[. X;X X}..X-X X X*X=X6XFXPX7Xc a 4 J J : : q x i ) n n n x c :.a i s s n ( Q Y.,XF.F.f.n.g.6 6 E.W.e 9 e s.s.s.e r u f i l L.W G A.A.s.A.W.,X{.,XF. X;X'.{.;X}.[.'.[.;X.XG.OXHXk.# e {.$X3XOXE.HXB.X ; = % < +.cXy.X. .&.r.xXsXsXu.%.u.cXi.y.-.y.cXxXfXfXxXt.t.mXcXxXy.xXmXkXwXtXQ.Y.T.^.jXjXkXjXdXE J { _ K K ^ J q E Q.E Q.tX0 0 k k.0 0 t f t 8 # $ 0 t q 0 q l l.v v - & & = = N %.:.I a p 4 p x ! Q u E W K.Q E ^ ! / / / / Y 1.*.L #.6.sX",
"%.+.6.sXe.R R ] 5.U J J q K E i z t t 8 $ t u > t 4 4 a s o X + o y yX8Xg g r r w w $ $ - - 8 - t t v x.l.0 0 u j Q U.K.E q J E / s 4.hX3.] 5.qXaXaXjXkX).aXQ.qX` wXPXsXe.fXxXxXfXr.fXkXr.xXcXy.y.i.zXcXcXlXfXr.e.r.cXcX....%.i.7.m , & * $ + V.UXHXG.s.OX%Xa.d.oXCXa.g.$X}.}. X[..X3X4X}.f.*X>X>X&X[.F.s.Z.Z.G D.Y.q u 2 t b 0 9 9 W r 0 W r # G.4Xs.s.H H ).Y.g g b ( x p x ~ >.x j x >.c y ! p u E q 4 C V 9XyX).(.5X>X[.'.}.}.;X;X;X;X X'.;X5X[.[.:X>X X X X|.'.f.d.A.W A.g r A.d.W A.d.Z.Z.].G.].OXG.R.OXOX3X.X'.'.$XOXOX+XOXR.].G.F.Z.A.A.k.K.K.K.g K.A.K.A.k.d.G.'.'. X-X X-X XH.[.5X;X[.&X X X.X|.}.'.[.;X=X6XDXgXqX>.a a J 4 4 4 q p z c 8Xn z x c >.>.s ! x z l g H W.D.J.F.s.XXd.# K.T.9 9 H r e e r r t y u h Q G G Z.Z.Z.H.H.*X=X>X;Xf. X3X.X;X X X[.H.5X$Xg.GXGX6 6 R.F.].4X%XCXHXd + ; % = N ..i.8...X.6.xXxXr.e.0.u.zXi.cXi.i.i.cXy.y.fXxXfXxXxXxXxXu.sXmXPXqXqXgXQ.' Y.kXkXaXdXsXqX^ { qXP ! ] J : u T.U.U.I.q 0 w l.l.d t t y - 8 $ - t > q q g g l 8X>.A & & & & 5 O.L 4 4 : 2 u u t q t g j E ! ^ u J U { 5.1.I Y 2.2.-.6.",
"%.@.6.5.*.5.] 5.{ K J J J K s s n - - 8 t $ 2 y 4 s a a 3 + & + - 8X8Xg g A.r r 9 0 d t t y $ t t d d d 7 7 d b ( ` I.Q q u J J P ;.sX,./ 5.1.4.vXsXfXkXjXgXaXhXhXgXFXsXe.r.fXxXxXr.fXnXfXy.cXy.i.i.q.i.bXcXlXt.fXr.u.cXi.8.%.0.q.= % O % $ # 8 BXtXd.%X4XOXW.9 a.+XR.XX$X|. X X[.3X4XGX@X'.&X>X>X&XH.F.s.Z.Z.S._.^.W q > t c 4 > 0 p p u $ # 6 OX3XF.e A.r K.k.g k.l.b j s c @.c x j x >.c y i p ! ^ u 2 a V >.hX<X~.{.[.F.'.}.;X.X;X-X;X[.[.3X5X-X-X[.-X;X.X X}.].F.d.d.d.g A.K.K.W A.A.A.Z.s.F.G.G.G.R.G.G.].'..X3X.X.X3X$XOXR.].G.J.G.F.Z.d.r K.K.k.H d.Q d.Q d.s.f.|.}. X X-X-X-X[.[.5X>X[.[.-X;X;X.X}.'.'.H.;X5X<X).gXqXA a 4 4 J J u u s z >.n x x ) A I s s b b K.g K.Y.Y.H s.s.OXXX9 w L.u > g K.w 9 r j 2 t i Q Y.S.G e Z.Z.Z.H.=X>X>X{.F..X$X3X.X X X'.[.3Xf.g.CXE.w g.OXOXf.G.HXLXrX$ + * % & m ..0.8...%.i.cXsXe.e.u.lXcXcXi.i.i.i.cXxXxXfXfXr.r.xXnXnXt.t.nXkX0XT.tXT.aXjXhXfXsXe.] ] 3.qXhX{ ^ / J u g _ L.I.L.u 0 0 t l l f d t 8 $ - t $ 6 0 9 r r r k 7XrXy X O o @ 5 C 4 4 2 > 2 2 > > t u t i x P p u J U [ 5.Y 1.5.wXsX6.",
"9.%.%.=.R 5.J T aXT.J W J p p i s i t a a a a a a #.@.a @ @ * + i ZXl 9 e d.r d.w d h t 8 t 8 f z.z.d 7 7 w b ( ( ( l j g g p u p ;.4.a 1.sX3.5.sXsXfXkXdXaXhXPXPXgXkXPXdXt.r.r.fXfXfXnXxXxXi.y.i.i.8.0.cXlXfXfXxXxXu.8.i.zXu.8.u.1 & & ; - + $ z.BXNX+XR.OXXXd.d.+X+X#X%X.X X-X-X5X4X4X].F.-X>X:X&XF.Z.Z.G Z.G _.(.^.F 4 4 4 y $ > u i - . # g.$X{.Z.Z.H u r K.k.U.L.z x ! c >.s x x x A C 4 2 2 i P y ; a A qXQ.,XS.H.F.'.'.|.3X X X X-X[.;X5X*X;X:X&X-X5X3X|.'.F.F.A.r r A.K.A.K.K.R.W.J.A.F.F.G.XX].].G.].]..X3X.X X{.{.].G.G.].].J.G.Z.Z.Z.A.K.K.A.K.K.K.r d.d.d.f.'.'..X.X;X-X-X-X[.;X3X[.[.-X;X;X$X.X}.}.'.[.*XJ.).AXqXc s 2 > P P u p i s A n x x ~ A ~ s ! b l.k.d.r _ J H e Z.{.3Xd.# $ t u x g 6 0 g x 2 > h K.(.D.G G Z.Z.Z.H.-X>X>X[.'..X4X4X3X}.}.[..X3Xn.oXCXw h.R.OX3XOXg.NXLXf . @ ; % O < -.i.7.q.i.zXlXt.r.fXsXlXmXi.q.i.i.q.cXcXxXfXfXr.dXfXfXfXe.e.kXkXqXhXtXaXkXkXsXsXsXt.*.1.3.,.qX0X^ p K u q j L.U.( b z 0 7 t d i d t - 8 y 8 t t 0 q r r r g k 8X) - o O @ 3 I 4 u u 2 2 $ > 2 $ 2 z s s P K u J J ' /.] 3.5.5.6.$.",
"iXw.-.=.&.| T 4 /.dXW q q p p p / ` ~ I ~ @.~ :.:.@.@.a o o + - B.tXK.g 9 r K.r k k f d 8 7 k z.b d w 7 k P.P.( j j u g E J J u ^ ;.Y I sXsX;.1.6.vXPXdXT.aXkXPXhXgXkXPXnXfXdXr.r.xXnXfXxXy.y.8.i.i.8.u.lXt.fXnXxXxXcXi.8.8.0.lX0. ., @ % * $ + 8 P.HXR.d.G.Z.A.d.oX+XoX%X$X X X X;X4XGX].f. X:X-X[.S.Z.s.G G S.1X_.^.T q : o o $ - t 2 . # j.+X{.F.Z.H H p g Q K.P.b i ! ~ c A a x ! c c a a u a c :.a y c A tXgX1XH.{.[.].].}. X;X X X[.{.3X5X5X-X&X-X>X>X;X[.'.'.G.G.d.H r A.d.A.A.A.A.A.D.G.G.].G.G.G.].].'..X[. X;X.X{.F.'.].].].].F.s.A.G.R.R.R.K.K.K.K.k.d.A.G.F.F.'.|.3X5X X X-X>X-X6X;X[.-X.X X.X3X.X'.F.F.Z.A.,XgX0Xc a 2 2 P u 4 u 2 a A ) x s s c >.I x z l.U.k.r W u J e Z.F.{.R.6 . # t ~ 4 $ t u t 4 u _ W._.=XG G Z.s.s.H.&X:X:X-XF..X4X4X5X X X}..X3X#X%XoX6 d.%XXXR.4XNXBXrX$ + - * O & 1 0.0.q.zXzX0.t.xXkXfXfXxXcXu.o.i.i.i.y.cXxXxXxXfXr.fXr.r.fXfXnXhXgXPXFXqX/.jXfXsXsXsX5.e.sXI / 4.] 4 u J g g Q L.( ) z.h 0 $ 0 d v n 8 f 8 8 t k 0 d A.r r d.w L.tXy o @ O , a a I ~ I a a a i t t s s a p p J J ' /.' U ] ] #.1.#.",
"0.w.6.-.=.5.T F ' T.W J q _ ` T.aX_ u p i 4 4 ;.#.5 ;.2 . @ o a yXk r K.e r k.w l.d k l.t 7 x.B.t 6 7 h.v.z.b x j i j g g q u K ^ / I ;.sX5.1.;.6.nXPXaXT.dXkXhXqXkXFXnXnXnXfXr.r.fXkXfXfXxXy.y.y.i.y.cXxXe.t.fXxXu.zXmXw.-.0.sXsX6., o + % - + $ $ E.HXCXOX4XXXs.g.oXE.%X$X.X X}.[.3X4X].f.;X>X;X&XH.Z.G G G S.~._.!.G H q >   + + @ . $ d E.G.Z.Z.A.Y.K p E Q l P.b i x >.c c s i x ) c y 4 5 C :.:.A C a ~ Q.<X,X~.{.F..X.X.X}.-X[.[.[.*X=X5X5X-X X5X5X-X'. X.X}.G.Z.r H d.A.A.d.H d.e e A.J.G.G.XXG.g.'.].'.b.[..X;X.X.X|.].].].].].G.G.G.G.G.A.A.A.k.A.A.r r A.G.F.F.[.}.;X6X;X-X&X>X;X6X5X[.&X[.[. X.X}.}.'.].J.J.(.AXtX8XA 3 y :.s p p 4 a A ) c p z A A c c z b E.K.l E u u H H Z.F.W.R.6 . $ i 2 - $ @ $ : F } _.1X1XG G s.s.Z.[.[.:X-X[.f.|.4X4X3X}.;X.X$X$XOXNXoXd.a.R.G.c.R.NXrX@ + O - & & , 5 u.lXuX0.q.w.xXxXy.fXfXfXy.u.o.i.i.y.u.xXxXxXnXxXr.| r.fXnXmXnXhXaXFXPXgX| aXnXnXsX6.#.t.vX1.I ,./ P u J Q Q g g l ( z.P.l.d 0 0 f z.x.f 8 8 d d l.d r d.r r w K.tXn $ o o o a <.) >.7Xc a >.~ c >.! u u K u q F /.jXJ J [ 1.3.4.6.",
"%.8.<.-.5.R | ' G ).).Q.K._ { gXgXW 0 u u > 2 5 4 3 :., o @ + v 8Xk.k.d.9 K.g d k f z.h 0 j.B.j.7 7 k V.E.f d h l j g t u W W ^ K Y Y 4.4.1.5.6.wXsXsX| dXjXwX0XaXFXPXnXnXxXy.xXy.xXfXr.fXxXi.y.i.i.y.xXxXdXfXr.lXcXcXzXcXvXvX4.qXhX#., O % - 8 -   t LXKXGXJX{.f.g.R.oX+X@X$X.X'.'.OXXX].].3X;X.X'.F.s.Z.S.S.!.!.=X=X!.^.H p 2   # o - v P.k.A.G A.H W p j _ E ( b j z ) ~ a a z x x ) a y 2 4 4 I a 5 y a ) L.Y.W.J.F.f.]..X X X-X'.[.*X&X&X*X*X*X5X6X;X'.[.-X-X{.F.Z.Z.H A.A.A.A.A.r A.A.A.G.G.G.J.].].g.'.'.F.}..X.X'.'.'.].n.G.G.].].G.G.D.Z.Z.s.A.d.K.A.r r A.F.F.F. X[.|..X5X3X-X-X>X5X>X*X&X[.&X-X X.X.X|.{.{.{.,X).tX>.A a C :.#.s 5 2 a a c ~ i p a A >.) z h l.L.l Q j E W D.Z.G G.R.k.$ # . + + X o : q G S.(.1X~.S.G G Z.F.H.&X;X>X Xf.|.4X3X.X}..X|.4X#XOXoXd.d.XXOXXXNXHX8Xt o - O * O O , *.wXt.lX9.0.zXmXxXy.fXfXe.fXy.y.i.i.y.y.xXnXfXr.fXfXr.fXxXnXnXPXkXsXaXFXhX/.5.kXmXsX=.O.*.sX4.Y I U P u q g g r g l h l.l.P.l.d $ 7 d z.j.7 d x.d h.k 0 r k.r k.k.x.tXt o O o 5 :.a ~ ;.a i i i p ` qX3./ E J q W T./.F U [ 5.6.6.6.",
"%.8.8.6.t.e.[ | W /.DXU.W Y._ T.U.g i t t y y 2 2 5 :.@ O - + A l.l.K.9 w k.k f f V.U.d d U.j.w 7 k v.eXx.k.b b x j h g Q L._ K ! / 3.1.Y Y 2.5.wXsXaXhXkXkXqX3.hXhXkXxXxXxXy.xXxXxXfXxXnXxXy.i.i.8.t.xXfXe.fXt.u.cXcXcXcXu.lXkXqXaX*.4 * & - - - $ 8 eXHXHX3X].].a.h.MXCX#X@X|.'.F.3X{.$X$X|.}.'.F.Z.Z.Z.S.S.S.S.=X=X=X~.A.r u @ , 4 a 0XI.K.).Y.D.q p i j _ _ ) b x x ) c a a x x ( ~ y 4 5 4 5 5 a 5 3 c 8XI.Q.W.OXg.F.}. X X X[.[.H.H.&XH.=X*X;X6X6X;X'.;X-X[. XF.G e Z.A.A.A.e s.H H A.A.A.A.Y.W.{.G.].G.'.F.F.F.[.F.F.F.F.f.G.XXXXR.A.A.A.G G Z.H H K.A.K.r A.Z.F.&X-X X[.[.3X6X>X[.=X>X&X:X[.[.[. X X X.X|.f.Z.{.J.W.T.P.a y 3 C c 4 4 4 y a c c x p z c A A n h b ( b ( Q l W W H G Z.A.R.k.t o O X O 2 K ' ^.!._.=X!.S.S.Z.Z.f.F.[.;X5X$X].].OX{.'.'..X|.$X%XoXR.e s.XXGX4XCXUXv + $ @ ; % O & L sXe.5.lXlXzXbXcXy.y.fXe.fXxXxXy.y.i.y.y.nXxXdXdXr.fXy.xXy.xXnXnXPXhXT.aXjXdX/.sXvXsX=.5.=.2.4.4.Y / K U E g r g g l k d k k.x.x.w 6 0 l.x.d 8 x.x.f j.d k.d.w R.d.g eXv o * O 2 $.4 i i 2 2 p u 0 p qXgX{ _ W ' ).Q.G T [ R *.6.-.-.",
"..+...0.lXsX/.Y.).).gXW Q gXW.W g d k i t z a 2 - a a O $ + $ B.U.k.w 9 d.k.d d B.rXh.k.E.h.w 7 7 z.eXv.l.l.l.h h h ( I.( E K P ^ U / / ] 1.] 1.3.sXhXkXFXaX] 0XsXaXe.sXlXcXcXcXxXnXnXnXfXxXy.y.y.&.r.fXdXdXdXt.r.xXzXlXmXwXaXhX/.' U 5 3 , ; + % * $ k UXKX4X].].s.w oXVX#X@X}.b.F.{.$X$X@Xf.b.'.'.F.Z.Z.S.S.S.!.:X=X:X*XJ.H 0 > @ 4 s P I.T.AXDX[ u u j ( x ( P.x x ) ~ z y z ) n b s 3 5 a a p 4 2 3 a :.qXtXQ.W.W.s.3X;X X-X[.H.[.H.H.H.&X=X6X6X6X5X[.[.5X-X[.*XH.s.G G e e s.H H r r e H A.A.A.G.R.G.F.F.].G.F.F.G.F.G.].].G.].R.W.R.J.G.Z.G Z.e r H H H A.A.e s.Z.;X&X-X-X[..XJX6X*X&X&X[.H.[.H.[.-X X X[.|.F.F.OXW.W.U.>.A C 3 y a a s 5 y 3 c ;.! x c y a A 8Xz b ( L.L.l.q W H G ' W.K.k.tXP.y - & - p H G !.=X=X!.S.S.S.S.Z.Z.f.F.'.|.$X@XXX$X.XF.b.|.$X#XCXoXd.d.].OX4XHXHXBXt + * ; & % 2 3 P sX/.sXxXlXzXcXcXmXy.r.dXdXfXxXy.y.i.y.y.xXfXfXfXxXxXcXxXxXxXnXkXnXaXqX{ gXkXsXaXaXsX5.2.*.#.4.3.Y / K U _ Q g q d g L.l.b h.U.E.l.d 7 d l.x.w d V.x.k k k k.9 r k.v.E.v + * X ; :.y 2 2 i u t i u u T.T._ W W T.DX).W ' e.R e.u.-.0.",
"%.B ..o.t.e.} `.gXQ.W q ).`.<XR.d.k f z.f f n f z C * o & @ y z.l g w r K.w 7 f eXb d U.k.w 6 7 v.eXx.x.z.k l 0 j ` I.` P P ! P { / ^ ^ { { ] ^ ~ ,.hXPXhX{ 3.hXkXfXe.fXxXmXcXxXxXnXnXxXnXxX8.u.cXcXe.[ | aXdXfXt.xX6.6.vXsXjXDXgX^._ P 5 3 , + - + - 8 rXHXGXOXs.f.6 c.HX#X#X.XF.Z.F.$X$X|.'.$X.X.XF.F.S.S.S.G !.=X~.S.Z.F.A.9 6 0 t c >.~ ~ >.hX{ u ! ! ! ! ( ( x n >.c i p x >.c y y 5 a 5 > 4 > 4 a @.<.yXhXQ.A.s.{.3X;X-X:X-XH.H.[.H.&X>X5XJX6X5X&X[.;X;X-X&X[.H.Z.s.e e A.A.H K.A.H A.A.A.K.G.G.W.XXOXXXG.G.OXOX{.G.G.].G.G.G.R.G.G.D.A.Z.e G e e e G H e d.Z.Z.H.&X&X:X5X[.[.6X6X6X6X>X&XH.H.H.[.'. X-X X-X.XF.XX+XK.qX4.2.5 5 3 u s s s a a a a ~ >.z z z v n ) j ( L.b Q g W p J qXFXhX7X8XC C 3 - > q G J.=X=X*X!.S.S.S.G Z.s.F.'.F.f.f.$X3X$X.Xb.b.|.@X@XNXoXa.g.].].GXKXUXn # $ ; % * * , a ] ' ^.dXe.t.nXzXmXlXt.r.jXjXfXnXr.X.u.i.u.xXxXnXxXmXxXcXcXcXnXxXe.aXhXaX{ aXkXkXhXsXaX5.Y *.1./ / / / I p P P _ ( j j g b l x.j.E.eXk 7 0 7 x.U.h.x.eXx.d 0 l r 9 r L.eXV.+ % % O :.x $ t h v y t i h L.K.Y.).' H `.jXY./.' kXfXu.%.-.",
"%...B ..t.e.^.`.).' ' ' `.W.J.XX+Xk.j.B.B.z.k z v c - @ O @ n z.l.q 0 0 k.7 t z.z.d l L.w 0 7 k eXz.x.z.z.k h j ) 7X` / ! Y / ^ ^ _ ^ ^ ^ ^ E ^ ^ ! qXhX/ U sXkXkXfXt.u.cXcXy.xXxXnXfXfXxXcXy.y.i.xXaXdX/.| e.fXnXsXsXsXhX/./.).,X).T.{ P 4 2 @ - - - 7 k eXGX+XG.XXw a.#XCX%X$X'.F.F..X$X$XOX].'.|.F.Z.S.S.S.S.S.S.Z.e e G Z.e 9 : > z >.9X8X4.~ ~ K ! E x ! ) j x n A z i j b n z t y a 4 5 4 u u 4 5 $.4.wXT.Q.G.F..X-X X-X&X&X[.[.-X-X[.*X6X6X6X;X'.-X-X-X>X:X&XF.Z.e e A.Y.K.W H W A.Y.A.Y.W.W.R.W.W.G.R.J.{.OXG.G.].G.R.G.XXOXW.G.A.Z.A.G A.A.W H H H r 9 e e Z.*XH.[.-X-X-X}.[.3X6XJX5X,X&XH.H.[.[.[.-X-X-X5X{.f.R.Q.gXaX4.a a 4 2 u u i a 4 3 y c ) v z z x n n b b L.( ( E j p E qXsX! s ;.A a 2 $ : e Z.H.H.H.*X*X!.G S.Z.Z.F.G..X|.}.].].$X.Xf.b.'.|.@X@XHXc.9 g.f.{.GXHXBXt $ + - * * 3 5 P W Y.).jXdXdXlXlXlXuXt.fXjX/.| e.&.r.i.i.8.xXfXxXcXxXxXxXmXcXmXxX6.aXhXsXqX0XyXnXPXaX] J ] 1.3./ ` ;./ P P P P ~ ` ` ( h 0 b l.l.x.V.B.d 6 7 d eXE.k.U.z.f $ g H 9 e h.k.B.; - O o 2 y z f v v t f z.g r R.Q.AXY.F T Q.).jXT 5.fX6...%.",
"...... .=.aXjX).T.E _ /.`.D.G.+X#XoXeXx.j.v f v 8XC * % X - 8Xb l 0 0 g 0 7 d eXv d 8Xk.0 9 w x.E.E.E.l.k g l I._ ( E K P ^ / ^ p _ ^ E J J q K 0X3.~ ~ / wXvXnXsXt.=.6.xXcXcXxXxXdXfXfXfXxXcXy.cXxXdX`./.jXfXnXxX5.wXsX[ [ ).D.D.Y.).tXT.l 7 @ + - - > $ eXHX%X].G.a.a.#X%XXX@X{.G.].OX$X%X$XG.G.G.G.H.D.D.S.D.' H D.Y.J.S.G e H r r b 8X8X8X,.x x ! E x j ) ) j n A n z h j b c f t a s y 4 4 2 5 s 5 c 3.T.K.G.J.{.;X;X;X:X[.[.&X[.[.:X&XJ.5X6X5X X[.;X-X&X:X>X&XZ.Z.A.H H ' W H r A.W H A.D.J.W.W.W.J.J.J.G.W.J.Z.Z.OX{.{.].G.W.W.J.J.W.R.K.K.K.K.H A.K.D.A.G e Z.F.H.>X>X[.>X;X'.;X6X6X6X*XH.&X&X[.[.&X-X&X X;X.Xf.G.Q.T.aXwX$.a 4 4 t 4 a a 4 a 3 y >.P.v z z b ) b x ( ) Q ! ! j j ` 0X_ U.qXI.i > 0 9 G Z.Z.e e S.!.!.S.S.Z.Z.H.H.[.{.OX@XXX4X.Xf.F.|.$X@X%XHXp.a.].f.$XNXtXd $ 8 - @ & - i s L.Q.Q.<X`./.aXsXt.6.u.lXxXjX/./.aXe.xXcXu.y.xXxXfXxXfXxXxXcXcXxXxXsXxXnXkXhX( / hXhX] J P ] _ _ ^ ~ _ ` _ ` ^ U ! ` I.I.b h h k.E.E.x.U.z.t 0 7 h.x.d k 8Xv 7 0 g 9 q w l.V.A O O O - A A z v z.v B.v h.E.R.R.W.jXT.G Y.gXjX[ { fX$. ...",
"@.%...+.*.e.dXaXW _ T.aX).W.OXXXE.oXE.h.8 f x.n A y + % O 8 B.d 0 9 r 0 7 7 P.eXd k tXk.0 w g Q.U.eXU.d d g Q I.p j p E ^ E ^ K E W j q q 4 u / ,./ p s qXvXhX4.1.sX6.-.u.cXlXxXnXfXdXr.xXxXcXi.cXxXgXY.^.jXdXe.t.sXfXaX^.^.(.D.G A.Y.Q.+XQ.g t - 2 2 2 - E.UX+XG.f.g.g.%XGXoXOX+XOXJ.G.W.OX<X%X$X,XOX,X(.~.^.} Y.Y.T.T.Q.Y.D.D.Y.K.K.L.L.) b x ) ! j j x h ( v z ) n v h h l P.z t t y s 2 4 2 4 a s s p _ Y.W.G.{..X.X>X5X>X[.[.&X&XH.1X,X*X5X5X X[. X-X>X;X-X[.-XH.Z.(.Y.G W ^ W W W A.A.Z.J.D.D.H.J.W.W.OXJ.J.J.Z.S.J.J.G.J.OXR.W.OXW.J.A.A.K.K.Q r H Y.Y.G e Z.Z.Z.-X>X:X-X-X-X[. X5X5X6X*X[.;X*XH.[.[.[.-X>X-X;X.X].W.U.0X7X:.s i a 5 2 3 3 y a t 2 s ) z h i b n b x ( P.j x ! x j E ) 0XtXU.P.w 9 r e e G Z.Z.S.S.G S.G D.S.S.S.H.F.f.G.OX4X,X{.J.F.{.OXoXGXm.9 G.].G.+XNX8X8 8 8 $ O $ > u T.tXgXQ.W.Y.^./.e.t.lXu.nXnXkX/./.aXfXxXcXi.xXmXnXr.fXfXkXxXxXcXmXlX5.5.hXnXnXwX/ P / 4.3.Y u p E ! _ I._ E { ^ ^ ! E ( ` P.L.h d x.v.v.x.eXh.0 0 w x.E.d l.U.d 0 0 q 9 w l.z.8X- O % @ a A v d f z.E.x.U.NXoXW.A.).dX[ W ' | aXsXt. . ...",
"O.+. .+.*.e.fXaX^ 0XaXY.W.,X%XXX#XoXh.h.x.V.9XA V + % + + y v d u 0 q t $ 7 eXx.0 b U.w 0 w k.NXE.E.l.g g g L.j u E E ^ ^ E J W j ( E u q u u P p s ,.wXsXsXsX#.#.lXlX6.8.u.y.mXxXfXfXdXfXxXy.cXmXmX`.Y.(.`.[ S t.nXnXaX)._.(.D.D.W.A.J.W.+XQ.eXz - , - $ 8 BXMXG.g.G.f.G.%XCX+XoXR.A.J.W.W.R.4XGX4X<X,X(.D.Y.' ^.[ [ W ' ' ' A.K.R.K.K.L.l l b ( b p t h i b i x >.) v h g l L.z z t t u 2 u y a s i p ( K.W.R.G.H.[.[.-X;X-X&X:X>X>X&X5X6X6X3X;X[. X-X-X>X>X&XF.{.6XJ.S.' G F ' ' _ Y.K.D.D.J.S.F.F.F.{.{.OX(.~.D.S.S.D.J.J.J.OXW.OXR.J.J.A.A.A.Y.W W W W W q D.~.Z.H.;X X&X-X-X-X-X[. X5X5X*X3X;X[.[.&X&X[.:X>X>X;X;X'.G.R.U.I.) z i a 4 2 4 4 a c t 2 h n n h h x b b x x ! x x i x ! ! x ( L.K.U.K.K.W.Y.D.D.Y.).^.Y.' D.^.^.~.~.!.&X*XOXOXGX+XG.H.J.{.+XOX#XHX#XG.A.s.OXGXHXx.$ 8 t - $ $ g K.).+XQ.R.A.A.^.D.' e.sXt.t.sXkXkX)./.aXsXcXcXcXcXxXr.dXdXfXfXy.cXcX6.=.5.1.wXvXvXsX~ a ~ 4.3.p q u g E Q Q q W E E ^ K u j ~ I.l k d x.E.E.eXE.r w w v.tXk k eXk # 0 g q 0 d d A t X * % y A n f d d h.v.VXR.OXXXW.)./.| J J | kXsX*. .X...",
" . .N  .=.5.sX5.2.aXT.D.J.<XGX@XCXm.p.j.C.V.V.y - % % % O y k L.Q 0 0 7 7 t eXb # l h 0 0 0 E.tXtXL.r g g g ( p j ^ _ W E J E ' _ P.( p 4 > 4 4 P 3.sXvXsX4.5.2.t.lXzXu.w.u.lXcXfXxXfXfXxXt.8.cXmXnX(.J.(.2X| R fXnXjXY.^.~.H.=X1X1X,X{.{.].+XgX>.* @ @ -   x.MXoXG.].G.f.G.+XoXR.k.d.W.<XJ.A.+X+X+XOXOXJ.D.D.D.[ { { ^ W W H H A.A.A.k.k.L.b l.b b j g z i v z n >.n z j k b l.b d i j u 2 4 a >.s u g K.A.R.G.G.].].[.[.&X[.[.:X:X>X1X6XJX5X,X[.[. X-X-X>X>X-Xf.{.6X1XG G F ' ^ [ ' Y.A.J.F.F.F.F.F.'.'.{.{.,X(.S.D.G D.W.,XOX].].G.G.G.G.G.D.A.H Y.K.' _ W G ^.J.Z.5X*XF.-X>X>X-X-X X[.;X3X;X5X5X&X>X:X&XH.&X>X5X{.[.{.G.W.oXL.L.s i a a 5 3 5 2 a i u z n ) h h l ) P.c h z z p i i x ) ( j h l K.k.A.Y.A.D.W T.{ ^ ' | } } D.(.,X*X,X4X4X4X+XA.W.G.A.W.+X+XCX+XG.g.f.s.g.E.LXf $ ; - 8 y p Y.+XOXR.A.R.R.W.,X,X(./.fXnXsXL 5.dX(.D./.fXmXcXlXlXxXr.fXfXxXxXxXzX0.+.lXxX6.#.4.sXhXhX/ u s ! E u q 0 g Q W E W J W W ^ E u p ! b l w d E.E.E.eXK.6 w g l.k t eXE.> > 0 u 0 0 d k 8 X * % ; V A V.V.j.w c.oXXXR.OX<X)././.[ E e.sXsXO.+. ...",
" . .@.@.2.-.O.2.t.aXT.Y.W.OX+X%XCX@Xc.M.C.V.f - % % % * X y b l.l j 0 # $ d eXk 0 g 0 t 0 g tXQ.NXQ w l u j _ j p E E U J E [ qXqXx 4 > > , a a ;.wX2.3.4.#.;.sXlXlXlXu.u.0.t.u.t.fXxXxXxXy.8.cXmXkXD.!.1XJXjXfXe.fXjXY.S.S.H.=X,X1X3X.X[.{.W.8Xs , O % $ X 8 MXNXOX$X$XG.a.R.MXVX+XW.W.,X(.J.,XOX+XOXOXJ.J.W.Y.Y.{ [ ^ _ T.Y.K.K.A.k.Q l.l b x n ( x x z c v c A A c j h g k l.k f g h u > 4 a c v l.R.d.g.g.XXG.G.{.OX*XH.H.~.&X*X=X1XJXJX*X[. X-X&X-X:X-X-X XF.H.*X(.D.' [ T { /.^.D.S.H.H.F.f.'.b.b.'.'.].J.J.J.S.G J.,X*X{.{.].'.F.F.Z.Z.J.D.H ' Y.' ' T G H G ,XJX[.F.&X>X:X-X-X X[.-X>X5XJX6X>X:X:X:X&X[..X*XF.H.{.f.g.R.R.K.h h z C C 4 2 2 i t t h x b h j h b ) ) z i i a i i h b ) ( b L.L.K.r A.K.Y.H J U U ] | G G H J.OXW.OX4X+XW.G.J.<XW.s.A.E.oXVXXXg.F.].].k.eXf $ - 8 $ - s hX+XOX{.J.W.<X+X,XH.=X(.^.dXmXt.S R /.1XJ.).kXIXcXlXu.u.xXfXnXfXnXzXw.lX0.lXcXwX2.5.6.sXwXsXqX/ 4 u 0 t u j ( ^ E ' W W W ' ! p u p ! u l k h.E.tX+XU.6 w w d t 7 8XeXt $ $ > 0 l k b f $ + X X ; y B.rXeXj.w m.4X%X4X<XW.' | aX{ qXsX5.6.O. . .",
" .&.%.%.$.+.1 &.lXhXjX<X,X{.].#X%X#XVXM.v.V.f + X % * *   i n w q l d $ # d 7Xl h g d 0 6 g NXAXtXr r W g _ I.u p ^ E K W [ gXjX/ $ o * 4 a 2.<.2.;.I #.Y #.2.6.6.sXu.lXu.0.u.y.fXr.y.nXmXcXzXlXt.kXS.!.5X2XdXaXsXdXFX<XH.&X&X&X*X{.{.[.[.{.W.L.* ; & + - $ $ x.tX%X%X$XG.s.a.E.oXNX+X+X,X1X,XJ.OX$XOXXXG.W.Q.Q.L.T._ ^ E K.K.Q r r K.k.b k b b c A z c z c A A A a s h g g l k b h u u > t s A f l.L.R.G.g.n.].g.G.,X,XZ.G Z.~.*X=X,X6XJX4X[. X:X:X X:X-X-X-X-XF.*XZ.D.^.' T._ T./.(.!.Z.Z.s.Z.f.f.f.f.g.f.G.F.A.D.D.S.J.*X{.].'.'.'.G.g.Z.F.J.S.S.' Y.| ' T T Y.Y.,X2XZ.H.-X-X-X:X-X X[.[.-X3X6XJX6X:X:X:X&XH.~.J.{.W.G.G.XXn.g.R.g g x ~ @.2 4 p j u u b b x k g h h ) >.c c c z a c x z b x ( b g k.K.d.K.H T.[ ] 3.0X[ ' _.D.Z.W.OX+X+XoXOXJ.+XOXW.R.U.MXNXE.a.].{.OXOXoXBX8 + + % % 2 a qXOXG.[.{.5X2X,X1X[.H.F.J./.dXe.r.dXjX6X&X' jXnXxXu.0.y.xXfXkXr.xXu.8.u.lX0.xXlXsX1.5.4.aXwXaX3.! u , > > t ! { T._ W J J E ^ P p s ` t l g w Q.tXtXQ.0 0 0 h 0 0 l.eX0 $ $ 0 u K.l.v t % % ; % % ; f x.M.oXa.g.CX$X3XOXW.H [ kX5.e.5.4.6.5 +. .",
" .X.%.B %.@. .-.t.aXjX2X,X3X$X%XXXXXCXVXMXeXx.% % % % % o 2 n u 0 l l $ # d B.k Q L.j l 7 0 NXT.U.g l E E ( P J K P J J K ^ gX^ @ . @ 5 Z $.@.6.$.L L 1.*.1.*.*.2.6.6.t.t.u.-.-.xXxXi.cXcXcXzXcXfX/.~.!.1X2XdX| fX/.).1X*X:X&X[.[.'.-X X[.3X).i * & * & + 8 - 7 NXGX%XXXf.s.G.R.XX+X+XOXW.W.{.{.{.{.OXXXR.R.R.U.U.I.` ` ( g g K.g L.U.b v c n A A c c C c a a c y a i j j g l b b h q > 4 u s x 8Xl.k.G.XX$X{.].f.G.{.D.G e Y.DX6X2X6XJXJX3X-X-X:X-X-X-X&X[. X X-XH.S.S.Y.' ' Y.^.!.S.G G s.G.R.d.g.a.d.a.c.K.R.K.H D.W.A.A.Z.G.f.f.f.g.s.s.Z.Z.Z.S.(._.(.' ' [ Y.W D.S.H.H.-X-X-X>X;X[.-X-X[.[.4XKX6X*X&X&XH.H.Z.Z.,X<XZ.g.@X].a.g.K.U.L.p s s 2 > u u g j x l j g h h x c c n A c a c c v b v b b l.l.k.d.d.K.Y.( ! ^ _ T.W.W.(.W.R.R.VX%XOX3X,X4X<X+XE.NXNXc.a.s.F.$X4X+XNXB.$ + % + - * , P +XG. X[.{.{.,XH.&X*XH.OXDXkXe.dXdXDX6X&XG `.xXxXcXcXcXcXxXt.u.u.lXu.u.lXlXt.t.sX5.Y L / / / ;.4.:.:.a @ o @ u aXgXaX_ T J E ^ 4 K 3.p u l w Q AXtXQ.w 0 0 i k d k.P.f # @ i u g g b t + - % % X % V V.v.MXCX#X%X@X].J.OX`.gXhXkXe.5 $.$.O. .+.",
" ...B @.%.@.%.6.=.sXgX<X6X3X$X4XXXCX%XCXHXeX8 + % % % % o $ z i Q i t 7 # 7 P.l.g U.l.h 0 L.tXU.Y.g Q E ! _ s u U ^ ! J E ' T.u . o < C @.%.$.%.-.$.#.1.1.2.2.2.*.*.*.=.t.t.&.&.-.lXcXzXcXzXcXmXfX} !.&X=X2X`.e.aXjX<X,X-X>X>X[.[.-X>X[.{.,XY.i < % % % % 8 + 7 BXHXR.g.f.F.G.R.OX+X+XR.G.<XOXF.F.G.OXOXNX+XE.8XP.) ~ ! ! E ( b b P.P.A c c A a a a a y a A A a a a p u g l b l l u q u K K P s P.U.K.f.F.{.|.F.{.F.Z.e s.r Y.JXDXJXJXKX6X*X X-X-X-X:X X[.'. X-X&XH.Z.G ^.^.Y.G G G Z.S.A.r w r g g d 0 0 w r l q q J T.K.K.c.A.d.a.e s.d.g.s.Z.Z.G G !.).^.' T.Y.Y.S.S.!.[.[.[. X-X;X>X-X;X-X&X5XKXJX5X1X1X5X~.G e W.<XXXf.F.].].{.XXR.l j ! P s 0 0 q g j l l l h j h s s a a a c A c c c n n z x b l.U.K.g Q g E E ` I.T.U.W.W.R.R.XX+X%X].{.3X,XOX+XGXCXoXR.s.f.'.|.%XGXeX8 - $ - & * ; * i <X3X-X X*XH.!.*X*X&X.X6XDXjXr.| } jX5X=X!.^.dXxXcXmXi.i.xXu.xXlX-.6.0.lXt.6.6.&.1.*.*.#.I I :.2.<.%.Z N , . @ J aXT.W W J U K p p ^ j E ( g l.Q.tXQ.q > q h b z l.eXt . $ ! l 0 g k t X % % % % % f rXMXoXVX#X@X@X$XOX<X).jXdXhX6.5 @.+...%.%.",
"....@.%.%.C @.+.Y e./.<XJXOXXXOXXX#XoX%XGXv.8 @ % % ; % o o t x b 0 0 7 # # b l h eXL.u k tXgXU.I.j ( ` ~ { / u U ` { [ /.gXW . o & N C Z %.6.=.$.6.2.Y *.1.5.2.*.*.5.t.t.t.=.&.%.8.i.zXzXzXcXcXkX} !.!.~.`.jXfX/.`.(.*X-X>X:X X X;X-X X>X(.K.P 3 % % * - ; $ # z.BXE.R.OXG.F.J.OXOX+X+XE.R.XXn.OXOXOX+XE.eXz.8Xn ~ ~ s I A A v 8XA >.n C a a C C C C a 5 y 3 3 3 3 t q u h h b x p u u p u E _ Y.Y.W.G.F.'.{.'.G.Z.e e Z.H Y.Q.SXDXKXKX3X[.-X-X-X>X-X[.[.-X X-X[.H.H.Z.S.G S.S.S.S.S.G.d.w 6 7 q 0 6 : : > > q : : : u ! ( L.k r r d.r d.g.R.A.e A.Z.Z.S.S.W Y.' Y.G S.H.:X X X}.[.-X3X[.-X-X[..X6XKXJX2XJXJXW.s.Z.s.Z.J.G.F.|.$X].Z.A.K.T._ u E p u q u l ( l g h i j s s z c C a a c z c c A s c c B.V.z.l.l E E ! ) P.U.U.R.R.E.+XoXG.G.G.G.,X{.R.R.+XR.R.G.].f.f.G.oXUXrX$ * - @ O O & * u Y.,X X[.-X-XH.&X-X;X*X;X(.`._.} /.`.=X=XD.} jXmXcXmXi.cXcXu.0.-.&.t.t.t.=.*.&.1.*.=.5.2.@.@.$.<.%.%.@.Z 5 O . # { T.W W E J U P u K ^ ~ ( j ( E.U.U.r 0 j ( P.v l.V.8 . $ j l d d v - X % ; % % + 8 V.VXCXCX%XXX%X%XOX4X2XDXaX5.sX%.%. . .....",
"@.@.V :.@.C a I Y T.gXDXOXR.OXOXoXoXoXGXNXE.d - X X % % X   $ c j g h $ # . d l.h U.L.d g tXBXtXI.x L.` ~ 0X3.P ^ { 0X{ hX/.T # . * C 9.9.%.7.%.$.6.6.*.*.#.*.2.2.2.e.t.t.r.6.t.-.-.0.zXzXzXzXlXdX} _._.`.FXkX| /.).Z.[.;X:X-X:X X-X[.;X,XS.W ` t - ; ; ; ; $ + t E.NXXXOX{.F.{.5XW.R.tXMXE.E.E.NXNX+XU.l.z.8X>.>.>.~ a c A A V A a C C A A C C C C 3 C C a a 4 y u t u u 0 i b E p u J u u K Y.Y.D.D.J.H.F.'.{.Z.f.s.e A.A.K.K.AXAXJXJX3X[.>X-X-X>X-X[.-X-X X X&XH.S.S.S.G S.!.S.~.A.9 0 k g 0 9 9 q q u q u u 4 : @ > > t t > # # 6 9 0 9 6 6 d.A.J.S.G Z.D.W.Y.D.G S.H.[. X-X X X X-X>X-X-X-X{.6XKXKXAXDXDXY.A.Z.s.e Z.'.H.'.[.].G.G.W.U.K.Q u ! p u 0 E ( h j j i i t t y a a a y a C c a a c C V A B.>.n ) ) ! c ) ) ) U.U.E.tX+X+XOXOX].F.J.R.W.+X+XOXOX{.G.].{.].c.HXB.$ $ - @ O & O 2 P Y.,X;X X;X-X[.[.:X5X;X*X<X`.dXfXdXjXJ.!.D.} dXnXbXcXcXi.zXw.-.-.=.t.fXt.2.*.2.1.5.2.1.$.$.<.6.<.%.7.%.B N 3 o . > T.T.' W _ ^ U K ^ { ! E j b U.tXgXL.u j I.P.d k l.7 # $ 0 h b k t # o % ; % % % 8 B.HXCX#X+XoX#XOX%X2X<X/.T.1.<.+.+.N N +.N ",
"5 y C z y c I P { T.gXU.R.AXGX+XR.E.GXGXCXMXl.$ O X + X X o $ s P.P.g 6 6 # d x.b h b j j eXtXtXeXP.P.! ! 3.qX^ [ qX{ [ T.U.K.: . @ $.bXiX%.-.0.6.t.t.=.6.*.*.4.2.#.*.t.t.6.6.6.-.%.0.zXzXi.lXxXe./._._./.dXT J ).2XJ.[.-X-X-X-X-X X;X5XJ.A.Q.tXv y y ; % - - + $ k BXAXOX3X{.*XJ.W.Y.U.k.E.oXE.E.E.U.l.v n A x a I c a C C C C C a C C C C a 5 N y C A a a 4 a a i p i h i h j J q 4 q P J u H D.S.S.H.G.F.F.].f.s.e e A.A.K.R.).AXJX6X;X[.>X-X-X-X-X X X-X X'.[.H.H.S.S.G D.^.D.H 9 6 w k.A.G e D.W.D.H q q : : : q u > > 4 u q 9 q 9 r 0 w w d w e A.J.S.S.D.G G S.H.H.[.-X-X-X-X[. X5X>X-X-X'.3XJXJXAXgXT.K.A.A.s.s.s.s.H.].F.'.{.OXJ.K.Y.W u u u P p j x l t u t 4 t 4 2 y y a 5 a a C a c C C C A A A C ~ >.C a A A n ) 8XP.U.R.R.4X4XOXG.R.R.NX+XOX+X,XJ.F.{.XX+XE.eX8 $ - - - - , * - P.K.D.3X;X X-X-X-X-X>X-X[.{.W.Y.dXkXFX`._._./.fXxXcXzXlXi.i.0.-.8.t.e.t.t.t.5.2.*.5.*.*.$.2.6.-.%.%.<.7.%.%.3 o . : qXgXgXT.qX{ J P T.^ ^ ` I.( U.Q.yXL.0 u I.P.x.x.d # # 6 0 h k n 2   o @ ; + X - y x.CXCX+XE.oXoXoXOX+X).gXqX] I N @.@.<.%.@.",
"A :.c v z n ` _ _ ^ I.K.tXHXNXoXk.+XGXOXoXGXeXt - O X X + + + t z.Q.l.0 6 # 7 j.k h j L.l U.U.8XtXqX( x j ( { ^ ^ { W _ /.T.T.r > @ 3 6.uX<.0.lX6.6.5.5.e.=.6.t.5.*.2.sXsX-.-.-.-.0.i.cXlXlXxXnXkX| } `.fXR R aXDXJX,X X-X-X-X X X-X3X3XJ.,X<XE.E.n 8 - % % 8 + . 8 B.AXJXGX6X,XZ.Y.K.K.k.E.eXE.eXP.b b ) c a a a c A a c a a y C C a a y y y 3 y a a 3 - @ @ * > 2 t 0 t k j u J 4 : 4 p K W D.D.J.H.G.G.G.F.f.F.s.s.G.W.K.K.Y.Q.DXJX5X&X[.:X-X-X-X X X X X X XH.H.~.H.S.G D.Y.r 6 # w K.H G D.J.S.D.H G G ' ).Q.T.Q Q q q q q J J H H H 9 g k.l.w 6 r K.(.^.G G G S.H.[.[.}. X;X X'. X-X:X-X>X[.;X6XDXjXgXY.K.A.d.s.s.s.Z.F.[.F.J.F.J.G.Y.K.H J 4 4 4 u P ( p q t t i a s i a a s a a y a C C C C V C C a a a a a C C C A c c z b z.L.E.Q.Q.Q.E.R.U.K.A.R.*XJ.{.OXXXCXBX8X$ + $ @ - - ; 2 h U.Y.Z.*X>X X-X X-X>X:X-X[.H.,X`.' | aX`.`._.} aXsXlXt.u.cXw.<.%.-.6.5.6.sX6.#.1.2.*.#.*.=.6.-.0.-.0.%.<.zX0.5 . . 0 T.Q.).T.T.0X^ ^ qX^ ! ` ) I.eXyXtXI.i i b k k B.8 . # 6 l l.z.v $   o o o X + + n E.CXGX%XoXc.CX+X+XW.).).aXI I a a a C a 5 ",
"c P.b h z k g g E Q I.8X8XU.E.tXE.NX%Xc.OXAXBXyX; + + X . + + $ h E.U.h.w # # 8 v k g l l ( P.8XyXeXb l ! E / _ E W ' T.gXQ.Q.g 0 $ o a 6.lX0.lXt.6.=.t.=.=.6.t.t.6.6.0.6.<.-.-.-.8.u.u.u.t.sXxXdX} | kXnXxXt.kX(.,X{. X-X>X-X;X-X;X5X3XS.OXW.d.Q.U.t @ + - 8 - $ 7 8 E.HXJXKX<XH Y.T.K.k.k.k.Q.NXeXl.b c a a a a y c f a a a a y a y 4 4 3 a C a 3 @ @ @ 2 > $ # > > $ 0 i h u q 4 4 u u p Y.).J.{.G.{.{.G.s.s.f.J.R.W.R.K.K.K.Y.(.,X*X[.[.-X X-X X-X}. X X X-X[.[.H.S.S.' W > # 0 r K.A.D.D.S.G e G ^.aX| [ gX/.T.W W J ' T J q H Y.Y.D.A.A.A.A.r 9 # : H ^.^.G S.!.H.-X X X X-X X X-X-X-X-X-X&X&X5X2X2X).Y.R.K.R.A.e s.Z.G.F.F.'.].F.G.A.Y.W K p 4 2 4 s j u s i t u u 2 2 2 , 2 5 a C a 3 3 a a s a c c s s a a C V V A x s c ) b h k E.U.E.E.l.L.U.Y.D.J.,X4X4XHXGXeXt . $ 8 - @ * 2 a 8XQ.).W.J.5X5X-X X X-X-X>X X{.6XAX' T [ e._.| } fXnXxXlXxXzXzX0.%.6.2.-.t.u.6.@.2.sX2.1.*.e.6.-.6.u.0.2.<.bX<.3 @ > j U.Y.T.Y.' { _ _ T.! ! ! x eXtXE.eX( ( ( l k x.B.8 # # 6 U.eXeXt + o X X X + $ 8 E.CX+X%XGX+XE.MXCXGXQ.K.' { / ` ( s p p s c ",
"k z.z.x.P.x.g l.Q b L.n k l.tXv.eXoXR.oXGXNXSXyX- X X . + $ # - x E.L.g w 0 7 7 l.L.t g g l b E.yX7Xh x ( E E T._ ' T.T.K.K.T.K.u 0 . @ %.lXlXu.t.6.t.t.5.2.2.6.sX6.2.6.-.9.0.-.%. .=.e.t.e.*.t.xXfXkXfXfXnXnXaXQ.,X X-X-X-X X-X X>X5X3X{.G.d.+XoXx.d $ - % % - 8 + $ x.HXCXoXA.W.Q.Y.q r g r g l.P.P.A >.c a a C y y C y a s s a a C a a a y 3 @ @ 2 y a 4 2 u i > 0 0 $ 0 0 l J H E J g p Y.(.OXF.F.].G.s.s.Z.G.OXW.d.K.T.I.W T.W.J.&XH.&X X-X X X X}.-X X[.}.[.F.H.Z.H H q @ 0 g Y.W.S.S.' G H T./.aXaX/.[ T [ Y.T.' T.gXaX' /.' T 9 G G S.S.D.A.l 9 # > G G G S.S.&X[.'. X X[.}. X X-X-X-X-X[.[.1X1X(.Q.K.K.R.Q.R.R.G.Z.f.f.F.F.H.{.J.J.).Y.K S 4 4 4 2 h g i t : $ $ : $ @ $ @ @ @ 3 5 a a 3 i y y a s s a s a a y A a a z s x n v 8X8XeXeXU.l.g U.Q.A.S.,XJXJXKXE.d 8   7 8 $ o * t n BXK.W.,XZ.*X>X-X-X-X>X-X-X X X,X).kXsXdXxXfXe.} e.nXnXlXlXlXzX0.9.6.-.$.6.uX6.4.6.6.t.5.*.r.5.=.6.t.lXwX0.<.5 @ $ t Q Q.T.).' W _ K _ I.u ! ( b yXtXU.7XL.E l l k x.d # 6 7 q Q.x.b 8   o o o X - - 8XyXSX+XXXGXMXE.oXeX+X+XT._ K ! x ( j i i v 8X",
"l.k l.l.l.f v b v v f d z.x.x.eXMXx.k.BXHXtX8Xt . # + + $ + + - eXU.g q w q t 6 7 U.h.w w r Q Q tXeX( ( ! E K ( W _ Y.T.T.T.U.K.E.x.# @ D -.lXcXlXy.xXxXsX1.2.6.0.6.6.6.-.0.iXq.X.&.5.e.e.5.e.&.t.fXkXfXxXxXxXhXQ.OX.X X-X X.X;X.X5X5X*X.X{.XXCXM.c.x.8 - % - - 8 8 8 7 E.BXE.R.W.r r k.w r d.r g h h b >.c c C A V C C A A >.A C c a a 5 - @ @ - a i u 2 4 4 > > > 0 0 0 6 9 A.A.W.A.k.K.A.D.D.J.H.F.J.F.s.s.s.G.OXQ.K.K.T.T.T.Q.r G J.&X&X-X X-X X.X X.X}.'.F.'.'.J.W.g > > 0 T.H D.(.G G H _.DX/.Y.' ' } ' /.).gX/.T.' [ ' } /.`.aXY.G G G (.D.H D.K.q # 9 q K.D.Z.F.H.[. X X X.X X-X X X-X-X X[.[.,XW.W.K.U.R.R.A.R.OXG.s.s.s.F..XF.F.{.,XT.p u a 4 u g l d w # : 0 > 0 u > t 4 4 - @ $ 2 a 3 a y a a y s a a a c a y y a a c s n ) I.8XE.l.d g k.K.Q.).A.W.+XHXKXL.# $ 8 - + + - $ 0 k.E.XXe J.{.;X5X>X X.X;X;X-X X-X3XT.aXlXxXfXfXdXr.kXfX5.6.sX6.uX-.%.%.0.0.%.-.<.6.sXt.6.5.*.t.e.-.6.u.t.lXlXN @ o 0 g U.U.Y.[ ^.[ W ` I.E Q ( x j tXtXU.l l Q g d x.h.# # 0 w r E.E.i > o O O X X + 8 SXBXNXNXE.R.E.E.oXMXE.k.K.U.( j b h g ( b v l.",
"x.V.z.x.v z.v f f f v x.x.x.x.B.x.j.x.yXLXwXi .   + + X X + $ z tXU.r q E g 0 7 d k k.r w r g K.tXqX( _ K K E _ _ I.U.U.tX).Y.W k.U.> . D r.t.u.u.lXxXxXsX1.2.6.<.-.u.cXzXzXzX8.-.&.*.[ qXaX5.R r.sXvXfXfXfXlXhXAXOX}..X;X.X.X$X.X;X X[.3XOXXXVXj.c.x.y - - ; y y 8 - $ d E.NXNXE.R.R.k.d.w d.R.k.k.k h i z z a C C a a a a C ~ a 5 3 2 2 - @ $ c i 2 > > : 2 4 > $ # q r e s.J.OX4XW.A.A.H D.G Z.Z.S.G.G.F.G.G.W.Q.R.K.W T.[ Y.K.H A.{.&X-X:X-X X.X.X}.3X}.'.F.{.OXW.Q 0 > p I.gX2XD.G G ^.DX`./.} ' } } ' ^.`.DXDXgXY.T.Y.' ' } /./.^.^.).D.G G D._.' ' Q : 6 r d.D.Z.F.[.'.'..X.X X X;X X X X-X-X[.Z.A.Q.T.T.Q.U.k.Q.+X{.s.s.s.F.J.F.'.G.OXY.Q E E W W K.K.d.6 9 9 0 > q 4 > > u s s 2 @ @ , y 5 a C C c C a A a y a a c C C a c ) ) l k k g d.w r w d.W.W.R.U.NXU.t 7 - ; ; + - @ $ k k.oX%XD.W.{.;X6X5X.X{..X-X-X X X{.Q.hXxXmXxXfXfXfXfX| 1.aX6.4.5.=.$.%.u.0.-.<.-.6.6.t.5.*.1.t.xXy.lXlXlXsX6.3   > l.K.E.Y.T.[ ' ' [ I._ E ( ( b z.yXtXL.j g 0 0 k.l.d 7 > t w w K.L.L.$ o * + X X X $ P.tXBXSXQ.v.E.NXv.eXx.k k k l l.L.l.l.P.z.v b ",
"z.z.z.B.8XB.B.A B.v A z.f f l.j.h.x.P.eX>.t X   - + + + - - t x U.I.q q Y.( t h d 7 k.g w g r j U.U.( Q q q p Q Y.Y.K.T.Y.gXQ.Y.K.U.L.$ 5 6.sXlXxXxXcXy.r.*.t.lX0.0.zXbXbXcXcX-.r.&.5.R 5.sXt.&.O.t.t.t.sXvXhXqXA.].;X;X X.X.X3X3X5X[.].4XR.XXv.j.j.f 8 ; y - @ ; - $ - $ 8 eXNXE.eXv.k.c.c.d.R.d.A.d.w 0 0 t t t 2 y a y y 3 t 2 t 2 t t t u i t : > > y 3 2 a 3 2 > q H e G ,X*X6XOXG.s.G A.G G Z.J.J.{.*XOXOXOXW.K.K.Y.T.T.Y.Y.Y.J.,X:X-X-X X[..X|.$X.X'.].f.d.R.k.6 $ u _ gX).`.S.D.~.1X^.F ' ' _.`.(.^.D.G ^.<X(.Y.DXDXY./.' Y.' ' /.jX/.^.G G D.D.).Q.g 0 9 r K.W.J.F.F.F..X.X.X}.;X-X X;X X&X{.Z.H Y.Y.I.T.Q W W.+XW.G.Z.Z.S.S.S.S.F.S.A.A.k.A.D.(.J.J.Z.9 9 r 0 $ > > 4 u > > 4 i a 2 . @ 2 2 y a a A A A A C C a @.C a a c s z h k.k.c.k.w a.d.d.R.W.Q.tXtXd $ 8 8 8 ; * ; - - v x.c.+X+XW.3X|.;X3X3X.X.X.X.X-X X].Q.hXlXmXfXt.fXfXe.&.5.t.aX5.2.2.-.6.lXi.0.0.u.6.6.4.5.*.e.xXnXxXt.y.lXt.6., . h L.k.L.T.).T.' ' I._ Q E E j l.P.tX7Xl l g 0 0 L.d 0 $ 0 l g q k.U.tX0 o + X % + o   $ b yXSXBXh.h.E.B.v.B.j.v z f f k f b l.x.x.x.",
"B.v v z.v v f z.z f f d d f f z.z.z.8Xv - o   % % - X $ t $ ~ ( r H q 9 E ( t n d k E.k.r Q q t L.tXT._ g u H W W T.).jXgXDXQ.Y.).T.E.h > a 2.wXvXnXnXr.r.r.t.lXu.0.iXbXzXzXcXy.e.e.5.5.sXlXt.r.6.y.xXt.sXwX8XK.G.{.;X;X[..X$X$X3X4XG.].XXR.CXE.h.d 8 y y 3 * , $ @ - - - $ t d U.U.l.h.v.v.c.c.d.c.A.r w w 0 0 0 0 > > t 2 t t t z z z j i u u > : t 4 a a y 3 y :.` Y.D.Z.s.F.{.4X,XF.s.s.A.A.D.D.W.,X,XJ.,X,X<XW.K.Y.W.Y.Y.Y.D.W.J.[.&X-X&X[.}.$X|.@Xn.|.].d.k.l.t 0 x qXaXT.).D.S.1X1X!.S.G G ^.jX`.D.!.S.G Z.D.G A.2X<XD.^.`.^././.' ^./._._.S.G D.).jX).g 0 0 q W.W.G.f.b.}..X.X}. X X X-X-X;X3XJ.D.K.K.T.[ ^ W K.W.Q.OX{.J.J.J.D.S.Z.G Z.A.Z.Z.{.1X*X{.Z.e e u > $ 2 - 4 > 4 > $ 2 p p : $ 2 4 2 t 3 y a a a a y y 5 i 3 3 t t t k.k.d.R.d.g.k.R.R.R.E.AXeXi 7 7 $ 8 y ; 3 ; ; t v h.h.v.oXR.4X|.}.3X$X3X3X{. X;X.XJ.W.tXaXvXsXr.t.t.r.O.6.aXe.1.*.5.2.-.i.cXcXcXbXu.6.6.t.1.t.sXxXnXy.r.u.lX<.2 2 L.K.Q K.Q.gXY.Y.' T.L._ J q E L.L.tXI.Q g g 0 r k.0 0 0 t Q L.9 r Q.tXh - + + * + X o X @ v rXyXz.x.k x.j.f A z.B.n n v x.z.x.B.B.x.",
"B.B.z.f z v B.B.v n n A 8XrXB.A 8Xv A t + $ + X + - X + y u I.E H q q > u x z z.x.U.eXK.Q g 0 q T.SXtXT.T.W F W Y.Y.Y.AX).<X).Y.jXQ.K.v.0 t s ;.hXvXfXfXr.r.r.cX0.0.iXiXiXlXzXxXfXe.5.e.r.xXu.r.r.t.t.y.sX7XK.R.$X3X5X X{..X3X3X$X.XF.XXc.XXCXR.w 7 t B.A y t 2 * @ - 2 - $ + $ f d d d x.E.v.R.d.d.d.d.d.w w w d d 0 i i t u i d h k h g 0 0 t t a a y y a 3 C V <.wX).2X1XZ.s.].6X,X'.Z.e Z.W.Y.Y.(.(.(.J.J.J.,XW.W.Y.A.D.Y.D.D.J.H.S.[.&X[.J.{..X|.n.@XXXR.g i i t i ` wXaX[ H D.~.~.!.S.!.~._.} ^.~.D.S.!.S.S.Z.Z.Z.J.S.G D.^.^.jX`.^.H G D.1X2XJ.D.(.`.aX[ I.t $ u K.d.g.].|.}..X.X$X}.[.-X-X*X&X{.W.Y.T./.[ _ W Y.K.+X<XOXOXW.(.W.D.G G H H s.F.[.3X3X{.F.e G W i y a 3 a 4 u i y > > > j u i i i y t t t 2 t t t > > 4 0 i t 0 k c.c.g.c.g.R.x.j.U.E.E.P.f # $ 8 8 - ; * ; ; 8 y f d j.x.+XXX$X$X].3X3X3X$XOX[.&X;X{.R.R.qXqXsXsXlXy.-.&.t.t.dX| ] e.r.6.lXcXcXzXzX0.0.lXsX=.r.fXxXcXxXxXt.6.a > b U.Q.Y.T.AX).).).T.T.L.W q q E Q U.Q.L.g q g r Q k.w g k i b Q 9 q k.Q P.P.- - + X * * X   $ y A B.B.v z.f 8 f y f f A z.B.B.x.B.B.f ",
"B.A A v B.B.8X8XrXrXrX8XrXrXf v v z A -   X + X + + X y c ! K u q q q u i n n v l.x.g k.K.K q g Q.FXQ.T.gXY.q H Y.Y.Y.^.).).).^.jXDXR.c.K.t u ,.yXkXkXfXfXr.t.y.0.0.iXiXiXi.cXxXnXt.1.5.r.xXt.t.-.-.&.1.0X0XE.].$X;X;X.X{.$X$X3X.X|.g.#XXXoXNXg w 8 f j.8Xb z 2 @ & * & % - X $ $ $ 8 f v z.l.k.c.d.w w w g w r w q g g g d w g q g w g h u u u i i 4 y 3 C y C C @.aX`.2X1XF.F.{.4X5X3X[.Z.Z.G.D.).).(.<X,X~.D.J.Z.Z.e G A.D.Z.Z.H.H.[.[.{.H.{.|.$X$Xb.#Xc.0 t t y s ` gXhXhX| Y.^.~.H.H.!.1X_._.' G ^.D.S.Z.S.S.S.!.J.Z.G S.J.G D._._./.^.D.D.J.=X1XS.G Y.{ aXqX) t 0 h k G.R.@X].].|..X{.[.&X&X[.S.H.J.J.W.Y.K.Y.Y.Y.W.(.,XJ.J.W.).Y.(.D.D.Y.e s.'. X5X.XF.f.S.(.gXtX9X<.a 4 a i 5 4 t t > q 0 u g j h i z i t t d t t q 0 0 w w a.k.R.d.d.c.v.E.k.h.d v z.$ 7 + - 8 8 * * 3 ; 3 A z.8 7 h.v.VXoX@XXX'..X3X4X3X$X{.{.>X3X].R.U.T.hXxXlXu.u.r.t.fXfXe.e.e.t.lXzXcXzXzXlX0.6.lXu.r.r.fXxXfXfXe.Y a 2 u Q U.AX).Y.AXAX<XDXQ.Y.W H q W ' U.qXgX( 0 q r j L.E.K.k n b j r r q 0 g b 8Xt 8 + X $ @ X o + + f A v 8XB.B.B.B.V f y z v v v f v v B.",
"B.v z.B.B.v v z.v z.f f y y 8 y z C V - X X % + + $ y z.! u q u 4 q u p x z z d k d 9 r K.H q u tXgXT.gXgX' q ' Y./.Y.Y.`.2X).`.`.KXG.f.E.g u ` SXUXFXkXfXr.r.y.y.u.zXzXw.u.cXcXnXxXfXr.r.fXy.xX8.lXfX[ W R.XX{..X;X[.[.$X3X.X|.}.b.b.#X#X+XoXd.t h.B.j.h.h.b > - ; * % % ; - $ . + - 8 8 t f d x.l.h.g k.h.h.k d w w w w w w g g g q g i t t y a a a A A a a :.a P /.).(.J.G.F.@X6X5X;X&XF.Z.D.A.D.^.<X2X1X1XJ.H.S.Z.Z.e Z.D.H G F.H.[.{.H.G.].].|.n.f.c.w 2 4 4 K W T././.e.{ jX(.~.[.&X~.=X_.^.G ^.!.S.S.J.1X~.!.~.~.S.Z.D.S.!.} !.F ^._.1X,XH.S.*X~.D.' [ fXsX8X~ i i i g d.oXXXn.@X.X].[.[.&XH.H.H.H.F.D.K.A.D.G Z.D.J.J.J.OX<X<XY.(.D.D.H e Z.[.;X6X$XF.Z.~.2XDXhX7XC a 5 4 5 y y a s p 0 q q g u g g d w k h g d w g 0 w r a.h.w a.k.c.v.x.l.z.f 8 8 t + + 7 - @ % O @ 3 y z B.x.h.7 p.h.oX#XXX@XF.'.$X$X$X$X{.{.;X3X$X{.W.T.qXqX6.-.-.8.u.y.r.| | e.xXcXcXy.0.zXw.0.0.u.u.r.r.fXfXfXkX{ s 2 t k.d.Q.KX).T.`.).).W.Q.T.' H q T.Q.Q.gXSXT.q 0 E L.K.L.U.k.k b x u q u 0 u i 7Xn v $     o X O o o t A f A f A rXrXV.9X8XB.V.A A A A A A ",
"v A B.B.z.k k f l.z v t - - y v a t & X + + + + 2 n x b q u P u i a i z h t d v 0 9 K.H q q q u T.T.T.jXaXW H Y./.).Y.Y.jX2X).^.`.JXXXG.4XW.W E L.SXFXFXkXfXfXy.cXzXzXcXi.u.u.xXmXmXnXnXr.t.y.xXu.t./.' A.G.J..X;X;X'.$X3X.X|..X|.b.n.#X%XoXh.h.d x.v.v.p.c.E.d y ; ; % % % - + $ $ - $ $ - - 8 f v x.z.l.k k.h.w w d w w g h.g l g d u u u u 5 a C C C ;.a ,.wX4.^ Y.D.Z.J.G.g.$XJX5X[.[.H.H.H.D.Z.D.).2X`.,X~.H.H.{.*XH.Z.H D.(.H.H.H.H.G.].OX$X}.f.n.w 7 2 4 P [ [ W H q J [ Y.^.J.*X>X!.!.(.^.} ^.' D.^.(.(.2X2X(.(.D.~.D.S.G !.} S.^.(.(.=XH.&XH.~.2X/.3.aXkXqX,.x i t t 0 d.R.g.|.$X.X[.[.H.&XH.&XF.G Z.G.A.Z.s.G H.H.J.~.3X2X<XQ.(.!.Z.G Z.{.;X>XJX$Xg.G.J.2XgXgX0Xa #.a a 5 a a a 3 u u d u g g 0 g g g w w w g w r g w d.d.d.a.d k.L.l.v v 8 8 7 + $ $ $ - - & @ @ @ , c v j.x.j.j.d h.oXCXXXoX].'..X.X3X$X.X{.&X;X;X{.J.R.Y._ t.u.8.i.y.fXr.e.e.t.xXmXmXzX0.w.i.0.i.y.u.y.xXkXkXFXPXqXE u g R.d.<XDXAX).<X(.2XW.Y.T.' J F /.gX/.T.SXT.g q E K.u w K.l k h ( l 4 q u q u u z ) x $ o o O o   X @ A A z f y A v v z.8XB.8XA B.B.B.v f ",
"v 8X8Xz.z.z.k P.b d B.v y z y A ; o   X - + - 7 ) ! g q K E u u c z i i h h k d w r A.W r 0 : u T.[ T.gXgX' J Y.).gX' G ^.^.)._.jX6X{.{.,X<XT.T.Q U.Q.gXFXPXnXnXxXcXi.i.cXcXcXxXxXy.xXfXfXxXr.r.xXaXH K.,XF.H.;X-X'.{.4X$X|.}.|.b.].XXXXM.c.6 w x.v.v.m.p.g.c.U.8Xf - ; * ; % X + - + $ 8 + # 8 - t f f f x.v h.l.d x.k k.d g d d 0 t i 4 4 s I ;.:.a ;.>.) 7XqXgXT.H e A.R.g.XX4X$X{.&X[.F.&X5X*XZ.S.(.W.(.1X~.[.*X-X&XH.G D.Y.J.~.F.H.H.G.|.OX$Xf.g.h.0 $ , S J | /.' G H ' T.' D.~.!.&X~.(._._.^.^./.jXDX_.Y.^.`.`.2X(.2X,X~.S.S.' ^.^.D._.!.=X=X=X!.~.).T.K J ' T.` _ s 4 2 0 k a.n.|.$X'.[.F.H.!.H.S.S.G.Z.Z.F.H.H.H.H.!.1X1X6XDXW.H.S.Z.H.H.H.-X>X6X4XG.d.G.D.Y.T.T.U / 5.a a @.C C C y i t i u 0 h l k r g w w w w w w d k k.k.l.l.l.f 8 y 8 - - 8 + # 8 8 % % O * 2 > 0 U.h.p.c.E.j.w h.R.#XNXoXg.s. X.X.X$X3X|.'.[.>X[.[.J.A.Q sXlXu.cXy.t.r.r.fXxXmXcXxX0.0.cXzXi.i.y.t.xXkXkXFXFXhXY.E K.+XOXZ.<X6X`._.jX2X<XD.Q.T.T.W F ' jXgXK.gXL.g q q g l r w r l g t i ! 4 u 4 u u q p ( j y $ O o X o + 8 y A f t t - $ b l.h z z z v 8X8Xv ",
"v k k l.L.k d l.d h 8XyX9XA V 8 @ o X + + + 8 t Q _ q q Q p t A 9Xn z k l k d w K.k.r r q q t j _ E _ [ ^ u F [ T./.[ G Y.' ^./.(.2X[. X*X{.W.Q.tXr q AXDXDXFXnXxXcXi.i.cXmXmXcXxXfXfXfXxXfXy.r.fXT.D.~.*X*X=X>X[..X.X$X$X;X}.b.n.@X@Xc.a.w 6 w k V.MXc.m.N.h.x.E.h 0 2 - * % + X - + + 8 + + 7 - + - f y t f v b k k d v h h h 2 2 2 2 u s P I :.qXI >.qXqX0XK.Q.Y.e A.R.g.g.@X$X.X[.-X[.S.*X5X3X;X{.(.~.(.!.S.H.:X-XF.Z.Z.W.Y.Y.D.F.H.'.].|.'.f.f.a.w $ - u 4 T G D.D.J.^.^.Y.D.G &X=X!.~._.^.} /.`.aXgXgXjXjX/.} /.`.jX_.D.`.2X^.D.^._._._.!.!.&X&XH.D.Y.' W J J H T.qXp 4 2 - 7 c.a.b.$X.X{.[.F.H.H.~.(.D.S.Z.G.*X&X&XH.H.1X1X(.).D.Z.S.=X*XH.[.-X-X5X4XXXg.A.G.A.A.Y.Q.aX0X;.@.:.a C >.C a a u i i t u q t g k.g d h.d h.d v v c b f t t 8 $ - + $ - $ 7 + - % % % , u l k.c.c.w v.v.V.j.7 p.E.E.oXR.F.'.|.|.}.$X3X,X[. X;XF.{.J.Y.Q 4.sXu.r.y.fXy.nXxXxXxXcXy.zXcXcXi.zXmXnXnXkXhXkXgXQ E U.Q.<X$XF.4XJX)./._.2XY.G /./.`.T.q T.jXhXT.gX_ q > 0 p l g w 0 g k d i i y P 4 q S ^ J 0 j 8Xi + + @ @ + X $ y A y t 8 f b x b v n z.z.z.z.8X",
"I.l g l l h g d d v 8XyX9Xy - X X o o + $ $ t l q r G q p q v >.n k k g 0 9 g k.k.w 9 6 0 t z >.) E W ^ W J J ' | ' /.Y.F /.FXjXY.(.[.-X[.F.J.T.tXT.W r W.+XSXDXnXxXy.i.cXcXxXkXfXdXt.fXxXnXt.sXsXW.*X;X&X=X=X&X[.3X$X$X3X3X}.b.n.XXc.a.6 6 7 h.h.v.M.m.m.m.j.oXR.U.h.t t - @ . . . + + + + + + $   # - + $ 8 > $ t y t z i t 2 2 a u u 4.qXP P hXhXI.qXAXgXQ.K.Y.W.d.G.n.XX@X$X|.'. X;X[.H.;X*X;X;X&XJ.^.S.S.!.&X:X&XH.S.H.^.Y.D.W.W.J.'.'.'.f.s.9 0 $ 2 u K F Y.' D.D.A.D.(.^.(.~.S.S.S.D.' ' ' ).gXkXhXaXfXkXkX/.T./.^.Y.^.`.jXjXgX/.} ^.(.=X!.~.=X~.D.D.Y.^.' D.' Y.Y.U S 4 @ $ d g.g.|.|.'.'.'.S.S.D.D.Y.^.Z.Z.H.&X>XH.!.1X(.Y.^.J.H.*X5X>XF.H.&X[. X4X$Xm.g.R.G.e A.).T.T.0X,.,.c :.4.;.s a t 2 t 0 0 u j i k k z v v v z.z y z y 2 $ 7 + X - $ @ + $ + X % ; * - 2 k +XoXg.m.a.j.v.E.v.w 6 h.g R.oXXXb.b.|.|.$X4XOX'.H.:X&X[.*XD.H T.nX6.fXy.xXfXfXfXxXxXmXmXcXcXi.cXcXnXPXUXFXDXT.r ^ T.Q.+X$X;X'.5X2X(._.' ^.Y.G Y././.' F W T./._ _ W q 0 0 t g Q l d.w k k h a i I / u q J W q j ( n 8 - $ + + X X - f V A A rX8Xt h l.l.b l.x.l.U.",
"tXL.l l.g g g t h z A >.y - - @ + o . - f z h r 9 q q g E i 8Xv z.h w 9 r d.k.g w 0 0 q b ) >.7X~ K J 4 J u q W T.T./.T.Y.DXkX`.^.1X&X>X-X[.OXW.T.FXjX9 Y.<X,XKXPXnXcXcXmXmXnXkXdXdXr.fXnXfXe.| ' D.*X;X:X:X>X!.;X5X4X3X;X;X|.].@XXXg.w 6 8 h.j.j.h.c.XXm.g.VXoXg.m.c.h.d g h u 6 # .   + + + 8 $ + + # . . #   @ @ $ $ - 2 y y z ,.x / SXkXT.T.gXT.I.Q.gXW.Y.A.G.OXd.p.g.XX%X|.'. X X XF.[.*X{.[.[.F.S.S.S.Z.H.&X&X&X[.H.J.D.Y.(.(.J.'.}.}.b.f.d.9 @ @ 4 ~ ' Y.H Y.(.W.S.Z.S.D.!.G !.~.D.H /.| aXaX1.aXkXfXnXnXPXkXjX/./.jXFXkXgXkXjX/./.' ^.^.!.S.!.S.D.~.W.(.~.G ^.D.G ' 4 4 , 2 7 w g.a.f.].].].H.S.!.D.D.^.D.G F.&X=X&XS.H.D.(.(.D.*X>X5X;XH.H.-X-X'..X$X@Xm.G.G.A.A.Y.K.Y.Q.hXyX,.7XyX3.s ;.;.s 4 2 2 t i t z z y v f y f 2 - - 8 # . $ +   + + o + + + X % - - 2 d k.oXM.g.m.XXc.E.v.k.j.w 6 7 w XXXXn.f..X.X4X$X{.OX[.;X5X;X&X,XJ.Y.jXsXfXxXy.fXr.t.kXmXmXmXcXy.i.cXmXnXUXAX+X+XH G T.aXW.G.[.{.H.*X1X^.`.^.^.' Y./.' } [ J W W T.W _ I.i u q 0 0 w g K.r w g d h z c ` ^ K : q q j g ) z.8 $ + + + + X % y V B.yX9Xz d k d d l.l.k l.",
"T.g Q U.( g i j c z A t * - % - + + 7 v 8Xl.w 9 0 q q u b i B.eXz.w 6 9 K.W.d.9 6 q l ) 8X0X8X>.! u u u J J u J W T./.aXgXFX/.' `.2X>X>X-X*X4X<XDXFXDX^.Z.,XG.W.DXPXIXnXmXnXjX/.jX`.dXfXkXfXaX} Y.~.&X&X>X>X=X&X;X6X4X6X;X*X.X$X$XoXg.r w d x.x.j.a.g.#Xc.c.MXXXm.n.g.k.c.k.A.Y.W.r 0 # . + X @ o $ # . . + o       + $ + % 3 8 x I.I.gXKXFX/.<X).K.A.K.W.W.A.Z.R.G.a.a.m.@X@Xn.}. X[.'.'.[.[..X;X.X[.F.H.!.&X!.&X&X&XH.H.!.!.~.(.J.F.F.'.'.].W.9 # @ > 4.hX^.H G Y.D.Z.D.D.Z.G G G D.W.Y./.hXkXPXsX1.5.sXsXnXkXkXDXaXY.DXFXkXdXsXfXaX5.aXT.' H H D.D.J.J.D.D.D.A.G ~.~.!.' J ^ K > > # 9 d.s.f.|.].'.~.1XD.D.Y.!.S.S.H.&X&X!.S.S.J.S.Z.&X&X[.*X[.[. X-X[.'.|.$X@Xg.g.s.R.W.A.K.Q.AXgXU.0XgXT.E qXhX0Xp x s y t y y t - - - $ @ $ o # # + # $ # .     o .   # - 2 t 0 d v.c.c.#XXXm.R.c.c.j.j.j.p.7 w w g.n.].n.}..X3X3X,X4X.X{.>X>X*X=X1XD.Y.aXdXfXfXr.fXdXdXkXnXcXmXcXlXxXPXUXDXOX+XZ.K.gXT.T.Q.G.[.-X-X,X_.Y.jXjX/.H /.T.[ [ T u J J W W K I.) ! x i 7 0 w r K.k w w 0 d x ) s ` u j u h q q d f i 8 $ X + + % % ; V V.B.v i d h w k k g l.",
"g r L.T.U.( ( ) 7XA c * X % + + + y eXyXU.r 9 6 g q 0 0 i z eXyXd 6 9 d.R.k.w 0 t v P.7X7XP.! j p u K T ^ { ^ J J W T.gXaXjX/./.jX(.&X:X;X;XOXW.JXKXDX(.S.J.OXJ.H Y.kXPXIXPXkX/.`.dXdXdXfXdXdX_.1X1X&X&X5X5X&X!.5X6X6X5X:X>X;XXX@Xn.d.a.a.k.R.c.g.g.m.m.XXoXXXg.#Xn.g.g.R.G.A.g.R.G.R.r # o   O . + o X $ @ o o X   @ 2 + $ - 8 l U.AXDXJX2XW.6XJXOXe s.G.OXG.g.a.g.R.m.@X@X].].'. X}.'.F.'.{.3X>X[.[.H.H.H.!.H.&X&X&X&X!.!.H.!.S.S.'.'.f.f.F.r # @ , 2.FXjX^.G ^.W.S.G S.!.H.S.Z.D.A.W qXhXsXnXvXfXsXe.e.e.dXaXDXSXY.K.PXPXkXkXsXfX5.5.sXfXgXaXY./.(.J.S.S.D.S.S.D.D.D.S.G ' T.qXp > @ 6 r ].n.].}.'.H.~.(.(.~.(.S.H.!.&X&XH.S.H.S.S.F.[. X&X[.[.F.[. X X'.|.@X@XR.a.a.g.R.G.A.D.W.Q.A.K.).).Y./.FXgX_ I.) z f - - + - @ o     + + . o $ + + $ +     # # 6 h.K.L.k.k.d.R.c.g.#X#Xm.c.#Xg.h.c.k.j.w 9 d.g.@X%XXX{..X;X3X4X6X*XH.;X5X=X:X>XS.G ^.e.r.fXfXe.dXjXjXkXxXmXnXxXIXPXDXW.<X,Xe (.KXjXQ.4X,X*X-X>X5X6X/.`.FXjX} gXT.T.T q q J q u u p ^ 0X7X7XI.j q 0 6 w K.K.g 6 w k l.P.>.i ` u q q 6 0 g P.P.t + + + ; + ; 8 y A z h g g g j L.K.g ",
"q r T.T.I.I.7X~ 7X:.y @ X % % % - eXSXtXk.d.q q 0 d v f f z.P.k h.w r k.d.9 w k P.8X8X) ( p p K E p ( ^ ^ _ ^ E _ T.W T.gX/.T.jXDX2X!.:X>X5XW.G.JXJX2X1X1X~.1X6XOXW.AXKXUXPXgX/.`.DXjXdXdXjXjX_.,X=X!.&X5X1XH.*X6XJX6X5X=X:XJ.G.].f.g.s.d.v.R.c.b.n.@XG.XX+Xm.XXG.G.d.c.XX$XXX].f.b.].d.w 6 # > @ O O O & O X O % + - - # - 8 f z.E.HXJX2X~.H.1X6X{.s.s.Z.G.].g.g.c.#XXXn.n.b.n.b.|. X'.F.}..X$X;X[.[.&X&XH.H.&X&X!.=X=X=X!.S.S.&X&X[.'.].{.r # @ 2 I gX).T./.).(.~.!.S.S.Z.S.Z.e Q I.0XqX6.sX6.5.sXxXsXe.5.gXgXY.W.K.H KXFXkXfXsXsX2.e.fXnXnXsXaXT.' H A.Z.S.H.J.J.G S.!.G G (.FXsX5 @ . 6 R.|.b.'.'.F.F.&X,X~.{.S.!.:X&X&XH.&X&XS.F.H.;X;X;X X}.'.b.'. X[.'.].XX#Xc.g.c.d.d.G.F.J.J.A.A.).2X(.<XJXDXtXT.P.f t 8 + $ - o . . . @ @ + + $ + + + .   . 6 r +X+XR.R.G.g.g.g.g.R.R.oXXXc.XXg.a.c.v.v.j.w s.f.N.@X].3X;X;X5X6X5X5X{.*X5X>X&X&X=X(.^.dXdXdXfXdX_.`.`.dXmXPXnXPXPXAXY.D.(.Z.H 2XKXUXAX<X3X&X:X&X=X6X`.[ dXkXgXgXT.[ J J E ^ K p p p j ) >.7X8XP.l w 0 6 r R.K.a.6 w v.BX8Xt i 0 q q r 9 6 r L.P.z - X ; % % + ; z c 7XE Q j Q T.U.q ",
"r W K.I.( ! ! s ,.a * O + X X + f rXBXQ r Q.Q.w g z.n v n z.d d k w d.w 9 9 k.BX8X8X) x p q q E ! ! ` ^ K E ^ W _ W p T.gX/.T.T.DX2X*X&X[.*XW.Q.JXDX1X=X5X1X1X6X6X1X,XDXPXUXPX/.^.DXjXjXfXdXjX_.!.H.&X=X5X&XH.;X3X4X5X=X:X:XF.$X|.f.f.a.d.XXc.f.f.|.%XXX@Xg.G.{.d.s.a.G.R.@X$X$X.X@Xf.s.r 9 u : $ O O @ O O O O + ; 8 + $ t $ A eXQ.4X<XH.F.H.:X:XH.F.F.n.g.g.g.@Xm.XXm.m.@X|.|.].'.}.'.'.'..X.XF.[.[.&X&X:X:X&XS.!.=X=X=X&X&X&X&X>X[.F.G.d.. @ 4 L 5.T.^.`._.).~.D.!.=XS.G G G Y.I.b 7XlXwX2.6.sXt.xXfX5./.gX).W.Z.g.D.gXT.sXe.e.e.t.sXsXsXlXsXsX5.^ ' H A.Z.H.F.H.S.G _.!.!.Y.gXkXaX4 : # 6 A.b.F.'.[.[.[.H.J.[.&X:X&X!.!.&XH.H.H.&XH. X;X3X.X}.'.f.}.[.'.b.n.n.XXN.M.m.g.g.G.{.G.s.e Z.5X6XJ.~.2XJXJXAXL.v 8 8 + - - + o . o o $ + + + + % + . # 0 c.R.g.F.f.].XX].].a.G.OXR.W.XXXXg.@Xg.a.XXj.j.d.s.g.b.@X].{.>X=X>X6X6X6X;XH.=X5X&X&X=X1X1XdXr.r.dXdXjXDX_.aXnXPXPXKXQ.H A.2XJ.D.(.2XDXKXAXR.OX>X>X&X!.2XjX/.| gXjX' Y.W ^ K { { _ E E K u p x ` I.7XU.( g 9 q k.R.d.e 6 h.eXeXc t t h 0 q 9 9 q K.BXyXA * + % % + - y c 0X) I.{ ( I.T.u ",
"L.r T.I.x ,.s i a 2 o o o .   0 rXMXU.Q W.Q.E.K.eXrXb z.8Xk 0 w w w d.w 6 k.Q.eXI.x u 4 u p E ^ ! E E ! _ _ ( Q g q Q qXgXqXqXT.).Y.=X&X:X,XOXNXJXDXD.!.5X1X=X=X=X1X=X`.FXPXPXFX(.1XDXjXkXkXjXD.H.&X=X=X&X!.:X>X6X6X3X-X-X;X'.XX].].s.d.v.R.g.s.b.@X%X@XXX].f.g.s.s.f.g.].g.f.|..X$Xf.a.9 r K.j j 2 - 2 2 2 @ , @ 2 - 8 8 y 8 f eXGX4X,X{.H.[.[.[.H.F.].XXg.n.#X#Xg.g.n.n.@X|.b.f.'.{.].$X$X.X|.F.'.[.[.H.&X&X&XS.!.!.!.=X=X&X:X:XF.H.J.9 : . 2 u qXgXAX2X`._.G D.1X!.S.S.Z.S.W /.qX/ :.wXuXsX5.fXxXdXaX^.Y.A.D.Z.{.<XOXA.T.dXdXe.e.nXfXwXsX<.wX6.wX1.J J G G F.F.S.,X!.S._._._./.T./.{ u > @ 6 A.F.F.&X:X&XH.H.&X:X=X=X!.S.&X&X&X:X&X[.[.[..X.X'.b.'.'.'.'.].].n.N.m.@X#Xm.g.g.g.].f.s.F.=X5X{.D.J.,XJX%XE.V.8 $ - % ; ; + @ . X X O % % + + - > 0 9 a.].'.].$X$X$XOXg.s.s.R.XXG.XXOXOX].].s.f.E.c.c.a.a.f.@X$X'.>X>X>X5X6X5X3XH.*X=X=X&X[.*X(.jXfXdXdX`.jX2XY.kXmXFXKX`.~.2XJX5X*X6X2X_.2XDX).W.3X;X&X&X~.DXFXT.{ /.jXW W T._ _ ( E E _ ` ! E p u q p _ 7XI.P.U.l.6 r d.r w x.d k z.h b P.i 0 q K.Q.r U.BXrXy + % O X & $ c 7X! ) ! I.{ _ W ",
"qXj j ) s i 2 * o o   X .   . v BXtXk.Q Y.T.Q.K.U.x.z.z.n d r g k.w 0 0 w eXtXP._ K u 4 4 P U P ! E ! ^ E E ( j _ ( tXqXT.tXgX/.T.Y.*X=X>X3XOXHXJX(.S.(.1X=X=X:X:X>X=X~.FXkXkXPXW.1XDXjXdXfXDX~.H.&X=X>X=X&X!.5X6X3X;X X-X;X{.$X|.n.a.d.v.M.G.f.XX$XCX%X@X].].s.s.f.{.@X|.].'.'.{.].s.e s.9 r K.U.l.( x s a 4 a 4 2 - y f f 8 j.HXJXOXF.'. X-X'.F.F.G.].m.N.#X@XXXn.n.N.@Xn.f.f.}.].].{.4X4X.X'.F.F.F.H.H.&X&X&X&X=X!.!.=X=X=X!.&X*XJ.e : @ @ 4 U Y.).2X2X=X_.!.S.1X!.S.S.D.Y./.' ] U ~ 4.sXsXaXaXaXgX/.Y.J.F.F.'.3X6X<XA.K.Q.T.' | fXdXhXvXwX6.lX4.Y U T.Y.A.Z.Z.Z.~.~.~.!.!.`.jX`.^./.I.3 @ @ 6 d.S.H.H.&X&X&X!.:X=X=X!.S.H.:X:XH.[.&X[.'.].$X$X}.'.'.}.F.b.|.@XXXn.n.n.#XN.m.g.n.].F.Z.[.*XJ.Z.F.*X4X+XQ.E.t 2 8 - - ; % * O @ @ - & + $ 8 h ( r s.s.].$X{..X{.F.f.g.s.a.a.J.g.g.@X@X@XXXf.a.g.R.R.d.a.g.|.$X'. X&X&X5X5X4X3X[.&X=X=X:X&XH.^.dXfXfXdX`.`.).DXPXnXKXDX1X~.6X1X5X1X6X2X!._.JX2XOX$X&X&X*X=XDXgX] { /.aXY.H ( j E ( ! ! ~ _ ! ^ W u J u p ! P.7XtXE.9 6 r k.w w d 0 l.P.k v eXz.w Q.Q.g L.tXyXn - + X X o @ i >.c ! ! ! I.I.E ",
"( ( i i - . o     X X +     - B.tXeXU.K.K.K.Y.E.E.eXl.f z.l r k.g 0 w k U.tXtXP.( p p L U ^ ^ ^ J E E K K ` ` ! >.0XyXI._ qXT.T.K.<X<X,X2X4X+XKXJX~.D.1X2X=X>X:X>X>X&X1XDXkXkXDX(.!.2XjXjXkX`.D.H.>X>X>X=XH.*X3X3X3X.X[. X;XXX%X|.f.a.c.v.h.g.].$X@X%X%Xn.F.f.s.f.F.G.n.f.f.].b.].f.e e d.r r K.K.K.K.k.g E p K 4 2 y A A 8 t eXHX4X{.[.[. X}.'.f.f.g.n.m.#X#XN.n.N.@Xn.f.f.f.'.].].OX@X.X].].F.F.F.H.&X&X&X&X&X&X!.!.!.!.!.:X!.!.*XG # # , s ^ Y.`.(.~.~.=X=X!.Z.S.H.S.D.(.^.} | e.^ J ;.aXaX/.Y.).D.G.Z.F.H.{.;X5X6X6XJ.Z.A.A.Y.^.gXkXkXfXsXsXlX2.L U [ [ Y.D.S.Z.G *X1XD.D.^.2XDX2X`.T.! 4 o . q A.S.S.&X>X>X:X=X!.!.&X!.&X:X&XH.H.[.[.f.'.$X%X4X$X].{.].f.f.|.].].n.g.@XVXN.m.g.XXXX'.F.F.[.[.*XF.{.JXKXx.t 8 y y 8 8 ; $ : 2 q i i t k U.L.l 9 e p.f..X].F.b.].].XXg.f.s.s.g.].@X$X%X$X].a.a.XXc.k.a.g.n.$X{..X[.&X3X5X6X5X=X&X=X:X>X>XJ.J.jXdXkXjXDX2XW.FXPXPXKX2X~.=X=X=X:X=X1X2XS.!.JXJXW.OX5X3X*X!.Y./.qXaXgXQ.T.K.i h ! _ ` ! ! E E K ^ P p u u u ( I.I.tXK.6 6 k w d d 0 k P.z.b eXeXl Q.).Q.K.r Q.BXf .   o o o $ 2 t x ) s ,.` t ",
"( P.2 o     + X + X X X   + v eXE.tXY.Y.Q.Q.E.Q.BXE.8Xl.L.L.r r 0 0 ) tXeXU.I.,.s u p { { ^ K ^ K J K P / ,.4.>.;.3.,.~ I.T.W K.Y.gX<XW.+X<X+XJX5X!.=X6X5X>X>X:X:X&XH.1XDXFXjX`.1X!.=X2XFXjX^.S.5X5X5X>X:X-X3X5XJX3X'.[.3X3X$X$X].f.a.E.E.g.b.@X3X@X%X@Xb.b.f.s.f.f.g.].g.f.].].G.s.9 a.r r k.r e A.A.e q W W q 2 2 y C A 8 d HXKX$X'. X}.'.b.|.g.XXg.m.#XXXm.n.n.n.f.f.f.g.].XXXX$X$X@Xf.f.f.'.[.[.&XH.H.H.H.&X&X=X=X=X!.=X!.!.S.G : @ - i I.W W.2X*XS.~.*X!.&XZ.Z.Z.H.J.~.D.!.^._.' W [ T.qX' Y.D.G.J.'.[..X5X5X5X5X5X*X].F.F.{.W.Y.^./.' qXnXaX] J ^ [ | [ ^.D.S.S.*X1XS.~.1X(.(.1X<XQ.K.x 2 @ : : Z.=X=X&XH.:X!.!.!.=X&X&X[.&XH.H.[.H.F.f.].$X4X$X].|.{.b.f.f.n.].XXm.n.N.#X#Xm.m.n.].f.s.H.{.[.[. X3XHXNXd 8 t V y y t 4 ^ u E p _ K.U.U.l r 9 e e f.].].F.g.].|.].].g.f.s.].].|.$X$X%X$X].g.oXE.c.a.].|.$X$X;X*X[..X3X6X3X;X!.=X:X>X:XH.S.`.dXjXjXDX`.Y.DXFXkXKX2X&X=X:X:X:X&X1X6X!.S.6XKX4XOX4X5X1XW.Y.T.qXqXT.T.T.tX( ) ! / ! E E ! E K U ^ U u t u j I._ tXU.d w d w l.k g k.z.l.b P.l.K.Q.R.K.K.H ).tXL.# .   X         @ 2 t x x i ",
">.t .   X + X X X X X $ 7 t V.eXU.Q.Y.Q.AXQ.Q.NXNXx.NXtXl.g r 6 d z 7X7X) ,.,.P P u P 3.T.^ P { E U ^ / / 1.2.;.:.;.,.` _ Q E W K.U.E.tXtXNXNX6X1X!.1X6X5X>X;X:X>X&XH.5X`.(._.!.=X!.=X1XDX`.!.~.6X6X>X>X:X;X3X3XJX3Xf.F.3X3X$X@X|.f.a.E.MXc.XX$X$X$X%X@X].'.f.F.f.f.f.].g.f.|.@Xn.9 9 q 0 l K.d.Z.A.s.G G G W q q 2 8 ; 8 8 x.HXJX$X}.}.}.}.|.N.n.#Xm.m.@Xm.n.|.@Xb.f.f.G.].OX$X%X$X@X}.'.F.'.F.'.[.&XH.H.H.H.&XS.=X1X2X6X1X!.!.!.9 : @ 3 / Y.Y.,X,XH.H.~.H.&X&XF.Z.H.*XJ.D.G G ^.^.H D.Y.W.T.Y.A.G.F.F. X3X5X>X5X5X1XH.1X4X$X'.F.H.Z.D.^.' /.aXT.U J [ dX} } } ^.!.S.H.Z.H.(.1X1XH.!.1X6XQ.Q ~ 1 @ # G D.H.!.5X~.~.!.!.!.&X&X&XH.[.&X[.[.[.'.f.F.].@XOX@X].G.].g.f.f.b.|.n.n.N.#X#Xm.m.g.f.].].[.'. X X].GXHXv.8 8 B.A t u q J W W r H K.K.d.r H r r s.a.f.].F.n.f.n.n.g.f.f.s.b.f.b.@X$X@X%X#Xa.g.v.c.a.f.|.|.$X$X;X{.[.3X3X3X*X&X:X>X5X>X*XS._.jXDXDX6X(.~.DXDXFXKXJX&X&X:X:X:X=X_.JX1XH.3XJXAX+X<X,X<X<X).L.I.I.0XI.I.qX0X) ;.~ ^ K E K J K P P / / P K j _ T.I.7X8X8Xd 6 r r g l.L.l.l.eXeXE.Q.K.K.Y.K.Q.T.U.t     + X X X     . . - t 8X",
"- o   . X X   + $ - f v z.z.P.k Q K.K.tXFXE.k.BXMXk.eXQ.g r r k.eXn P.7X,.~ s P / ` ` ` ^ ^ K ^ ^ K / / Y I ~ ;.;.P 3.qX! _ qXU.U.L.U.Q.U.T.NXAX6X&X5X6X5X;X-X:X:X&X*X6X1XS.!.!.S.&X=X=X`.`.!.=X5X5X>X:X&X[.3X6X4XOXf.F.$X@XOX|.n.g.g.c.E.XXXX|.@X$X$X$X'.b.f.F.'.'.f.s.a.f.n.n.a.e 6 q Q K.d.d.G.F.e e e q q p i y V y f 8 v.GXGX|.}. X.X|.N.n.@XN.N.#Xn.n.@X|.b.b.b.].].XX%X+X4X$X].'.'. X X'.[.H.S.H.S.H.*X!.H.1X1X1X2X~.S.S.D.: @ : s ] Y.(.1X[.{.*X[.&X&X[.H.H.&X&X!.D.G S.G S.S.A.K.K.K.R.G.G.G.J.{.*X=X5X1X,XJ.Z.6X6X3X;X[.[.S.D.D.' Y._ T.Y.W } _.^.G S.D.S.H.F.s.'.*XH.!.!.[.H.5X<XK.` D : # : G H.!.*X2X1X1X1X!.S.!.&XS.S.H.[.[.[.'.F.f.f.].$X%XOX#XXXn.f.f.s.f.n.@Xg.N.@X@XN.m.n.@X|.'.}. X}.}.GXUXNX8 8 f f t t > q W H G e A.s.d.H r Q 9 w 9 s.R.].n.f.b.|.b.f.f.f.f.f.|.$X$X$X$X4Xn.c.oXM.g.a.|.$X$X$X3X{.F.3X6X4X3X*X&X>X5X6X6X~.S.`.DXDX6X~.!._._.2X2X2X!.H.:X:X!.=X1XJX5X*XOX4XAX+X<XOXOXQ.Q.U._ ( I._ ( ` T./ ,.4.,./ ! J J J ] I / 3.3.p u p _ { 7X8XrXP.d 0 w r k.L.eXeXU.NXQ.U.Q.gXQ.K.Q.tXeXP.$ X X   X +           + A ",
"    +     + - i A 8X7XL.L.k g r r q g T.tXU.R.oX+Xk.k.g k.r w eXBXU.P.7X/ s 4 ~ 3.qXqX_ E K K K U P Y I I ~ / / ~ ) ` 0X` ,.hXtX8XtXeX0XU.qXyXgX2X~.=X5X>X*X;X*XH.!.3XJX1X=X=X:X&X&X!.1XDX2X=X!.1X5X>X:X:X[.3X4X4X3Xf.G.%XOX$X|.].g.c.v.c.oX#X@Xn.$X$X$X{.'.f.'.[.[.].f.b.|.n.f.9 w 0 j U.K.r d.A.A.e G q 9 u p 2 y V V.V.8 M.CX%X|.}.b.b.b.N.#X#X@Xm.].].].|.'.b.|.|.OXG.XX%XOXOX'.[.[.[. X[.[.[.F.F.H.H.~.J.H.~.1X1X_.!.!.!.=XG : : 4 / _ D.*XH.-X3X;X;X>X:XH.[.[.&X&XH.H.H.S.!.H.F.G.G.d.R.R.XXG.{.,X1X~.1X(.J.A.Z.{.3X3X3X1X>X XH.F.A.r K.Q.T.Y.Y.D.D.G G G S.!.=X&XF.'.[.&XF.&X&XH.H.1X<XK.^ S : . : S.!.*X2X6X`.1X!.!.H.*XJ.Z.H.H.[.[.[.'.'.'.'.].OX%X%X$X@XXXn.g.f.n..X|.n.n.N.#XN.N.N.b.}.}. X|.}.%XKXBXd 8 8 8 8 t p E G q H e s.Z.d.A.k.K.g w p.9 g.$Xm.f.b.f.f.f.b.b.f.b..X$X$X$X@X%XXXm.E.M.d.f.].|.@X$X$X].Z..X4X6X6X*X&X:X>X6X6X>X!._.DXDX1X&X!.!.!.=X(.2X1X[.&X:X:X!.=X6X6X*X3X4XAXQ.Q.Q.+XK.K.L.( ( ! ) ` ,.3.1.;.;./ / ^ U U ^ / P P 3.3.! K K u ^ 7X>.8XP.P.g w r g k.AXNXk.NXtXQ.Q.NX).E.U.L.8X8Xf t $ + o . . X o +     + ",
"+ X X + - x I.7XI.( ( g g q q w u 0 u ( l l.E.NXNXR.K.K.K.0 d.tXE.eX7Xj 4 J P U ] 0XI.{ E E K K / I P ! ~ 0XI.! _ I.x I.qX3.qXyXqXqXT.qXtX0X0XhX`.^.=X6X*X[.5X[.&X5X2X6X=X:X:X:X-X>X=X2X2X`.=X=X5X5X>X:X-X X3X3X6X3XF.G.%X@X$X|.G.g.a.k.c.m.%X$Xb.$X$X.X'.F.'.'. X}.}.'.n.@Xb.a.a.e q j K.r d.Z.s.A.A.r 9 F p u 2 y V j.j.j.VX%X.X}.}.b.b.b.N.VX@X@Xn.].}.'.b.b.'..X$X|.OXOXOXXXF.F.[.-X-X X X X'.F.F.J.H.!.J.S.~.(.=X!.S.S.!.6XF # : U T.Q.1X[.&X5X;X[. X-X&X:X&X:X:X&X&XS.H.*XH.F.F.f.R.G.g.g.OXJ.J.(.,X2X(.A.A.G.R.OX{.1X5X=X*X&X{.G.A.R.Q.R.A.G.G Z.S.!.S.S.!.S.H.&X XF.[.-X:X&X&X;X&X{.<XY._ I 4 . 9 D.H.S.~.1X2X_.=X!.!.~.J.J.S.F.H.[.[. X[..X'.F.OX$X+X$XXX$X@X].g.f.b..X|.'.n.N.@X#X@Xn.}..Xb.}.@X$XGXVXh.8 V A f y i p : 9 G e s.A.R.d.g Q k.r w p.a.f.n.f.a.f.'.}.'.'.f.'.|.|.$X$Xn.].@X#Xv.v.g.g.'.].$XXX3XG.f..X3X3X4X X-X>X>X5X>X*X!.!.2X2X=X&X!.!.!.!.~.6X5X&X[.-X:X!.=X1X5X=X1X2XAXtXE.E.U.U.E.U.tX0X~ ,.4./ ~ / >./ I / ] Y U U K U ! ! / 3.{ ^ ^ K ! 7X7Xl.E.tXg e d.r K.E.v.Q.NXl.U.AXtXQ l L.h d 8XeX8X8Xz $ . #       + X ",
"+ + - 2 n ,.! E p K g q p r q t t u i z b U.E.E.R.r d.U.r w E.NXQ.SXU.g u J P K P I.{ Q K K { / P ,.,.0X8X7XP.L.( b ( P.I.,.:.,.,.wX3.qXhXsX2.sXdX^._.6X=X=X>X:X=X6XJX6X5X:X&X&X-X;X5X(.`.2X~.:X;X>X-X:X:X-X.X4X4X3Xs.g.$X$X$X|.f.a.h.v.c.g.%X$X]..X].{.H.F.F.'.'. X[.'.}.$Xb.a.e 9 g _ r d.Z.A.s.A.r e J J ! 2 ; f V f 8 E.GX@X$X.X|.}.b.n.#X@X|.|.}.b.b.'.'.}..X.X.X3X3X].f.F.F.H.&X&X:X:X X X[.'.H.J.Z.S.!.S.~.*X!.&XS.H.3XR.: > j T.Y.(.5XH.&X-X[.'.[. X:X:X:X!.:X:X&XH.[. X'.'.F.G.XXR.R.OX{.J.F.Z.W.<XQ.g.g.@X@X|.{.{.~.=X=X5X,X{.XXG.d.d.g.G.Z.F.Z.H.&XS.S.!.&X:X-X&X X-X:X:X-X>X=XH.*XW.Y.I.a 2 : F *X&XH.H.(.1X_.~.S.S.~.!.H.Z.F.'.[.[. X X-X XF.F.{.$X.X].XX@X@X].f.'.'.}.].n.|.#X@X@Xn.b.b.b.|.$X$XGXx.t B.A f y y i F 9 e G A.G.A.d.w K.U.g w d.9 a.n.|.'.'.'. X X'.f.b.[..X3X.Xn.@X%XXXc.v.d.g.].|.$XXX4XXXf.;X4X4X3X[.-X:X>X5X5X:X=X1X2X`.=X=X&X&X:X!.=X1X1X*X.X&X:X*X!.1X1X~.2XDXhX0X,.qXeXeXtXtXgXtX>.0X;.~ ` / ) I.~ I P L Y P K ! p Q { 0X5.3.U u K E L.I.U.tXtXw 9 A.A.k.E.eXtXU.l.U.U.g q g q w i j b _ I.7X7Xi $ @ . o + ",
"+ - t z ~ ! p p K g u u u u i i z c c n z.P.E.K.k.r r r g U.eXeXNXCXQ.r q p K ^ _ { _ u j _ T./ ` ) 7X7XP.k P.z.b L.P.7X7X0X4.4.:.6.sXsX6.6.=.4.aX/.2XJX1X=X=X!.=X6XJX6X>X&X[.H.-X=X1X_.`._.J.*X;X-X-X:X-X X3X3X6X{.s.G.XX%X$XF.s.d.d.c.c.d.OX$X@X|.{.{.F.s.f.'.[. X X}.}.}.b.a.s.e H K.r s.A.Z.Z.Z.e q q q ! 4 ; ; f f w oXHX4X.X;X}.'.|.@X#X@X|..X'.'.b.'.|.3X$X$X$X$X{.F.F.F.H.[.&X:X:X&X-X X X{.J.S.S.S.S.J.,XH.H.H.H.{.OXw # u tXW.OX6XH.H.-X X X[.F.[.:X&X&X:X:X&X&XH.[.[.[.F.].{.G.W.OXZ.G.J.(.J.R.W.XXm.m.@XN.|.F.s.J.2X<X,XA.A.W.W.W.G.R.G.f.F.F.[.&XH.S.H.:X:X-X&X:X-X-X X[.&X>X*X{.1X<XI./ : # F D.=XF.F.!.~.~.(.!.H.H.H.H.H.F.[.F. X-X-X[.[.F.H.'.H.{.OX$X$X%X@X'.f.'.b.}.}.|.N.N.@XN.b.b.b.}.|.OX4XNXd 8 A V 8 t y ! q q e Z.Z.s.A.r r L.l r r 9 a.n.@X'.b.'. X'.[.'.F.[.{.{.{.F.XX%Xm.c.E.a.d.G.].$X+X+X].f.{.6X3X3X-X-X:X:X;X>X;X!.=X2X_.=X=X:X:X:X=X=X1XJX6X6X;X5X=X&X1X=XD.^.hX3.qXwXhXqX0X0XqX8XqXqX9X~ x ) ! ( 7X7X:.I L Y ^ E E E W _ { 1.U P J p K j U.tXtXQ.d.r K.K.r K.NXMXeXL.l l r q 0 g r w g g j W ( >.) 8Xc - .   ",
"$ i x x p x K p K u u i a c A >.A c c v z.U.E.v.r k.q q K.qXeXE.NXQ.E.Q q q J W _ _ ( E E { T.T.T.qXU.k v x.B.x.x.z.P.I.>.4.wXwXsX6.6.lXt.u.0.6.5.dXjX`.1X1X=X!.:X5X6X,X,X&XH.[.=X5X1X!.D.Z.J.H.{.-X:X:X-X X$X3X3X3Xf.G.@X%X.X].a.c.k.c.k.g.OX$X].].'.{.F.s.f.[. X X X X X.Xf.a.d.e H R.s.e G.s.e G e q q p ! a ; V f 8 8 VXJX3X.X;X X'.$X%X%X$X.X X'.'.'.'.].$X$X3X3X.X[.'.H.H.H.S.&X&X:X-X:X-X:X-XZ.S.~.~.!.H.{.F.F.H.*XJ.w # # T.GX<X,X{.[.;X X-X;X-X;X>X!.H.=X:X:X&X[.H.[.}.'.'.,XOXD.(.2XD.J.W.,XR.d.c.g.m.#XN.N.@X].d.d.+X).R.A.J.J.D.D.{.XXG.].G.F.F.[.H.H.H.&X:X:X:X:X>X[.'.F.H.&X[.H.{.4XK.{ U : # A.,X*X[.S.~.~.*XH.H.H.S.H.[.H.{.'.&X-X-X-X[.[.[.F.F.F.{.3XOXXX$X$X|.'.f.'.'.}.|.}.$X|.N.b.|..X X.X4XHXh.8 V.f y 3 2 K J G 9 e A.A.s.d.e d.Q r e s.a.].|.'.'. X[.'.'.f.F.'.{.{..X{.$X%Xg.c.v.w a.f.F.XX$X#X].s.{.6X6X.X-X-X:X:X;X>X-X=X1X`._.~.=X;X'.[.&X=X2XJXJX6X.X5X>X=X1X2X_./.sX5.6.sXsX6.wXqX) P.7XqX7X) ) L.z.L.P.) 0X4.;./ ! T.U.W g ^ _ / I / ! q J r K.SXE.tXQ.r r K.w g k.x.E.P.z.n b h t 0 t g g g g J J p x ,.) i 2 @ ",
"i i i u p ! p u u u s c A A A >.c c A ) 8Xl.k k g r g Q L.L.8XE.Q.R.K.d.r r W I.W p ^ _ T.I.( ` tXQ.l l.V.z.x.rX8XeX8X7X,.qXwXlXuX$.0.i.u.6.u.xXnXxXr.| _.=X:X!.=X6X6X*X;X*XH.*X=X1X1X_.S.Z.]..X;X>X-X-X[..X5X3X3X6X|.XX$X%X|.'.a.d.v.v.g.R.$X].$X.X'.[.Z.e f.]..X-X-X;X X}.b.f.s.9 d.Z.s.s.F.9 e G 9 e H x P t ; f A 8 d HX4X$X-X}.}.|.$X%X$X@X X X'.'.}.$X$X|.OX$X;X-X[.[.&X&XH.H.&XS.H.-X:X:X&X&XH.!.1X=X&XH.F.f.F.[.G.e 6 # k.R.J.J.[.F.[. X[.;X X;X6X5X!.=X=X!.&X&X[.-X X'.'.*X*XD.W.(.^.J.A.A.R.c.c.m.m.m.N.n.@X%X#Xc.c.c.c.K.W.,XJ.Z.D.(.J.J.$X|.'.'.H.H.[.&X&X:X:X:X&X:X&XH.[. X X&X[.{.<XAX).jXJ # 6 s.3X[.H.H.H.*X&XH.&X!.Z.H.&X-X-X&X:X:X:X&X&X[.H.F.F.[.{.$X$X$X%X$X'.'.b.b.}..X|.$X%X@Xn.}.;X;X;X3XGXj.8 f f y 2 y P J q 9 G A.Z.Z.A.e A.K.e 9 s.a.G.}. X X[.-X'.F.s.s.F.{.{.{.|.$X$Xg.c.E.h.h.f.G.{.$X%XG.s.].$X3X$X-X-X:X:X&X-X-X!.!._.^.1X5X;X[.F.&X=X=X6X6X6X;X>X5X1X`.jXdXe.6.=.-.t.0.6.wXwXwXwX,.7X>.>.) k l.U.b x n 7X,.0XI.qXT.K.E p ^ ] / P W g r W Q.NXtXU.NXU.r r r d g P.x.P.B.n c n ) z h t h q u q E E i p s x p u ",
"u > u u s s i i c c c c c c A v n ~ ) c b b k h g 0 p I.` L.U.E.K.d.K.r r Q K.I.W u E T.qXqX_ L.U.k.U.E.x.z.rXrX9X7X7X0XwXsXwX6.-.+.%.7.8.%.-.u.fXr.R e._.^.!.!.=X5X5X{.{.{.{.5X~.!.1X!.H.{.$X3X;X;X-X[.-X3X$X$X4X$X$X$X@X%X$Xf.a.w c.XXg.XX$X]..X.X{.F.f.s.F.]. X.X X-X X X}.s.s.e R.f.f.b.s.e e e q E p i 8 8 8 y f 8 v.HXJX4X X}.}.|.%X%X$X$X[.'.'. X$X4X$X4X|.{.{.-X&X&X&X&X&XH.H.S.H.&X:X&X&X&X&X=X5X=XH.F.f.F.{.G.s.6 6 k.W.G.J.H.F.'.'.[.[.F.'.[.H.J.(.1X=XH.!.&X X3X.X}.;X*XD.S.(.2XD.D.d.k.c.M.#XN.m.n.n.n.m.#Xm.M.M.j.k.d.R.OXJ.A.~.(.W.J.OX$X{.'.[.[.[.&X:X:X&X=X!.!.=X;X;X;X X-X;X[.G.3XW.<XT.q # 9 Z.{.H.F.s.H.&XH.&X=XH.Z.[.&X:X:X:X-X&X&X[.H.H.[.[.H.[.3X3X$X$X].|.'.'.F.}..X.X@X%X$X|.}. X X X3XJXMX8 h.f 8 ; a ,.u q 9 9 G e Z.f.s.s.A.e e s.s.'.}. X-X-X-X.XF.s.s.F.{.'.{.{.].@X].g.E.v.c.s.n.$X$XOX].n.3X3X3X3X.X X:X-X-X-X XH.Z.D.!.1X1X>X;XF.[.=X=X1X6X5X=X;X=X1X_.dXfXdXt.u.-.u.u.u.6.wXuXvX4.4./ 7X7Xl.V.z.z.x.k h P.tXqX_ I.T._ W W ^ ^ ( E q q K.Y.U.NXU.tXeXl g h g g l.l.z.8XA c c A 8XB.A b i p u u p p s x s s u ",
"u q u K u u a ~ 4.8X>.>.n c b c j x x j h t d d t h s >.7XeXtXk.Q r k.g r L.K.Q g E ^ _ T.tXT.U.d.R.E.x.x.rX8X8X7X7XwX4.4.4.<.$.+.-.%.%.0.6.+.+.&.D &.fX`.^.!.!.5X6X,X[.{.{.3X6XD.!.=X!.=X5X3X$X X;X X-X3X3X$X$X|.@X$X$X#X%X@X].d.h.M.c.g.G.].f.|.|.'.H.Z.Z.].n.}.|. X-X X X'.a.9 s.$X'.f.b.s.e e H W u 2 - ; - y 8 f 8 NXKX4X3X X}.}.b.%X#X$X$X'.f.'..X$X$X4X6X.X[.[.[.&X&X&X&X&XH.Z.J.=X&X:X:X5X>X!.&X>X*XF.F.[.F.Z.e 9 w 9 s.e G.{.'.[.[. X X Xf.F.F.G J.(.^.!.!.&XH.[..X'.;X;X[.S.S.(.W.G.G.R.m.XXN.N.N.m.m.m.m.m.c.j.M.M.M.oXXXm.n.A.G.W.(.1XJ.H.*X{.'.'. X-X[.&X&X!.=X~.!.,X5X-X X X}.[.[.Z.F.J.J.K.K.9 6 9 d.J.J.Z.f.H.&X=X1X1XH.H.&X&X:X:XH.H.&XH.H.&X&X[.[.[.-X.X{..X.X$X.X}.'.'.|..X$X%XCX@X}.}. X;X3XGXBX8 j.B.f ; y a i K r 9 9 e s.f.s.s.A.s.e f.f.b..X X X-X;X X{.s.s.Z.[.'.{..X|.$XXXd.k.E.j.a.f.|.$X].XX$X3X6X4X3X;X[.[.-X>X;X;X$XG.S.!.1X_.*X5X.X{.&X&X=X6X5X*X&X=X_._.| r.fXmXlX8.-.u.t.-.2.wXwXwXwX;.,.8X8XrXeXz.z.U.v.U.U.tXL._ T.T._ E p ( I.( g r k.K.d.Q.tXl.z.P.P.b q h g k L.P.>.A A A B.A A n n s a u 4 u K p p u > ",
"J u J p u i >.,.A 8X9XtXqXI.l g q K E Q g 0 7 0 z >.>.>.` 7XU.k r K.K.k.r K.L.r q W I.{ U.T.Q.Q.c.v.v.v.eXeX8X0X0XqX3.;.O.a C +.&.-.0.0.0.<.6.u.y.y.r.fX| ' ^.1X2X2X[.[.}..X6X2XD.!.=X*X3X5X5X;X-X;X-X;X3X$X3X%X'.3X$X@X%X@Xs.XXd.c.oXj.d.].b.f..X|.[.F.Z.s.n.f.|.'.}. X X Xb.a.e s.$X|.b.].s.e : q j 2 @ * ; - 8 8 8 h.MXGX3X|.}.b.b.N.#XN.|..X'.'..X3X$X3X5X5X-X X[.[.&X&X&X&X&X&XF.H.5X=X!.=X5X5X=X&X&X'.'.;X*XZ.9 9 0 9 s.Z.F..XF.{. X X.X}.'.'.H.H.&X~.J.D.S.J.H.Z.F.f.'.;X;X[.H.J.G.G.m.m.@XN.N.n.n.n.N.@XM.M.v.c.c.n.n.N.#X#XN.N.m.c.G.W.`.^.S.[.;X;X.X X>X-XH.*XS.=X_.!.S.S.'.}.}.}.[.'.{.F.{.{.F.G.K.6 6 9 s.{.H.f.Z.F.~.1X5X!.*X=X:X&X&XH.H.H.H.&X&X&X&X&X-X[.[.[.3X4X4X$X.X'.'.f.|.@X#XCX%X|.}.}.;X6XHXHXB.8 f f ; y 2 4 x p F G e e F.g.f.G.A.9 a.a.b..X X X X-X'.G.G.s.s.G.[.]..X'.|.XXd.c.v.h.a.f.{.3X@X$X$X.X3X$X$X$X*X[. X;X;X3X3X$XJ.!._.=X!.,X4X.X&X&X*X6X6X&X!.!._.e.&.R 4.lX<.%.<.-.+.B %.6.6.lXt.2.4.4.8X8XBX8Xv.v.E.v.k.U.I._ 0X{ _ W g W U.I.l r r A.r k.l.8X8XrX>.t 0 g d g h h z ! n ~ x b v c c A :.A s s s u P u > ",
"q J J p p >.9XA >.>.7XtXU.L.W r g j j p u t z c A 9X:.>.c i g K.W U.K.U.K.l Q j u _ T.T.T.K.U.R.R.c.E.E.eXqX7X3.1.Y L L O.@.-.<.-.-.<.9.<.$.-.r.t.cXxXe.| ^._.jX2X1XH.[. X}.4XJ.!._.=X&X>X5X5X;X X X.X.X$X4X4XXX|.%X@Xn.@Xm.a.XXg.MX#Xa.f.{.f.f..X'.F.F.s.f.g.a.|.'.'. X X}.'.f.e p.$X|.b.|.f.9 0 > 2 ; ; - ; ; 8 8 8 j.%X%X|..X|.b.n.@XN.N.$X|.'.'.;X3X$X3X6X:X-X-X&X&XH.H.&X&X&X*XF.H.5X=X!.=X=X:X*X-X[.F.{.5X*XD.H : # 9 F.].,XF.f.].F.b.b.}.'. X&X=X=X!.D.G ~.H.Z.F.'.'.;X3X;X*XH.H.G.g.m.@X@X|.N.n.b.N.m.#XM.C.M.M.m.N.n.n.n.@XN.N.N.m.R.K.D.~.S.S.&X;X X}.}.[.H.;XS.S._.^.D.Z.H.'.'.}. X X}. X'.[.{.s.e w 9 r 9 s.Z.[.H.s.H.=X!.&X5X5X>X=X&X=X~.Z.F.&X&X&X&X&X[.[.[.[.3X6X3X3X.X X'.b.$X$X@X%X@Xn.}.}. X3XGXHXV.8 8 ; y % ; @ 2 i E r 9 e f.'.s.].W.e a.a.|.}. X-X X}.|.'.].f.Z.[.{.[.|.f.].XXa.c.V.h.g.].|..X$X$X$X$X|.|.4X%X3X3X-X;X X.X3X6X*X=X=X!.!.2X4X.X[.[.&X6X2X=X!.!.} dXr.&.2.2.6.<.8.6.-.6.%.$.C $.#.2.wX4.:.9X8X8XeXv.c.E.c.k.T.T.qX{ ^ _ Q r l K.g l r k.K.r k.tX9X8X8Xc i q d w w i p j u i j ( P.P.8X,.:.:.~ I u 4 4 p q ",
"J q ^ p >.8Xz ~ / ) ( I.L.W j E l h z i s >.:.:.>.>.c i i x x l g Q T.E.U.g g E ` I.[ T.T.W.A.s.R.c.oXNXtX8XqX] L 4 L O.$.$.$.%.$.=.=.+. . .+. .-.xXxXe.' } jX`.`.`.*X[..X.XG.J.`.1X=X!. X5X5X>X.X-X{. X|.%X%X].m.#X@X%XXXXXg.a.p.CXXXs.G.F.f.f.'.f.F.F.s.f.a.n.|.'.'.-X X}.b.f.9 s.|.|.b.'.].A.$ . @ - - ; 8 8 7 d v.oXXX$Xn.|.|.b.n.N.#X@X.X}.'.[.;X3X4X4X;X-X-X:X-X&X-X-X&XH.&X!.!.S.!.!.=X>X=X:X*X&XH.H.&X3XW.9 0 9 9 A.J.J.s.{.{.{.}.}.'.}.}.-X:X:X!.!.!.Z.G F.J.{.].F.H.{.5X5X{.].|.@X@X|.n.|.n.n.N.N.M.M.m.M.M.C.M.VXXXn.n.n.n.N.@Xm.n.R.A.S.H.&X[.;X3X}.f.'.F.H.H.H.G ^._._.!.H.[.}.'.}.}. X'.'.{..Xf.f.9 9 9 9 Z.,X>X[.F.[.&X~.>X>X>X&X!.2X~.S.H.:X&X&X&X[. X[.[.-X;X6X4X.X;X5X'.b.|.$XN.@XN.n.b.}.}. X$XGXC.d 8 - - * - @ , t u q 9 e }.b.b.$XG.s.p.f.}.}.-X X'.[.|.b.g.F.s.F.H.'.$Xb.f.XXa.a.E.E.c.XXb.n.@XXX@X%X@X|.4X$X3X$X;X X[.-X4X6X5X*X=X=X^.~.6XOX}.'.J.,X2X`.^.^.} | r.xXxXy.t.6.%.6.0.-.0.%.$.@.5 L Y 4.4.wX:.7XeXeXv.E.c.k.tXT._ _ T.I.Q q g k.K.K.l.K.L.g ( b ) >.A 8X8Xz t > t p x x p t g l ( I.eXqX9X>.,.~ ~ s 4 ! P ",
"q u / ^ qXtXn i ~ 0XT.I.W L.Q L.0X8X~ >.9X4.:.A a C c s s ! ( ( Q L.U.K.h g l ) 0X{ _ _ Y.Y.G.W.XX%XNXtXyXyX3./ U Y 2.=.=.<.%.+.@.O.D O.&.&.&.O.2.lXsX[ | | jXfX`._.=X X.X.X{.W.^.1X=X&X>X5X;X3X;X.X.X.X3X%X$X@X@X%X@X@Xn.c.g.p.oXoXf.s.'.f.f.b.'.f.Z.F.s.F.f.'..X'.[.-X-X}.}.b.p.s.].].b..XXXr # . X 8 y 8 8 8 x.E.oXg.f.].n.b.b.n.N.N.@X|.|.}.'. X;X5XJX6X[.[.:X:X-X[.-X;XH.&X=X=XH.S.S.1X=X>X>X:X&XH.H.*X*XD.q 9 0 9 G.OXJ.s.OX3X.X[. X X}. X X-X&X&X!.!.S.A.Z.G.].{.{.OX(.~.,X,XG.n.@X%X@X@X|.n.n.n.N.N.m.m.oXVXVXVXM.M.M.N.N.b.N.|.|.@X@Xm.g.G.F.{.;X>X3X.X}.'.F.F.H.!.S.S.~.~.!.&X[.'.f.'.'.'.'.J.F.F.$XG.e 6 : r H J.=X-XH.H.&X:X=X:X=X=X=X=XS.H.&X&X&X&X[.&X-X-X-X-X-X5X6X3X3X;X X'.'..X|.@X@XN.b.}.}..X$X#XoXv.f - 8 3 - & - - * $ 9 d.n.}.b.$XG.e a.f.}.}.-X XF.}.|.b.f.f.s.F.F.'.}.f.f.].G.a.XXE.h.c.f.N.@X@XXX#X].].$X4X$X.X X.X-X-X3X5X;X&X&X=X_.^.~.{. X[.H.~.dX_.jX/.^.| fXxXcX8.+.%.+.=.-.-.%.%.%.+.O.L L U I ;.4.,.tXtXoXR.R.c.k.K.T.T.T.I.L.l.l l l K.U.U.K.j ( p z c c >.9X8Xb j i i u s ! h g Q L.Q.eX7X) ~ ~ ~ ,.~ u P p ",
"r J E ! qXrXb u ! gXgXK.g I.L.T.qX8X8X9X:.>.a a >.) ~ x x ! ( ` I.L.l l l U.I.7X0XI.T._ K.K.W.W.NXGXBXNXyXqX/ I =.=.2.$.+.%.$.@.$.+.L O.&.D O.$.6.6.R T | | e.jX`.).5X&X}.3X6X(.^.1X!.=X;X3X5X;X.X.X X$X$X{.].<X4X4X4X+Xc.M.oXoXCX@Xf.]..X{.}..X'.Z.F.F.s.F.f.}. X'. X-X X X|.f.9 s.OX].b.3XJ.6 # . @ 8 f 8 7 j.MX#X].f.f.f.f.n.n.n.@XN.b.b.}.'.'. X.X4XJX3X[.&X-X:X:X[. X[.&X=X=X>X=XS.D.1X=X=X>X:X;X[.[.2X).W u > w A.OX{.H.*X=X&XH.'.b.'. X-XH.&XS.~.H.Z.Z.Z.G.s.G.{.{.J.2X6X,X].f.n.|.|.b.|.|.b.N.N.N.m.m.M.VXN.C.C.M.M.M.m.N.N.n.].|.|.@X$XXXXXG.{.6X3X*XG.].{.{.G.Z.Z.Z.!.!.&X!.:X-X[.'.'.'.[.[.{.,XH.F.{.G.d.: : > H (.*XH.[.&X&X&X:X>X1X~.!.S.H.&X=X&XS.&X:X-X X-X-X X X3X6X5X3X;X'.b..X|.@X@X@Xb.b.b.}..X@Xm.v.V.8 7 8 - - - - . . 6 A.|.|.b.|.R.e s.f.}.}.-X X'.'.|.n.f.f.s.F.'.F.'.f.s.s.F.f.G.#Xg.p.n.n.XX@X@XOX].].$X4X$X|..X X X;X5X5X;X&X=X5X_.D.J.3X.X X{.,X`.`.jX/.} | e.xXu. .@.-.O.O.=.O.+.%.%.2.$.$.Y L a Y 2.qXqXtXtXoXR.g.A.K.Y.T.T._ I.I.E g g Q U.T.K.g ( x s z a z >.n 8X8X,.c a s ! ( g j Q L._ U._ ! ~ c 7X0X! ^ u ",
"J g u K tXtXP.h ! tXgXK.r T.Q.qX8XqXwX3.) s I ) 7X>.) ) j j ! ( ( Q l L.U.tXtXI.7X0XI.( L.L.R.E.AX+XAXhXqX3.$.#.6.6.$. .+.+.%.N %.$.+.+.-.O.O.&.*.L U | dX/.T } ).,X*XH.H.5X2X^.`._._.=X,X3X6X3X}.'.{.3X4XOXW.4X4X+X+XoXk.c.v.VXGXXXG.{. X.X;X3X[.'.[.F.f.F.F.}.'.'. X X}. X}.f.9 s.$X].f.4Xk.# $ 2 y y 8 8 h.VX%Xn.f.f.].b.f.n.N.@X@Xn.n.|.|.b.F.[.3X4X4X3X;X-X-X-X>X:XF.H.:X=X=X=X=X=X~.1X=X*X&XH.&X&X(.(.[ > @ # r W.J.S.H.>X*XH.[.[.F.H.H.!.H.S.Z.H.F.Z.Z.F.].f.F.F.J.J.,XJXR.g.m.@XN.|.|.$Xb.N.N.N.M.M.M.VXMXM.MXC.MXM.M.v.N.n.g.b.b.}.|.@X%X@Xn.G.OX,X(.J.{.{.OXJ.s.Z.Z.H.!.&X&X&X=X&X[.[.[.[.H.{.1X*XZ.[.3XW.q : # q Y.(.*X&XH.&X:X>X5X1X1X!.G H.*X:X=X&X&X&X X X:X:X&X[..XJXJX3X;X}.'..X|.|.N.N.N.n.b.b.b.].a.c.#XoXh.7 8 8 y $ . . > r $X|.b.|.G.p.a.f. X}.-X-X'.'..X].f.F.s.F.'.f.'.|.s.s.|.f.a.@X#Xa.c.g.n.@X%X%X$X@X$X$X$X$X$X X;X3X3X5X>X-X:X=X_.D.J.3X.X[.;X1X`.jXjXdX/.' | r.t.&.%.$.@.L O. .@.+.%.%.-.2.=.;.Y #.I qXqXBXAX+X%XW.W.R.Y.W _ T.0XT.( E g l K.L.L.l L.( ) c z x x s c 7X9X0X,.>.) 7XI.Q K.L.( qXqXI.z x 7XqX7X^ p ",
"g q q p qXeX7X( _ T.gXU.Q tXtXT.qXyX0X~ ~ 7X7X,.! ! ! ( j j j ! E j ( U.tXU.U.P.I.7Xb i g U.E.Q.E.U.gXgXqX3.6.6.6.6.-.+.@. .+.%.<.%.@.-.lXt.=.O.Y ] dXaXaX/.[ ' T.W.D.S.~.2X_./.dXdX`.`.W.<XJXGXG.OXJXJX<XQ.Q.U.k.w d 7 7 7 7 V.E.R.R.J.F.'.3X3X{. X[.F.Z.[.'.}.'.'.'. X}.}.'.F.a.a.$XXXF.%Xg $ # - A y 8 8 C.VX@X|.'.b.}.|.n.n.n.XXXXc.].@Xb.f.'.].$X4X4X3X;X X-X[.-X-X[.H.1X=X:X=X&X!.2X6X>X[.H.F.H.,XD.q : @ # : A.A.H.*X;X[.[.-X*X'.*X*XS.S.~.J.H.F.F.F.'.'.].'.F.F.J.,XW.W.k.c.N.@X@X$X@Xb.b.@X#XM.C.VX#XM.M.MXC.M.MXVXMXM.m.M.m.n.}.|.|.n.@X|.N.n.G.(.DX2XJ.{.J.Z.s.OXF.s.F.[.[.H.H.H.&X-XF.F.'.F.H.5X*XH.{.OXK.r # : q T.2X*X&X&X:X;X=X*X1X!.S.=X1X=X=X>X&XH.-X-X:X>X-X[..X6XJX3X.X'.b.|.|.b.n.@X@Xm.n.f.a.f.g.g.].$XVXj.8 8 j.8 + @ $ 9 OX$Xf.@XXX9 a.b.}. X X-X[.'.}.'.f.f.f.F.'.f.'.$X{.{..X].f.OXCXoXv.oXM.oXCXGXGX4X{.{.%X$X|..X{.3X5X3X;X=X!.!._._.2X5X.X[.;X1X_././.dX| T T R 6.2.$.@.#.*.L D =. .@.%.$.+.$.6.4.2.L 2.qXtXAXAX4X<XW.W.K.W K.T.0X,.0X` _ Q g Q K.U.L.( ! x c ) ) >.z a n :.wX,.7XqXtXU.L.W E gXgXI.u x qXtX` E g ",
"K.u q j tXeXU.b Q L.tXK.K.AXgXU.tXhX0Xj ` qXT._ j j ! j x ! _ ` ~ ) I.0X8XU.z.P.b z.z i h Q L.U.I.qXgXqXe.5.6.8.0.0.8.6.+.+.%.<.0.6.+.-.t.t.t.1.5.5.aXaX[ [ T W Y.^.(.!.`.jXdXR e.fX[ J W K.Y.Q.d.A.Q.Q.K.g w > # . # .     X t 7 9 W.G.G.].;X.X X;X'.f.f. X[.'.'.'.[.}.}.}.'.f.9 s.$X].F.4X0 $ * y A 8 p.j.VX@X}. X}.'.].n.].n.n.m.G.].XX].b.b.'..X$X4X6X$X X-X>X:X-X-X&X=X=X1X=X!.!.!.1X2X5XH.[.*X*XD.0 @ : @ 0 W D.S.*X5X-X'.'.'.'.F.,X*X~.1X1X*X[.F.F.[.[.[.'.{.J.S.S.A.K.k.v.m.@X@X@X|.b.b.@XN.#X#XVXVXVXM.C.M.v.v.M.oX#X#XM.M.N.N.N.n.N.|.N.N.N.m.c.W.2X(.J.W.G.F.Z.G.G.Z.F.F.H.H.S.J.H.H.[.F.'.[.[.&X3X&XH.{.R.r : : : u Y.J.*X&X[.F.{.=X1X1X!.=X5X1X=X=XH.F.-X>X-X-X X-X;X3X4X%X$X}.f.'.|.b.n.N.#XN.n.n.b.G.f.b.F.|.%X#Xj.8 8 f y - # # R.%Xf.@XG.s.p.b. X}. X X'.'.'.'.F.F.f.F..X}. X3X3X{.}..X|.XXHXBXv.j.d c.E.E.+XAXOXXX4XGX$X{.[.3XJX4X*X1X1X_.`./.`.6X*X'.&X(.^.^.T [ dX| R R #.@.#.=.6.6.O.O.6.+.B @.+.@.@.6.6.6.$.;.;.qXhXNXQ.+XR.R.R.K.Q { 3.,.,.0X0XI.( l ( ( ( b j x ! ` ` I.) c >.~ >.qXqXqXqXQ.T.g j tXgX_ j P.8XtXj j p ",
"l r u l yXtXP.l l T.Q.K.K.AXNXT.hXhXT.I.tXtXY._ Q _ ^ E x ! ` 7X7X7X7X7XP.U.P.z.x v b b b b L.I.0XsXsX3.t.t.6.8.7.w.0.0.-.%.6.-.<.-.6.=.=.=.6.6.5.5./.aX/.[ J W ' ^.dX_.dXdX5.D D 5 , : i u # # # # 6 # # # @ #   . $     X + + . . q W R.<X$XF. X;X'.F.'.|. X'.F.}.}.'.}.'.f.s.9 f.XX].'.4X> o t A v 8 d VXCX|.}. X}.}.b.b.n.n.m.n.s.G.G.G.f.f.].$X4XGX4X;X X>X>X:X-X-X>X*X!.1X>X&X!.!.!.1X=XH.&X[.Z.6 @ : , : 9 Z.J.=X5X;X'.}.}.b.b.H.J.(.1X2X*X*X[.F. X.X'.[.[.:X{.H.Z.d.d.R.R.oX@X#X@Xn.m.#X#XN.N.VXC.M.M.C.M.oXMXMXM.M.M.CXVX#XVXN.m.n.n.@X$X@X@Xm.c.k.Y.R.W.J.s.F.{.F.G.].'.F.f.H.&X~.(.J.,XOX{..X.XF.'.;X>X{.F.A.r # . : : G OX*X[.F.H.>X1X5X=X!.&X=X1X5X&XH.-X-X-X&X&X-X3X3XGX%X$X].f.f.].|.|.n.m.m.g.n.b.].b.f.}.|.$XCXC.p.8 f c t $ # K.3X].OXXX9 a.f.'.}.}.[.}.'.F.'.[.'.F.F. X;X.X.X3X}.f..XW.k.l.A - # . 7 t 0 0 Q Q.E.<XGXJXOXG.<XJXAXW.)._.jXkX| /.DX1X!.J.!.^.T [ [ /.aXr.e.#.$.2.6.sXu.$.$.6.%.+.+.$.%.+.-.0.6.6.4.4.qXgXyXU.E.Q.E.k.g g b ` ) x ) 0XqXI.L.l b ( ! j x ! ! P ! 7X8X0X>.~ qXyXqXI.gXgXK.Q gXqXT.( P.eXtXb u 0 ",
"g r u j tXBXE.l.l tXQ.d.K.KX).Q.FXgXT.Q.gXgXU.W W _ _ ! ! ) ~ ~ c 7X8X8Xz.n b n n n c ) 7X7X0XtXqX4.5.wXt.i.lX0.7.w.q.9.6.0.6.$.$.6.6.=.$.6.t.6.5.sXaX' [ ' ' [ ' T /.dXe.&.5 N 1 * , 4 i t > @ # > $ o $ - $ 8 8 + 7 # +   +     . o $ j HX4XG.'.;X'.}.}.}. X X'. Xb.'.}.'.s.s.9 g.$Xf.f.$X0 # 3 y 8 7 h.HXGX]. X}.'.|.}.b.].|.f.f.f.G.G.a.a.f.].@XGXJX3X-X-X>X>X:X-X:X5X1X~.1X5X=X=X1X~.2X1XH.*XH.: : : @ : 9 D.*X5X5X*X'.}.b.}.}.}.Z.D.(.1X1X5X&X[.'.5X[.f.[.&X=X&XF.Z.R.oXc.m.XX@X#XN.m.#XVXm.m.N.VXM.C.M.M.#XGXCX#XM.#XoXM.#XVXN.MX#XN.N.n.@X#X#XXXR.c.c.d.A.J.Z.*X{.F.H..X{.F.F.[.*X,X,X,XOX,X Xf.'.}.F.{.5X3X;XF.D.9 : : > # H ,X*X&XH.!.1X=X!.!.!.5X5X1X*X-X&X&X-X:X:X-X-X3XJX%X|.|.b.f.].XX].n.n.XXXXn.n.].b.'. X|.|.#XVXj.8 f v y $ # d.+Xn.].].9 s.f.'.'.'.}.}.'.F.'.'. XF.f.}..X;X}.3X|.G.OXR.0 # $ X       . . . $ $ g d K.Q.K.q Q K.Q Q W q T fX&.aXjXDX2X~.^.^.J ' [ [ | fXe.2.4.2.sXsX6.=.%.6.6.6.@.+.-.6.0.0.0.6.6.t.4.wXhX0XI.U.L.l.h d b x x 8Xn P.U.8XI.) I.7X) P p s E p E ( 0XtX0X! ` gXgXT.AXSXU.K.Q.T.L.g L.qXtX( g g ",
"k.w u 0 eXtXeXU.l.U.E.A.E.KXgXtXgXtXW Q.AXDXQ.H W L._ ^ ! ~ ,.~ ) 8X7Xv z c v n P.c >.7XwXqX0X0XI D $.6.lXzXlX8.q.q.Z 9.iX0.6.2.&.6.&.=.=.$.lXlX$.5.fXT.[ ' T gX| [ sX5.D 1 N C * & a c i t z t i t t - t t t d h.d w 7 0 t 7 + + X + X - U.NX+X;XF.F.'.}.}.'.[. X X'.b.}.].e 9 r R.XX].}.3Xw $ y ; 8 7 eXKX4X]. X X'.b.|.|.|.}.f.].'.F.s.a.a.].$XOXGXJX3X[.:X:X:X:X:X:X5X5X1X1X6X5X1X1X1X2X*X=X3XW.: $ @ : r J.;X&X*X X;X}.'.'.|..X{.J.(.1X~.H.{.H.F.$X4X].F.[.&X!.H.F.OXXX#XN.n.@X$Xc.m.N.#XM.M.C.VXN.M.M.M.VX4XOX$XXX#Xv.#XC.N.#XN.N.N.VXN.N.m.N.#XXXXXm.v.g.A.Z.H.{.*X[.F.F.{.[.H.&X&X&X6XDX(.J.J.'.b.'.'.F.{.5X5X&XJ.e : : > @ : 9 S.*XH.&X1X!.!.!.=X5X5X~.~.>X:X-X:X>X:X:X-X$X4XGX%X$Xf.f.f.G.G.g.f.'.].n.n.b.}.}.'.}.|.|.VXBX7 t A A - # k.%XF.].OXe 9 s.f.'.'.}.}.'.b.'. X[.'.F.[.;X XF.].JXR.w t .   o @ X   X o . . . # + # # # # # # # > i t @ , D D X.e.kX`._./.' G J W [ dXe.3.wXwX6.5.=.$.6.6.6.-.$.6.%.-.0.w.0.7.%.lXlX6.6.sXwX0Xn P.P.l.v l.n v v B.B.P.8X8X7X7X,.,.P ! ! E _ g Q T.T.tXU.T.gXSXQ.Q.HXQ.r Q.Q.Q l P.tXyXU.g d ",
"k.g t 0 E.rXU.U.E.Q.R.k.R.AX+XSXAXY.e W.tX<XK.r Y.W _ qXT.) 7X7X9XB.v n n n n A >.9XwX9X0X>.I 4 a 4  .6.u.zXzXw.7.%.7.w.iX6.6.2.#.6.e.=.O.O.uXcX#.4.kXaX/.} [ dXaXe.&.D < < N = - y v L.x i t i t 8 8 7 7 0 0 d K.g w r h.k.k.k 8 8 # + @ $ > Y.1X*X'.[.[. X-X}. X X}.b.f.s.e e K.OXG.]..X$Xw 0 f f 8 7 MXUXGXf.f. X'.}.$X$X.X}.b.[.'.f.s.a.g.XXXXXX%X4X.X&X:X:X:X:X:X:X5X5X2X2X5X6X5X1X1X=X5X5X5XD.# # 0 Q J.{.[.'. X X X[.'..X.XF.{.OXD.(.(.S.Z.F.OXG.s.H.&XH.&X!.H.G.oX#X@X@X%X%X@X].N.M.M.M.C.C.M.M.c.#X#XOX].].F.G.%XCXM.M.M.M.VXN.M.N.C.VXm.g.XX$Xn.n.#X#Xg.G.J.H.;X{.H.Z.H.5X&XF.&X=X(.1X,XJ.F.H. X}.f.F.H.*X5X>X*XJ.r : # > : : S.~.H.*X1X_.=X1X=X5X6X~.*X5X>X:X:X:X:X:X-X{.GXJX4X@X].f.s.s.g.f.f.F.'.|.n.b.}.}.}..X|.XXHXHXw $ 8 f t # r OXF.].OXA.6 s.f.'.}.b.'.}.}.-X X}.[.'.F.[.{.'.4XGXg $ $ +     . # # $ $ > 0 $ 2 $ $ # 6 $ : @ 2 - i a 4 , & N  .X.&.dXjX[ T /.T.' ' ' [ sX6.6.sX6.$.$.<.6.-.$.6.6.6.w.%.7.w.7.0.lXlX6.6.2.#.4.wXqX8X8X8Xz.v z.v v v z.7XeX) ) ) ~ P P ! ^ T.W Q Q.gXAXT.T.gXAXgXNXHXQ.r E.tXK.U.U.NXtXk h h ",
"k.k.0 $ 8XeXeXE.Q.E.c.d.oXNX+XSXKX).W.Q.Q.W.A.Y.Q.W I.T.` 7XtXrX8Xn n 8X8X>.8X:.:.wXwX4.~ 4 u 4 5 D O.%.%.0.zXcX0.Z 9.iXuX0.6.2.Y O.t.6.+.+.-.uX2.4.sXaXdX/.| e.&.&.1 < < < ; - f z.L.U.q q q t t t t $ $ > > 0 9 0 9 d.d.w d.k.v.h.8 # $ % o : Q.(.{.{.-X'.-X-X;X X}.f.p.a.e d.k.R.].].|.{.w 7 f h.d 7 E.UXJXG.F. X}.|.@X.X X}. X}.'.f.a.f.XXoXXXXX$XOX[.&X:X:X:X:X:X:X5X6X6X6X1X6XJX6X1X=X6X6X2Xe # . r G.F.'.'.'..X;X'.'.[.,XJ.H.2X,XF.D.~.D.D.(.W.Z.s.~.=X&XH.~.J.XX@X#X@X%X4X].n.#XVXN.M.VXC.C.M.m.XX@XOX@XXXg.a.f.@X%X#XoXM.M.MX#XC.N.N.C.N.g.].%X%X].N.@X@X].H.H.&X[.[.F.J.*XJ.F.H.H.~.~.2X(.H.[.-X.X}.f.[.{.&X&X X,XOXK.0 : # # G 1X=X=X1X2X1X1X5X6X6X2X1X5X>X:X:X>X>X:X-X;XJXGX$X@X$Xf.a.a.s.].'.F.b..X|..X}.'.}..X'.].HXUXB.$ 8 8 d $ A.4X$X'.{.W.e 9 s.].b.b.}. X[.[. X[.'.F.f.{.,XOXQ.K.$ o X X + 6 d d d 7 0 d l h t 2 t 7 > t t y y i i b c 2 O < m m 1 #.aXaX[ aX| ' ' | jXkXL 2.vX6.+.$.6.-.=.=.6.<.0.iX%.7.0.7.0.zXxXu.6.D S S { qXqXtX8X8XB.A A B.v z n 8X8X) ` ~ ~ I.` _ I.Q r Q.AXDXY.H Y.AXQ.NXHXtXk.U.Q.K.L.U.tXeXd t h ",
"v.k $ # z.eX8Xx.l.k.d.h.E.NXE.Q.).Q.Q.Q.W.A.r Y.T.Y.Q.T.I.AXtX8Xk z.eX8X7X>.wX4.<.4.@.L a 5 L L R $.$.+...7.zXmXiX9.q.iX9.6.t.t.L D 2.6.-.$.Z $.6.6.5.kXfXaXe.e.&.D 1 < & * y A z.k.l W 9 9 q p l.v f t 2 t u 0 i 0 9 w e 9 w w a.c.j.w + + + . q ).1X5X5X[.[.-X>X X}.'.s.a.d.d.R.R.@X$X{.G.k.7 8 f 8 # E.HX4X$X[.{.|.$X@X|. X[. X}.b.f.b.n.XXc.R.OX{.'.F.&X:X:X:X:X:X:X1X6X5X1X6X6XJX6X=X=X,X2X^.: # : Z.F.'.[. X}. X}.'.-X;XJ.(.2X6X6X,X~.(.D.D.K.A.e S.&XH.S.S.G.R.n.XXN.@X%X@Xn.XX#XM.M.N.M.C.M.N.#X$X{.].].].c.a.m.g.$X%X#XoXj.m.C.C.C.N.N.#X#Xm.XX$X%X@X@X%X@XG.J.~.*X&X*XH.s.G.OXR.Z.J.~.~.H.*XH.Z. X3X}.F. X[.[.[.'.J.R.E.0 # : G 2X5X5X1X1X2X6X6X6X6X6X5X5X>X>X:X:X:X:X&X;X3X3XXX@X@XXXs.e 9 b. X}.}.|.$X$X}.}.}.'.b.G.UXUXE.7 f f 8 7 k.OX|.F.g.OXK.e a.s.f.b. X X X X-X[.[.[.F.{.4XW.6 $ @ O + $ d k.k.k.d.k.r w r r > 0 > 0 $ > > t t j g ( b z a O < m = 1  .6.5.aX| ' /.aXfXaXI t.zX-.+.$.6.2.2.=.-.6.0.iXq.Z Z 0.zXbXi.6.&.D S 4 : J ] 3.yXwXrX8XB.B.8Xn b l.8X7X8X` ` 0XT.K._ Y.r K.<X).Y.r Y.AXAXNXNX+Xk.v.E.tXU.E.eXtXd t h ",
"x.d . # x.B.l.d d h.a.a.oXNXR.U.K.r K.W.+XY.K.Q.K.Q.).T.Q.AXQ.E.k.eXNXeX7XqX4.6.6.+.N 5 O.6.1.Y *.O.&.+.+.%.7.0.zXiXzX0.:.@.=.6.=.*.O.6.6.%.%.%.$.$.e.nXfXe.t.e.D < < = o 3 7X7Xg r r r H r q ! b i t y 2 2 2 2 t t 0 Q r 9 r 9 w a.c.k.7 + +   . W ).OX{.[.[.[.-X X.X'.f.g.R.E.R.XX{.|.G.g.k.7 8 f d 6 M.VX4X$X.X[..X$X$X$X.X}.'.'.b.'.|.@XR.G.].OX'.F.F.[.&X:X:X:X:X:X1X5X=X=X6X6X6X1X&X=X(.2XW # # e F.'.}. X X}.}.}.-X>X~.(.2XDX2X6X1XS.W.<XD.e e J.*X=XH.S.D.G.g.n.XXN.n.m.g.@XoXm.N.M.C.VXN.N.#X$X|.{.@Xg.a.M.m.m.m.].].@X#XN.M.M.C.C.C.N.#XCX#Xg.@X4X3X|.@X@XXXW.{.[.&X=X&Xs.Z.Q.+XA.Z.(.~.S.=X5XH.[.$X{.'.'. X-X}.'.'.f.G.d.# . 9 2X2X6X(.1X6XJX6X1X6X6X6X5X:X:X:X:X:X:X:X[.H.OX$XXX].@Xg.a.a.s.[. X}.}.|.|..X.X'.}.'..XHXUXk 7 f f 8 8 d.G..X|.G.OXg.r s.a.a.b.}. X>X;X X'.5X5XJ.<XQ.6 . @ o + t h.c.k.w w e r w 9 0 0 0 0 > 7 0 t t t t 0 q K.K.g P.t * < < < < +.2.r.| e.dXaXaXe.2.t.6.+.+.2.6.=.O.#.6.uX0.w.w.<.Z u.mXzX0.+.O.L D S S : 4 U 4.wX9X9X9XB.8XrX8Xv l.P.tXtX0XU.T.U.K.Q.R.A.W.W.W.Y.Q.KXHX+XNXoXk.k.R.E.U.8XeXtX8 8 h.",
"k.7 . t 9Xj.f x.l.w p.h.MXMXE.E.w W K.k.R.Q.K.R.T.Q.).Q.Q.E.c.XXNXNXtXtXhXwX4.2.=.@.@.O.=.=.Y O.L O. .X.........6.zXlXt.#. .D 6.t.6.O.+.+.%.-.-.-.+.*.e.sXt.&. .1 , = & y tXL.k.R.d.K.d.d.q i h t 0 > t y 2 y 2 t > # h l g q 6 w w a.g.v.f # + . : I.W.s.Z.F.-X[.}.}.b.s.g.XX%XXX].f.s.G.G.7 $ 8 8 8 7 MXHXGX$X[.-X.X$X@X$X.X}.'.f.b.}.@X].R.XXOXF.F.'.'.'.H.&X:X:X:X:X=X=X&X=X3X6XJX5X>X!.(.).: # # s.'.f. X.X X X-X-X:X&X!.2X2X2X1X6XJ.G (.W.Z.Z.S.H.;X&XF.F.XXR.XXm.N.N.m.c.v.M.M.m.N.VXVXN.M.N.$X|..X}.b.g.m.VXVXM.g.n.].|.@X#XN.M.C.C.C.N.m.M.#XoXm.XX@X].m.m.g.g.J.Z.H.&X*X[.d.s.K.R.W.(.(.,X6XJX6X,X{.&X;X[.'.'. X X X'.F.J.: # # H JX,X1X=X1X6X6X6X5X6X6X1X:X:X:X:X:X>X&XH.Z.F.OXXXc.XX].].f.f.'.}.[.}..X.X$X.X}..X.X$XHXHXw 6 f f 8 d k.G.{.$X$XXXc.c.d.p.f.}.}. X;X;X'.[.;X3X<X).r . . @ + 8 x.c.g.6 w 9 r q 9 9 t t t 0 0 q h j j x u 9 r d.k.k.k z.n y % = 1 1  .&.e.aXdXnXfX2.&.O.+.X.-.0.6.+.L *.6.6.<.0.0.w.w.lXcX0.%.+.=.$.*.R S D S D L @.$.4.wX<.8X8X8XeXx.l.eXBXBXU.Q.Q.Y.Y.W.H K.W.).T.Q.).Q.E.NXMXc.k.k.h.l.z.eXz.7 # f ",
"d 7   f V.f h.x.x.h.a.c.MXoXv.x.l Q.Y.r K.W.Q.R.Q.).<XAX+Xc.R.oXCX+XQ.SXvXhX5.$.-.X.-.-.&. .L =.O.O.O.O. . ...%.8.lX6.6.5.&.O.=.6.+.+. .+.%.%.-.lX=.R O.5.u. ., 5 , % 2 I.AXk.d.W.d.c.c.w w x.y h h z z n A 8X8XP.z d h t 0 2 0 0 9 9 a.c.j.7 $ @ # t Q.OXs.F..X X[.'.f.p.f.].XX].|.b.f.G.d.$ - - 8 8 7 MXHXHX3X'. X-X|.|.$X.X.X[.}.}.|.|.XXXX+XG.Z.'.}.}.[.H.H.:X:X:X:X&X&X:X=X5X6X6X6X=X!.W.H # # 6 g.G.'. X X-X X-X:X=X=X_.1X=X=X!.^.^.~.(.Z.H.*X-X[.{.{.G.R.m.n.N.n.n.n.XXE.M.v.oXVXN.M.M.M.N.%X@X]..X'.a.a.N.VXVX#Xg.g.n.@X'.|.$X#Xm.M.N.VXN.m.M.M.M.c.c.XXXXXXm.n.R.G.Z.!.>X*XF.Z.e D.(.(.A.(.2XDXDX2X_.!.=X>X X}. X X X[.F.].d.# # 0 AX<X*X*X=X1X6X5X>X=X5X5X:X:X:X:X>X-X[.H.S.Z.XXXXXXc.].@X|.b.f.b.'.}..X$X.X3X X X.X$XGXCXk.7 f f 8 8 k.A.b.}.'.XXoX+XR.a.f.b. X-X;X[.'.[.{.J.AXW .   . . 8 k.c.a.a.a.9 q J E 0 0 t t - t t 0 0 t i ! g q k.d.d.k.d.U.E.P.- & m < 1 D t.r.t.fXt.=.+.-. .+.-.-.-.+.$.5.5.L $.9.0.bXzXw.q.%...$.$.$.$.O.O.=.&.D 5 D $.2.4.wXwX8XeXyXMXv.E.eXNXQ.Q.).T.Y.K.K.W.Q.Y.K.r d.E.E.oXE.h.w d.r k k z.z.t . - ",
"j.8 # y A f B.x.g 6 h.c.+XoXx.g Q U.U.K.U.K.K.T.Y.Q.AXGXQ.G.%X4XGXoX+XgXhXwX6.-.6.u.0.u.6.+.O.O.&.&. . .+.%.%.%.0.6.D 1.e.5.&.+.-.N +.+.-.6.%.+.0.6.-.&.&.-.1 , = - z rXE.R.A.s.d.g.c.c.k.v.V.B.n ) c h x b b z.b b ) b h x i t 0 0 9 w a.v.d + $ @   > Q.Q.OX'.[.}.}.b.a.f.XXXXg.}.].f.w w # 8 8 8 7 7 MXHXGX3X X X X.X%X%X.X}.'..X.X|..X$XW.s.F.F. X X[.'.H.H.&X:X&X:X!.=X=X&X5XJX6X5X&XS.Y.6 # : r J.'.}.}. X X-X:X&X~.2X`.(.!.!.!.G D.(.Z.Z.;X[.-X-XF.F.XX@X|.n.n.m.m.m.M.v.c.N.VXN.VXN.M.M.%X@X.X}.f.f.n.n.M.N.N.@X#Xn.a.b..X X.X$XXXM.M.M.M.MXC.m.C.oXm.c.XX@Xm.m.oXXXF.S.*X&X[.[.Z.e J.(.G ^.2X2X1X2X1X~.H.-X-X-X X-X-X Xb.'.A.# $ $ K.4X*X>X1X1X6X1X=X=X=X=X&X:X:X>X:X[.[.F.H.F.F.XX+X@X].|..X}.b.b. X X$X|.|.$X.X X X4XGXCXV.7 f 8 8 # 0 d.f.b.b.].#XoXR.a.f.f.'. X}.;XF.s.Z.W.Y.# . @ @ t E.j.w a.a.e 0 > u u $ > i f f f f t 0 > t t h d k c.k.k.c.R.r NX>.@ * & < D D e.t.t.6.$.+.6.&.&.+.+.+.$.6.sX5.D @.6.0.zX0.8.....@.%.@.$.@.@.#.&.+.O.+.+.+.-.-.4.wXyXtXtXNXNXoXc.E.Q.Q.Q.).W.W.R.U.K.A.K.H k.K.E.MXNXk.w h.k.l.d v 8Xz.. . ",
"j.d + 8 B.v v l.d w h.M.VXoXk.k.K.I.K.K.W K._ K.U.).<XGXOX+X+XGX4XGXDXkXhXt.-.u.u.u.u.i.u.+. .O.+.-.+.+.-.%.<.-.$.$.S 4 ] t.2.#.2.-.+. . . .6.<.$.$.@.6.=. .5 C - A yXtXA.G.R.d.d.c.oXMXv.x.x.x.b v z ( P.I._ L.L.( ( ( b ) ) n > u g w 9 g.h.7 . @ * + 6 K.,X{.'.'.f.f.s.].XXs.'. Xf.Z.r 0 + 8 f j.7 k.HXCX$X3X;X X.X|.$X%X.X}. X X;X;X.X3X|.s.s.F.-X-X-X&XF.F.[.*X*X&X=X:X!.!.2X6X6X=X!.=Xs.# + 0 d.f.'.}.}.-X-X-X=X6XDXFX`.D.!.!.F S.(.J.F.[.*X&X;X{.'.|.@X@X|.|.n.m.N.M.M.M.#X#X#X#XN.M.N.#X$X|.n.b.f.n.#Xm.m.oX#XN.#XN.a.a.}.}.|..X%XXXE.M.v.#X%XM.M.M.C.M.g.m.n.N.N.n.XXZ.F.&X-X[.*X{.e (.(.Y.S.~.!.!.1X1X1X=X>X:X X X.X.X}.}.G.6 # # : J.S.~.6X6X6X1X=X>X!.!.:X:X:X:X&XH.H.H.[.'.'.f.].{.].]. X}.}.}. X X.X@X@X@X.X X X3XJXHXk.7 8 8 8 + 8 h.d.f.'.|.@XoXG.s.a.f.'.}. X XF.F.+XqX> @ $ # 7 x.c.a.a.a.w d t 2 2 u i v z.B.B.B.n n b b h h k k w k.k.d.R.R.d.E.BXz + & 3 1 , t.t.=.O.$.6.t.+.-.-.+. . .-.6.#.2.$.6.lX6.u.-.%...X.+.@.+.@.-.=.D O.-.-.-.%.=.$.-.wXvXgXtX+X4X+XXXd.+XGXAX).Q.U.W.U.K.d.E.Q.L.k.E.M.VXv.p.w j.l.k f z.B.. # ",
"d 7   f A f f f w 7 j.VXVXv.d.r Q.Q.Y.K.K.U._ _ Q.Q.Q.OX+X4X4XGX4XAXSXPXnXt.t.cXlX6.-.u.u.-.O.+.-.6.-.+.+.=.%.$.@.D e.R S T Y 1.2.$. . .+.-.<.%.@.$. .t.$., 3 ; 8 rXNXR.W.W.G.R.c.c.E.MXeXv.f v z.) n x j j j j E j x x ! n >.>.s t t d w r K.d.6 # $ + # $ r OX$X'.f.n.s.d.g.g.|.'.F.G.0 - 8 8 f d d oXHX%X|.|..X|.|.|.%X$X.X}. X-X X.X$X.X{.'.F.'.[.-X:X-X[.[.[.:X1X~.=X&X!.5XJX2X1X!.!.*X9 # # w s.F.}. X X;X X>X6XJXFXkXDX1X!.S.!._.Z.Z.[.-X>X;X*X{..X$X|.|.b.|.@XN.M.c.N.#X#X#XVXM.M.M.#X%Xn.@X|.a.g.m.M.N.M.m.M.CXM.m.m.m.b.b.}..X$X@XM.M.oXoX#X#XM.M.M.M.c.n.N.n.N.n.].{.Z.F.;X;X;X;XF.G (.(.S.S.!.!._.`.2X_.&X:X X X X}.}.}.G.d.> . # q ~.J.6X6X6X1X=X&X=X&X:X&X&X&X!.F.H.[.[. X[.F.F.F.OX$X.X.X-X X}. X$X%X$X@X.X X X3X4XGXE.7 8 8 8 8 + d d.f. X}.g.XXXXf.a.f.}.}.[.'.{.W.U.8   $ $ # w k.c.9 9 w w t i y s c ) n z.B.B.n n b b v z.8XP.B.k.v.c.d.d.s.d.R.R.tX8Xt 2 * , -.6.O.-.sXuX$.$.+.%.+. .D +.2.$.6.wXwX@.O.0.-.@...+. .+.+.@.-.@.D =.t.u.0.u.t.-.6.uXhXgX<X+X4X4XXXXX+XGXAXQ.U.Q.tXK.K.K.E.Q.l g c.oXMXv.h.6 w x.z.f v f + 7 ",
"d 7 + f B.f v j.d 7 E.HXVXv.k.d.tXQ.A.R.R.T.T.T.Q.Q.OXG.+XOXCX%XOX+XAXFXfXt.t.lXcXu.8.0.i.u.+.+.+.-.6.+.+.-.+.%.-.@.t.sXU S L L @.O.O.O.+.$.$.$.$.+.&.O.1 , * - B.MXNXQ.A.A.R.R.v.v.eXv.x.P.x.b n n j i i i u t u u i j x x x ) ` n t t h w e A.A.9 # # # # 0 g oX].a.f.f.G.g.G.|.'.H.A.> # - 8 j.8 j.HXCX$X].}.}.|.$X@X$X$X|.}. X-X X.X3X.XF.[.F.'.[.[.-X:X-X:X*X=X1X=X~.=X=X6XJX2X=X!.=X~.9 . 6 w F.{.-X X;X-X&X>XJXKXFXDXDX_.=X!.`.(.e F.-X:X>X;X{.].$X$Xn.}.|.$XN.N.N.N.C.VXMXM.MXN.N.@X$X|.@X@Xn.f.n.m.N.#XN.N.#XM.N.m.m.#Xm.n.b.|..X@X#XN.M.M.#XCX#XM.M.M.N.m.N.N.n.@X@X$X].F.[..X[.-X*XZ.S.^.S.F !.!.^.DXFXJX2X5X;X X-X}.'.'.F.G.q . # 9 W.*X*X1X5X6X5X!.!.=X!.:X:X&XH.S.[.-X&X;X'.F.s.Z.{.$X X.X;X X}. X.X%X@X@X$X.X3X3X$X%XCXh.p.f 8 8 # 0 d.Z.F.'.b.g.R.k.s.f.'.'.}..X+Xk.> + @ @ # # d.c.w 7 w t t c ) n ) n n ( ) ) P.P.) n n x v v x.z.V.eXE.R.d.g.G.OXR.U.yXyX* 3 5 1 &.6.O.O.$.$.0.<.@. . .+.-.=.2.4.4.*.4  . .X.-.-.-.+.+.-.%.+.@. .-.lXu.0.lXu.t.6.sXkXFXAX<X4XKX#XCX+X<X<XQ.U.K.T.H K.K.K.Q.L.d k.oXMXoXk.w 6 d x.v f f + 7 ",
"j.7 $ f z.f d d h.w eXCXMXoXk.A.FX).K.A.Y.T.T._ W.<X+XG.OXXX%X+X+XAXDXjXsXt.e.6.lXcXy.-.-.zX0.$.$.%.-.+.+.$...%.0.u.=.e.e.U U 5 5 Y Y O.@.L @.:.+.-.-., , , $ v BXc.R.W.s.s.c.c.v.v.v.v.z.P.n c t u t t u i u 2 t i i s j i h p ) 7Xc t i g 9 G A.A.p.6 7 $ # 7 d.XXa.9 g.OXs.'.|.'.F.d.# $ $ 8 f f MXCX%X@X|.b.|.|.$X@X@X@Xb.}. X-X.X.X3X X[.[.[.-X[.-X-X-X:X-X&X=X_.^._.2X6X6X6X5X=XH.=XD.# # 6 s. X;X-X>X>X-X;X5X6XFXFXKX2X^.!.2X6XD.Z.{.:X:X-X[.].].|.|.}.|..X|.n.N.N.C.C.N.C.v.M.M.m.XX@X@XXXf.g.m.m.M.N.VX#X#X#Xm.M.m.oXM.c.a.f.|.|.|.#X#XM.#XMXoX#XVXN.m.m.N.n.#Xb.n.|.].$X$X{.;X5X;X*X{.Z.G !.!.S.!.2XFXFXKXJX6X>X X-X-X'.[.F.s.r 6 . 9 J.1X&X=X5X1X6X=X!.!.=X=X=X&XH.H.&X:X&X XH.F.s.F.[.3X.X.X;X X}. X|.$X@XN..X.X}.}.|.CXHXV.8 f f 8 - 7 r Z.F.'.{.g.d.g.g.f.f.'.$X+Xr 0 # # # # 6 Q K.e 0 d f t z 7XP.L.l.k b j p p x j j b ) >.n v f v B.E.oXoXk.G.R.W.R.R.Q.SXv ; y &  .6.O.O.$.%.<.-.%.%. .+.2.*.1.U J U 5.*.D D  .+.=.+.+.6.6.%.+.O.6.zX0.-.u.u.y.t.lXnXFXDX<XGXGX+X4XOXW.Q.Q.Y.T.Q T.U.K.K.Q.Q.d.h.M.MXCXx.7 w d v v v j.. + ",
"j.6 + j.x.f d x.d w v.VXoXoXk.r AXAXK.e A.T.T.K.).OXJ.XX+XOXoXXXGXKXJXgXdXfXt.u.cXcXxX-.-.cXi.0.6.$.2.O. .+.B %.0.u.#.5.e.L P S L U L L Y #.@.$.@.-.N , @ @ z.BXE.d.A.d.d.R.k.v.v.eXMXeXU.) p t > > t u s a i a c x ) ~ ( ! j j l n >.A 2 2 q 9 9 d.g.c.h.7 + # 7 k.w 6 G.G.s.f.$Xf.f.r $ 2 y 8 8 j.VXVX$X'.b.n.@X@X@X@X%X$X}.}..X-X3X$X3X X[.-X:X-X X X-X>X:X&X!.~.`.`.`.2X6X6X1X5X!.S.!.e # # 6 F.;X.X-X>X5X*X1X6X2XDXFXKXDX!.!.=XJ.Z.OX*X&X&XH.'.|.|.b.}. X.X].|.N.N.N.#XC.C.M.v.c.M.@X@X].].a.a.n.#XN.m.N.N.VXN.N.N.N.#X#XM.m.p.p.N.|.|.$X$Xm.M.M.M.MX#XoXoXm.N.N.@X$X}.}.b.@X%X@X.X5X>X>X&XS.Z.(.6X!.!._.`.kXKXJXJX>X-X-X-X-X;X-X'.s.6 . # D.5XH.*X1X1X6X2X=X1X,X,X=X=X:X>X&X:X&X[.[.F.F.F.[.3X.X;X X X}.}.$X$X%X@X$X.X'.}..X%XHXVXd 8 j.8 $ 7 9 A.{.[.'.].g.G.f.s.f.OXR.h.$ $ # . # 9 r R.d.9 i y ; V 9Xx ( Q k.j g u q q u u t u u x ~ >.n z.8Xx.E.v.k.R.R.d.Z.OX+XQ.BX8 % ; 5 5 $.6.+.@.@.C +.$.$.@.O.Y P U U ] fX$.2.-. . .+.+.+.0.-.%.%.$.u.u.8.6.y.xXt.t.t.fXFXSX).W.%XCX+XoXG.Q.).Q.T._ T.T.K.K.Y.tXK.w E.#XHXv.d w l.f f v v $ + ",
"V.7 # B.B.x.v.v.h.w c.MXNX+Xd.r E.<XJ.Z.A.W.).Y.<XW.].OX#X%X+X%XGXAXgXaXdXr.fXxXcXy.y.y.y.cXzXuXuX$.=.@.N  .+.8.-.-.t.5.1.U J K ^ U U L Y 1.;.$. .1 < , @ z BXHXc.G.s.g.R.c.v.oXMXMXeXeXP.j u 2 4 u s @.I a a >.c @.~ ) I.` ( b h h A A 3 > > g e s.w d.j.j.w 7 7 7 d d.e g.g.f.].d.r w $ 8 t 8 8 j.CXCX.Xb.}.|.@X#X@X$X$X|.b.|..X}.3X4X3X X-X:X:X:X X&X X:X&X&X!.=X`.jXjX`.1X1X*X&XS.S.D.9 # # s.F.-X X-X>X;XH.*X2X2XDXDXKX2X!.!.!.Z.W.6X;X:X[.F.n.@X|.|.}..X.XN.N.@X#X#XN.M.v.v.M.M.XX#X@X].a.a.c.m.#XVXN.m.m.#XN.N.n.#XN.#X#Xm.M.m.g.n.].|.].@XM.M.M.M.M.oX#X#XN.m.m.@X$X|.|.|.|.].b.].[.:X-X&XZ.D.6X1X_.} _.FXPXKX6X5X:X&X:X>X:X:X-Xf.6 # # A.3X{.&X1X6X2XJX2X`.(.`.1X!.&X:X-X:X-X[.&X[.&X[.[.;X.X.X;X X X}.|.@X@X@X@X@Xb.}.|.@XMXVXC.h.8 8 $ # # s.Z.F.'.G.G.XXf.a.s.oXl.$ $ . 6 0 w K.d.r 9 r i t a <.>.p g g l l j i u > q i i u 4 t t s z n B.P.eXE.c.oXc.e s.J.G.c.BXV.- ; * , O.-.@.+.$.L @.@.#.$.I 4 J J [ aXt.#.lXu.&.O.&.O.+.%.%.@.=.u.u.8.0.i.cXxXr.r.e.e.gXjX<XR.+X%XoXXXR.+X<XQ.T.T.T.Y.K.A.).AXK.k.oXMXVXMXh.d h.d f v A $ + ",
"E.7 7 x.B.x.x.v.h.w v.VXoXCXK.d.W.<XOXG.A.W.Y.Q.<XG.{.%XOX%XoXCXAXQ.T.[ e.e.t.cXxXu.y.cXcXcXlX6.6.2.$.$...+.-.8.-.6.u.6.] 3.^ J J R 5./ L #.$.O.5 & * & z yXMXc.G.g.g.+Xc.h.oXMXMXV.U.k.j i u 4 s P I ~ #.A A I a >.>.~ ) ` ) ( v l.f c >.2 - j t w w 9 d.k.k.k.7 $ t w w d.g.a.d.k.6 $ $ 8 - f f MXCXJX3X}.b.].N.#XN.@X|.b.b.}. X|.$X6X;X-X:X:X:X:X>X X&X-X:X&X!.=X`.DX`.(.=X~.!.S.D.).H # . 6 F.'. X X>X;X~.~.6X2X`.`.DXDX(.S.!.H.H.6X5X>X>XH.G.n.|.@X X}..X|.N.N.#X#XVX#Xc.M.M.oXXXn.].m.g.h.c.c.v.oX#XVXN.n.m.N.N.a.%X#X#Xm.c.%X#Xc.p.f.|.@X@X#XM.M.v.M.oXM.VXm.M.@Xb.|..X.X|.|.].XX].F.-X:X:X*XZ.D.=X!.S._.FXPXKX6X5X>X&X>X>X-X-X;XF.e # # 9 {.*XJ.1X1X1X2X2X2XjXDX_.!.H.&X:X:X-X[.-X-X-X-X X-X3X3X;X.X.X}.|..X@X@X#X#X|.}.}.}.#XHXBX8 8 f f $ 0 r e F.$Xf.f.].f.9 a.k t + + 7 k.d.s.d.e 9 0 i 2 i 8X>.i ! j E ( ( ( ! ! s i a s a 4 4 > u s c 8XeXeXMXV.v.c.g.G.s.G.g.c.BXBX8 O , 5 O.-.2.#.1.;.L 5 ] Y K J J ] aX2.6.lX8.+.+.O. .%.-.-.0.6.cXzX6.u.i.cXy.r.t.sXfXdXFXJXAXoX+XXX+XOXW.OXQ.W T.Y.A.r A.<XAXr d.oXoXMXMXd d l.d v v v $ + ",
"BXx.8 B.8Xk.x.c.k.h.eXCXoXGXXXs.R.+XG.].OXW.W.<X<XZ.OX4X%XCX%XGXAXAX).| | &.r.t.y.xXxXcXxXcXvX4.4.2.<.-.%.%.8.%.-.0.t.3.1.T.T.E q E aX1.L Y O.N * 2 * t BXeXv.a.a.s.R.c.d.v.MXBXeXx.x.g i u u P ;.@.L a a ;.#.I @./ >.~ ! ) ` ) 8XA z a :.a 3 3 i 0 0 e e e d.K.k + # $ w w h.k.E.k.# # - f f 7 eXCXCXJX-X}.b.b.m.#X#X@Xb.b.b..X.X$X$X$X X:X-X:X:X-X>X[.>X>X>X&X=X1X1X_._.~.!.H.S.S.,X<X9 # 6 6 s.}. X-X-XH.&X5X6X2X2XjXjX).~.D.H.S.OX6X5X*X-X{.n.@Xn.|..X X|.n.#XN.N.VXVXM.c.oXm.m.g.a.a.h.p.v.c.c.j.c.M.VXN.N.n.N.a.n.m.#Xm.n.#X#XoXc.c.a.a.XX#XXX#XN.M.M.v.M.M.VX#X@X@X|.|..X}.|.@X|.].F.[.-X-X5XJ.S.!.!.S._.FXjXDX2X5X>X&X&X>X-X-X-X{.d.6 # # A.J.Z.!.~.~.1X2X`.DXjX(.!.&X&X-X:X&X-X-X:X:X-X X-X4X3X.X.X}.}.b.$X$X#X@X@X@X}.'.}.%XGXBXd 8 d 8 8 $ w r d.].f.n.f.a.d.l.7 # $ d d.d.s.s.s.w g i , t >.) h h h ) I.` _ ` ( ~ x z c c s i 4 4 > u j b V.eXV.MXMXeXk.G.XXf.g.c.MXZXrX8 * * , N @.1.*.#.I Y Y / K J U J 5.4.0.%.%.%.+. .N $.%.$.0.0.xXxXu.i.i.y.xXxXy.t.sXaXQ.gXGX+XoX%X%X$XG.W.4XW.Q.Q.K.d.W.<XW.d.d.%XCXoXv.w k V.x.v.B.B.$ $ ",
"rXl.z 8X8X8Xv.E.v.h.E.VX#XGX+XZ.XXOXF.OX4XOXK.<XOXA.3X%X+X%XNXGXJXtX[ [ ] r.t.t.r.u.y.lXxXfXfXqX5.$.$.-.%.6.%...t.lX2.Y E T.Y.W _ _ qX*.D  .1 3 , @ - MXVXv.XXa.w R.k.h.v.MXBXV.v.v.k.d 0 ! ~ ~ ;.@.#.a I ;.;.I Y / ;.,.,.7XI.) B.B.v z A >.C y 2 2 q 9 e H A.d.l 0 $ $ # 7 b z.x.8 8 ; 8 f f f VXCX%X.X}. X.X|.#XCX@Xb.|.}.b.|.$X%X$X.X[.[.:X:X&X-X>X>X>X>X5X:X=X=X!.!.=X,X&XS.S.Y.Y.q # 6 6 a.F. X>X>X-X[.1X6X1X2XDX`._.Y.Y.J.F.H.5X6X5X{.[.].n.#X|.}. X}.N.b.N.N.VXC.M.m.XXXXa.n.g.a.c.j.j.j.j.c.c.j.c.#XVXN.n.n.p.#Xn.n.m.m.CX#Xm.m.c.c.a.c.c.M.m.m.#X#XM.v.VXVXN.N.#X|.b..X.X.X|.|.].n.[.>X>X5X5XJ.J.S.D.(.jXFXjX`.6X6X=X[.-X-X;X[.'.R.9 # # 9 <X,XG S.!.!.!._.`.DX`.!.H.&X:X:X&X-X:X:X:X-X-X>X3X3X$X.X.Xb.b.b.|.@X#Xm.n.n.'.}.3XGXHXE.d d f 8 + 6 7 k.c.g.g.d.6 d 0 . d k.d.s.s.G e 9 d y ; 3 c ) l g b P.>.~ ~ ~ ^ ~ c @.C >.I I I / P 4 u p g k E.eXeXVXrXv.h.m.].g.g.R.v.BXrX@ * , = 5 O.#.#.I 4.4.K J J ' { 3.sXu.0.7.8.%.%.+.%.-.$.6.=.xXmXcXcXzXxXxXxXr.e.aXqXT.).+XGXoX%X%X4XG.F.<X<XY.R.A.A.J.+XJ.e G.CX%XNXMXw h.l.v.x.8XB.$ t ",
"P.h z tXBXNXeXc.k.h.oXHXCX+XR.d.+X%X].{.OX,XW.W.A.G.4X3X+X%XCXNX).T.[ R R e.e.=.2.fXlXt.sXsXaX{ 2.2.6.-.+.%.-.2.4.t.4._ u W K.W T.0XqX1.D D 1 < * - x.BXv.c.c.d.c.w h.x.eXVXeXj.k.k.d 0 0 I.7Xs a :.$.#.L 5 a L P P P ! ! ~ ) ~ A >.A n c a >.A a t u j q r A.r r 0 $ + $ - f f 8 8 - y 8 8 8 VXHX%X4X.X}. X.X@X#X#X#Xn.b.b.}.|.$X4X4X{.H.H.&X:X:X:X>X>X>X:X5X5X>X=X&X=X=X&XJ.J.W.H : . # 6 6 f..X;X5X>X X&X1X1X(.2XJXDX/.gXY.J.].H.5X6X,X{.].n.n.$X|.}.}.|.@XN.N.VXVXM.j.m.@XXXn.n.g.j.M.M.M.v.v.v.h.a.M.#XN.g.m.f.n.@Xm.n.#X#XXXM.c.j.c.v.c.p.j.p.a.g.n.XXM.M.C.VXVXN.N.@X|.b. X X}.|.@X].}. X-X5X6XOXF.H.A.D.jXjXjXDX2X6X6X3X[. X-X XF.s.9 6 # # K.DX=XS.H.H.!.=X`.2X1X1X=X:X>X:X-X:X:X:X:X:X:X-X.X$X4X.X@X}.b.|.@X|.@X#Xm.b.'. X4XGXGXNXx.7 8 8 8 + # j.v.c.k.d 0 $ # # k.R.d.Z.s.e 9 t i y y c n b g b P.z.>.>.~ I / I c ~ ;.>.@.a a I ~ I u u t g x.x.V.MXC.V.j.c.XXg.a.a.c.E.yXB.2 & * 5 I #.Y ~ 5.3.u J T T.[ ] 4.6.0.0.%.7.7.<.<.%.2.6.t.fXnXcXcXi.y.xXt.r.e.5.{ /.AXAXHXCX%X%X%X,XZ.<X<XR.W.OX].].OXW.d.XXGX#XoXE.a.h.E.h.h.x.V.t t ",
"7Xn n yXBXeX+XE.k.d.MXHXCXCXR.XX4X%X].].,X+XW.).G.4X4X+X+X+XNXGXFXgXT.] e.e.dXr.R t.fXlXsXfXjX/.1.=.2.+.+.$.6.6.3.3.^ _ g H Q K.tXT.3.5.O.5 < = * 8 V.MXa.g.g.h.j.d d x.BXeXk.v.k.h.0 0 l I.) ! ;.;.@.a a 4 4 S K 5 s P P s ! x x >.c c A a A >.x s h g q w r K.e k.7 X + - 8 8 ; ; ; f f 8 h.VXCX@X$X|.}..X$X@X#X%X#X|.b.}.}.$X$X%X$X[.[.&X&X&X-X:X:X>X>X=X5X6X=X:X:X:X:X&X[.W.H : . . 6 9 F.{.;X:X>X-XH.=X1X_.^.JXJX).jXjXK.G.J.{.6X6XOX].|.@X$X3X.X|.n.@XN.N.#XCXVXc.m.XXm.a.g.j.m.v.j.v.N.M.j.p.h.v.oXM.c.oXc.a.#XXXg.m.N.%Xm.j.j.m.c.j.j.j.v.h.a.a.g.m.N.M.m.M.#X#XN.#XN.|.}. X}.}.|.n.].].&X>X6X5XF.J.OXW././.dXjX2X<X6X5X&X-X>X3X&X[.s.6 6 . 6 ' W.D.Z.S.!.=X~.!.=X1X5X>X>X>X>X>X:X&X-X:X-X[.{.{.4X%X$X|.b.b.|.N.#X#X@X].|.}..X$X$XCXVXh.f f 8 % $ t z.x.f 2 $ $ # 0 k d.A.e e q u 2 t y A A n z h P.8XA 8X:.:.,.;.;.;.;.@.I I @.@.I I ~ s ! h 0 l k.x.v.VXBXv.j.v.g.a.a.c.k.E.BXi * @ , 5 N @.@.qX3.K K W [ ^ ^ 1.sX6.6.%.9.0.%.%.6.=.5.e.sXxXlXlXlXt.t.e.t.t.1.[ aXtXAXCXCX%X%X$X4XZ.W.+XR.+X4X@XG.].OXA.+XGX%XNXMXk.k.E.v.eXE.eXv f ",
"7Xn >.qXtXU.NXoXv.E.CXCXMX%XA.W.JX%XG.$X4X<XQ.<XW.<XAX+XGXNXNXHXgXT.| aXaXe.aXdX] 5.sXxXvXkXkXdX5.*.=.@.$.6.aX3.{ K p W W W K.K.T.( K qX*.1 3 3 - v VXm.p.n.c.a.d h.k V.V.d d E.w 6 6 k.eXP.( I.,.@.a 4 5 L L 4 D p P P P x x E E _ c A f V v v x b h i h q q K.A.k.8 - + * ; 3 ; 8 8 8 8 f MXCXXX].|.'.b.|.XX@X%X#X|.|.}.}.|.$XGX$XF.F.&X:X&X&X&X&X&X:X:X5X6X5X:X:X:X&X&X[.J.A.: # # # 9 s.F.:X&X-X-XH.*X5X6X2X).DXDXQ.jX).A.W.,X;X6X6X+XXXN.@X|.$X|.b.@X@X@XN.VXVXM.m.#XXXm.n.j.m.v.j.v.C.N.j.j.j.c.j.h.c.oXm.a.XX@Xa.a.N.m.M.VXc.p.j.v.m.c.v.M.j.h.g.g.n.N.N.m.j.m.CX#XN.n.@X|.}.}..X|.|.|.|.*X-X5X6XH.F.J.R.).`.`.jXDX(.6X>X-X-X>X>X;X;X{.e 6 # # # q Y.,X~.&X:X=X&X=X>X5X5X>X>X5X5X>X&X:X:X&XF.[.3X3X$X|.|.b.b.b.|.#XVX#X#X$X.X|.$X3X%XHXE.8 8 f 8 - 2 y f y @ X + 8 d w r K.r 0 j P 2 y c n c c b n >.B.n n ~ ~ ~ ~ a I a L s a @.2.:.@.a ) 7Xj 0 w k.c.k.V.BXBXx.h.h.k.c.c.g.c.eXV.t * * < 5 I #.4.qX{ T.W W J J / 5.sX2.-.<.%.$.$.6.5.] R e.fXsXlXxXt.&.e.sXe.R [ ' Q.AXCXCXCX%X4X4XG.G.W.W.<XOX].F.OXOXG.R.%XNXCX+Xh.k.v.oXBXBXtXz.z ",
"c A >.tXtXU.MX+XK.E.HXMXE.oXA.+XJX<XXXOXGX).Y.Q.K.K.AX%XGXNXCXSXT.W [ dXjXdXgXdX| | e.sXsXaXkXjXe.5.#.L ;.sXqX{ ' E W U.T.K.W T.K.j q { 1.3 m ; - V.NXR.a.g.XXh.d x.B.B.d d U.w 9 # w eXU.L.I._ p 5 u 5 P I I L P a J P K p E E J _ ) >.V V f n z.z v v h g g 9 e A.x.f $ o @ 2 8 8 8 8 7 E.CX%X|.|.b.b.}.N.m.@X%X#X|.}.}.|..X%XGX{.F.F.:X>X&X&X*X[.H.:X:X=X6X6X>X>X:X&X-X&XJ.9 # : : 9 e F.[.[.&X&XH.&X1X2X2XjXDXgX<X).).Y.R.,X6X6X6X6XOX@X@X@X|.3X}.].#XN.#XVXVXMXm.XXn.N.m.m.m.C.j.M.M.M.c.m.M.j.j.p.p.j.v.c.c.oXXXa.a.M.c.M.M.eXj.h.p.M.C.M.c.j.M.j.c.a.n.n.@XM.c.CXHXN.N.N.|.|.}. X3X@X@XN.{.*X5X5X*X[.G.D.`.DX`.jXDX(.1X1X=X&X&X>X-X-X;XF.9 6 . . : q W.{.!.&X:X:X;X>X5X6X5X:X>X>X:X:X:X!.&XH.[..X$X$X@X$X}.b.}.|.%X%X#X@X@X|.}..X$X$X%XVXp.8 y t 3 2 - 8 y - +   0 g r k.r 0 u i a s c ) ) b x A A c c s x x ! s P a L 4 4 4 5 4 s ;.:.>.c I.( w 0 w k.R.j.V.eXeXf w h.a.g.c.g.c.eXh - * < 5 a 1.qX0XT.T.W J q K U ^ { 5.2.6.$.$.<.6.1.R dXdXfXlXlXsXe.R e.e.e.*.| T.gXFXAXVX%X%X+X4X<XG.<XQ.,X+X{.G.%X4XR.R.%X%XBXNXh.k.U.E.eXNXBXn v ",
"A >.A 8XNXE.oXE.R.E.BXNXCXNXQ.).KX<XA.,XJXQ.W T.A.r JX<XAXBXNXSXqXT.[ aXdXdXjXdXgXe.| ] | e.dXkXaX1.L I qXhXT.' W T.T.T.qX_ Q K.Q K.g { / a y ; 8 rXCXG.].].v.w x.x.V.8 7 v.L.6 6 6 x.eXl.( K.Q q 4 J s L Y I L #.I L 4 u J p J W W >.A A A B.v n v z.v k k H 9 s.s.j.B.y @ @ $ 8 f j.j.tXtX%X@X$X$X}.}.@X@XoXCX%X@X}.b.|..X$X4X3X].F.H. X:X&X&X:X&XH.:X&X=X6X6X5X>X:X&X:X;XS.9 # : e Z.H.&X&XH.&X[.[.,XJX2X).jXFXjXjX).Y.D.Z.,X6XJX6X3XXXXX|.|..X3X'.@X@XN.N.VXVXM.oX#Xm.j.p.j.C.j.M.C.m.g.c.M.j.h.p.j.v.p.w c.E.c.c.c.c.g.XXM.h.j.j.j.j.j.M.m.N.m.j.M.M.j.n.].#X@Xc.M.VXVXN.N.@X@X}. X;X$X@X@Xg.OX6X2X,X=X{.G.).jX^._.jX_.`.2X5X*X[.&X-X-X-X{.f.9 # # . : 9 D.&X&X&X:X:X:X5X6X5X*X>X&X&X&X&XH.&X*X[.F.].%X4X$X}.}.}.|.@X%X#XXX@X@Xb.b.}.|.@XCXC.h.7 8 t - ; 3 ; - # $ 0 l d.K.r i i t y z n n b z c A A A c x E E ! P P I s D 4 D a S 5 I :.,.x I.U.l.w 6 w x.x.h.x.V.x.d d d a.m.a.e NXE.2 ; 3 1 5 4.3.W K.T.K.W W W J J ^ 3.5.2.2.#.$.*.3.e.dXfXfXnXvXsXe.R dXsXaXaXdX| /.AXHXCXVXGX+XGX<XY.AXW.Q.<XOXG.<XJXR.R.CX+XCXHXR.v.oXMXv.8XyX>.>.",
"n n v 8XeXE.+XQ.Q.eXNXBXHXAXY.K.AXAXA.).DX).W T.Q.Y.GXQ.Q.BXoXSXSXgX/.jXDX`.`._.jXdX| R | 5.sXkXe.R U ] sXgXY.W Y.).Q.K.T.l E I.K.K.H K.I.y 3 - y BXoXG.OXOXk.w x.8Xk 7 d x.7 6 6 k.eXU.eX_ Q J u J 4 L P I @.a ;.I U u 4 u K q E I.>.>.A A A z x n n k k k.k.A.G.d.h.B.>.s 2 > d V.MXHXHXGX%X|.|.}.}.n.@XN.M.oXXXn.b.}.}.|.$XJX.X'.[.[.[.:X-X&X&X-X&X&X:X=X6X6X6X>X&X&X>X3XZ.: : e G H.&X&X:X*XH.[.3XJXDXDXkXFXFXFX).D.Z.S.H.1X5XJX<XR.|.n.|..X.X.X'.@X#X#XVX#XC.c.m.#Xn.p.j.C.C.M.N.N.g.N.#Xj.c.v.j.8 h.p.h.v.c.p.j.c.m.h.m.c.j.w h.j.v.c.c.c.#XM.M.M.M.v.a.g.n.m.c.V.C.VXVXN.@X@X'.'..X.XN.#Xm.+XGXJX5X6X*XG.W.)././.jXjXDX2XDX1X[.[.-X-X X[.'.s.e : : . 9 Z.*X&X[.-X>X>X5X6X5X:X:X-XH.&X&XH.&X>X&XF.n.%XGX$X.X X}.}.}.@X#XoXm.XXb.b.}..X@X%XVXx.8 d t ; 8 8 + + $ g k.d.r r k.k b v z z s I a z a A >.>.~ P p K K u p s s a L L Y D 5 a s ~ I.L.U.Q.h.# # a.j.x.d z n B.x.h.c.m.f.a.+XBXf * 3 3 a 3._ q ' K.U.W U.I._ E ' [ 5.e.6.Y L Y 5.aXkXkXfXsXsXe.| } aXdXt.fXaX[ ' Y.KXNXNXGXOXJXU.K.).Y.Q.JX4XG.%XJXW.K.+XoXMXSXoXU.MXBXU.eXrX8XA ",
"f A n 8XL.E.E.+X+XQ.SXSXHXtXK.q gXDXW.(.).gXW /.gXQ.Q.+XE.NXE.BXLX0X' /.2X`.`.jXjXjX/.[ R | aXsX[ ^ [ aXhXT.D.Y.<X2XT.W L.( E I.Q K.r K.I.i * ; y eXR.s.OXR.w d x.v.d d h.7 6 6 w k.MXtXQ.K.H q q u K u p I I #.5 L L 4 4 J J p s qX9X9XA y z z z i n U.d h.R.s.f.g.h.k ) p u l x.E.VXBXGXJXKX3X}.b.b.@X#XN.oXoX|.b.b.}.b.|.3X4X$X'.'.[.&X&X&X&X&X;X:X&X=X>X1X5X5X=X&X>X5X5XD.6 # G S.&X:X&X&X*XF.*X6XJXQ.jXPXFXhXjX/.e G &X&X=X1X6X,XXX@X|.|..X.X].@X#X%XCXVXM.c.M.oXm.p.j.C.C.j.C.N.N.m.m.m.c.C.j.p.w h.v.v.h.p.h.d.c.oXc.j.p.h.h.h.w h.j.m.m.a.#XC.M.M.M.v.a.f.m.VXC.C.VXVXN.N.@X].].3X.X|.@XM.R.+XAX6X6X3XJ.A.W.)./.jXDXFX/.jXJX3X[. X X&X[.&XH.Z.G 9 : # Z.{.-X-X-X>X5X6X5X5X=X:X:XH.:X&X&X=X-X[.F.'.$X4X3X|. X}.}.|.@X%XoXXX@XN.}..X.XXX#XVXMXoXx.h.f 8 + + $ l.U.d.d.A.9 d.k h.x.v n ~ A c A A :.>.! K p J J J J P I I s L D L P u 4 u p T.Q l.Q.E.w 6 7 d E.k 7 v B.x.d v.g.n.|.XXHXA ; , 4 P ` W H Y.K.K.W T.tXT.Y.U.W T aXaX5.P I 3.dXkXdXe.3.5.[ | dXdXdXdXdXdX' ' Q.SX+XCXNX+XKXA.Q Y.Y.W.DX+Xd.<XKXAXE.+XAXNXNXE.E.E.E.x.tXyXB.A ",
"v A z z P.L.k.U.+XQ.GXAXtXgX_ q tXFX(.Y./.' T.' ).W.Q.Q.Q.NXeXeXBXqXT.Y.,X1X`.`.jX`.)./.[ R kXsX~ ^ qXaX/.Y.A.(.,X<XT.r K.U.l K.K.K.l eX8Xy ; ; f BXE.g.c.c.6 x.eXj.d eXk.# 6 r E.U.Q.AXR.e H G T q q K K K / P 4 L L S p P P K i 7X9Xc y V y a z z n l.k d.d.k.d.d.k.l Q E x x x.NXCXJXGX3X6X3X.Xb.|.n.m.#X#X@X|.'.b.'.].].$X$X'.'.'. X!.&X:X&X-X:XH.&X5X5X=X&X=X>X[.*X5X,XF # 6 e H.>X:X&X&X[.H.5X,X<X/.dXFXjXjX/.Y.e H.H.5X&X~.6X+Xc.|..X.X X'.g.#Xc.#X#XVXM.m.N.oXj.j.N.C.m.N.M.n.N.#Xg.a.M.a.h.h.c.v.j.h.p.h.c.c.c.h.E.c.d w p.p.j.M.j.j.N.m.g.#XM.M.M.C.j.p.n.#XM.j.C.#XVXVXN.@X|..X3X|.|.XXc.R.<X6X6X>X{.D.H Y.).DXFXFXFXFX`.DX5X{.H.-X&X:X!.!.S.r 9 # G =X5X>X[.:X>X6X6X5X=X&X:X&X&X:X&X&X[.H.&X'.'.GX4X@X.X'.'.f.].XX#XN.N.#X|.b.'.].OX%XJXHXCXNXx.8 y t f eXk.d.G.d.d.k.g k v n v c z z A A 9X>.` ^ F q F 4 F P / #.I #.#.K 4 J J 4 J H K.Q.E.E.v.t 6 0 w E.7 7 V.V.8 h.c.XX$XXXCXB.- * 2 ;.) Q K.K.Q _ K W Q.W.<XQ.K.J [ gX/.R ^ [ sXfXe.e.[ [ /.dX`./.dXDXDXjX/.gXSXSXE.NXW.+XAXH Q.Q.K.Y.AX).K.gXAXU.T.AXSXAXNXMXQ.eXMXQ.P.8X7Xz ",
"v n n z b l.L.k.tXNXNXtXtXgX[ u gXSXQ.' Y.[ { T.T.).Q.AXNXtXBXtX7XSXSX(.G.4X2X(.2X_.2X2X/.[ fXqX{ I.5./.Y.H G.+X<XA.W.Y.k.U.K.g r E.tXrXV ; = * B.NXXXNXR.6 7 v.BXh.d P.w # 9 K.Q.R.+XR.Z.G e W.Y.u r p u u P U D Y *.Y S a U ! ` 0X7XC y y y y i i k k g h.d.d.d.d.A.r l g j n P.E.CXKX4X$XOX.X}.}.n.n.#X#X#X@Xb.b.'.].G.$X4X$X}.'.{.;XH.!.>X:X>X-X*X>X5X=X&X:X>XH.H.5XJX(.: : # e *X>X:X&X&X'.-X1X(.`.`./.`.FXjXQ.A.Z.*X&X=X=X1X,XXXXX@X|. X}.].N.M.#XVXVXN.m.N.oXg.m.#XN.C.VXN.N.@X#XN.N.N.c.j.c.M.c.p.p.j.j.j.j.c.v.h.w j.v.v.d 6 h.C.v.c.N.@Xm.g.N.M.M.C.C.a.p.M.M.v.M.VXVXCX#X@X@Xb..X.X|.@X@XXX<X6X6X;X*XJ.Z.G Y.gXDXkXFXFX).2X6X3XF.[.>X&X!.!.!.e 6 # G *X5X;X-X:X5X1X=X5X5X&X&X:X:XH.:X:X&X&X[.H.|.$X4X$X].'.'.'.'.N.#XVXN.#X].b.F..X4XKXGX4XGXNXE.z y z v U.d.d.G.s.d.c.g k n n c z z a y A >.9X0XE u J u q 4 s L L a $.L J u K u u q H r +XMXNXE.h $ 6 # w k d x.B.f 0 K.OXn.g.CX8X- & - A 7XQ k.K.Q _ E W A.A.,XAXgXY.Y.aXaX0X] / qXaXe.5.] Y.`.jXjXjX`.2XDX/.' Q.LXNX+XNXQ.Q.).Q.SXQ.W ).DXW.K.SXhXj _ tXAXSXAXNXtXNXE.E.P.( b x ",
"B.B.n v t v l.k.k.E.NXQ.tXtXU.Q hXFXgX! { qXT.5.aXaXT.).T.U.BXtXL.tXAXAXe W.DX`.2X_.,X2X`.| gXaX0XqXaXaXT.Q R.<X(.D.A.A.A.K.K.k.d.Q.tXz ; * % 8 rXeXc.+Xd.6 7 v.MX7 w k.0 6 r NXR.Q.JXW.D.Z.G W.H H W K q 4 P L 5 @.@.I a u P ! ` ,.>.>.a 3 2 t i u 0 t w d w r r r H A.r g z l.l.k.Q.JX3X5X3X;X}.}.b.n.%X#XN.n.b.b.].$X$X3X$X.X}.b.;X;XH.&X>X>X:X-X5X6X5X=X:X>X&XH.&X3X,XA.# # 9 9 H.:X&X:X&XH.-X,X,X`.dXY.[ gXFXY.9 A.5X=X=X=X1X{.R.OX$X|. X}.n.VXVXVXN.#XM.m.m.m.p.N.VXVXVXVXM.N.VX#Xm.N.N.a.XXm.m.j.p.j.j.x.j.h.h.v.d p.p.j.j.j.j.h.j.M.M.g.M.#Xm.m.M.M.M.M.N.j.c.oXM.m.m.VXVXVXN.#Xn.b..X X$X].G.OX6X,X&X>X*XZ.e A./.gXjXFXjX).`.5X5X{.H.&X&X&X>X*Xs.6 # : W.6X5X&X&X>X=X!.=X5X&X&X:X:X!.>X>X[.-X[.F.[.|.4X$X|.'.}.b.b.n.@XN.M.@Xm.'.'..X6X4X%XGXGXAXE.8Xz n b k.r d.d.d.d.c.k k v n z i a s y 3 a 9X3.K u K s 5 5 I D 5 L @.s p K u u W H H G R.Q.+XW.K.g 6 # 6 E.h.k V.V.7 k.R.G.m.MXeXy ; - a 9XL.K.K.K.W _ W A.A.Q.).AXY.W Y.jXaXR L ] fXaX[ /.)._.`.`._.`.1X(.^.Y.qXSXeXMXNXQ.<XQ.Y.gX^.' Q.).Y.T.FXtXg L.).AXGXAXNXMXE.K.U.L.b ( ) ",
"v f n v i k v t d L.tXeXE.Q.U.L.qXSXhX` 3.sXaXaXkX[ ^ W K.Q.+XCX+X+XtXDXR.A.<XJXJX2X~.2X`.).jXgX/./././.Y.K.W.AXQ.H Y.H W.R.R.Q.E.E.) , * ; + y eX+Xd.k.w w d V.v.w k.9 9 9 R.Q.K.+X6X1XJ.!.(.A.H K.K.G q p I a I C a u u K E ^ _ P a a 4 4 2 u u > 0 0 d g k.k.d.K.H r H l b v z.U.R.JX3X3X3X.X}.|.b.@X%X@XN.b.b.'.}..X3X3X.X}.}.b. X-X[.H.&X:X-X>X>X5X=X=X>X[.[.[.;X[.s.: . # 9 G &X:X&X:X[.[.5X5X6XDXDX/.Y.gXtXr e D.1X>X!.1X{.{.XX@X.X.X.X|.N.N.C.VXVXm.M.N.m.m.m.VXVXC.#XN.N.N.#XN.N.m.g.m.@Xg.p.a.v.v.x.j.k.g k k.h.c.k.p.j.j.v.M.j.a.j.m.m.N.N.N.N.#XM.N.VXM.j.m.XXm.m.oX#XVXN.N.@Xb.}..X.X|.].OX5X=X*X=X*X{.A.H Q.jXjXjX/./.`.(.,X3XH.[.&X&X>X=XZ.9 # # H 6X6X&XH.&X:X=X5X5X5X:X&X:X:X:X>XH.&X&XF.'.].3X4X|.}.|.b.b.N.@X#X#X#Xn.}.}.}..X{.<X6XGXNXE.L.b h j g K.A.A.e d.d.d k j.k h i u y 5 y A 4.,./ U P L a L $.L 5 L D u J K u g W Y.G 9 Z.J.W.,XK.Q.a.# 0 L.j.7 eXrXw 6 d.XXoXoXrXy * * a :.qXeXk.r Q L.K.Y.A.Q.Y.Q.Q.A.K./.aX1.U R sXe.{ /.DX,X`.jX_.2X<XS.).jXtX8XeXVXNXNXAXQ./.[ [ T.Y.' Y.Q.FXQ.g U.gXNX).NXNX+XU.k.L.b h x b ",
"y 8 - 8 3 t y f z z.P.P.I.L.L.L.! aXyX>.0XsXsXsXsXO.*.1.qXAXU.<XNXNXNXSX+XA.W.,X6X2X{.6X2X).).).`.`.Y.A.K.U.+XNXY.H ' Y.W.+X+X+XQ.P.y , < ; - f x.U.d.k d 7 k BXd k.k.e 9 d.+XQ.+X<X*X~.H.,X2XJ.(.A.G 9 S K U P P p u g W W H W u u 4 2 5 4 4 4 > > t t i h k k.K.W A.H r K.l.f P.E.W.JX3X X X}.}.|.n.@X#X@X@Xb.}.}.|..X3X.X X}.}.}. X X[.[.H.&X:X5X>X>X:X*X-X'.-X X{.Z.9 . . # 9 Z.-X:X:X:XH.*X5X>X6X2XFXjXT.gXT.e W.1X6X1X*X,X{.{.].|.{.|.].@XVXN.C.VXC.N.M.VXj.m.M.M.M.N.#XN.N.N.n.N.N.g.j.#Xm.f.g.M.v.j.k.r r w d l.h.j.j.v.j.p.j.#XN.a.a.#XN.c.#X#XN.N.#X#XVXVXM.p.m.N.m.m.C.VXVXVX%Xn.}..X}..X$X].J.1X5X&X>X=XH.e K.FXFX| [ _._.1X1X;XH.[.-X-X:X;XZ.9 # # 0 (.5X&X&X&X&X:X>X5X6X5X:X:X>X=X:XH.[.;X[.F.}.$X%X$X.X.Xb.b.b.N.N.#X#Xn.}.}. X.X3X4X2XGXtXU.l b g j r W W H 9 w d.h.d d d u u 4 2 2 a ;.>.,.3./ L a 5 5 @.O.5 L S u u W Q r Q Y.A.e G ~.,X4XK.+XU.6 9 r h.6 v.eXd 6 d.c.R.E.BXv @ * ; a 8XtXL.k.K.K.K.A.H K.H `.<XA.A.).aXT.| | aXdX/.AX<X,X2X2X2XJXJ.G AXFXtXx.BXCXoXQ.Q./.gXaX] aXaX' [ gXFXgXQ I.gXQ.Q.NXNXk.k.l.b d h c n ",
"A a t 2 y a a A 9X8Xb b b b b Q E 0XwX,.wXvXnXlXu.6.6.sXgXgXQ.+XoXCXCXNXAXK.A.W.OX,X,X2X2X,X(.(.(.2XW.A.R.+XNXQ.Y.Y.H A.Q.AXQ.NXeXt @ < < % t V.v.h.k.d 7 7 8XBXj.x.d.9 9 K.NXQ.6X6X=X~.!.,XD.W.<XG 9 q J K P K K p E W H W W u : u 4 2 3 2 2 2 4 5 u y t t t d W K.W H H g b k b Q.<X3X&X;X}.}.}.|.@X#X%X$X.X}.}.}..X$X3X;X X X X X}. X-X&X[.:X>X>X:X&X-X;X[.}..X'.H.9 # # . : G S.&X&X=X=XH.*X=X;X5X6XDXDX^.T.r r 2X6X5X*X*XJ.].].].{.|.'.n.#XC.C.C.C.M.M.M.m.p.m.#XN.#XVXN.N.N.m.m.n.a.M.#Xn.a.n.N.#Xc.d.w r d 0 d l.h.h.c.c.j.c.p.a.N.N.m.m.N.N.N.VX#XN.@XCX#XC.VXm.g.m.#Xm.N.#XVXM.@X#X].|..X.X.X|.G.(.1X!.=X5XJ.s.r T.hX' /.jX2X2X1X>X[.[.-X-X:X;XS.9 # . # r D.*X&X&X[.:X>X>X5X6X5X:X&X:X[.H.&X-X'.b. X'..X3X$X$X}.b.b.b.@X#X%Xm.b.}. X-X3X3X4XGXE.K.P.k Q g r H H g r d.k.h.h.t > > t i 4 2 3 a a ^ ` ^ K P u a a D L L U u : r K.K.A.Z.(.J.J.,X2X6XK.NXE.9 6 9 d.h.h.V.h.7 d k.h.k.MXz.- ; * * y P.E.Q.R.K.K.K.A.W W ).<XR.A.Q.gXaXe././.jXAXDX4X(.2XDXJX+XG.G.JXtXP.tXNXNXR.K.Q _ /.e.5.5.aX{ ^ aXPXyX_ I.U.T.U.Q.tXd t z b t z c y ",
"9X:.>.:.<.:.A :.7X>.x b L.( L.E _ ` ) 7XqXhXhXe.6.lXu.lXvXyXtXU.CXCXCXAXAXQ.W.OXOX4XOXW.<X,X1X*X*X*X{.OXOX4X+XY.T.T.W Y.+XgXK.tX7X@ @ < * - z.MXh.h.g 7 $ d tXeXeXR.d.e e W.+XW.1X1X=X*X=X~.Z.(.W.r q W E K K u J W W W W E u q 4 S 4 , & , 3 5 a a y C y - $ i u u W W r g l l L.Q.,XH.[.;X X}.@X@X#XCX%X$X.X}..X|.|.3X3X.X X X X X X[.[.[.;X>X>X>X:X&X-X-Xb.b.'.F.s.# # # : e S.S.S.S.=X5X*X=X&X=X6X6X2XDXQ.G G Z.,X6X=XH.J.J.$X].|.$X{.].m.oXN.VXVXC.N.#XM.p.j.C.VX#XVX#X#X#XN.N.N.g.a.N.MXp.m.N.%XXXd.e w 0 g f l.x.k j.v.j.m.m.c.p.a.M.N.a.j.N.m.m.#XN.N.@XN.N.C.M.m.m.M.C.j.C.VX#Xm.#X@X|..X|..X$X].R.W.,X=X5X5XJ.r W gXT.gXFXDX1X1X5X;XH.*X>X:X:XH.e : o . # 9 S.*X[.[. X-X*X>X5X5X:X&X:XH.[. X X[.'.}.'..X3X$X$X|.|.b.b.$X%X%X@X|.}.}.}. X;X4XAXW.U.8Xz E Q r q Q K.K.L.g d d t $ t 4 4 4 2 3 4 2 t K J W W W J u p P K U K q r r K.W.A.(.,X,X*X1X3X+XE.NXR.9 9 d.k.d v.eX7 0 g d h.V.V.8 - ; 3 3 a P.Q.+XQ.+XY.Y.W H /.<XQ.R.Y.Q.Y.`.`./._.).JX4X*X2X6X4XXXR.<XHXtXeXNX<XW.).Q.I.{ 1.sXsXt.sX1./ aXhX_ ( _ ! I.I.P.P.h t f y y y 3 - ",
":.@.@.A >.:.:.8Xc n v P.b b I.L._ T.7X0X( ( aX1.#.lXuXwXvXPXFXQ.AXCXCXGX+XGXOX$X6X4XW.Y.6X6X5X=X[.H..X$X4XOXY.W.Y.Y.K.tXQ.Q.L.I.z - 3 < 3 B.MXv.w k h $ t V.eXU.E.K.d.9 A.AX<XOX,X*X!.=X5X~.J.Y.G q H T.W W W W H q q q q t > @ $ @ O @ , 3 3 < ; < 3 y v t t i q > g Q W j l l K.W.F.Z.[.[.}.n.@X@XN.VX%X.Xb.|.3X$X@X$X$X X X}. X-X-X&XH.&X5X&X*X>X-X:X-X}.b.b.f.f.9 # # # d.G S.S.!.!.1X2X2X5X*X1X6X6X2X).Y.G S.J.=X5X*XJ.F.{..X].$X3XXXXXN.M.VXC.C.C.C.M.j.j.N.VXVX#XN.#X%X#XN.N.m.m.N.N.a.j.N.#X#XXXs.e 9 w l.z.x.x.d w d d.c.n.#XN.g.g.M.#XN.a.N.n.N.#XN.#X#XC.N.N.m.j.j.N.M.N.#XVX#X#X#Xm.n.|.|.|.XX].J.(.=X5X5X6XA.e T./.jXDX2X1X=X:X;XH.&X=X=X&XH.Z.9 . . # 9 Z.].[.}.[.&X&X&X>X>X5X>X&X[.&X X[. X X}. X.X3X$X@X|.|.}.}.$X$X%X@Xn.|.}.}. X X*X4XNXQ.l.l g W W q _ K.K.g w d f z a 2 2 , 2 3 y y z u q g W H W W u p ! K E ^ ^ q : A.).(.J.,X~.H.=X,XJXQ.+XAX9 9 r R.h.MXMXd 7 t k x.x.x.v + - 3 * 2 b Q.NXQ.AXQ.W K.' W.+X4XW.s.K.W.`.(.(.,X<X6X4X*X<X,XW.G.R.CXNXNXSX+X+XK.AXkXsX6.1.lXlXxXxX4.3.0X3.! ! ! p c n z A rXB.y a y - 2 t ",
"L s c ~ z z v B.B.z.l.k b U.qXU.L.l q 0 h g j T.qX4.<.wXIXIXPXU.E.GXoX+XJXGXOXXX4XKX<XW.<X6X3X.X[.'.$X4X$X{.W.W.K.T.Q.AXAXQ.gXy * 3 3 * f BXv.6 w k f $ j.V.k h.r 9 6 9 G.JX<X,X,X!.=XH.1X!.*X~.G } Y.G G A.Y.' W q : > 2 O o @ @ * 2 5 3 C C - O * - * 3 y z c z t 2 i ( Q Q K.A.Z.H.[.F.'.b.a.XXXXoXM.XXN.'.b.$X%X$X@X].}.;X-X-X X-X&XH.;X>X*X=X>X&X>X>X'.f.f.g.e # # 9 r D.~.!.!.!.2X_._.2X6X!.1X6XJX<X(.G S.~.5X5X5X*X{.f.|.|..X$X@X#X#XVXC.C.C.C.C.C.j.j.v.VX#X#XVX#X#X@XN.N.@Xn.N.N.p.j.m.oX@XoXg.s.a.c.h.j.B.V.V.k.w w a.a.n.%X%Xm.p.c.N.#Xa.m.N.N.N.#XN.VX#XN.VXC.p.j.M.C.M.M.CXVXM.N.N.m.@X.X|.$X@XXXJ.J.1X5X5XA.e G T.`.DX2X6X>XH.>X=X1X1X!.S.S.S.G 9 # # # e g.F.}.'.[.&X&X&X>X5X>X:X&X-X[. X X X}. X X3X4X3X|.|..X}.|.4X%X#Xn.$X}.}. X;X[.J.4XQ.l j g j E Q Q Q q 0 > t y y a N a N 2 * - * 2 P q q H H W H K._ W E p j W ^ : e D.~.Z.H.*X&X>X>X4X+XW.AXr 9 d.k.oXeXBXV.7 7 d d h.v.rXf + m - + t 0XQ.E.AXQ.r W Q.K.W.<X<XOX].OX,X!.*X1X<X6XOXOX,X,X{.OX+XQ.HXCXNXAXR./.gXsXuXuXvXwXwXvXvXqX` I.I.! ( j ! c n v A 8X<.B.A :.<.A :.",
";.;.~ s t t d 7 d d d 0 0 0 l L.g 0 0 g l l j u K ^ qX0XwXvXPXgXR.<X+X+XGXGXOXOX4XJXDXY.<X6X3X[.|.|.$X4X$XOX~.W.K.tXE.NX+XFXhXu 3 * - 8 eXoXc.6 7 d # 8 rXV.g L.6 9 9 9 W.JX<X6X=X~.!.G 1X5X~.G G ^.^.G e G K.Y.K.u > o o o * N @.5 3 3 3 @.#.5 2 4 - * - - 2 t f A x i u j Q A.J.{.-X X[.f.f.m.oXM.M.M.@Xn.b.b.b.$X%X$X'.'. X X X[. X&X&X[.H.&X5X:X:X>X Xf.a.g.a.# . 9 e S.=X5X=X~._.`._._.2X2X^.2XDX2X(.(.G S.=X5X5X*X,XOXG.]..X$X@Xn.oXMXM.VXC.M.N.C.M.j.c.MXN.VXVXCX#X#X@XN.#XN.N.n.p.m.m.c.XXoXXXs.a.R.E.v.x.V.v.8Xv.h.0 9 a.f.XX#X#Xc.g.p.N.N.a.N.N.N.VX#XN.#X#XVXVXM.j.p.N.VXm.M.#XVXC.M.N.@X$X|.]..X$XG.S.~.5X=XJ.J.Z.D.).2XJX6X5X*X5X=X1X2X~.S.S.S.G e 9 # # # e f.f.f.F.-X:X&X>X:X&X>X:X[.'.-X-X-X X X X X$X].].3X$X.Xb.|.%XVXm.#X|.}. X X'.s.Z.W.Y.g E q l K.g 0 0 t t t a a 3 3 = 3 5 3 , & @ @ # : : q r q q q r W W Q W W G : G !.~.{.5X=X*X=X(.<X+XGXW.9 e K.E.E.rXV.f $ t v d h.MXV.f 8 ; * 2 _ T.Q.Q.).T.Y.W.W.Y.W.+X4X%X{.[.[.;X5X5X4XJ.~.4X4X3XOX4XAXHXMXGX%XW.FXnXlXlX0.pX:.3.aX,.^ qXqXI.U.I.( b ) n v z.A B.:.A :.A @.A ",
"qX1.! u t t d d 7 0 d d h 0 0 q w 0 g l.P.P.L.g 9 q { qX0XwXhXhXH 4XCX%X+X+XR.G.4XJXDXW.OXJX4X@X@XOX%XGXOXJ.W.W.+X+XAXoXQ.AXg $ ; * - f MXR.M.w 8 7 + B.V.j.E.K.6 9 9 r +XAXQ.<X<X2X~.J.2X2X2X~.^.^.' D.D.G A.H > # . o O * 5 $.@.@.Z @.@.;.;.^ P s i 2 @ @ @ $ - - i c g q K.OX,X;X-X X'.'.c.XXc.c.M.oXN.n.b.b.$X$X%X.X'.'.}.}. X X[.[.;X&XH.H.H.H.>X{.'.s.9 d.6 # # 9 D.=X5X=X!.!.!.`._.} ^.).^.DXDX<X).(.Z.Z.=X5X5X{.OX].XX@X.X$Xm.m.M.C.C.VXC.N.N.M.j.M.C.M.VX#XVX#X#X#XN.N.N.N.#XN.a.j.j.oXc.G.d.d.R.E.c.c.v.v.x.v.U.k.g d.s.a.].+X#XM.j.a.m.N.n.m.#XN.N.VXN.VXVXVXVXC.M.j.j.VXM.v.VXC.M.C.VX@X$X.X.X.X|.F.J.~.1X1X=X,XS.S.(.(.2XJX3X~.5X2X_.`.DX_.S.!.S.!.G 9 # # 6 s.f.f.F.{.>X:X:X>X&X>X>XH.[.-X-X X X-X;X[..X@X$X4X.X}.b.N.#XM.c.oXN.f.}.'.'.[.F.H.A.K.Q g Q b t t z z y 4 2 3 , * * * 5 N < 3 , @ @ @ o # > 4 : 9 W Y.W H G F } ' G S.1X*X1X[.!.=X~.,XOXAX<Xe 9 9 w k.j.V.eX7 7 k d w h.BXV.8 3 3 - t Q Q.T.Q.<XQ.W.W.Q.R.OX4X%X|.F.-X-X5X4X4XW.<XJX4XOXOXJXGXCXR.GXR.gXPXmXbX6.<.wXqXqXL.g g g g K.U.U.U.U.n v z.z.P.A >.c a a I a ",
"hX5.7X0XU.U.P.x.k d d P.I.p 0 g k 8XE.x.x.P.E.tXT.G H [ I.qXkXFXK.<XOXoX+X+XOXR.JXJXDXW.OX4X%X|.@X#XGXGXW.(.(.W.R.+XoX+XQ.U.l > 3 2 7 MXMXp.h.h.8 7 j.rXx.x.E.w 6 6 k.R.R.A.Y.W.W.^.Y.DXDX).2XW.G _._.^.(.Y.q 6 . o O * 5 N C @.%.6.wX6.3./ E K E K x a 2 - & @ + - t i g Y.,X6X;X>X[.F.f.c.c.M.c.E.m.m.m.n.f.n.%X%X%X|.b.'.'.}. X X'.[.-X*XH.&XH.*X;X'.f.s.a.w . # G D.{.&X!.!.!.1X1X(.!._.`./.jXFXDXAXgXW.G S.5X6X*X].].@X@X$X.X|.m.N.MXC.C.M.M.N.N.j.j.C.C.C.VXC.N.#X%X#X@X@Xn.N.CXm.a.m.m.c.c.d.p.c.MXoXc.R.c.c.c.c.k.x.k.E.g.s.g.oXoXm.M.m.p.n.N.m.N.N.N.N.VX#XVXVXC.C.C.M.p.M.C.M.M.N.VXVXVXm.n..X;X.X}.b.G.,X*X6X5X*XH.G ~.(.1XJX2X*X2XDX/._.DX1X!.=X=X1XS.e 9 # 6 w a.s.f.'.>X:X&X>X:XH.*X&X[.-X X X X-X}.'.|.$X$X$Xb.b.n.N.N.M.M.v.XXf.f.f.[.;X&X[.J.A.H Q l i z v a a 2 2 * @ * * 3 < C @.5 3 5 < 5 3 @ o @ @ $ > W Y.Y.G G G } ^.G S.!.1X5XJ.S.=X*XJX<XGXGXZ.# 9 6 g h.x.rXk $ 8 h.6 w MXrXd - 3 * , ` FXAX<XQ.Q.K.R.W.W.W.%X%X$X'. X X3X6X,X(.JXJX4X].OXHXHXoX+XGXk.tXPXmXlX$.:.qXQ g r l l w 0 w r U.K.k t d d k d 0 t t u i I Y ",
"sX` ! ( b z.z.l.z.k t > t t u j 8XBXeXl.l.l.k L.L.' ' ' H W qXtXQ.4X4X+X%X+XR.R.JXJXJX<X4X4X%X@XOX%X%X4XOX<X).W.OX+XE.Q.eXI.7Xt - 8 d VXMXp.6 h.7 d BXMXE.E.r 6 g w U.NXQ.Q.A.H Y.Y.Y.T.^.`.DXG ' 2XDX).).K.# . o 3 V 9.<.%.%.$.%.$.@.@./ E J H W j n A C y ; * - + # g Q.W.,X;X[.[.'.G.g.m.E.j.M.M.N.n.n.b.n.@X|.]..X'.b.'.}. X X}.'.[.{.;X&X&X&XH.[.s.a.p.R.9 # u T.J.H.&XS.S.!.1X_.S.^.`.jX/.jXDXFXFX).R.A.~.5X5XJ.G.c.XX@X|.|.].m.MXC.C.M.M.M.m.M.j.M.V.M.VXVX#X#XVX#X#X@X@XN.N.N.p.N.#Xc.p.d.a.h.c.M.oXR.g.A.G.R.c.c.k.v.E.R.g.a.c.c.M.M.c.a.n.N.N.N.#XN.N.#X#X#XVX#XVXM.M.M.j.j.M.M.C.VXN.M.N.N.]..X$X.X|.].OX{.1X6X1X~.Z.^.(.(.DXJX2X).`.' /.`.`.!.&X=X=X=X!.r 0 # # a.a.s.f. X>X&X&X&XH.H.*X-X[. X X X}.'.'.].$X$X$X|.b.b.N.N.m.M.j.oXg.f.G.[.[.-X;X*XW.d.l j h a t - - * @ @ - t a c I #.$.5 N C @.%.V 3 = O X o @ : ' D.G G ' } } ^.S.1X2X2XW.D.2X1X,X<X+X<Xd.9 9 6 r E.j.x.V.7 # 7 w k.c.E.eX8 - ; 2 0 T.<XQ.Q.+X+X+XW.(.W.4X4X$X.X X.X3X4XW.W.DXJX4XR.R.+XNX+X4X%Xr nXIXwX:.aXT.q 0 Q K.U.l.l.g 0 9 g w 0 t d d w 7 d t 0 0 u P / ",
"p p x ( b k t 0 0 i i z I.yXtX8Xv z n U.E.Q.Q.Q u ^ [ T.T.DX<XY.AX+XR.g.4XGXKXGXQ.W.<XOXXX$X%X%X+XOX<XOXW.Q.+XR.+XOX+XU.> t - t yXeXd p.d.6 eXSXeX8XMXw 6 g q L.NXtXQ.Y.s.A.Y.Q.Q.T.).DXH 9 2XJX2X(.Y.9 . # 4 9XpXuX9.Z <.%.$.N @.@.5 a u K H W Q g y y ; - & + & c yXtXQ.OXH.H.-XF.f.G.a.c.oXMXm.c.a.f.n.N.|.N.@Xn.f.f.'.}.}.}. X X X;X;X&X&XH.Z.Z.s.f.].g.# # _ K.A.S.!.S.!.!.=XS.G ~.`.^./.gXFXDXjXgXK.d.OX6X*XJ.G.g.m.n.|.|.].XXm.M.C.C.M.N.M.j.M.M.v.j.C.C.#XVXVX#X#X%X%XN.N.N.p.m.N.N.j.a.a.w c.v.c.E.R.d.G.G.G.R.R.c.k.c.oXR.c.w d.c.m.m.m.p.N.VXN.m.N.#XN.CX#XN.VXVXC.C.C.M.j.C.M.M.N.C.VXN.#Xm.].$X$X$X].].OX*X5X5XH.G D.).`.DXDXDX)./.jX_._.1X=X!.!.!.&X~.D.A.6 # w g.a.f.F.;X*X&XH.&XH.:X X'.}.}.}.}.'.'.'.$X%X$X@XN.b.n.N.m.M.c.c.R.R.G.s.'.-X-X;X6XW.l g z - * % % * - 2 f ! j E ^ Y ;.6.4.6.0.%.%.%.B 3 * O . . : e D.^.D.^._.!.S.1X2X).DXQ.(.,XJ.OXR.R.E.K.q # 9 E.E.x.eXl.7 # h.k.6 k.NXf - 3 3 2 L.Q.W.Q.Q.W.R.OXW.G.<XGX%X$X.X.X4XGX+X).DXJXGXOXXXNX+X$X+X).Y.hXnXqXqXT.q q T.Q.U.U.z.l.l.L.Q q 0 t 8Xx.k d k k.L.7X0X0X3./ ",
"l.P.P.x.k k k k z.z t f n rXrXv B.z ( E.E.Y.K.^ ) 4.aXhXY.T.W.R.+X+XoXG.4XJXJXAXQ.<X4XOX@X@XCXGX+X,X,X,XW.W.+XoX+X+Xk.x 2 3 ; y BXU.w 6 p.6 t 8XeXv.E.k.6 6 9 U.tXQ.K.A.S.D.D.A.).gXjX`.G G `.2X1X~.W.G # . . & 3 C Z <.<.%.Z -.-.<.2.:.P p g Q K.b 8 8 ; - * * - a l.U.<X3X-X-XF.F.G.XXoXv.v.v.c.m.n.f.b.N.@X@X$X.Xb.b.'.}.}. X}.}.;X;X&XH.H.&X-X[.f.p.n.j.# # H Y.!.S.!.!.!.!.=X=X~.1XDXdX_.DXjXDXjXgXK.A.,X6X5XJ.G.G.@X%X.X Xf.XXN.C.C.C.N.M.M.N.j.M.C.MXVXVXVXN.N.VX#X#XN.g.N.#XN.g.m.m.m.a.a.h.h.R.oXR.c.A.oXR.g.g.G.c.c.c.E.E.c.a.h.g.c.M.N.m.a.N.@Xn.N.%X@XCXVXN.C.VXC.C.C.j.M.j.M.M.M.C.VXN.N.m.n.m.@X@X@Xn.].J.1X6XW.A.K.gXDXFXDXDX).).DX_.G !.1X=XD.S.S.H.!.Y.w # 6 k.f.a.f.f.*X&XH.&X-X;X X'.}.}.}.}.'.'.'.|.@X|.|.N.b.a.].m.M.oXc.v.R.R.f.f.[.-X;X3X<XQ.U.i @ * = * - 8 f l.L.E g u K U 3.;.$.<.@.%.%.<.<.V y * . . # A.).^.jXDXD.G _.`.gXjX' H D.J.R.R.W.AXQ.q : 6 w v.eXv.eXn 7 d 9 6 k.VXx.; C - i T.Q.Q.W.+X+X+XOX,XOXQ.GX%X$X$X|.%XCX+XgXDXJX4XG.oX+XCX].OX<XY.sX4.I.Q Q K.T.7Xb h v A n 8XyX7Xi t x n f d k h.v.l.l.b ~ ~ / ",
"8Xb l.k d d k x.P.t 0 d h f x.l.A 7XP.K.K.9 g qX4.4.lXkXY.).4X+XNXNX+XG.<XJXJX+XW.<XJX$X|.$X%X4X4X{.J.OXW.oX+X+XW.AXQ.> * 3 * - 8XE.d.h.k.w # 8 eXx.c.+Xr 6 0 r Q r W.,X~.,X1X(.).2X`.2X_.!.^.~.D.~.D.H q : . . X & 3 3 Z Z %.9.<.$.:.#.~ ~ ! j i t 8 + + % % - t ! g W OX5X;X>X[.'.f.c.v.c.c.R.M.XXXXb.b.b.@X%X%X$X'.'.}.}. X}.}. X;X&XH.!.H.&X>X[.b.b.p.g.w # # r D.=X!.!.!.!.!.1X,X^././.).DXDXjX).).Y.s.J.5X6X*XW.XXn.$X3X.X@Xm.N.C.C.C.C.M.M.C.j.j.C.C.C.C.#XN.#XVXN.N.@XN.N.VXN.a.j.c.m.#Xc.a.g.R.+XR.c.R.E.R.g.R.R.g.c.M.E.E.c.h.a.p.p.m.N.M.p.N.#XN.@X#XVXN.#XVXVXVXC.j.C.j.M.M.j.M.M.M.N.VXC.M.oXXXn.@X|.n.].Z.,X6X<XA.H /.DXFXFXjX^.^._.^.S.S.~.=XG !.&X!.S.D.P.8 . j.].f.f.s.Z.H.&X&X;X-X X.X X}. X Xb.f.f.'.].|.@X@Xn.f.f.n.m.#XoXc.k.c.g.].[.'.[.{.J.NXtX0 o O * ; y f A z.L.I.W J u J s a C @.@.<.<.@.9.uXuX<.y # # 9 ).DXDXFXG G _.`.Y._ ).D.Z.Z.Z.W.+X+XE.H Q 9 w c.E.v.BXeXd w w r c.VXV.8 ; ; y qXK.W.K.W.Q.W.W.,X2X+XNXCXOX|.$X%X$XQ.<XjXJX+XG.OXoXGXXXJXJX).T._ E g W { ` n ) z i v 8XrX7X) i t > $ # t z.l.x.l.k P.7X0X0X",
"0 t t $ 0 t d w w 0 h.k.0 0 0 k l.l.L.r 9 W qX4.<.uXPXhXH <X4X+XCX%XOXR.OXJXDX).W.<X6X.X.X|.@X%X4X$XJ.W.W.W.+XQ.+X<XSX) 2 @ = - f eXoXh.a.6 6 # d V.x.c.k.9 6 9 9 +XDX<X6X,X1XJ.S.,X6X`.S.D._.Y.D.G G G A.W q @ O O O * N $.@.N 5 a C $.@.5 a 3 @ * - $ - y y y z g g W H D.*X;X X.X[.g.d.R.m.M.M.m.N.|.b.b.|.$X%X.X}.'.}. X X X}. X&X*XH.H.=X&X&X=X&XF.a.a.a.6 # 6 G H.*X5X_.!.!.1X2X_.^.`.^.).KXDXW.`.W.Z.J.5X5X1X(.OX].].}..X3X|.c.M.C.C.#XC.M.M.M.m.j.M.C.C.VX#XVX#X#XN.N.@XN.N.N.j.p.N.N.m.j.m.g.a.R.E.v.v.V.v.v.oXE.c.x.x.x.E.R.s.g.g.m.M.M.M.j.p.m.N.N.#XN.N.N.#XVXVX#XVXM.M.j.j.N.C.N.M.VXM.M.VXc.m.$X$X|.n.].{.(.,X6X5X~.Z.Y.(.(.DXJX(.(.`.^.(.6X_.!.!.1X5X~.G w $ # 6 f.a.f.F.*X>X&X:X=XH.H.;X X[. X X X X'.F.{.$X%X$Xn.b.b.n.N.m.oXc.E.].f.b. X X-X*X,XK.H g i s C y 8 8 - $ @ $ 4 5 5 L #.$.a 5 5 a C C < & O o @ > H H ' H q H ' _.^.G 1X2X6XJ.S.1X,X2XAXAXAXr 9 9 w k.c.x.eXz.# $ w 6 g.oXC.x.; % * $ W DXAX).Q.+XOXJ.W.OX+X%X%X$X|..X.X4X4XW.).JXJX,XXX+X%X4XOX4X+Xk.kXkXsX2.9XwXj > h z.l.x.k 0 6 d l g 0 0 0 d t 7 t 0 > t x ",
"t i z v v n d d k.k.E.U.k.r 0 0 h g l _ { { 2.<.bXbXPXgXH +X+XXXGXGX4XG.OXKXJXQ.(.4X5X X X|..X%X4XOXD.W.J.W.R.<XAXNXKXT.2 , ; 3 - V.NXh.6 h.k t 8 V.8Xh.h.w 6 6 6 W.GX(.2X,X*X*XH.=X=X(.!.G ' ^.H e G Y.^.' H 9 > $ @ o O , , 2 a 3 C @.1 , , , * - ; y f A y f h g p W W A.H.F. X;XF.F.f.g.XXm.M.#XN.n.b.b.@X4X$X.X}. X-X-X-X X-X-XH.&X;X*X*X>X&X>X>XF.f.f.g.p.# # 9 e S.=X~.~.!.1X2X^.^.JX1XJ.6XJX`.,XJ.Z.J.*X5X1X1XJ.].F.}..X$X.XXXoXMXVXC.#XM.M.C.C.j.j.C.C.VXVXVXVX#X#XN.N.N.N.N.N.j.m.M.M.oX#XG.s.e c.x.j.j.V.C.MXeXE.V.x.c.v.g.a.g.$X#Xm.N.N.p.m.N.N.N.@XN.#X#X#XVXVXVXC.C.j.j.N.C.C.M.C.MXoXVXN.m.@X$X@X|.}.].(.,X5X6X,XJ.Z.J.).2XDX2X!.1X2X(.`.DX1X!.!.1X~.S.9 > . 6 h.a.f.f.[.5X:X:X>X*X;X*X&XH.;X-X X X-X[.'.[.$X$X%X|.b.n.N.N.N.c.R.XXa.b.b.'.-X&XH.A.r W W j u i z A V f t 2 @ * * @ 3 C a 5 5 5 , 4 , O . @ $ : : W Y.Y.H G G Y.' G G ~.=X5XH.H.=XJ.JX<XAXAX9 6 9 9 w j.v.eXt 7 d w w 6 VXMX- ; ; , > _ DX<X<X<XQ.A.Y.W.W.W.%X4X$X'. X;X3X6XOXW.JXJXOXR.+XHXCXoX%X4XK.gXPXnXlX<.:.qXT.) z k g 0 0 g L.U.U.l.g d v n f z f t i ~ ",
"x c A A n B.z.z.l U.Q.U.T.U.( L.i p { qX3.4.6.wXvXIXPXAXW.%XCXVXHXHX%X+X4XJX<XW.<X1X5X*X&X[.'.$X4X4XW.W.Y.Y.K.Q.<XQ.Q.U.u 2 , 3 - f BXE.w w l.d + v eXx.k.k.r e 9 R.JXW.,XW.*X*X&X1X*X=X~.G G G ' H H W ' G 9 : : 9 > # @ . o @ 2 2 3 5 1 @ & @ 3 y a y z z t > h Q g K W A.A.J.F.'.f.[.f.f.@XXXm.%X#XN.b.|.$X%X@X.X.X X X X}. X;X-XH.[.5X>X&X>X:X:X>X Xf.b.f.a.6 . # 9 Z.D.G S.!.~.2X`.`.2X1X~.1X1X2X_.,XA.J.~.*X=X1X*XJ.F..X.X.X$X$X#X#XC.C.VXC.M.M.VXN.j.N.C.VXVX#XN.#X%X@X@XN.N.m.N.N.p.p.N.#X#XXXa.a.a.h.h.x.V.x.E.E.x.E.j.h.w a.a.G.$X#XM.j.p.m.N.n.n.#XN.#X#X#XVXCX#XVXC.N.j.M.C.C.N.C.VXM.oX+X@X$X$X|..X.X].F.~.1X1X,X*XJ.Z.(.).2X2X5X~.2X6X2X2X2X~.!.S.G S.G 9 # # 6 g.f.b.f.-X>X-X:X5X&X>X>XH.H.-X-X X X X X.X|..X$X$X$Xb.n.@X#X%Xm.@X].f.n.'.'.F.F.J.Y.k.g W W u t > y f f y a y , * & , 5 N 3 * @ O o . # > q q 9 9 H ' ' W G W ' G e D.~.~.5X~.!.*XJ.6X+XAXW.9 9 e k.k.v.eXj.# 8 v 0 w v.MXx.8 3 m 2 y L.Q.W.Q.Q.K.Y.Y.W.W.OX4X$X].'.-X*X5X4X<XW.2XJX4XOX+XHXHXAXoXGX+XtXUXnXcXuXwX4.qXqX>.j p E I.I.U.U.U.L.b n B.B.B.n A c c x ",
"9X>.8X>.A v n z.l.L.L.Q L.T.0XqXI.qXsX2.=.t.lXuXsXSXAX).+XGXCXHXHX+XOXOX4X4XW.J.3X1X1X1X*XJ.H.$X%X+XW.Y.Y.Y.Y.Y.Q.+XQ.E.qXp * - y - v rXE.d d d 7 8 x.BXNXE.oXk.9 r <XOXW.3X,X,X*X1X*XS.S.G G q W E K J H J F G G J J u 0 t > 4 . @ , 2 , 5 5 5 u a f t 0 t 0 t Q _ u u g W R.+XF.f.}.;X X{.|.$X@XCX%X@X}.}.$X$X$X$X;X X X}. X;X X[.[.H.>X>X-X>X:X&X:X;Xb.b.|.f.d.6 . # 9 r G Z.H.H.~.2X1X1X>X&X5X6X6X1X<XD.H D.!.=X=X!.J.F.OX$X].|.$X@XN.M.N.C.VXM.M.C.M.j.p.N.VXVXN.#X#X#X@XN.N.N.p.n.N.m.m.p.N.#X%XG.s.9 w d V.x.x.v.x.k.l.k.w w 9 g.XX%XXXm.p.N.N.N.a.m.N.N.#X#X#X#XN.VXVXN.p.M.C.C.M.C.C.C.M.m.XX@X$X.X|..X{.H.S.*X5X*XD.Z.G D.DXDX2X6X1X!.=X5X5X2X~.S.S.G G e 9 . # 9 f.f.'.b.F.-X:X&X>X5X-X>X;XH.[. X-X-X X}. X;X3X$X.X$X.X|.|.@XCXCX@X@X|.|..X$XF.Z.G.OXK.Q g r W ' E q t t - y y a 5 3 5 < 3 , , @ , 2 , > q J F q F G q W E H K T G 9 G J.D.S.1X=X>X,X,X,XW.+XR.9 r A.Q.MXrXv.d 7 d d t x.BXx.- y * * y qXE.W.gXQ.W.K.Q.Y.W.W.%X,XOXJ.{.~.=X1X1X3XJ.,X6X$X+XW.AXtXAXCXCX%XQ.FXsXsXsXlXsX*.4.sXqX0XT.T.I._ ! Q ( ( n n v A 8X8X9X8X,.",
"A A A 9XrX8Xv h L.g ( ( E _ { ` 0XnXxXe.u.u.sXsXhXSXQ.R.+XCXVXCXNXQ.R.G.{.<X,XOX4X2X,X1X(.1X*XJ.R.OX<XQ.Y.Y.Y.W K.AXNXQ.tXx @ & y ; * v eXf k.h.w $ 8 BXtXk.c.d.e 9 R.+XW.6X6X6X*X~.*XS.S.1XD.9 F J K J J K J W W H p g r q q g 2 2 * 2 4 3 t s i z t 7 0 u l Q E E q g j j L.+X4X{..X;X X}.}.].m.%X%X$X}.}..X|.@X$X3X.X X X.X X X[.&X[.&X>X>X>X>X&X-X;X X}. X'.G.9 # . # : r S.H.H.!.5X=X&X>XH.=X1X2XDXAX/.H e J.5X5X1X~.J.OXXX@X|.}..Xn.m.oXC.C.VXC.M.C.N.j.p.N.VXM.#X%XN.@X#Xn.N.n.p.N.#Xn.p.m.#X%Xc.a.p.w d h.d k.E.R.g k d w p.a.g.XX%XXXa.n.N.N.j.n.N.n.N.@XN.#X#XN.VXN.p.j.M.M.M.C.VXVXN.#XM.g.|..X|.|.].G.,X*X1X6X6XJ.e A.Q.DXDX2X6X=X&X;X-X;X5X!.!.S.S.G # # . # s.F.'.|.'. X:X&X&X>X>X>X-X[.&X&X'.-X X X.X.X3X3X$X|..X}..X|.%X%X$X}. X X'.|.3X{.{.AXQ.k.l l g q W Y.W r u 7 8 y y a a 5 3 3 , , 2 5 i u q K H H H W W E j J p ^ J : e ).(.S.!.~.~.1X5XJX,X+X+Xe 9 a.R.E.eXrXf 7 t k h.d eXz.- $ 3 , @ i tXE.Q.AXY.K.W Y.Y.(.<XOXG.G.,X1X!.1X_.,X2X,XOX,X{.R.R.Q.NXBXAXCX+XoXQ.hXhXsX6.sXt.sXnXlXqX[ ^ ^ ! p E Q b n f 8X9X8XA A A A ",
"t t y v >.P.P.) L.u E Q ! qXqX,.3.sXlXlXu.2.#.wXgXAXQ.+XNXNXBXGXNXW.A.J.,X4X,X,X6X,X(.(.(.2X(.Y.A.K.Q.<XY.' ' W Y.<X+XNX+XE.x 2 * 3 * 8 A x.x.j.h.w 7 U.BXk k.c.a.9 R.AXQ.+X,X,X~.H.1X~.~.<XD.q : H J ^ K P p u K K _ ' _ r q r u y 4 4 4 2 2 2 t h d d g k.K.K.W r p W ( h l.Q.4X6X;X X'.'.|.b.m.#X#X#X|.}.}.|.].$X$X;X X}.}.}. X'.[.&X[.&X>X>X>X>X X-X-X'.[. X[.Z.9 . . # 0 G !.:X*X:X-XH.>X:X=X=X6XJXgXgXT.9 D.<X6X5X=X,XOXG.$X|.|.|.|.].VXoXM.VXVXN.M.#XN.m.m.N.C.M.#X#XN.@XN.n.N.m.m.M.XXn.a.n.@Xm.g.d.h.h.d w h.K.k.w d d j.h.k.R.XXg.a.m.N.M.n.N.N.n.N.@X@XN.#XN.#XN.j.j.N.M.N.M.VXC.C.C.#X@X].}.}.}.$X].OX,X=X1X6X5XW.e T.qXgXDX2X5X=X>X;X[.&X=X&X=X!.S.: # # # 9 F.[. X}.'.-X:X&X>X5X>X>X&XH.[.[.[. X[. X}.|.$X$X.X.X}.}.}.$X#X#X#Xb.}.}.'. X{.,X6X+XE.z.b ( W G r H K.k.l t d f y t 3 , 2 5 3 i 2 2 u q K W W W W p p ! P P J J q 9 D.<X~.J.1X!.H.,X1X6XW.+XR.9 9 d.c.d V.rXd 7 k k.d x.B.8 $ , 2 3 4 8XMXNXNXAXK.K.Y.W /.<XW.R.A.D.W.2X^._._.).6X,X3X4X,XOXA.R.AXSX+XCXCXoXQ.AXdXaXY *.fXxXlXsX/ ] hX3./ ! ( l l.P.z.8XA z f t 2 2 ",
"y y z t t n P.I.I.I._ E T.hXhX;.4.5.t.sXsX5.Y ^ Y.T.NXNXNXeXNXAX4XA.W.2XDX6X,X<XJX<X).jXgX)./.Y.U.A.W.<X).W H Y.K.R.E.+XoXtX( 2 ; 3 * ; f V.v.j.h.h.# h rXh.h.c.w 6 e Q.+XR.,X2X,X*X1X,XD.D.K.K.q q J W ~ ~ @.a a K K K W K g p > 5 y 2 4 a 4 2 0 t w g K.K.Y.K.H H r j j b U.E.Q.JX3X3X X}.}.|.n.#X%X#X|.b.b.}.|.$X3X3X}.}.'.'. X X&XH.H.&X:X=X5X5X>X;X:X&X[.[.-X~.G # . . : e H.:X:X:X&XH.:X5X1X1XDXKX/.T.gXg r G.,X1X=X(.,XR.@X|..X.X}.].@XoXN.#XVXC.m.M.N.m.N.M.C.N.N.#XN.@X#XN.N.N.m.p.m.#Xn.p.g.m.c.k.h.x.k k k.K.k.g h.h.x.k.c.c.c.p.j.N.#Xa.g.N.N.n.@X#XN.#X#XN.M.N.M.m.#XN.M.#XVX#XN.C.N.@X|..X|..X$XOX(.~.*X1X1XZ.e W /.T.Q.FXDX5X>X5X-X[.-X:X:X=XF.e : # . # Z.*X;X X[.&X-X*X>X5X>X:X&X-X[.[.[.-X X'.'.}.$X3X$X.X|.}.b.b.@XN.VX@X}.}.}. X X;X6X6XE.8Xz.v k l H H H K.K.L.k k t 8 2 2 u 4 2 3 3 t u j g W W J p a a a c P U P 4 q J Y.A.A.(.1X*X(.5X,XW.W.+Xd.9 w k.k.d eX8X7 w h.k.k.eXv t * * , 2 x tXQ.oXQ.U.K.K.W W Q.<XW.K.W.Q.)././._.`.).DX4X,XJXJX6XG.A.AXSXeXeXNXCXQ.T.T._ ] { fX5.wXhX,.` hXvX,.) I.L.U.E.eXv y t y y t y ",
"i v v t h eXtXU.T.tXI.! hXPXhX! / hXaX[ sXaX[ _ K.E.tXBXtXeXtXGXG.A.(.JX2X2X(.<XDXAXSXgXqX5.aX/.gXK.K.W.2XY.H K.K.K.H K.R.E.eX7X2 * * % y rXV.c.c.d.7 t P.x.w d.d.9 6 k.tXK.Q.JX<XJ.S.J.D.e A.K.G q q p s ~ C a 5 s u J ^ { ` >.a a 2 2 3 i t 0 0 h d r r e r A.H H r j z z L.K.+X4X3X3X3X3X}.}.b.#X#X#X|.b.b.'.@X|.$X3X.X}.'.b.[.:X[.H.:X:X&X:X5X6X6X>X>X:X&X[.-X&XS.9 : . : 9 S.-X:X-X>X[.[.=X=X2X`.aX/.' hXgXr e J.5X=X!.,X,X].XX.X.X.X.Xn.].#X#XVXVXM.c.N.m.p.m.#XVXVXVX#Xm.@XCXN.N.N.m.m.N.M.n.g.a.h.v.x.h.h.k d.R.k.h.k.h.j.v.c.a.p.g.m.N.g.N.N.m.N.CXN.N.#X#X#XVXVXM.j.m.oXM.N.#XVXVXC.N.@X@X.X.X.X|.G.OX,X*X=X5XJ.e r ).jX[ [ ).`.1X=X>X&X[.>X&X&X=Xs.9 # . 9 G J.;X[.[.&X>X>X>X5X6X>X:X:X:X-XH.-X>X'.'.}.}.$X$X$X|.'.'.}.b.N.VXVXn.'.}. X>X3X3X4X4X+Xx.z.v l g r r A.A.e d.d k d t 0 0 2 a 4 2 y c c ) T._ J u L a a @.I I a J : q _ H H A.J.A.S.OX6X<XA.Q.R.9 6 w d.w d V.f 7 h.k.c.E.BXf @ - * , P tXK.E.R.k.K.W H W Y.<X).K.K.).gXtX| dXaXgXgXDX<X,X2XJX6X,XZ.R.AXBXE.eXBXtXU.K._ T.dXaX5.aXaX^ ` hXLXqXL.0XQ.Q.tXtXU.d d b x h v ",
"h l.h l.E.tXNXE.qXgXI.p qXSXhX` ^ [ aXT.T.).T.).tXE.BXyXB.tXKXDXZ.W.<X1X2X`.`.2XAXqXaXhX{ ] e.aXgXK.A.OX2XY.Y.K.W K.W A.d.g tXyXc a * % - eXMXc.%Xk.0 6 z.BXw w K.w # w Q.Q.Q.<X(.A.e G Y.Y.W r W J u K I C @.#.I 4 J J U / ,.:.A A a 2 y t i i d d g w d.r e A.Z.K.0 h c v x.E.%X6X4X3X;X.X}.}.n.XXVXVXN.n.}.b.]..X|.$X4X$X'.'.[.>X[.[.>X>X:X!.>X5X6X>X=X=X&X&X[.;XJX).q . # : F.;X>X&X&XH.F.>X1X(.2X/.T /.FXFXK.e S.1X=X=X=X5XOXXX@X.X}..X}.].@X#X#XVXVXm.M.M.N.a.M.VXC.C.VXC.N.N.#XN.N.N.a.p.M.N.M.p.w a.k.x.k.h.k.oXc.k.h.j.c.h.w p.j.M.M.c.p.N.#Xm.N.#XN.N.#XVXVXVXm.j.M.M.m.m.#XVXVXm.#Xn.}..X|.|.|.].OX1X=X=X&X5XH.e Y.jXFX/.' /.`.^.1X>XH.H.&X&X:X=XA.9 . # r <X5X*X[.&X=X:X=X5X5X5X&X:X:X>X;XH.-X-X[.F.|.$X4X@X.X|.'.f.b.|.#XVXVXm.].}. X X;X3X6XGXCXv.l.v l.k g r A.s.e d.d d d f g h i 2 y y V A 9X7X` _ K J 4 L #.@.a I P u p J u F W W.A.e s.W.,XQ.K.tXk.6 6 c.k.6 eXrX7 6 k.XX+XoXrXf + - 3 a tXgXk.d.K.K.L.W W Y.Y.<X,XH K.qXaXqX{ R fXaXY.AX2X).`.2X1X6X,XZ.AXKXeXU.eXSXK.gXtX).).[ T.aXT._ Y.hXPX7Xj tXQ.+XQ.AXtXU.l.k l.h x ",
"l.U.k.U.tXAXAXtXtXAXI.g qXFXtXY.' T.^.' /.T.Q.AX+XtXBXeXeXhXgX(.W.(.2X_.`.`.`././.T.qXsX1.L 3.0XQ.T.A.J.<XW.W.K.H Y.K.K.k.d.E.I.7Xc ; - y V.NXoXXXg.r $ v rXh.w eXh.# 6 x.E.U.Q.Q.A.Z.e K.Y.r q K u u s I a a @.I S J L J s ;.:.:.a 2 y a i f x b g g r d.r e d.d.A.l.n v n P.NXGXJX4XOX4X$X|.}.b.m.M.N.@X@X}.b.b.].].$X4X.X'.'.[.&X[.[.>X:X&X:XH.*X5X5X=X&X&X=X[.{.5X6XG : . : Z.3X3X{.H.H.H.;X6X(.`.`.`.kXFXgXQ.H Z.H.&X>X&X=X4XW.].@X$X.X}.b.|.#XN.VXMXVXm.m.N.N.j.M.VXC.M.N.N.m.N.@Xm.c.M.j.j.j.v.j.h.h.d h.h.c.c.E.v.c.c.h.h.h.j.j.v.j.j.a.m.n.m.#XN.N.N.M.M.M.M.M.j.m.oXm.c.C.#XVXN.N.].n.|. X.X.X].J.,X1X*X:X=X&XG G T.).FXjXdXdX`.,X6X*XH.H.&X&X:X=Xs.9 . : D.6X5X:X[.=X&X!.=X5X5X*X&X:X:X>X>X[.[.[.[.F.'.4X%X|.}.|.'.'.|.@X#XM.M.n.'.}..X3X$X$X4XJXCXMX8Xz.z k k.K.d.A.e d.k.h.d l.k g p i i y y A 9X8Xs P U K J L @.I 5 L L s u J u q W Y.r s.K.W.Q.Q.I.U.0 # w E.k.8 rXeX7 h.c.R.XXNXV.8 - - A 8X7XR.K.d.K.U.K.W H (.W.<XW.H T.gXqX1.U ] sXaX[ /.).).jX`.`.5X,XD.).gXBXrXeXNXtXNX<XY.).T.[ { T.T.Y.tXhXT.j T.NXAXtXNXNXE.L.l.P.l k ",
"U.E.k.Q.E.Q.NXAXAXgXK.q Q.KXQ.T././.' Y.AXQ.Q.Q.Q.NXeXeXBXtXY.Y.).2XDX).jX2X_./.[ } e.dXe.J ] T.gXgXK.A.<X<X<XW H K.W K.K.k.K.k 0X) 2 * - x.VXXXg.R.c.6 d V.V.8 v.l.6 # w l U.W.Q.W.K.H H Q u J J u L #.@.5 D L S J J J u u ^ qX<.c y a z a z v z.k k k.k.r d.A.a.h.j.B.V B.x.+X+XJX<X4XJX3X X}.n.N.N.M.#X@Xn.b.'.'.'..X$X%X.X[.'. X X&X>X:X!.:X&XH.1X5X1X=X=X5X*X;X5X6X~.: # : Z.*X*X&X&X=XH.H.5X2XjX/.jXkXgXgX).D.e S.*X=X&X5X6XOXXXXX$X.X X}.b.N.N.VXVXVXM.N.M.N.m.p.M.C.M.M.N.m.m.@XN.c.M.M.j.p.p.j.v.x.h.w p.v.k.c.c.c.h.p.w j.v.v.p.w c.M.m.j.N.M.m.m.M.M.C.C.m.p.g.N.M.c.M.VXVXVX#X@Xb.'..X.X|.$X].W.2X1X=X&X&XS.e A.gX/.DXFXkX/.).DX6XH.H.&X&X!.&X!.Z.6 # 9 ~.6X>X&X&X5X1X=X=X5X*X[.:X:X&X:X>X[.[.[.H.'.$X4X$X|.b.'.b.b.n.@X#XM.N.N.b.'..X6XJXGX4XGXNXeXl.z z z.x.r r A.d.k.k.k h.l.l.l h s a a a A 9X0Xp p J J J S 5 L 5 L Y ! K p u J K H r R.Q.+XQ.K.l d # # d x.d x.V.j.w j.R.g.g.CXV.- ; - A qXl.d.K.W W K.W H H ).2X<XD.H ).hXqX*.U 5.fXaX' | /._.jX`.`.2X2X_.Y.W tXSXeXMXNXQ.<XW.Q.).T.' ).).W.Q.DX0Xq U.AXSXNXBXtX+XE.E.U.x.l.",
"U.E.Q.NXoXNXGXAXHXNXK.Q gXHXW.W.DX(.' /.DXY.+X+X+XNXMXBXHXgXY./.DXDX`.`.2XjXdX| [ R e.dXe.R ^ { aXjXT.W Y.<XAXY._ _ q ' K.U.k.k L.) 3 * - f NXR.G.XXoXw 0 x.V.h.7 d t $ # w U.E.Q.Q.T.g r u u J 4 S L I @.a L U J : 4 J K p _ qX9XA A a z z v c z.k h k.A.d.G.d.h.x.B.V y f v E.<XGXGXKXJX$X}.b.}.@X@XM.oX#Xm.b.b.}.'.|.%X4X3X'.[. X-X-X&X&X&X&X>X-X[.5X5X5X5X>X;X-X5X6XJ.e : : e J.~.!.&X:X&XF.,XJX2X/.FXPXFXFXDXW.G G H.~.=X6X6X<XXXXX|.|..X.X}.N.#XVXVXVXM.M.N.N.N.j.p.M.C.M.M.N.m.g.M.m.m.j.MXj.7 d h.j.j.j.a.a.c.XXm.h.a.h.c.j.j.h.8 j.M.M.g.m.M.m.M.M.M.c.C.M.h.p.N.oXm.N.M.VXVXVX%X@X|..X.X|.|.].R.OXJX6X=X&X{.Z.H ^.DXkXFXUXkXgXDX6X{.F.!.:X&X&X!.!.G 9 # G {.5X>X&X&X5X5X6X5X1X&X&X:X-X&X&X-X&X&X[.[.F.4XGX|..X}.'.f.].@X#XM.N.#XN.g.b.'.%XJXKXHXGXNXv.f f f z.x.h.r K.A.k.k.k.k l.L.b h y v c A >.7X0XJ J F q : 4 L L L I Y ~ p 5 J u q q g K.E.Q.Q.U.0 6 6 6 h.6 8 V.V.w w XXoXG.g.NXz.- * 2 >.L.l K.K.K.K.H W _ K.).<XW.H Y.hXaX1.Y R aXhX/.[ [ /.| dXdX`.`.`.DX/.T.AXLXNXMXNXQ.+XQ.T.gX/.W <X2XW.Y.DXgXH K.AXHXAXgXQ.NXNXQ.E.E.U.",
"Q.E.Q.oXE.%XHXNXHXtXQ.E.JX<XR.W.DX^.G Y.Y.Q AX4X+XNXMXNXHXAX/.gXFXjXdX`.jX/./.] R | | dXdX5.] L { hXaX' H W.Q.Q.T.T.E W K.Y.K.l ( >.5 ; ; y SXoX].XXoXc.w l.B.h.7 d x.h.# 6 g U.U.E.U.Q j u u J 4 5 L @.O.I Y U J 4 q u K p Q ` >.:.A z a v A n v b h k.r d.d.d.h.E.A 8 ; - t z.E.NXSXGX+X]..X|.b.|.@XoXM.#XCXn.}.}.}..X$XGX4XF.[.[. X-X&X&X:X&X&X>X&X=X5X6X6X5X&X&X:X>X~.e # : A.S.!.!.&X-X&X[.[.4X2X).DXFXFXKXAX).(.A.A.J.5X6XJX2XXXR.].]..X.X.X|.#X#XM.VX#X#XM.M.#Xm.a.j.m.M.M.M.VXm.n.M.M.j.v.h.d h.8 p.j.M.c.d.g.XXXXa.c.v.v.p.p.f j.j.j.j.c.m.m.g.M.MXM.M.M.j.p.n.#X#Xc.VXC.#XVX#X#Xn..X3X|.|.N.m.XXAXJX6X5XH.J.A.W.gXjXFXFXFXDXjXDX1XH.{.-X&X-X*XS.G G 9 # e {.>X:X&X:X>X6X6X5X&X&X:X&X&X:X&X&X&X[.[.H.G.4X4X|..X}.}.}.XX#X#X#X#X@Xn.|.|.@XXXoXGXNXNXU.z 8 8 8 8 B.l.d.r d.r r k.k v n v c x c A >.) ) ` E J q J 4 u I @.Y P I I s 4 J 4 u E Q K.L.E.U.k.6 6 k x.z.$ f x.z.d h.R.OXR.oXVXv ; 3 3 >.) K.K.K.Y.T.W Q Q.Y./.Y.H ' /.sX1.L Y ] hXdXaX[ [ | | e._.dX`.`.kX/./.tXAXBXMXGXNX+X<XH Y.T.H <XDXJ.G.<XDXU.Q.AXGXtXNXMXQ.E.E.E.MXeX",
"NXE.MXR.k.+XCX+XNXQ.U.+XKX<XA.OXJX).K.Q.A.r <XAXCXCXNXSXQ.' [ /.kXdX/.jXaX| | 5.e.e.dXfXdXaX] a #.aXsX[ E Y.K.T.T.T.K.W W _ K.g 7X` 4 3 , y BXCXc.g.R.XXd j.V.B.d t x.x.9 6 6 d.eXU.b I.) p 4 4 S L @.L I Y L J J J J J p j ! ` >.>.c c c A c v z x k g r w d.d.k.z.- + - - 8 f h d x.BXCX@X.X.X|.b.|.XXm.oXVX@Xb.}.}..X@X%X4X.XF.F. X>X:XH.:X&XH.-X:X>X5X5X5X5X:X&X&X-X.Xs.: : 9 9 S.H.&X[.-X XH.[.1XJX).gXDXFXjX).).Y.A.D.3X6X6X6X<XR.m.@X|..X$X'.].@Xm.#XVXCXN.M.oXg.g.g.c.M.M.M.N.M.c.m.c.c.h.p.h.h.j.j.j.c.XXc.G.g.m.c.oXc.j.j.j.j.j.p.j.v.c.m.m.M.#XM.M.M.j.j.a.N.m.N.XXVXVXN.N.#X|.b..X.X|.@Xm.XXAXJX6X6X4XJ.D.W.).gXgXjXDXgX).DX,X[.[.-X X}.[.S.G 9 9 : 9 Z.*X-X:X&X>X5X5X6X5X>X:X:XH.:X&X!.*X>X[.F.F..XGX%X|..X}.}.|.#XVX#XXX].n.b.|..X$X%XVXMXj.h.f 8 - % % + f l.k.e e e r L.b z b z n c z c A ~ ! ` E J J K K P ~ a I P L I L D 5 u u Q U.Q U.Q.g 6 6 w h.z.d d z.V.j.h.c.G.g.g.NXHXy - 5 2 ~ 0Xg g K.Q K._ Q./.' W ' W [ dXsXL L Y e.dXkXdXdX5.e.5.e.e.dXdXdXkX| [ U.Q.HXNXNXAXAXGXr K./.H 2XJXOXJ.DXDXQ.R.%XNXNXBXE.R.Q.oXE.BXBX",
"E.E.SXNXE.oXGXNXE.Q.k.W.JX<X].OX4XAXE.<XY.Y.<X<XGXCXNXHXgX' [ e.e.dXe.dX| [ t.sXfXsXkXkXhX5.=. .@.;.e.e.[ Y.u E U.T.K.W ' _ Q k.0X;.3 3 , * 8XNXg.a.g.c.h.h.l.z.z.d k k.k.0 # 6 E.E.P.8X7XP K 4 p L I L s D a p s p K P E j ~ >.>.A a z c n c z i i h g r r e d.k t $ + 8 8 y 8 8 8 8 v.CX#X|.|.}.b.'.].m.oXVX#X|.}.}. X|.%X4X%XF.F.[.>X&XS.&X&X&X&X:X:X5X5X>X>X:X&X[.&X XA.# # : # 9 e '.[. X X;X[.H.6X2XDXjX`.2X)./.AXY.A.*X6X5X6XJX+Xm.#X|.$X;X].f.#XN.#X#X%XVXM.m.m.g.g.c.j.M.j.j.m.N.c.a.c.M.h.h.h.h.j.v.g.g.%Xn.a.g.oXR.a.c.M.j.h.j.j.j.j.g.c.#XN.M.j.c.j.c.g.N.N.m.M.VXVXN.#X@X@Xn.b.3X$X|.@XXX+XGX6X5X5X,XS.W.).).).jXjXDXDX2X5XH.&X-X X-X XF.e 9 # # # 9 Z.&X&X&X-X:X>X5X6X5X:X:X&XH.&X&XH.&X5X-XF.F.3XGX$X|. X}.}.n.#XVXM.n.|.}.b.}.}.n.%XVXj.7 8 8 2 - ; ; - $ d r A.H e r g f z z c c n v z c A >.) x s E ! ! s ! p I s D L L D a s s ( ` ( U.U.w 6 6 v.h.k d z.B.x.d h.d.g.s.d.MXeXt & 5 < s 0X( j _ K.K.K.L.T.W J U ] 5.sX2.$.L 1.| aXkXkXhXfXsXe.R } dXsXt.fXe.T.Y.NXHXNXNXNX+XGXW.Y.).Q.DX4XOX].AXHXE.R.+XoXNXAXE.R.NXMXx.tXeX",
"eXk.MXE.c.v.CXBXNXGXK.R.GX3X{.{.4XGXY.AX).(.4X+X+XCXNXGXAXaX| e.e.dXdXfX[ 5.t.xXxXkXkXjXaXY $.-.+.+.-.e.*.5.J E ( E E E T._ K.T.7X;.3 < = - b tXg.a.XXc.a.w f d V.eXh.d E.k.6 6 w eX8Xv ) ;.] D 4 p u S 4 s P I I c ! ! s ! ) c c v c c c c c a u i g r k.K.d.K.7   $ ; 8 ; 8 ; 8 f 8 h.MXVX@X|.|.b.'.{.XXN.#XVX|. X}.}.|.$X4XOXG.[.&X[.&X&X!.&X&X:X>X>X5X6X5X=X:X&X&X[. X].9 : # # # 9 F..X;X-X-X-XF.:X5X2X_._.DXDX^.DXT.Y.G.;X*X5X6XOXG.@XXX@X3X|.].|.N.N.N.#XVXVXm.N.$X].g.j.j.C.M.M.M.M.N.c.h.h.v.x.j.M.M.j.a.%Xm.g.g.%Xg.a.M.v.v.j.V.j.p.c.c.oXm.j.v.M.M.a.g.].#X#Xm.N.VXVXN.N.@X@X}..X$X.X@XXXR.+X6X6X3X&XJ.A.Q.DX).`.DX).(.6X5X&XH.-X-X-X-X Xs.9 # # . 0 r G.[.&X-X-X>X*X5X6X5X:X:X:X&X&X&X&X[.-X[.{.].$X4X@X}.}.}..X@XCX#XoX@X|.b.}.|.$X%XVXM.8 8 y ; 3 - 3 8 % + $ q r H A.H w t i y z c A A a v A A @.c s x ! j E ! ! s s 4 5 5 5 4 I qX~ ~ ) 7Xl 6 6 a.v.j.h.V.eXf w h.h.c.R.d.a.eXz.- * < 5 @./ 0XI.I.T._ W g W ^ 4 R 2.6.2.$.-.$.2.] | dXkXfXxXlXsXe.R sXe.e.e.aX[ gXDXHXQ.NXGX%XGX+XW.).W.4X3XOX].4XGXoXoXCX%XCXCXk.R.E.MXE.BXMX",
"HXNXeXE.k.h.NXHX%XoXR.G.,X4XG.].OX4X+XQ.Y.J.2XOX+XCXVXAXDXgX[ | ] 5.aX5.5.t.fXu.t.fXaXaX] 2.=.8.%.+.-.6.6.#.3.{ J J J W K.qXqXqX4.a 5 < = * 2 eXMXa.g.c.a.h.w d v.eXMXv.x.l.k.w 0 d 8X8Xa >.;.I I p u u 4 K J K P K x ! n n n B.n z.n n z.>.a 4 i p 9 r r e k.r # X % - y - - y 8 y f 8 h.VXVX%X%X|.'..XOXXX%XCX%X|.b.b.|.$X@X$X3X[.[.[.&X&X:X&X:X:X>X>X5X6X5X:X&X:X:X:XH.*X).Q : # # # 9 Z..X;X>X>X&X:X=X1X(.).DXDX`.jX).A.J.F.*X5X5X,X{.{.].|.$X}.|.|.|.N.N.N.VXVXN.j.@XXXg.g.m.j.j.M.v.c.oXc.h.p.h.C.MXv.m.XXb.n.N.n.N.N.p.m.XXc.MXMXh.p.h.c.oXv.x.v.v.c.g.n.n.m.XXg.c.VXCX#XN.N.n.|.|.}.$X$X@XN.J.W.6X6X-XH.G.D.Q.gXDXDXDX_.1X5X=XH.;X5X>X-X XF.9 # # . > g <XJ.&X:X:X:X&X=X5X5X5X>X5X>X>X-X:X:X&X&XH.[.4X$X|.@X}.b.b.|.%X%X#X@X.X.X}..X4XCXHXMXp.8 f y ; 8 - 3 y - @ o 6 w r H H 9 q n t 5 c A n z v n A A c c ( Q E E p s D a p 5 5 s I :.@.c >.8Xd 0 w k.c.k.v.BXrXx.x.7 j.c.g.g.j.v.BX8 * * , 5 a ;.qX0XqXT.r H W F [ 5.1.6.6.-.%.%.6.2.1.R | aXfXfXu.lXe.&.5.sX5.[ [ T.).HXNX+XCX+X4X4XW.G.).).<XOX].].4X+XG.R.#XCXHXMXh.h.E.MXBXBXMX",
"VXMXE.x.k.h.MXCXCXCXW.g.OX$Xg.OXOXOXE.+XG.G.,X4X%X%XVXCXAX).T ] ] e.sXe.1.e.u.fXfXfXaXaX] 2.-.%.%.%.%.-.2.sXt.] J W W W _ U.0XwX:.@.N 5 , * - y BXE.g.c.c.k.h.h.j.eXBXMXv.x.k.k d 0 v 8X:.c I 2.I I I P Y P L I ^ ~ ) ~ n n n z.v n z v A a 2 4 j q e A.K.d.k.0 $ $ + $ A v t 8 - 8 8 8 f MXCXCX%X.X}..X$X@X%X#X@Xn.b.b.}.|.|.%X4X.X'.H.-X:X:X&X>X>X>X>X5X5X5X=X=X!.:X:X&XJ.D.H q # . # # 9 |..X;X>X:X&X:X6X(.).DXDX`.`.Q.Y.J.G.[.5X6X;X{.G.].@X|.N.}.}.}.|.|.@XVXVXM.m.m.@X@Xn.g.m.j.j.C.v.c.g.c.j.h.j.M.#Xm.m.n.a.N.VX#Xa.f.m.m.@XM.M.j.j.m.c.h.j.v.j.h.j.n.n.@X@Xm.j.c.#XVXN.N.N.}.}.}.}.@Xn.N.'.{.,X6X6X{.F.J.W.Q.gXjXjXjX1X,X5X:X[.;X6X;X-XF.e 6 # . : L.Y.J.J.&X=X:X!.=X=X>X>X>X>X5X>X>X:X:X:X&XH.[.{.4X%X$X|.b.n.N.n.@X%X@XOX|..X|.@X%XCXCXv.8 8 8 8 ; 8 z A y @ # $ 7 8 g r K.e 9 g s 2 2 s >.n n v c >.c ( P.I.` ` Y I I I I I I I ;.;.>.@.>.>.i w g k.v.v.v.VXMXl.j.k.c.p.g.c.M.BXB.@ * = 1 L @.#.wXqXI.K.' ' J J R t.t.6.%.%.7.7.<.2.R e.e.aXt.xXlXt.t.r.r.e.e.[ _ Y.AXAXAXoXCX4XOX3XG.J.W.D.OX%X@Xn.OXOXG.+XCX+XVXE.d.c.oXE.MXrXrX",
"x.x.v.E.k.h.MXoX+XGX+Xd.R.OXG.{.4XOXW.+XW.A.{.3X%XCXCXCXAXAXT.[ ] e.e.t.t.t.y.y.y.xXsXsX4.5.=.-.%.6.-.%.+.lXsX2.W _ T.[ _ K { qX;.@.O.5 4 , - - eXBXv.c.a.p.d.E.h.v.MXMXeXv.x.k.g q h x c :.@.;.C ~ ;.@.;.~ I ;.;.,.7X,.` I.P.P.k z A >.5 2 t q r 9 a.e d.K.d # . $ 7 t l.L.P.t + 7 ; f d j.VXVX%X$X.X|.].n.#X#X@X@X|.b.b.|.$X3X3X.X[.[.:X-X-X-X>X>X:X>X>X=X=X5X1X~.=X=X=XS.Z.D.).Y.: . # 6 f.b. X5X-X[.*X5X6XDXDXDX`.).^.W.J.H.F.3X5X>X*X{.].].@X@X|. X}.}.n.N.N.N.VX#XM.M.M.g.n.p.p.c.j.j.j.g.c.c.c.c.M.#X#Xn.n.p.n.VXN.p.m.n.N.CXM.j.j.j.j.c.c.j.h.d.p.a.a.m.M.m.N.VXVX#XN.N.N.b.}. X}.}.|.@X|.{.*X=X5X5XF.F.J.J.).`.`.`.DX2X5X>X&XH.;X>X'.F.F.6 # # 9 Q.(.D.Z.S.~.=X!.~.1X1X=X>X>X>X-X>X:X&X-X-X:X[. X;X4X$X$X}.b.n.|.|.#X#XXXf.|.|..X4XCXCXMXd 8 f - + + h.v.x.g t $ $ . 8 l.K.d.e d.e 0 4 4 2 y 9XA z v P.P.P.) ,.` ,.;.;.I #.~ >.#.a C ;.;.s s j t w k.k.k.MXMXeXx.k.K.c.w a.g.E.BXMX8 - , 1 5 O.L #.qX5.E W T.T._ ^ 1.wXlX-.%.-.<.-.%.-.1.5.t.fXxXlXy.lXy.fXt.r.&.| | gXAXHXHX#X%X%X$XOXg.4X).K.W.<XOX].OXW.A.+XGXoXNXE.a.k.E.x.l.V.V.",
"j.k.x.k.d w oXoXoXGXOXs.W.+XG.G.W.W.E.+X<XJ.J.4X#XCXCXCXAXAX).e.e.5.e.fXxXxXcXy.cXmXmXsX5.1.=.=.%.-.<.-.%.6.wXwX3.{ T.^ J q [ qXY L #.=.5 , * - t eXNXR.w d.d.c.R.h.j.eXBXV.v.K.g r g t t ~ >.a a @.@.>.C c @.:.~ >.) P.P.I.l.j z c :.a 2 t u 9 e e d.d.k.l.t . # 0 w k.h.k.E.0 . + 8 8 8 w MXVXGXGX3X}.f.b.m.#X@X@X|.b.b.b.$X$X$X3X;X-X:X&X-X:X>X:X[.:X>X&X*X1X2X2X_.(.!.!.S.S.J.6XY.# # # s.b.'. X;X*X[.*X6X6X2XjXjXjX`.D.S.D.F.*X6X5X*X;X].n.|.N.}. X X}.|.#X#XN.VXCXM.c.M.M.N.g.a.n.a.p.j.M.c.j.v.XX#X#X#Xb.n.N.p.g.n.N.N.g.N.#X#XoXM.M.j.M.c.a.a.g.d.g.m.N.M.M.N.VXVXm.m.%X}..X X.X|.|.|.].}.;X-X>X6X*XF.J.H.J.`.jXjX`.6X6X5X&X!.&X-X[.'.F.e # # # (.2XD.Z.!.!.!.~._.2X`.1X~.:X>X>X&X:X:X:X:X-X-X-X3X.X$X$X|.}.f.}.|.@X@XN.XXb.b.|.4XJXGXNXj.8 d 8 $ . 6 j.v.a.d.g w 0 $ # f E.d.s.s.s.0 t y 3 2 a A n v k U.P.) c I c ~ @.I c @.;.@.a a ;.~ s q u r g K.v.V.BXVXj.h.R.R.d.d.s.c.NXeXy % 3 * 5 @.O.L *.5.3.q K T T.T.] t.t.6.%.6.-.%.-.$.$.6.2.e.xXnXcXxXcXxXxXt.r.e.R | aXtXAXCXVX%X%X3X{.G.<X(.Y.W.G.G.XXOXA.s.+XCXoX+XoXw k.x.j.x.V.V.",
"E.x.U.x.d w oXVXVXCXA.w R.OXOXA.e W.Q.Q.<XJ.G.$X%X%X#XCXCXQ.T.T.e.e.t.nXxXy.xXcXcXcXzXwX6.5.&.X.+.@.+.%.6.-.0.lX5./ { J J J { 5.] L R 2.L , , ; % f yXeXE.R.g.d.XXc.k.MXMXMXE.E.K.k.g u t a s #.c @.@.@.c a :.:.) c ) ) ( ( g h x >.3 @ u p 9 a.s.a.g.h.l.d # $ r w w d.g.d.d.g 6 7 7 8 d 8 h.C.GXGX$X|.b.b.@X@X@X@X@Xb.b.}..X|.$X3X>X;X-X-X-X>X-X-X&X:X:X&X&X!.2XFXDX_.^.=X!.H.S.*X).9 . # 9 '.}.}.;X:X:X[.>X6X2X`.jXDXDX(.S.!.J.J.5X5X;X;X{.].N.@X|..X-X X|.@X#XN.@XCX#XM.M.C.N.@Xm.m.XXc.a.j.M.M.c.#XCXm.g.N.m.#Xn.p.g.#Xm.N.m.n.%XCXv.v.M.j.a.g.XXoXc.XX#XoXv.M.C.VXN.#X@X@X}. X X.X|.|.].f.[.;X:X>X5XS.Z.J.S.(.2XjXjX`.<X5X:X&X:X>X-X X}.].6 # # 6 ,XH.S.!.~._.(.`.DXFX`.D.&X&X-X:X X-X:X:X:X-X-X;X6X3X$X|.|.}.b.}.@X@X@XXX|.].'.|.%XGXCXv.d 8 y - $ 0 9 g.a.g.g.s.9 d.f $ 7 d k.g.f.s.d.6 t c 2 @ a :.v d b ( P.>.>.c I I I L a @.:.a a I p u q u l L.E.eXVXMXC.v.c.R.G.g.G.R.tXyXi * ; - 2 @.#.#.L R 1.{ ^ K u ' / 4.wXuX9.-.-.+. .+.+.$.6.6.6.lXcXcXcXu.xXcXxXr.r.e.| T.tXAXoXCX%X$X3XF.OXAXY./.Y.d.A.OXW.Y.e R.NX+X+Xv.d j.v.v.8XV.B.",
"x.l.P.v.h.w M.oX#X+Xd.d.Q.<XW.d.H Q.Q.Q.Q.W.J.OX%X#XoX+XAXAXgXjXe.t.dXy.xXxXy.i.u.zXlXlXlX6.+.+. .N  .%.0.0.6.6.6./ Y K J U ] U L Y #.*.*.L 5 < * * v BXHXd.g.g.R.G.c.R.eXeXMXeXE.L.Q j u > 2 p a I a a a I c ~ >.) ) ) b h x ) :.a 2 > u w 9 d.d.d.k.w 7 $ # d w e s.n.f.n.G.e d.w 7 8 f h.7 j.CXGX$X'.}.|.@X#X@X@X$X$Xb.}..X.X3X3X3X.X[.-X:X:X-X[.-X:X:X&X!.!.`.jXjX`.`.1X1X=X&XF.OXA.# # 6 f. X-X&X-X>X:X&X5X2X2XjXjXDX`.!.S.~.Z.H.5X>X-X[.F.n.|.|. X}. X|.n.N.N.N.@X#XMXM.M.M.M.XX@X@XXXc.a.j.c.M.#X#Xm.n.#XN.N.N.n.m.N.N.#X@Xm.@X@XoXv.j.a.n.@X#X#XM.M.v.c.M.M.M.#XC.#Xm.'. X X}.|.|.@X].G.[.:X:X>XH.Z.*X~.!.1XFXjXjXDX6X5X&X:X5X>X X;X Xa.7 . 6 A.,XH.&X=X=X2X2XDXDXDX(.!.&X&X:X:X&X[.&X:X:X-X X X3X3X$X.X X}.'.$X@X#XXX$X|.|.b.].$XGXVXh.7 f y - $ h.d.f.'.a.F.G.a.w j.d $ # 6 k.c.d.g.r 9 t i 2 2 A 7Xb h l ~ ) ;.>.>.~ ~ s i s @.a a 4 4 > q E U.E.tXMXC.V.v.c.g.G.f.g.c.+XSXz @ * 3 5 @.$.#.*.Y L L Y U J U K / 6.-.9.0.%.%.+.D  .+.$.-.0.zXzXzXr.u.y.cXxXu.t.r.sXfXgXAXCXoX%X#X$X$XG.OX).Y.Y.Y.d.d.W.<XQ.r d.+XoXMXv.w h.v.x.x.B.j.",
"x.d f k d w E.VXoXoXd.k.<XAXK.e H Y._ K.Q.).W.W.OX#X#XoXNXJXDXkXsXt.r.r.y.xXy.u.%.lXzXlX6.-.+.%.N +.+...-.u.6.$.wX1.U K J L ] L L *.Y #.1.=.$.C 3 % % A BXE.A.g.f.s.g.k.v.M.eXeXeXeXP.l u u > > 4 u u u u j ! ! j ! b x s z c A C 2 t h 9 e d.d.d.k.t $ # 6 d.k.9 p.G.@Xf.].{.s.d.w $ t 8 8 8 d VXGX@X}.b.}.@X@X@X#X$X@Xb.}..X.X3X3X;X-X[.-X-X-X X[.-X:X:X&X&X~.1X_.jX`.2X6X5X1X5XS.*X,X9 . # e }.-X-X&X>X:X&X>X5XDXFXFXjX`.^.!.2X~.Z.[.;X:X-XH.F.].|.|.}..X.X.Xm.N.N.N.N.N.M.M.M.j.oXoXXXm.@Xn.a.j.MX#Xm.m.#X#X#XN.N.N.#Xm.#X@X@X@Xn.m.#Xg.p.XXN.XXm.M.M.M.M.oXVXN.M.M.N.m.|..X.X X.Xb.|.|.G.F.-X:X&X[.Z.(.2X~.!._.kXFXFXJX6X5X&X>X>X-X-X;X}.9 # . 0 ).*X&X=X1X2X6XDX`.`.`.1X~.H.:X:X:X-X&X-X-X X-X X-X$X$X;X;X Xb.}.$X#X@X@X@X{.'.f.XX%XCXMX8 8 8 2 $ # r G.F..Xs.F.].f.9 a.E.7 $ # # w a.d.Z.d.9 q h 2 u >.` h j p p s x x s i 4 u i i i t > 4 i j ( U.8XeXMXv.v.c.d.d.G.G.g.E.NXc @ & , C 6.:.2.#.*.O.D D Y U 4 U U 1.sX2.%.lX-.+. . . .+.-.%.6.0.zXi.+.t.cXlXlXt.t.e.fXjXFXJX4XoXoXXX$XJ.OX).Q.Y.Y.Y.K.r K.AX<XH d.oXoXNXE.w d h.d f f B.",
"v f d k k d VXCXMXoXk.d.AXAXH Y./.T.T.T.Y.).<XJ.XX+X+X+XW.<XAXhXsXt.r.u.y.y.y.u.-.u.u.$.$...%.-. .-.+.%.8.lX0.=.sX*.P S 4 L R L D #.D O.$.#.=.6.< < 3 O z BXR.XXOXf.s.g.XXv.v.V.P.B.P.b b j q u 4 u u u u q q u p j j s x n 8X:.t 2 u r w d.G.a.6 # # $ # w E.XXa.9 G.@Xf.'.'.{.G.r # $ + f f h.MXCX%X|.|.}.|.|.@X@X@X|.}.b. X-X.X.X.X;X[.[. X[.[.-X-X-X>X:X&X*X1X~.^.`.2X2X6X5X5X[.*X*XA.# # 9 F.;X;X-X:X:X-X:X5X6XDXFXkX_.!.=X2X6XJ.Z.&X-X:X;X'.].n.|.|.}.|.@X@XN.m.N.VX#X#X#XoXM.c.c.XX@X@X@Xn.a.m.M.m.#X#X@X@X#XN.N.N.#X%Xm.#X#Xm.XXn.g.].n.@X@XN.c.m.M.oXM.#XN.VXM.m.N.@X.X}.}.|.|.@X|.'.>X:X&XH.Z.G.JX6X(.^._.kXFXFXJX5X;X&X-X>X-X;X.Xs.9 # # H <X[.:X5X5X2X6X6X<X(.(.,X*X&X:X:X-X-X[.[.'.[. X'.3X;X.X X;X X'.|.|.#X#X$X|.}.b.@X$XCXCXoXd A 8 + @ 9 d.{.'.'.G.G.].f.a.a.OXE.# # $ . # w d.d.A.9 0 i t 4 ,.) ! j j j j j i q u u u 4 t u i i b ) z.V.x.V.v.v.R.c.a.g.OXXXoXAXv o < < , %.2.@.$.O.D O.O.$.#.#.D 4 J =.sXwX$.lX0.%.=.+. .=.-...%.+.0.u.u.y.u.cXlXu.t.e.aXjXgX+XR.%X%X+X+XA.<X<XK.T.T.Q.W.K.Y.AXgXk.k.oXMXVXMXd d x.f f v A ",
"v x.f v d w v.VXVXv.h.k.Q.Q.K.K.Y.T.T.T.T.Q.(.A.R.%X%X%X+X(.2XjXkXt.t.y.cXy.8.t.u.u.$.+.$.-.8.-.+.-.-. .+.O.=.t.5.L S L L *.$.@.=.$.$.@.O.=.*.-.+.m ; ; % B.VX+XOXJ.g.G.XXc.v.E.V.B.z.v b ( ( ( i u q u u q q u l p b ) z >.:.y t h w w R.g.r 6 . . @ $ 9 R.%X'.a.f.a.n.n.]. X'.].A.6 $ - y f 7 h.CXHX$X|.b.|.|.$X@X%X$X|.}. X X;X X;X3X'.'.F.[.[. X-X-X;X:X*X&X>X~.1X(.=X5X6X2X5X&X&X5XZ.# . 6 s.F.-X-X X>X-X-X5X6XKXFXkXDX`._.~.1X(.S.S.&X:X>X>X.X|.$X$X|.|.}..X%XN.C.M.C.C.N.XXoXMXM.oX#X$Xn.|.@Xg.a.m.N.N.M.N.N.#X#X#X#Xm.N.N.M.m.n.a.|.@X}.@X$X#Xm.oXoXM.#XVXN.m.m.M.N.@X|.|.}.@X3X{.[.5X>X=X*XZ.Z.,X2X!.!._.jXFXkXJXJX5X-X-X-X X X X'.e 9 . . H 5XJ.*X1X5X2X1X=X~.=X5X>X=X&X:X&X:X-X[.'.'.F.F.[.3X.X.X;X X}. X$X$X#X#X@X|.}.}.|.%XHXC.p.8 f - 2 # 0 G.F.[.{.F.G.g.f.f.f.'.OXY.: @ - # . 6 d.R.d.9 g t 0 i ~ ,.( ! b j i h t u u i t h x ) ) v n B.x.V.rXv.c.g.W.G.R.OXCXBXV.- * < < -.=.=.$.@.@.+.$.$.+.+.@.#.R J S *.sX=.O.+. . .-.-.+.6.-.%.@.+.u.y.6.-.u.zXu.t.fXFXDX2X,X%X4X%XGXR.A.W.Q.T.U.Y.Y.T.K.K.Q.tXd.h.v.CXHXh.6 d f z.f x.f ",
"f f h.f w 7 v.VXVXv.d.g U.Q.Y.K.W T.K.K.T.W.W.+XOX%XGXGX4XAXJXKXnXfX6.u.u.8.8.8.lXt.$. .+.-.0.%.$.+.+.%.+. . .2.S L Y 1.1.=.-.+.+.N <.6.$.O.D D 6. .= m y y eXHXR.G.R.OXR.d.c.MXeXeXz.f f b L.L.( ) b h h j b b b b n ) 7XA y t u w 9 c.c.w 7 # @ @ # 0 W.+X].b.f.f.f.g.G.].|.'.F.A.0 > - - f d t MXHX$X.X.X.X|.@X@X@X$X.X.X}. X;X.X X3X XF.F.'.[.-X;X;X[.H.H.:X:X&X~.=X~.=X6X2X2X~.H.=XW.: . : d.f.F.'.'.-X X X>X6XKXKXPXDX`.!.S.S.!.S.Z.H.:X:X-X;X{.|.@X|.b.}.}.|.N.M.M.M.N.#X%X#X#XoXm.#X%X@X|.|.g.f.m.N.M.N.M.#X#X#X#X#XM.N.m.N.N.p.b.|..X|.%XXXXXoX#X#X#XVXN.N.M.m.m.N.|.n.N.@X@X].{.;X-X-X*XH.Z.D.J.G S.~._.dXFXKXJX6X>X-X-X-X}.}.b.G.r # . : (.,X!.*X5X2X5X=X~.=X*X&X-X&XH.[.[.-X-X-X[.'.f.F..X;X.X.X X X}. X$X@X@X@X|..X.X.X@XCXVXC.8 f f - $ > d.G.'. X'.f.R.g.g.f.f.}.{.W.Q > + . 7 7 # w R.d.9 d.g t i c ) c b b ( b n c n ) L.( ) b n v d z.x.eXMXR.d.R.R.G.R.R.MXBXy ; 3 <  .8.&.L @.2.6.6.+.N %.%.6.$.*.*.R U Y &.5 +.$.+.=.+.X.-.6.$.N +.0.u.u.8.u.y.u.6.sXkXKXJX4XGXGX%X%XQ.).Q.Q.Q.Q K.U.K.K.K.T.U.r k.oXVXVXh.7 d d f f A f ",
"B.f x.f d 6 j.C.VXv.k.d K.T.K.K.K.K.K.T.Y.E.<XGX+XOX+XGXGX<XGXGXjXsXt.u.i.i.u.i.u.6.O. .+.%.+.+.+.-.+.+.=.+.L D Y 5.e.*.*.=.+.@.%.B %.0.%.$.=.O.6.-. .N 3 % f yXtXc.W.R.f.s.k.R.eXV.z.x.b z.b h k n P.>.8X7XB.c z.A n n ) t $ h w 9 a.R.a.# # + . : u Y.OX{.'.}.b.f.g.R.XXF.'.}.f.F.r $ + - y d 7 h.CX%X3X3X.X.X@X@X$X$X.X X}. X;X.X;X.X.Xf.f.F.[.-X-X[.H.F.H.:X:X:X&X:X:X&X1X2X2X1X*X{.,X9 . # w d.G.'.[.}.[.[.;X5X<X2XDX`.(.~.!.G S.^.D.Z.[. X-X-X XF.|.$X@XN.n.n.N.M.M.C.C.M.%X@X#X#XN.N.#X$X$X{.'.f.f.N.N.M.M.N.#Xm.#XN.M.M.j.M.g.b.n.}.$X@X#Xm.oX#X#XVXVXN.M.N.N.m.n.n.N.N.N.$X{.f.[.:X&X-XH.Z.D.J.!.S.!.!.} _.FX2X*X>X:X X&X[.}. Xf.R.g # : 9 S.~.1X2X6X2X=X!.=X:X:X-X-X-X[.Z.H.&X&X X{.f.s.G.3X.X.X;X-X X X.X$X%X@X@X.X X3X5X%XGXVXd 7 8 8 - # 6 d.Z.'.'.f.'.OXd.a.b.'.}.F.{.).U.0 $ + $ # # w XXf.6 d.d 2 z A c ) n b v A 8X8Xz.b b z b A P.z.eXE.E.E.c.s.s.A.R.K.eXBXA - ; m ..-.&.&.=.=.2.$.$.%.@.%.@.-.+.*.e.e.R 4 L 6.-.$.-.+.+.+.=.+.$.D  .-.u.u.u.y.y.8.6.sXhXAX<X%X4X%X%X+XQ.AXgXW.U.T.K.K.K.W U.Q.l d c.oXMXoXw 6 h.v x.f B.y ",
"B.f f B.d 7 p.v.MXE.E.g l Q.U.A.R.K.U.Q.U.W.GXJX4XG.XXCXCX%X+XAXhXaX2.-.6.8.0.0.lX=.D +.-.+. . .+.+.+. .-.u.=.D 6.t.5.#.$.$.+.N %.$.<.%.-.6.t.&.D -.u.3 ; 3 - i 8XE.Q.d.d.g.d.c.k.k.l.P.8Xz.z.z.v v b A A n v v n z h h d 0 0 w w a.c.h.6 # - o @ W Q.W.{.'.[.|.}.f.a.a.XXg.f..X'.f.d.9 $ - 8 7 7 w VXGX4X3X X{..X$X$X$X.X}. X X X.X.X|.OXG.F.F.[.[.[.F.'.H.&X:X:X&X=X&X&X:X=X1X2XJX5XH.J.H # # $ d.].}.}. X[. X&X;X;X1X2X2X~.!.~.!.S.^.(.D.Z.*X;X-X&XH.F.].@XN.n.n.n.n.j.M.M.m.m.#X#X#X#XM.m.XX$X|.}.].f.a.m.M.M.C.N.m.#XoXM.M.j.n.b.|.|.|.$X$Xm.M.M.XX#XN.M.M.M.M.m.g.m.n.n.n.#XXXZ.H.&X&X:X-XZ.S.(.^.G D.!.!.(.2X2X(.&X:X-X[. X X X}.].d.# . : G S.!.2X6X6X6X=X=X&X&X:X:X:X:X&XH.H.[.[.[.'.f.G.R.{.]..X}. X X}..X@X$X%X|..X X X4XGXHXv.7 8 8 - - 7 w g.f.'.}.'.XXXXa.p.b.|.}. X[.F.W.NXk + + * + 0 v.g.p.w w 0 t t t t x n z.v A n n v z b n n z.z.l.d k.d.d.A.A.r R.Q.P.i - 3 < < -.t. .D t.u.%.+.%.%.%.%.N $.+.O.5.e.t.*.=.u.+... . . . . .O.=.&.L =.6.t.-.-.-.-.2.sXSXAXQ.+X4X+XoXR.+XJXAXQ.K.Q.Q.K.W.r Q.Q.k.k.v.MXMXj.p.8 j.z.j.f B.f ",
"B.f k z.k.w a.j.NXoXE.k.K.Q.K.A.k.W.R.Q.Q.Q.<XAX%XR.R.oXCXCXNXNXFXsX6.$.%.%.$.6.6.@.O.+.+.O.O.+. .@. .+.%.0.u.6.6.2.#.#.t.6.+.+. .%.<.%.6.uX-.*.*.r.t.1 1 5 * O - 8XhXd.d.R.d.k.c.r d g h h f f A n A >.A n z z f t t 0 w w 9 9 9 d.E.d # $ + # j Q.J.s.[. X[. Xb.f.a.s.R.XXXX].f.f.g.r 6 # - 8 8 7 VXGXGX3X[..X$X.X|.$X.X.X X}.}.'.|.].XXOXOXf.F.[.H.'.H.[.&X:X:X:X&X:X&X:X=X1X2X6X5X*XH.W.0 # # 0 R.f.'..X X X[.:X>X;X1X1X1X=X=X~.!.^.(.Y.Z.J.{. X&X&XF.F.].@Xm.n.@Xg.m.XXM.oXN.M.#XVXM.M.oXm.$X$X}..X|.a.a.m.VXVXN.#X#XVXVXM.p.f.n.|.|.$X$Xm.M.C.M.VX%XN.v.MX#XM.c.m.@XXXm.XX].F.F.!.&XH.&XF.Z.(.,XJ.(.1X1X=X1X1X~.*X>X:X X X-X-X'.b.G.6 . @ q OX!.*X1X6X6X1X=X=X&X&X:X:X:X:X-XH.[.F.H.F.F.F.OXXX].{..X'.}.'.}..X$X$X@X|..X X}.3XJXGXv.7 8 8 - $ 6 A.G.f.f.|.XXOXg.a.p.f.}.}. X-XF.s.R.Q.h @ % O $ h.XXg.a.6 h.0 0 > t t 0 w b n A n n z z h d t t 0 r d.K.d.W.K.w tXBXt   * 1 1 5 6.t.=.1.O.6.-.-.=.$.@.C %.6.t.O.L *.6.0.iXuX-.+.%.+...+.O.O.=.&.L O.=.-.+.+.+.-.6.yXSXtXNXCXGXE.c.k.NXAXAXQ.T.R.Y.R.K.H K.L.l v.E.MXMXh.w h.x.l.d f B.v ",
"V.v k l.l.h.a.k.MXoXE.k.g r K.A.W.Q.Y.K.E.Q.<XQ.Q.W.R.v.eXNXNXNXyXyX4.<.-.%.@.$.Y #.2.+.D  .O.O.+.+.%.%.%.u.zXzX6.@.5 *.sX6.+.+.+.-.-.$.-.6.O.2.sXsXt.e.L 1 < & @ 2 8XU.K.K.c.d.k.g g w d t t - t t t y y i t # 0 l r 6 w w 9 w h.c.h.# @ o   j Q.J.f.f.'. X}.[.b.f.a.s.+XOXXXn.b.f.F.A.0 $ 8 f 8 d MXGX4X;X X[..X$X|.$X.X}.'.b.'.'.$XXXn.XXOXG.Z.F.F.F.H.&X:X:X:X&X!.=X>X=X=X1X6X1X5X1X*X<XW : # 6 g.F.b. X X-X X X-X-X&X~.1X5X1X2X2XW.D.W.W.Z.Z.G.[.*X*XH.Z.G.XXm.XX].m.n.m.oXm.M.M.M.M.oX#Xm.N.$X$X|.}.'.b.a.M.VXN.VXN.#XN.c.b.n.|.|.$X$Xm.m.VXC.N.N.m.M.M.m.c.m.N.XXm.g.].$Xs.J.*X*XH.H.Z.G (.,XG D.2X1X6X1X1X~.*X;X-X X X-X X Xb.'.s.9 : > Y.1X&X=X5X6X6X6X=X*X1X>X&X:X:X:X-X&XH.F.F.F.F.].OXXXXX@X$Xb.b.b. X X.X@X$X.X.X X X3X4XHXv.8 f f 7 # d.g.f.'.f.XXXX+XR.f.f.b.|. X X X[.f.F.W.T.t o O   7 h.k.h.a.w w w d j g 0 > u t t t t t - $ i h k g g K.d.d.K.k.U.eXt O , < 1  .&.t.sXsXsXO.=.-.=.=.=.-.$.+.6.lX$.D O.$.lXbXu.9.%.%.+. .+.O.L L #.2.=.O. .@.+.-.6.9XwXyXtXNXNXE.K.E.E.Q.W.+XQ.Y.K.W.W.Y.K.W r g E.E.NXoXh.w d k.x.k v 8Xf ",
"V.z.b k k d.w a.oXNXE.U.K.r K.W.+XK.K.U.K.T.gXQ.T.+XtXE.E.eXMXeXeX9X4.6.6.$.L 5 U #.2.+.+.&.$.&.+.%.%.0.0.zXzX0.0.$.$.2.6.$.L -.6.-.+.O.$.$.$.sXlXfXe.dX&.S m m = O t 7XK.k.k.d.h.r r g E ( z t t t 2 > 0 u 0 > q K.r 9 e w a.c.j.h.$ +   . 0 Q.<X{. X[.}.-X;X X}.'.s.G.R.R.XX].|.|.f.G.a.7 8 y 8 8 MXCX4X;X X X.X3X$X.X.X}.}.b.f.b.|.XXc.R.XXW.G.F.F.H.:X:X:X:X:X:X=X5X5X1X6X5X6X5X5X*X*X2X).0 # # e {.b.}. X X[.[.[.;X3X*X(.2X6X6XDXW.D.(.(.D.e Z.F.*X>X!.S.A.G.R.g.m.XXm.n.g.m.oXC.M.C.#XN.#Xm.N.@X$X'..X|.a.g.m.m.M.c.m.g.f.|..X}..X@X@XM.M.C.N.C.N.m.M.XXc.XXm.m.n.g.g.G.Z.S.H.=X*XF.e e Y.W.<XJ.,XJXJX6X5X=X*X;X;X'.'. X}..X}.'.].e # # : AX3X&X=X5X6X6X6X5X1X5X6X:X&X:X:X:X:X&XF.F.F.{.OXg.g.XXXXb.b.f.b.}.'..X.X$X.X.X-X X$XGXCXj.$ f 8 8 7 c.G.}.$XXXR.R.W.n.f.b.b..X-X;X[.[.[..X3X<XY.# o . # # d k.d.w 9 9 w r H e q q 0 > 0 t t z z n ( l 0 0 r r k.h.U.eXt O & 1 < 1 R e.sXxXvXsX-.%.+. . .=.t.6.@.@.6.5.=.=.<.9.iXiXzXw.-.%.+.=.O.=.O.#.=.@.D 5 L #.4.4.9X9XrXeXeXP.l.U.BXBXQ.Q.<XT.K.W.A.W.Q.Y.K.K.E.E.E.NXoXw r g d l.x.v.B.$ ",
"eXeXE.k.k.k.k.k.oXNXE.+XAXQ.W.Q.W.D.H Y.Q.K.T.T.T.tXtXeXx.f 8XeX8X8X9X<.6.2.#.^ ^ 4 D D O.+.O.=.$.N 0.cXzXw.9.uXuX9.6.6.6.L D 6.t.+.+.&.=.2.-.wXlXkXe.| e.&.1 1 = , * t 8Xk.h.x.K.r : q g j z f t 2 0 0 t q q 9 r 0 w w w a.d.k.d # + *   @ Q.<X4X3X;X'.[.>X>X X}.b.a.s.s.R.oXXX$X$X].G.d.8 f f 8 8 v.HXGX.X{.[.}..X.X|.}.}.}.}.b.f.g.XXXXR.G.@XOXG.F.[.:X:X:X:X:X&X=X6X6X6X5X6X6X6X1X*X=X1XJXH : . 6 ].b.}. X X[.[.'.[.;X{.J.(.2X6X6X,X(.W.D.Y.Y.s.Z.{.[.&XS.S.A.].XXm.n.@X$X@Xm.M.C.C.M.M.VXN.C.m.@X%X|.].}.].m.a.g.oXm.a.g.].].|.@X@XN.m.MXM.C.C.N.N.CXXXG.$X%X$X@XXXg.OXJ.S.H.&X&XG.s.A.W.D.G (.,XW.2XJX(.!.[.*X X'.[. X}.[. Xf.s.G.# # # W DX5X>X=X5XJXJX1X1X6X6X6X=X:X:X:X:X:X-X[.F.].+XR.G.oXG.n.f.f.b.}. X}..X|..X.X}. X[.$XJXHXh.7 f f t t d.G.|.$X$XR.k.d.a.p.f.b.}. X5X-X'. X3X,X,X<XY.. o - + $ k L.d.w d.9 9 r # 9 q q u 0 > t t t x h q 0 q K.l k.x.v y - 3 < 1 D O.r.e.5.kXkXwX6.-.&.&.+.$.6.6.=.D =.t.6.0.w.iXq.q.zXmX0.+.+.+.&.L L L 4 4 s $.2.4.wX9X9XV.9X8XB.f z.yXhXI.K.Q.T.Y.<XK.A.K.W.<XQ.AXAX+XE.NXE.d.k.R.k.l.eXrXV.# ",
"eXtXE.E.E.Q.K.d.E.NXQ.SXKXNXY.W.).W.A.K.Q.T.W 0XT.0X0XtX8Xb b P.eX8X9X:.<.9XwX4.;.u 4 4 4 J L O.%.8.zXmXzX%.Z w.uX9.9.uX$.O.*.r.-.-.O.6.sX=.2.sXsXaXdX/.| e.-. .< < = , @ v x.x.U.r q q q t 8 8 8 0 7 0 0 q 0 9 r k.w h.x.v.h.t # @ - o . Q <XOX.X;X X X-X-X-X X}.b.a.s.a.d.R.OXn.].{.G.r 0 t f f 8 tXUXGXF.'..X}.|.$X.X}. X'. X Xs.9 c.g.].XXXXOXOX.X X:X:X:X:X:X>X1X5X6X6X5X1X6X6X5X1X1X2X6X2X: # # A.J.F.'.'.}.-X X'.F. X;X'.H.3X,XZ.~.(.D.G W.W.Z.s.{.*X!.~.*X{.G.@X@X@X%X4X@Xg.m.VXVXM.#XC.#XC.N.m.N.#X].|.XXa.g.c.c.g.G.XX@X$X@XM.c.M.VXM.C.N.C.CXoXg.@X4X%X@X#X@XOXG.~.*X&X:X{.s.A.W.+XA.S.~.J.Z.{.1XF.{.3X[.F.'. X-X'.'.F.F.R.k.# . : DX6X6X~.=X`.2X6X5X1X6X5X5X5X>X>X:X:X:X:X-X.X%XXXXXXX].f.f.a.f.|.}.}.}..X3X|.}.|.[.s.G.KXUXE.7 h.f t 2 r G..XF.g.oXk.d.f.a.a.b.}.}.-X X-X X X{.[.,X<X0 # + * o # i l.k.k.w d.r 9 w q 0 9 9 # > t $ 0 0 u g q K.U.l.z.% - < , < S &.r.e./.aX/.jXhX<.+.u.u.O.O.-.6.6.O.=.6.-.0.iXw.7.Z i.bXzX0.=.O.O.S 4 4 u K ,.6.wXwXB.B.8X9XV.A v 8X7X7X7X7XT.I.K.H ).A.A.).+XY.Y.AXKXAXNX+XE.d.R.eXQ.E.eXtXeX7 ",
"eXNXE.E.E.Q.R.k.E.GXNXAXAXQ.H K.<X<XY.r K.' _ T.` ` >.7X7X8Xn v n z.B.A :.<.9XwX0X0X_ p 4 S L +.6.zXzXzX0.%.%.%.iXiX9.uX<.=.2.6.-.D #.xXlXL 4.xXaXaXY./.aX| e.&. .< m N * @ f z.P.l r q 0 > 8 - $ 7 8 8 d g g 9 9 k j.j.h.d $ # . # @ - l ).4X{.'..X}.[. X X-X Xb.f.f.s.a.a.c.OXf.].$XW.6 0 d f 8 d BXUX4Xf.b.}.b.|.|..X.X}.'. X Xf.a.p.g.].@XXXOX4X3X-X-X:X>X>X:X>X>X1X1X6X6X6X6X5X2X2X_.1X6X1Xe # # 9 K.J.{.[. X'.[. XH.'.3X.X'.{.~.*X~.J.J.Z.D.J.G.F.[.-X&XH.&XH.G.@X%X@X@X$X$X$Xm.m.#XM.N.#XC.VXM.M.N.N.$X%X].].g.f.g.g.XX$X%X#XoXm.M.M.C.N.M.N.N.oXg.XX%X|.@X@X#X#X].H.H.&XH.[.H.F.G.W.S.Z.D.D.1X,XJ.{.'. X.X'.[.[.{.[.[.-X;XJ.K.0 # . G 5X5X5X=X1X1X1X6X6X6X1X1X5X>X:X>X>X>X:X-X-X4X4X$XOXOXg.a.a.a.'..Xb.b.|.$X.X|.'.'.}.'.G.HXUXE.7 8 f y $ w ,X.X'.G.+Xd.e s.f.b.b.}. X X X X[.{.F.f.{.2XW.k.t # o o . 7 d x.j.g r w g l u 0 0 0 $ $ 8 2 t i u u E b f - - 1 < < D X.e.e.aX[ ' Y.).nXsXO.t.lX6.+.$.=.6.=.=.6.6.0.iX9.Z 8.<.zXbXlX0.=.D 4 u W _ 8XqXqX9X8XA A z.v f v B.8X7X,.,.,.I._ ( Y.K.r T.AXgXK.r Q.AXAXQ.AXE.r E.U.U.U.U.tXU.8 ",
"eXeXU.K.K.E.E.r E.HXAXAXAXQ.H Y.AXAXQ.H W _ _ _ ! ` ) ~ ) 7X7X) k v v n v A >.>.wXyXqX3./ L 5 =.6.lXzXu.0.8.7.%.iXuX6.0.$.-.6.=.=.O.=.lX6.1.sXsX[ [ W ' gX| | e.-.D 1 1 N * - y n s p 4 u 4 y t - t i t t h g 0 > 6 d 8 - + # # . # h tXNXOX.XF.F.'.[.[. X X X Xb.'.'.s.e a.a.XX{.].3X+X# $ 8 8 8 7 MXUX4X'..X}.}.}.|.|..X|.b.f.'.'.d.9 a.f.@X$X%XKX3X;X-X:X:X>X:X:X>X5X1X1X6X5X5X1X1X2X1X~.1X,XA.# : : 9 H ,X;X X-X*X*XF.F.'. X.XH.S.(.1X~.J.(.D.J.{.;X XF.[.*X*XH.H.G.oX#Xm.XXXX%XXXg.N.VXC.N.M.C.C.M.M.oXoXCX%X%X@Xn.$X%X%XCXMXM.c.M.VXC.N.N.N.#XN.n.N.%X@XN.N.XXXXR.F.H.!.&X[.F.[.3X;XF.H.~.~.(.2X,XJ.{. X}.'.'.F.*X>X*X*X;XH.e > @ > 9 Z.=XH.*X2X2X_.1X5X5X2X=X1X5X>X:X-X>X>X>X-X-X4XKX4X$X].g.a.s.f.'.].f.b.}.}.|.|.}.'..X.XG.GXUXj.6 8 8 y o r ,X{.'.OXc.e 9 f.'.}.b.'. X}. X X[.'.F.F.{.{.{.GXNX0 . o + X + 8 7 # $ > 0 i y 0 0 t - 8 y - t t i s s 4 - & 3 5 D D 5.dX[ T aX/.' ' ' e.e.&.t.lX5.O.=.-.6.-.$.<.0.0.0.9.7.9.8.uXbXlX0.6.L Y 3.qXyXyX8X7XA A n v v f l.8X7X>.) ! ! ( _ _ _ I.W W Q.AXgXY.K.Q.DX+XAXKXE.r Q.E.L.Q E.BXtXd ",
"BXBXP.l.L.Q.Q.g Q.AXtXQ.FXgX_ gXgXAXT.W Q K._ ^ ! ^ ( ) ) 7X8XeXz.z.z.n c n n n 8XU.I.qXqX5.*.t.6.lXlX0.8.9.0.9.9.0.6.<.$.2.6.6.=.+.6.t.5.6.sX3.| ' ' ' [ ' ' aXdXt.&.1 +.< * ; 3 y 4 : @ # $ 7 # # $ - $ $ 8 # : . # . + X . # # 0 eXHXXXF.-XF.F.[.'.[. X[.}.}.'.'. XF.s.9 e XXOXf.{.OX7 $ f y 8 8 x.KX%X]..X X}.}.}.b.b.|.b.f.b.'.g.d.f.f.].$X4XJX4X.X-X:X>X>X:X:X>X1X!.=X6X5X;X1X~._.2X!.[.3XZ.# : : # : r H.[.5X5X*X'.F.b.'.].{.Z.D._.2X1X,X{.F. X3X Xf.H.*X-X*XH.s.G.XXm.m.m.#X$Xn.n.N.C.C.N.M.C.VXv.M.M.oX#XCX%X|.@XCXCXM.#XM.M.MXN.M.N.C.VXN.N.n.#X#XN.N.@Xm.g.Z.S.!.=X*XH.Z.[.3X'.H.&X=X1X2X).D.F.'.[.}.'.f.H.3X5X=X{.F.e : $ , : # Z.*XH.*X6X_.~.1X~.>X5X=X~.=X>X:X-X>X>X:X-X;X4XJX%X].n.s.s.n.G.f.g.f.].|.b.b.}.}.}.[.].XXGXBX8 8 f B.- + r OXF.].OXd.9 s.f.b.'.'.'.}.}. X X'.F.'.F. X[.F.%XHXR.0 # . X +     . + $ $ & $ $ $ + # $ + # # # 2 s i @ * 1  . .&.dXaXjX/.T W T ' } | R 5.5.5.r.2.$.2.6.6.6.$.<.6.0.<.6.w.9.0.0.lXlX6.6.t.qXqX7X8XP.8Xn c n c n n z.8XqX8XI.) ` ! ! ! _ _ ( j Q I.gXgXT.Q.AXAXT.gXSXK.k Q.Q.K.l I.tXtXh ",
"BXyXP.l K.T.W.r W.SXQ.E.gXgXT.T.qXtXT.Q E ! E ! ! x ) ` 7X7X7X8X8Xz.z.b v b b l b v P.) ,.qXsXt.e.t.6.0.-.8.w.0.-.<.<.-.2.6.6.-.-.=.=.t.sX4.wX5.aX/.' G W W ^.`._.jXkXr.D O.D , > u 4 # # # # 6 # . # # + . X . . . + . $   . # H A.+X%X].'.;X-XF.H.'. X'.'.'.'.'.'.'.F.f.s.9 G.OXf.].<X6 # y B.f 8 j.VX4X].}.}.}.}.b.b.b.@Xn.n.f.f.].G.f.f.b.|.%X4X4X3X X>X>X:X:X&X:X=X!.1X6X5X*X*X!.=X5X!.H.;XA.r # # : : # G S.*X5X5X[.F.[.'.b.F.F.!.~.2X6X*X{.[.[. X[.'.F.[.{.*XH.Z.s.d.v.M.N.N.#X$Xn.n.N.#XN.N.N.N.#XM.M.M.oXVXVX#XoXoXoXM.N.C.C.#XC.M.C.#XN.n.N.@X@XN.#XN.c.d.H S.G H.*XH.F.{..X'.F.[.;X!.2X2X(.(.G.f.F.'.}.'.-X5X=XJ.S.H : : : : : G &X:XH.*X6X(.J.J.!.5X6X=X~.*X-X:X-X:X:X:X X3X4X4X.X$Xb.f.b.].].g.g.G.].XXf.b.'.'.}.}.].@XGXv.6 d x.V 2 # r OX'.].XXa.9 f.F.'.'.'. X'.'.}.}.[.F.F.[..X X}.$X%XG.R.k.# X + .   . +   X X + $ # # 0 d 0 6 9 0 q u t 2 D =.O.| fXjX`.(.).Y.F J [ ^.aXe.e.5.5.t.6.2.2.2.-.6.<.<.-.<.-.6.uX9.0.<.0.uX6.wXsXqX7Xn z.k h z ( x c P.P.P.I.8XI.I.7X0X( j E ! E x s ` ` qXqXQ T.hXgXY.AXAXL.K.Q.T.l g U.tXtX( ",
"tX8XP.g Q U.Q.Q K.SXgXT.tXhX3.p 7XqX0X( x E x E E p ( 7XI.( I.8X8X8X) ( x ( b k d k.P.P.( 0XaXqX3.e.sX6.-.0.u.-.-.+.+.2.-.6.%.+.6.t.6.6.6.1.3.hX/.| | W T Y.^.(.~.2X`.e.R r.e.U W _ _ _ Y.g g.+X+XL.r q t + + +   . + . - $ $ r W.{.G.|..X X&X;XF.F.'. X'.f.b.[.[.'.'.[.f.f.9 s.XXOX$X$X9 # - V V 8 7 j.CX$X|.}.'.b.'.'.n.m.m.m.m.g.XX@Xb.f.}.|.{.<XGX4X X-X:X-X-X&X&X!.~.1X6X>X&XH.~.1X5X~.[.[.OX,XG : @ : @ q A.Z.H.5X5X[.'.'.}.'.H.*X=X~.1X=X*X[.F.F.{..XJ.F.*X{.Z.D.D.r R.c.M.N.@X@XN.n.g.m.VXN.#XVX#X#XMXC.C.v.v.MXM.c.M.oXC.#XVXC.#XVXC.N.n.n.N.|.@X@Xc.c.k.A.D.D.Z.H.H.'.F.3X[.F.'.[.&X=X(.~.,X,X{.F.'.'.'.-X>X=XH.D.H q @ : # : D.=X&X[.H.,X6X1X=X!.H.1X5X1X*X&X-X-X-X-X-X-X;X4XJX%XOX Xf.f.].XXXXg.g.G.g.n.].].b.b.}. X@X%XMXd 8 h.f 8 $ $ k.OX]..XJ.s.s.f.'.'.'.'. X'.'.'. X XF.f.'.;X.X.X3X{.f.OXE.g t t #   + # # + $ t i Q E.CXGXW.A.W.<XT.K.' { aXfXe.dXDX1X=X!.(.Y.T.R [ [ e.fXe.*.#.2.t.t.sX$.#.6.-.%.+.$.2.$.6.0.0.6.wX4.qXsXaXI.7XU.U.b d g l ( b ( I.I.eX7XL.j ( ( ! p p E p s ~ ,.3.qX` ! qXhXqXI.SXgXQ L.tXU.( ( U.tXqXj ",
"9XqXI.Q K.Q.gXW Q gXtXqX0XhXqX>.c 7X0X` ) ~ ~ x j x ! ( b j b I.0X7X,.` ( I.P.l k.k.E.E.tXE.tXhXqX] 2.6.6.0.6...%. .@.+.$.<.+.@.0.lXt.*.#.$.1.aXdX/./.T ' /.~.H.S.1X`.`.} | jX`.<X(.).JXDXJ.XX4XJXGX+XU.v.n 8 f h.7 6 # v eXK.R.{.F.f..X3X.X X;X[.f.'.].'.'.F.'.[. X[.}.'.f.p.s.OX].].$Xw 6 @ y f f 8 p.oX4X$X}.'.b.b.}.n.n.n.N.@XXX].].'.b.b.}.;X4XGX4X;X X-X-X&X:X&XH.=X5X>X1X=X!.*X5X5X=XH.H.[.OX~.H : : @ : q A.F.&X>X;XH.H.;X X[.&X*XH.H.*X&XH.F.F.'.H.G.G.G.G.Z.H.J.W.+XR.c.N.@X|.$X@Xn.n.N.N.#X#XVXN.N.M.v.C.V.j.x.MXoXv.#XVXC.C.C.C.N.n.N.$X@X|.#XXXd.k.).(.^.J.G.G.F.].F.F.F.F.F.F.F.,XH.H.[.H.[.{.,X[.{.;X;X[.G.A.: # @ > J ' !.&XH.F.H.*X6X6X=X~.=X=X=X1X&XH.&X-X-X&X&X-X;X4X4X3X.X'.f.f.|.].n.XXXXR.n.n.].}.'.f.b.|.%X#Xj.7 t f f ; . 7 R.OXF.$XOX9 s.f.].}.}.[.[.F.'.'.}.[.F.f.[..X;X;X$X'.F.{.G.c.NXeXg 6 7 d j.x.E.E.W.OX4XJX4X.XH.3X6X5X,X<X`.`.kX} _.1X~.H.H.!.^.[ T ] aXaXaX;.#.#.*.2.sXt.O.O.2.@.+.@.@.$.$.=.t.6.6.5.3.qXgXtXU.T.U.E.K.k.l U.I.( ( I.qXU.U.( l ( ! E j ! _ ~ ~ ~ >.~ :.s ,.wXyX7XT.tXT.r K.gXtX( ( I.T.eXj ",
"tX7XL.j I.gXgXH r Q.Q.qX8XwX9X:.@.c c ~ >.` ` ) ! j j ( ) ( l E I.T.0XI.I.0XI.L.K.U.U.R.Q.+XNXBXhX3.Y 1.2.=.-. . .+.+.+.@.-.+.$.6.6.&.L O.#.Y ] | | e.T ' /.(.=X[.H.1X2X_._.`.(.1X,X,X6X6X{.}..X$X4X,XW.NXHXVXMXC.c.j.j.MXHXoXG.OX X.X.X3X;X'.'.[.f.f.n.'.'.'.F.[. X X}.}.s.9 s.3X].].4Xd.# @ ; 8 V 8 8 j.NX#X].f.f.].b.f.n.N.N.m.m.g.'.|.'.b.}..X3XGX4X;X X-X-X-X:X&XZ.&X=X=X=X1X=X~.1X1X1X&XH.[.&X*X^.} J , @ # K.J.[.'.*X;X[.[.[.'.F.F.H.!.H.S.H.H.H.Z.s.Z.A.s.Z.Z.J.~.,X4XQ.c.M.N.N.@X@X|.@Xn.N.C.N.N.VXVXVXC.C.v.V.MXM.M.#XVXM.M.N.N.N.n.n.|.|.|.@X].g.K.Y.2X2XJ.J.G.g.f.{.F.s.Z.H.H.H.H.H.*X[.'.F.F.H.F.J.5X[.'.].W.H : @ 4 K ).!.&X&X[.&X*X*X1X=XS.1X5X=X=X>XH.F.&X:X:X-X-X[.3X4XJX$X;X'.f.b.|.n.g.XX@X@Xn.f.f.f.'.g.g.XXCXoXd 8 t y ; $ $ 7 c.$X'.{.].e a.b..X X X-X'.'.'.'.b.f.f.[.[.F.'.3X3X[.{..X].XXCXNXE.E.c.E.BXVXGXGXJ.J.4X3X|.{.[.3X6X3X,X*X~._.`.} 2X6X[.H.*X2X)./.[ | /.{ P ;.=.$.O.#.=.=.L O.$.+.%.@.@.+.O.2.6.2.#.U qXhXAXNXAX+XW.K.K.K.K.T.T.0XqXeXU.L.l l I.( ( x ! ! ) ~ ,./ I a c >.wX,.9XtXqX0XI.r W AXgX( i L.8XqXj ",
"qX8Xb u ( gXgXW E K.I.tXqX7X:.9X4.:.a s >.>.c ! x x ( ( I.L.( g j W ` 0X7X0XI.I.L.K.K.Q.+XGXGXNXtXqX1.Y R 2.6.&.+.+.-.+.+.$.@. .@.O.O.O.&.6.6.Y T } e.e.dXjX1X*X[.'.,X2X(.^._.~.=X;X5X3X3X$X X.X$X3X$X{.OXCXCXCX%XR.g.oXR.MXCXg.'..X.X'..X{.f.'.'.f.g.].f..X'.'. X.X X X Xf.9 s.OXg.|.$XG.6 # o ; 8 f 8 8 j.C.#XG.f.n.f.f.n.n.N.#XXXn.f.}.}.}. X;X3XJX6X.X[.-X:X:X-X[.[.&X=X=X=X=X!.S.=X1X=X=X>X:X&X[.*X2XY.J , : g G.{.[.H.;X1XJ.F.F.F.F.[.[.&X!.H.&XH.Z.s.Z.G.s.G.{.[.{.1XJX<XK.d.g.@X@Xn.|.|.n.N.m.M.M.j.M.C.M.VXC.M.C.VXVXVXM.M.M.M.N.b.b..X|.|.@X@X].g.G.^.2X2X{.{.XXXX].F.F.S.Z.H.!.&X&X&X X X[.}.[.F.{.3X*XF..XOXc.r : : j Y.1X&X&X[.:X>X>X=X5X=XS.!.=X=X&X!.&X&XH.&X:X:X-XF.$XGXJX;X X[.b..X|.n.@X@X@Xb.b.b.b.b.s.a.M.VXC.7 8 8 y 2 + o $ w OX@Xf.'.].e a.b.}.}.;X;X'.'..X}.f.f.f.F.F.f.'.[.F.F..Xb.a.@XGXc.R.R.g.#XGX%X%X$X.X{.3X$X|. X;X;X3X3X>X=X=X_.~.Y.,X3X{.[.{.2X`.dXdX_.| T ] aXsX-.+.O.O.L O. .@.+.%.$.+.=.=.2.&.R Y 1.yXgXNXAX+X+XW.W.K.Y.U.T.0XI.I.L.l l l l U.L.( ( x x ) ! ~ s s c :.9X9X,.8XqX7X( _ K.Y.gXgX) t x yXqXx ",
"yX7Xz h I.tXT.L.Q Q Q Q 7X` >.4.7X9X:.A z s s z x ) ( ( ( ( K.Q K.g j P.7XqXI._ ' K.W.W.R.oX%XMXtXhXqX/ L R O.=.=.-.<.+.@.@. .@.+.@.&.O.O.6.fXe.R | e.dXjXjX`.=X.X X3X,XD.^.1X=X:X;X>X3X3X;X.X.X.X$X$X$XOXOX$X$X%X@Xf.g.a.c.%Xc.s.G.].s.F.'.f.f.'.f.s.f.f.].}.'. X;X}.}.}.f.6 s.XX'.b.$XG.r #   % ; f 8 8 8 j.VXoXg.f.n.b.b.f.b.m.@X@X|..X|.b.}. X3XJXGX X[.-X:X:X X&X:X&XH.&X=X!.!.G !.=X5X>X=X:X&X[.&X*XJ.' q # > e OX3X'.F.3X3X.X[.'.{.[.H.&X:X=X&X&XH.J.S.s.G.J.].{.{.{.*X(.W.G.g.@X@X$X|.N.n.b.n.m.M.M.v.C.VXVXVXVXN.VXN.M.M.c.m.N.n.b.}.b.@X|.@X$XG.G.,X1X~.H.{.].].XXZ.Z.Z.!.!.!.=X&X:X-X[.'. X-X[.;X3X*XF.H.4XR.w 0 # G Y.W.*X&XH.&X:X=X>X5X=X!.S.S.!.:X&X!.&X:X&X-X:X:X-X[.3X6X6X3X;X[.'. X|.@X#XN.n.b.b.}.b.].g.oXC.j.d 8 8 8 2 *   . 6 k.XX].].{.].s.a.f.}.}. X;X'.'.{.'.f.f.s.F.'.f.F.f.s.s.F.f.n.#Xc.w c.g.n.#XXX@X@X|.3X;X$X.X.X.X.X;X5X5X;X&X:X=X_.D.W.3X.X{.,X<X`.jXjX} } } dXxX6.=.+.+.&.+.O. .%.+.+.%.$.2.=.D S S Y qXyXtXMX+XXXR.R.W.Y.K._ T.qXI._ g g Q U.L.( ( ) b x x i z s ~ >.0X7X:.~ ) ) I.) l Q Q K.Q.P.) p x 0XqX) ",
"9X8Xc c >.7XI.U.U.K.g j b ! i s s >.9X7Xc ~ ~ s j x l l l Q U.Q.K.g g l I.7X3.{ Y.Y.' A.A.R.Q.MXtXyXqX0X/ J S Y @.$.<.%.%.+.+.-. .O.&.O.O.r.xXxXr.| } dXjX`.(.~.{.|..XJ.D.~.1X=X-X;X;X3X;X;X X X}..X3X3X{.g.@X@X@X$X].g.s.p.c.VXa.g.].f.s.'.'.f.F.f.s.s.s.]..X'.}.-X X}.b.f.p.s.$X].'.|.G.r > . + - - - 8 8 8 h.v.oXXX$X|.].}.b.n.@X%X|.|..X'.'.;X5X6X4X3X X-X-X:X X-X-X!.H.!.&X!.S.S.!.=X1X=X=X&X:X[.[.[.*X~.H : : 9 e G.{.A.F.{.,X[.[.}.F.'.[.&X:X!.!.!.!.Z.Z.Z.G.]..X{.'.*X1X1XJ.G.].|.@X@X|.].n.n.m.N.m.c.M.M.C.MXC.VXM.C.M.m.N.m.n.b.N.|.N.N.@X@X|.'.{.5X1X*X{.{.|.].].Z.S.G !.!.!.=X=X X}.'.F.'.'. X X[.F.'.J.G.0 7 0 G G ~.3XH.'.[.:X:X=X>X=X=X!.!.S.!.:X&XH.[.-X-X-X-X-X-X;X3X4X4X3X X'.'..X].$X$XN.b.b.|..X.X$XoXeXf 8 8 8 8 % - * @ # 0 d.XX].'..X].s.s.f.}.}. X XF.[.}.f.f.g.s.F.'.F.'.f.f.].f.f.XXCXa.a.a.g.#X#X|.%X|.].$X3X.X{. X X[.;X3X6X*XH.=X=X1XG J.$X{.'.J.(.`.jX`.} } | r.nXt.-. . . .+.-.-.%.%.-.$.$.#.L J S *.4.0XrXNXMXoXXXk.r K.T.T.T.I.{ _ j g g U.E.U.L.h j j x z i >.8X>.>.,.x i i i j x u j L.I.L.U.) ~ ! ` 7X~ s ",
"A :.>.A A n 8X0XI.I.Q g j j j p i i i x >.8X8X) x h h l l K.K.E.R.K.g k x ! ,.T.T.T.H H K.R.R.E.tXeX7X0XqX/ 5 Y @.@.$.$.<.-.$.6.-.+. .&.-.xXmXfX| | } _.jX`.1XS.[.[..XOX(.!._._.&X;X5X5X;X-X X X.X.X3X3X|.F.$X$X].XX$Xg.g.g.g.CXc.a.G.n.f.'.}.'.'.Z.e Z.s.b.|.'.}..X}.|.b.f.e s.3X@Xb.'.F.e 9 > - ; - % ; 8 8 $ d v.oX%X@X|..Xb.n.@X@X@X|. X}.'..X;X$X3X5X5X-X-X-X-X[.H.&X!.&X&X&XS.!.=X!.&X=X:X:X&X X[.[.;X5XD.S.9 6 9 a.G.OXJ.F.F.[.'.F.'.'.F.[.&X=X=X_.D.D.D.H.Z.F.'.'.{.3X*X1X~.H.G.].n.N.@X@X|.n.b.n.N.N.N.v.M.V.M.M.M.C.N.N.N.n.b.n.|.@XN.n.@Xg.f.J.&XH.&X5X X'.}.F.F.J.D.S.F !._.~.[.[.}.b.'.'.'.[.f.[.{.G.G.0 6 0 9 G !.=X>XF.'.*X:X:X=X1X&X!.5X!.S.!.&X&X&X&X&X[.&X-X-X;X3X4X$X3X;X XF.'.|.|.n.@XN.b.b.}..X$XCXoXh.8 8 8 8 ; - 2 2 : 0 9 d.f.].f.$X].s.a.f.].|. X X'.'.].f.G.g.s.F.'.'.$Xb.f.@Xf.a.oXoXc.c.a.XX#X@X@X%X|.|.$X4X3X.X.X&X{.;X6X6X;X*X=X=X!.~.3X.X{.'.J.(.DX`._.} } | r.xXxXlX-.-.-.%.-.9.-.%.%.@.@.L Y Y 3.4.:.8XeXrXE.v.v.R.R.Y._ T.qX` j q u Q L.K.L.L.k.b L.h z >.8X8X8Xc t t i i j ! g u g j I.tX0X8X>.>.>.>.x i u ",
"y c :.>.:.9X8X8XqXI.l g u p j x j t 0 0 i >.7Xn 7XI.P.L.K.k.K.K.k.g K.g u g ( T.T.W Y.Q.K.k.R.x.E.rX8XP.0XqX4.;.#.a @.@.%.6.-.6.0.6.$.-.t.xXxXt.e.} ' D._.2X1X!.H.[..X3X6X~.!.=X*X;X6X5X3X&X X-X;X;X.X4X3X].$X%X@X@X$Xf.G.XXd.oXc.w R.].f.|..X'.[.Z.s.d.g.g.|.'.}.-X X.Xb.a.9 e OX].b.].s.e 9 g u 2 - $ ; - 8 8 8 h.MXGX$X|.'.}.b.b.@X@XN..X.Xf. X>X3X.X4X5X;X-X X-X[.H.&X&X&X&X!.S.=X5X~.&X>X5X=X&X&X&X[.[.:X*XZ.e 9 9 e d.d.J.{.F.[.}. X X'.'.'.H.H.~._.D.D.S.*XH.F.F.f.'.;X;XH.J.H.A.G.G.XX].XX|.].b.b.N.N.N.M.M.x.j.v.v.M.C.N.N.n.n.N.N.#XXXm.R.G.G.J.H.H.*X;X}.F.'.[.H.~.S.G !.(.D.S.F.'.'.}..X.X X'.[..X'.s.d.0 q 9 9 Z.&X&XH.H.-X&X&X5X5X5X&X*X5X=XS.S.&X&X&X&X&X[.[. X X3X6X4X$X.X;X}.b..X.X@X@X@Xn.b.}.}.3X%XHXv.8 8 3 ; ; - $ 2 t u q 9 e f.G.f.OX].e 9 f.|.}.-X X'. X'.F.].d.s.F.}.|.@Xb.n.XXd.a.oXd.g.XXg.@X#X@X%X@X}..X3X3X3X3X;X X{..X4X6X=X!.=X!.!.1X5X;X[.[.J.1XJX_.S.} } r.r.r.t.6.-.-.-.0.9.-.<.%.@.a I ;.4.4.0X,.>.9XtXV.c.v.h.K.Q.tX[ _ I.` u q j Q g g K.K.K.h U.8X7X8X8X) v i t 0 t g j j j i j b I.8X9X8X>.,.,.c i s P ",
"4 i s A 4.7X8X>.8X) b l j j j p j w t t t i z 8X8X8XeXL.g l k.r r W L.Q j j ! _ _ [ gXtXk.r k.E.x.eXeX7X7X9X0XqX4.:.$.+.$.2.%.-.-.6.6.-.-.-.&.e.dX`.^.S.~.5X6X~.H.[.}.6X6XD.!._.~.*X3X5X;X{.-X-X;X;X3X3X$X|.].$X#X@X@X].|.G.p.c.R.a.g.$Xf.|..X}.[.F.s.F.G.F. X X X X}..Xf.s.p.s.OXg.f.].Z.9 9 r ! 2 : - 8 ; ; 8 8 8 MXHXGX3X}.}.b.b.#X%X@X.X.Xf.'..X.X.X4X6X3X[.[.[.&X&X&X&X:X&XH.S.*X*X*X=X>X>X=X&X*X>X[.F.H.[.Z.e a.9 6 e s.s.{.{.[.[. X X X[.'.F.s.G !.^.!.!.H.&XH.'.[.'.[.;X&XH.S.J.W.G.G.n.XXm.@X|.N.n.N.m.N.v.c.v.v.m.m.m.n.n.N.#X@Xn.m.c.k.G.(.(.S.S.;X5X.X}. X-X&X&X!.~._._.S.G F.F.f.'..X X{.F.[.{.H.s.d.9 6 0 e Z.H.F.H.Z.H.>X=XH.>X5X=X=X&X&X&XS.S.&X&X&X&X&X&X[.[.[.3X4X4X$X X X'.f.$X$X%X%X%Xn.}.}.;X3XGXHXV.8 y t ; 8 - 2 2 u K G e e f.F.s.].G.s.9 p.|.|. X X X X].G.R.s.s.[.'..X.Xb.XX@Xg.c.E.d.s.n.$X$X#X%X$X$X.X.X3X$X;X{.[.;X.X.X3X3X&X!.=X!.S.1X5X{. X&X~.5X5X~.!.D._.dXr.R &.&.&.+.8.-.%.%.-.$.2.6.4.wXwX0X8X9X8X8X8Xx.x.E.k.K.U.qXqXI.( ( u E T.Q g r g k.l g L.tXqXP.P.z t i d t g i j j Q x l c n n 8X>.,.) c s u p p ",
"J u 4 s I A c c v h b ) n n c x g k g d d t i ) P.7XI.U.K.k.d.K.r u W I.Q E W Q I.gXT.L.U.v.k.E.x.x.P.eX9X7X>.wXwXwXsXwX<.-.+...8.-.%.-.6.t.&.R dX`.(.S.&X>X6X1X[.;X X.X6X~.!.=X=X!.{..X,X3X;X;X[..X3X3X.X.X3X$X%X@X$X%X.Xs.6 c.oXg.g.$X].|.|.{.F.F.f.s.].F. X&X-X X}..Xf.s.e e OXG.f.n.s.e e q u p p u t ; ; f y 8 U.HXJX4X3X}.}.|.%XCX$X$X|.F.'.'. X3X3X6X.X[.[.H.[.-X[.&X&X!.H.S.&XH.&X;X=X&X*XH.1X5X&XF.Z.F.J.G.d.w 9 9 d.D.G {.[.F.}. X X'.'.}.'.H.H.~.1X1X&X*XH.&X;X-X X;X;X{.S.(.2XW.R.A.g.c.M.#X@XN.m.g.n.n.#X%X#Xm.n.m.N.N.N.N.XXg.A.A.W.Y.`.(.D.J..X.X{. X>X&X&X&XS.=X1X~.!.&X&X[.'. X'.[.'.F.[.J.A.W.K.9 6 9 S.J.F.f.F.H.~.=X1X~.H.*X&X:X&XH.H.H.H.H.&X&X&X[.[. X X.X$X%X$X3X}.}.b.}..X|.#X%X@X'.'.}.3X4XHXVXf 8 f y 8 ; z i j _ q 9 e e F.F.s.G.G.e s.9 b.|. X-X X.X{.].A.s.Z.'.{..X{.].@XXXd.R.c.a.a.b.$X$X@XOX$X;X5X$X3X%X.X[.-X:X;X3X3X{.H.!.1X1X~.5X$X.X-X&X=X5X1X*X&X=X`.jX| 5.lXlX0.-.6.0.-.@.2.6.sXsXwXwX9X8X8XyXeXx.l.l.E.v.eXP.E ^ aXT.! Q W _ T.K.H g k.d.r U.U.L.l.I.7Xt w h l l b ( ) P.) c n ) c c c c c a u s p p u ",
"J J 4 4 t s x c ) n A >.z c A >.U.L.l.g g i h P.8Xn P.U.E.K.r K.q q W T.W j E _ I.qXP.Q eXtXU.l.U.x.x.eXrX8X9X7X,.0XlXwX6.6.-.-.0.lX6.0.mXcXt.sXdX`.=X=X=X=X5X5X&X;X X|.3X,X_.1X~.S.S.{..X3X3X;X-XF..X4X3X4X6X$X%X].$X$X'.f.w j.E.g.g.%X]..X$X].{.F.s.s.G.].;X-X-X-X'.|.f.f.e e G.a.s.f.Z.e e 9 9 J p x s 8 ; V A 8 d GXGX$X.X X}.}.@X%X%X@X|.}.'.'.'.$X$X$X{.OX*X-X[.[.[.&XH.H.&XH.H.[.&X;X&X&XH.!.1X=X!.*XF.s.s.$X].e 9 6 9 K.Y.A.{.'.F.[.}.[. X.X;X;X=X!.=X=XH.:X&XH.&X X}.'..X$XJ.D.(.).W.G.c.c.m.m.M.N.m.m.n.m.$X%X%XN.n.m.m.m.j.c.c.G.J.A.D._.(.Y.D.$X.X'.'.[.[.[.&X:X&X=X=XS.>X5X-X-X;X[.;X XF.H.(.~.W.g # # 9 D.H.F.s.F.H.~.~.=X~.H.H.*X:X&X=X[.H.&X&XH.H.&X[.H.[.;X;X;X.X|.OX.X}.'.'.|.$X$X%X%X@X}. X X.X%XHXV.8 f f y - y A i q q 9 G e Z.s.s.s.s.d.e f.s.|..X X X-X;X{.F.s.9 F.H.}..X{.{.+XXXk.c.v.c.a.b.|.%XOXG..X3X4X3X3X.X[.-X:X-X;X X{.F.G !.1X1X1X3X}..X:X&X>X5X5X&X&X>X2X).dXxXlXxXu.0.u.lXsX6.6.wXwXwX,.:.,.9X8XV.z.P.l.l.l l.tXtX` P { T.W E E Q W g r r K.K.K.NXU.U.eXb k x d r g z.P.) n x b c >.P.n c c z u i u u s E p ",
"P u P K u u p u i P.7X>.A A A f A z.U.l.g k.g d l tXeXE.NX+XQ.K.r q q W _ _ ^ E ~ ) I.0X7XtXI.j g l.eXP.x.x.A 8X,.>.qXvXwX6.6.0.lXu.u.u.-.t.fXkX`.`.=X=X&X=X6X6X*X;X-X[.[.5X1X1X(.D.S.S.[. X X-X>X-X.X.X3X$X3X.Xg.|.%X$X{.f.d.v.v.E.a.XX%X].|.'.{.H.f.s.s.{.-X-X X X X.Xf.s.s.e d.G.e s.F.e Z.e 9 q q E ! y y y V 8 j.VXHX$X X-X Xb.|.#X#X%X$X.X}.f.'.'.|.$X$X$X6X;X[.F.H.&XH.H.&X[.-X-X-X:X;X-X&XS.S.=X*XH.*XH.Z.s.'..XG.6 # : Y.AX(.,XJ.F.;X X;X-X-X;X5X&XH.!.=X&X:X&X[.[. X'.'.4XOXA.W.,X(.D.W.R.W.c.c.c.c.#XXX|.@X$X@Xn.XX@XM.j.c.d.G.,X~.D.D.(.W.K.W.$X'.'.[.[.[. X&X:X=X&X!.&X:X-X X-X-X;X;XJ.J.,X).AXAX6 6 9 J.,XH.Z.Z.&XJ.S.!.*XF.Z.[.;X-X&X-X:X-X&X&XH.H.H.[.F.[.;X3X$X3X$Xb.}.}.f.}.$X$X$X%X@X}.}. X;X;X4XHXeX8 8 8 y 2 c x u q F 9 e e Z.Z.e s.W.e e f.p.'..X.X-X X X{.'.e s.F.[. X}.}.{.#Xa.k.c.d.c.g.n.$X4XOXG.f..X$X$X3X X-X>X-X-X-X[.H.S.D.(.=X=X5X{.F. X*X=X5X5X5X&X=X5X2X`.jXfXe.r.-.8.u.6.sXqXqXhXsX4.:.>.8XP.l.l.z.P.b i x 7X0X,.0X3.W K W L.T._ _ r r H K.E.AXE.U.BXU.l d g r k.U.l.n 8XA c >.) b b j t t j u ! E p ! s u ",
"s s p p ! j u q u t t z A v c 8X7XP.U.k.k.r 9 g k.L.NXQ.Q.NXE.K.W q E Q _ [ ` E p E 0X0X` ` 7X,.( k l.l.l.b n 7X>.8X8XqXwXwX6.sX6.6.6.=.5.e.dXjX`.1X=X>X&X>XJX2X6X>X-X[.F.{.1X1X_._.!.!.[.-X-X-X-X;X.X;X3X3X;Xf.b.$X%X@X'.].a.h.h.v.a.n.$X]..X'.*X[.Z.e f.F.[.[. X X X'.f.f.a.9 K.R.9 e G.s.Z.H 9 q q E ! y 2 y 8 8 8 C.GX3X;X-X X}.|.#X%X#X|..X}.b.'.'.}.$X$X@X$X.X{.[.F.F.H.H.&X&X:X:X:X&X&X-X[.S.S.*XS.Z.J.*XH.H.[.;X,XZ.: . _ DX).<X,XF.*X;X X-X[.F. X*X&X:X>X&X&X&X[.[.[.F.F.].OXJ.W.W.J.Z.J.OXW.G.A.R.c.m.XX@X}.b.|.|.XXXXc.oXQ.R.D.J.J.F.F.W.OXG.].].'.'.[.[.F.[.&X&X:X&X:X>X[.F.[.[. X[.H.D.).(.Y.gXj : 6 R.,X[.H.[.!.!.!.S.!.S.H.J.[.*X[.-X-X-X&X-X&X[.H.s.F.[..X$X.X|.$X$X|.b.b.b.|.}.|.@X#X|.b.|. X X;X$XHXv.8 B.V f 2 t x K 9 9 G A.Z.A.d.e d.R.r a.a.f.|.}.}. X X'.F.F.s.s.].{. X.X$X$X%Xd.k.R.r d.f.].@X$XOX].f..X4X3X;X;X-X:X-X-X:X:X!._.`.`.=X=X-XF.F.&X=X6X6X6X5X*X>X=X1X2XDX/.aXaX=.<.wXsXwXsXwX,./ 0X,.>.7Xn k l.P.b x 7XqX3./ ` 3.{ E u E _ _ _ _ Q g q g Q.SXQ.tXE.r k.k.w d.c.E.z.B.A A c i i u 0 g j u u j E i u ! x i ",
";.>.P p j u g j j g t 0 t i z n b P.E.E.E.k.r K.g g U.eXtXNXQ.g q E E ^ ! ` ` ^ p K I.I.` / ;.,.wX` P.P.b n x x ,.qX7X) 7X0X4.6.hXsX6.5.sXdX} _.`.=X>X5X-X>XJX6X2X2X:X&XH.[.=X=X_.1X_.!.:X>X;X-X-X>X;X.X4X6X3Xf.f.%XOX$X].f.a.a.h.oXc.XX4X$X|..X{.[.F.f.F.'.'. X}.'.|.|.b.a.9 e W K.e s.A.A.Z.G G q G E ! y - y B.f 8 M.HX4X.X.X X Xb.N.#X@Xn.|.}.'.F.b.'.]..X$X|.$X$X{.F.Z.F.[.[.[.&X-X-X[.H.[.H.{.S.H.J.H.S.1X~.*XH.H.{.,XH : > E W Y.2X,XH.[. X[.[.[.[.:X>X&X&X:X&XH.H.H.&XH.F.F.G.].XXW.W.W.W.J.J.R.+X<XR.d.m.@X@X]..X$Xn.G.G.<X<XW.A.A.{.W.XXOXXXXXG.f.F.[.&XH.H.&X&X&X:X&X:X:X X[.[.[.;X-XH.,X2XT.T S # : Y.,X{.Z.H.~.~.=XS.S.H.S.H.H.F.[.[. X-X-X-X[.H.F.[.F.F.OX3X$X$X$X|.}.b.b.b.}.|.}.n.@X@Xb.}.}. X.X{.%XVXh.8 f f 8 2 i W W 9 G G Z.A.d.d.r K.K.q r a.a.n..X'.}. X}.'.[.'.f.].[. X.X|.$X%Xc.k.c.a.a.g.n.XX$X%XG.f.$X6X6X$X X:X:X:X>X>X*X*X1XDX`.!.:X:X&X&X:X=X5XJX6X6X*X5X>X~.1X1XD./.hX5.6.lXsXwX7XqX7X) ,.qX,.x ( P.L.) ` 7X0X,.I ~ / / P E E _ T.^ ^ ^ E p r g tXNXtXtXk.w K.K.r k.oXeXeXz.z c i t r r 0 q u g u p ~ ) >.8X) t ",
"i >.) 7XI.( g u 0 g u u q r q j k U.U.MXNXR.d.K.K.9 w Q.tXtXeXl q p E K ~ ` 0X` E W J E ^ / I I / ` 7X) ) ` >.~ 7X7XqXeX8XqX0X4.gXqX5.5.gX_.D.~.2X~.;X5X-X;X6X6X2X1X=X>X&X&X>X=X1X`._.!.&X>X5X>X:X-X X.X4X6X6X].f.%X$X%X$XG.g.d.h.E.g.XX$X].].$X.X[.].f.'.[.}. X}.}..X|.f.p.9 d.9 W K.r r H s.A.e e 9 W Q t 8 y V f f j.CXCX|.}.}.}.b.b.@X#XN.|.n.'.b.'.'.f.F.@X$X$XOX{.{.[.H.F.H.[.-X-X-X[.[.'.f.[.H.S.!.S.S.,X~.~.H.S.H.,XW.q # u ` T.).6XH.&X>X-X[.-X&X:X:X&X&X:X:X&XS.H.&XH.F.F.f.G.G.G.G.G.OXG.A.J.2X<XJ.d.G.].@X$X$X].g.].S.,X6X<X,XJ.W.XXg.d.g.].G.Z.S.S.H.&X!.&X!.!.&X&X-X-X-X;X&X-X>X&X{.,XW.[ U : : q <X{.Z.H.*X~.1X~.!.S.H.~.H.F.Z.H.H.[.&X-X-X[.F.F.{.OXOXOXXX$X$X].n.f.b.].}.n.|.@X$X@XN.b.b.'.}..X@XGXV.f V.V V 8 > i q G 9 G Z.A.Z.r d.k.L.r q r 9 9 f.$X}.'.}. X}.'.F.f.{.$X$X$XG.|.%XXXc.v.k.g.].@X$XOX4X].b.$XJX4X3X X-X:X-X5X>X:X=X1XDX`.=X=X:X:X:X:X=X6X6X5X;X X>X;X!.=X1X~.1XjXaX4.4.wX0X9X8XyXyX,.0XqX! ~ 7X) ) 7X,.~ P P / U K p K _ { T.{ { K u p ! L.U.E.tXQ.w w K.d.d.E.VXtXU.P.( b t t 0 g r q g j ^ 8X8X>.c i - + ",
"# $ t z.7XtX8X( l g 0 g g r q K.tXU.L.oXNXR.K.r Q r r E.NX8X8XP._ K p s ,.qXqX{ ^ W J J K P L L L I / >.~ ;.~ / qX>.tXhXtXtXtX0X0X` 0XqXjX2X~.=X5X*X&X>X-X&X&X1X2X1X!.=X&X&X:X=X1XDX2X_.=X=X5X5X:X:X X.X3X4X4X'.f.$X$XXX$X].G.g.c.v.R.@X$X].|.$X$X;X'.f.f.}. X.X}.b.}.n.g.p.9 r 0 W U.r r A.A.D.G e e q g u t y y B.B.8 v.GX$X$X}.b.b.}.N.@X@X@X@X].].|.].F.b.b.%XXX].XXOX%X].F.F.[.[.-X&X[.'.F.f.F.H.*XH.S.S.=X=X_.=X!.F.~.,XG : > P ^ Y.W.{.{.;X;X:X&X-X&X[. X:X&XH.S.S.!.S.!.H.Z.F.G.s.s.G.R.XX{.,X5X5X=X(.,XG.G.J.{.G.F.G.OX1X=X*X*X3XOXG.R.R.g.d.G.G.Z.S.S.S.H.S.!.!.&X[.[.}. X;X-X&X;X;X{.*X,X' Y 5 : : F ~.~.H.(.1X1X1X!.S.!.~.J.H.F.F.[.[.[.-X X X'.].{.OX$XOXXXXXXXm.f.f.n.|.|.n.@X|.@X@X@Xn.|.b.}.}.$X%XHXh.d B.V y z u p 9 9 G e Z.G.R.d.w l.U.r q 9 6 g.n.g.a.b.b. X}.'.f.F.|..X$X$Xg.|.#XXXc.v.g.g.].@X@X|.3XF.f.$X3X4X3X-X-X:X>X5X>X=X~.2XDX2X=X!.H.!.&X!.=X6X5X&X[.:X:X&X~.6X5X=X1XJXAXqX8X7X9X8XeXeXhXtX( 0X0X! ~ ~ ) / P ^ ~ ~ P U P K K ^ ` qX{ { U p ~ 7X8X8X8XBXk.w r k.K.K.R.NXE.K.U.AXU.g K.g w k b P.P.8X>.v t + X     ",
"      $ $ h z.P.7Xl.b g r W K.Q.SXE.c.NXMXR.R.U.Q r r r 7XtXn 7XI.~ s P ;.3.,./ ^ E K J U U Y Y 1.L Y ;.;.~ ~ / 0X! 7XyXeXU.U.U.0XI.tXNXGX5X*X5X6X>X*X-X:X-XH.=X6X1X!.!.!.!.&X&X2X2X1X!.*X>X5X3X>X:X-X3X4X4X$X].f..X$XXX$X].g.s.c.c.R.XX@X].|.$X$X.X'.f.b.'.}.'.b.f.f.n.XXa.9 9 9 g K.r g d.A.A.e e G 9 q W i i f A V 7 v.HXCX%X}.b.}.|.}.N.N.#XN.|.n.].|.|.'.f.g.].XXXXOX%X%X3X[.[.[.[.[.[.[.[.'.F.H.!.!.~.!.~.`.1X=X1X!.H.*XS.: @ , ] ^ Y.1X*X[.-X;X*X:X&X[.[.H.[.&X!.!.S.G S.J.S.S.G.A.R.U.W.Z.J.[.[.H.*X5X1XOXJ.G.s.Z.{.,X5X5X=X>X[.F.F.d.A.+XQ.W.R.D.G D.D.S.G S.S.~.*XH.'.[.-X[.-X:X[.&X*X,XK._ L , # # G H.!.~.1X1X1X1X!.S.~.H.S.H.H.F.[.[.[.[.'.'.'..X4X4X+X@XXXXXn.f.b.].|.|.n.N.@XN.N.N.n.b.}..X}.|.$XKXVXh.8 8 f y i i W G G e G e Z.A.k.k.k.Q w 9 9 a.XXn.f.f.b.b.b.}.'.f.'.].@X%X$X|.$XXXXXE.v.a.a.n.|.@XXX3X'.f..X3X4X3X.X-X>X>X5X5X=X!._.DXDX1X&XH.!.!.!.,X6X1X&X:X:X:X&X1X6X5X*X,X<XAXtXtX0XQ.l.P.L.U.T.! { 3./ ;.;.;./ / / ] U ^ U U ! ^ _ / ^ U P K I :.>.7Xz.U.L.w r d.K.+XQ.k.NXNXK.Q.KX).K.U.K.l.8XP.v i t + X X X + X   ",
"+ + X   .   @ $ 8 z eXI.I.T.U.Q.AXtXE.NXNXE.Q.NXd.r r 0 k P.n 8X,.7X~ ! P p K ] { ^ U U / U U Y *.P / ;.;.3.1.3./ ^ ( L.L.K.K.T.Q.tXtXBXGX3X&X5X6X5X;X=X:X:X&X:X5X1X_.!.!.!.&X>X6X2X_.~.=X5X5X5X:X:X-X;X4X4X3X'.'.{.$X@X@XG.f.a.R.E.oX].OX$X$X$X$X.X'.b.f.b.b.b.f.b.s.a.XXXXd.9 9 w g k.K.d.d.d.e G G e r J u t 2 - 8 8 v.HXHX$X.X}. X}.b.n.n.N.@X@XN.n.n.XX.Xb.f.f.].XXXX$X%X4XOX'.F.'.F.'.'.[.F.[.H.Z.!.:XS.S._._.1X6X=X&X!.G # # : D ~ ( (.3X*XH.H.[.H.[.&XH.F.&X*X~.S.G G D.D.D.G Y.W.W.T.A.s.F.H.&X:X>X5X*X1X1XD.Z.~.5X6X5X=X>X>X;X[.F.A.A.H T.Y.Y.' D.Y.^.G G S.!.~.[.F.F.[.-XH.H.&XS.*X1XW.K.Y 4 # : : S.!.!.1X2X2X1X=X!.!.!.!.Z.H.&XF.[.'.'.'.f.'.|.$X$X$X$X].'.b.a.f.n.#XN.n.n.@X#XN.N.N.}.}.'.}.'.|.4XUXVXj.y 8 y y 2 > q F q H A.H d.r k.c.k.w w 9 9 R.].R.f.n.].f.b.b.f.f.b.|.$X%X%X%X$Xn.m.oXoXg.g.n.$X@X$X3X X'.3X6X6X3X.X-X:X>X5X5X=X~._.jXDX1X!.~.1X_._.1X1X*XH.:X:X&X>X1X2X5X*X3X6XAX+XQ.Q.Q.Q.L.L.l E ` ` / ,.,.;.;.3.3./ ^ J U ^ K ^ ] 3.] K 4 u P :.>.8X8Xl.d w w g k.K.Q.NXE.NXAXE.Q.).W.T.U.E.eXB.8 $ .   o     X X X   ",
"  +     + +   X   $ c eXtXE.K.Q.Q.gXR.tXBXE.E.tXL.K.w w 0 0 ) rX8X8XI.~ P u u / 3.] ! ^ ^ J u U / / 4.,.;.3./ ` ! { ( g L.Q.Q.+XY.Q.NXCXJXOX~.5X5X6X5X:X:X:XH.[.1X6XjX_._.1X&X1X6XJXDX^.!.5X5X5X:X>X-X;X4X6X6X{.F.;X6X$X$X#Xb.s.g.oXXXa.@X4X@X$X$X@X'.f.f.f.f.f.n.].f.f.OX].f.e 9 e r K.c.d.d.A.r Z.G W W q > 4 i v f 8 d CXKX%X}.}.}.}.}.|.|.n.n.|.@X@Xn.n.@X|.f.s.f.g.XXOX#XXX%X@X'.f.F.'.F.[.[.&X&XH.!.!.S.!.!.1X_.1X1X*X&X!.F : @ @ C 0XK.<X3X*XH.*X!.!.H.H.Z.F.J.!.!.S.G ^./.} ' Y.T.| ' K.W.J.S.[.[.-X>X5X6X6X(.~.1X5X6X5X3X&XF.F.S.D.W.Y.T././.T G } /.gX' } !.} S.F.f.[.*X!.1X&XZ.*X6X,XK.{ S : # : G H.!.=X=X!.!.1X!.!.&XH.H.&XH.[.[.[.'.F.f.F.].$X$XXX].].n.a.f.f.n.@Xn.n.N.#XN.n.n.n.n.}.'.[. X}.|.GXHXeX8 8 B.y y 2 p q W W q e H d.r d.K.g e w s.s.].g.].a.b.n.b.f.f.f.f.F.].|.@X@X%X$Xg.a.v.M.a.a.@X$X$X3X>X[.'.3X6X3X;X;X>X>X>X5X5XH.!.`.kXDX1X*X1X2X_.kXKX4X*XH.:X:X>X=X_.2X=X~.OXJXGX+X+XOXW.<XQ.Q.W _ ` ` 7X,.,.,.3.,./ ^ P K u U ^ K ^ 1./ 4 u ! ,.0X7X8XtXh 7 0 r g K.x.U.U.eXNXU.R.W.W.Y.R.Q.eXeXd     o   +           o ",
"X       o   X + X + 8 8XeXNXE.Y.K.W Q.E.v.eXL.k l L.K.g w 0 0 l.eXeX8X0X( u J J Y U P ^ P ! E K P ~ ` ,.) 0XqX{ { _ qXT.L.Q.<X2X,X,X+X+XKX6X~.~.6X=X5X5X&X>X=XH.5XJXFXjX`._.!.1X2XDXjX_.S.S.=X>X>X:X*X*X3X3X3X{.[.[.3X|.%X@Xn.f.g.c.c.f.g.%X%X@X$X$Xf.f.f.s.f.b.].g.f.f.f.].G.s.e s.d.d.d.d.k.k.K.g q J ^ K 4 4 2 s A d 6 E.UX%X|..X X'.'.}.].f.f.n.N.N.#XN.n.n.].b.f.s.f.g.n.].$X%X@X'.'.f.F.[. X[.H.&X&X&XH.!.!.!.!.S.=X=X!.!.S.e : @ 3 a ( T.1X,XJ.!.(.1X~.S.Z.F.S.J.D.W.^././.R J L 5.aXT.T.Y.J.S.Z.H.H.[.5X;X5X1X5X6X5X,XOX{.'.F.S.D.' ^.' qXaXe.] J T [ [ ^.^.(.G F.[.H.S.!.1X!.~.~.2X).T.! u > @ # G ~.!.&X&X!.!.!.!.!.=X&X!.&X&X[.[.'.F.F.'.|.|.$X].].OX].f.f.f.}.|.n.n.m.#X#Xm.n.n.n.n.}.'. X X[.[.$XKXHXh.8 y v y 2 t p U ~ u E ( _ L.L.g r d.s.s.s.f.{.f.'.g.g.].f.].f.a.'.F.].$X%X%X$X|.g.g.c.c.g.n.@X$X$X.X[.-X[.3X4X3X;X*X=X>X>X*XH.S.`.jXdXjX6X~.D.DXkXkXKXJX~.=X:X:X>X=X=X2X!.J.JXUX4XOX5X3X1X<XQ.Y.T.qX` 7XqXwX0X~ ! ! ! K u E E U K U ^ K u K p I.I.tX8Xk d 6 0 k.g l l l.k v z.eXE.Q.K.Y.A.W.tXeXl.+   . .   .       @ 2 s ",
"i t @         X     + z.tXtXk.K.Y.K.tXE.E.x.l.P.L.h w g L.k.0 6 w eXtX8X` ^ 4 4 u P ^ ^ ! E E ( j ! ) ~ ! L.qXT.T.{ aXqXT.Y.Y.*X5X5X4XOXJXJX~.G 1X1X=X>X>X>X>X~.1XJXkXkXFX^.~.2XDXjXkXFX_.S.!.:X>X>X!.&X3X5X5X;X&X-X;X$X%X@X|.n.a.c.R.XXg.].$X%X%X#X].].Z.f.f.G.G.XX].{.f.'.|.G.a.a.e e r K.E.L.( ) E p U u 2 2 3 y y t 0 h.CXKX3X}.[. X X'.f.'.].].].m.#X#XN.n.].].].n.f.f.g.$X].@X%X%X$X].f.F.F.H.H.&X&X&X&X:X=XS.!.!.:X!.&X=X=XS.: # * 2 p [ (.`.<X1X2X,X!.S.1X~.S.S.J.(.Y.T R R D O.e.fXsX` /./.(.(.J.F.Z.F.*X6X6X1X6X6X*XZ.s.G.J._._.`.jXaXqXfXfX4.U U { _ ' Y.S.S.Z.!.1X!.S._._.1XDX2XQ._ a , . # r A.!.:X:X&X:X:X!.!.:X!.&X&X&XH.H.H.'.F.f.].3X4X$X].{.|.f.f.f.].].n.n.n.#X#XXXm.XXXX].F.f.'. X-X[.H.4XKXE.d 8 f a y 3 2 2 5 4 u c x x ( I.K.A.r a.9 f.|.'.'.'.].$X@XG.f.s.f.f.].@X$X$X%X@Xg.g.R.v.c.f.n.].@X.X.X-X X;X6X6X3X*X[.&X=X>X>XH.J.`.jXdXjXDX1XJ.DXPXnXKX2X*X=X=X=X=X=X_._.S.W.AXKX+X,X6X>X*XJ.Y.T.aXgXqXqXI.I.! p ! ` ` ! _ ^ K E ^ ! K 4 4 u I.I.7XtXL.0 0 r k.g w w l eXn z.8X8XP.U.K.Q.K.g tXSXl.    X X   . @ > u i s x ",
"! ~ s 2 4 * o   +   . d yXNXk.k.T.Q.U.k.eXyXn v 7Xb d w w w r w 6 c.tXeX8X` u 4 4 J J W E E ( ( _ P.I.) i u W T.tX/.qXT./.W.~.~.;X>X3XOXJXJX(.G _.1X=X=X:X&X=X1X,XKXnXnXFX^._.2XjXfXfXdXD.!.=X>X>X=X*X*X3X5X6X5X-X[. X.X@X@Xn.n.a.R.XXc.g.a.XX%X%XOXXXG.f.s.s.a.g.@X].b.F.[.|.$Xa.a.e r K.U.b h i a y 2 2 2 , 2 ; 8 y y t d oXKX4X{.'.[.[.[.F.'.F.].XXm.m.N.VXm.g.n.].].F.f.f.'.].|.@X4X3X{.'.F.[.[.H.S.&X-X&X&X:X!.=X1X=X!.:X&XH.H.A.9 # @ 4 4 [ `.DXDX<X(.D.S.1X~.G G G S.D.T.5.Y D =.lXlXsXsXkXkXaX).^.A.A.Z.J.3X6X3X*X,XA.G.K.K.' Y.aXdXnXnXwXuXwX6.Y U qX).D.Z.Z.G S.!.=XD.G _.2X2XAXgX7Xs , @ # e G.H.S.&X:X:X=X>X=X&X:X!.!.:X:X[.H.[.[.f.[.{.$X$X].{.@Xf.b.].|.|.n.g.n.@X%X@Xg.n.].G.F.H.H.[.F.H.&X3X4XNXE.t 8 t > - - - @ @ @ - 2 2 $ 2 u E W d.9 a.'.$X$X.Xf.n.g.G.g.a.e G.f.G.$X$X@X@Xf.a.g.R.c.d.s.n.].$X'.;X-X&X3X6X5X3X&X*X=X=X=X*XH.D.`.fXkXkXDX1X(.jXPXmXPXDX1X>X=X=X=X=X1X=XD.,XKXSXR.,X-X&X*X(.<X/.T.qXgXgXQ E u j ( ` ( _ E K E ^ ! K u u 4 p P.U.tXeX9 6 r r w w w d v n n z.rXP.l tXQ.K.L.U.rX8X$   % X X $ t s s x ( / 0X",
"! ^ K ! :.4 $ O X X   $ z.tXtXl.r tXQ.k k.8Xz.n n z.g 7 w d.d.d.9 6 k.tX8X) ~ s 4 u u E _ ( ( ( ( j ( ( ! E r W /.gXaXT.gXDX(.*X&X&X*XXX<XKX2X(.!.6X5X=X1X6X5X=XDXUXPXPXFX^.2XDXjXfXkXfX^.S.&X&X:X=X=XH.;X5X5X5X:X&X;X{.|.#Xb.g.a.c.c.m.a.s.R.@X@XXXXXg.G.G.s.a.g.n.g.{.|..X$X.Xf.9 e g j u $ $ o * @ o o o * * ; - ; 8 7 t eXQ.3X3X*XF.F.*X{.H.F.G.].g.g.c.#X@Xn.g.n.]..X}.'.F.}.|.|.|.|.|.].'.[.[.H.&X:X>X[.H.:X=X=X=X:X!.!.&X[.H.F.H 9 . @ 4 ] [ /.).DX`._.~.!.!.!.S.G G G Y.[ Y #.6.uX4.4.vXfXsXaX| T.Y.Q.Q.d.G.].{.G.d.d.Y.AXgX{ 5.fXsXsXwXuX6.6.sX3.K W Y.Z.G Z.S.~._.S.!._.`./.T.tXqX>.2 @ # q G.G.[.-X&X!.!.!.&X>X>X&XS.!.:X:X&X&X[.[.F..X$X].F.'.].'.'.].].@XXXn.].m.@X@Xg.g.g.F.F.F.J.3X*XF.S.,X6X+XQ.U.t - $ o $ - - @ @ o @ + o   @ # > r 9 e a.n.].|.;X$X{.G.g.a.s.G.XXg.G.OX@X%Xn.a.d.g.E.c.a.f.b.].$XF.;X:X-X5X6X6X;XS.=X>X=X&X!.J.^.jXkXfXjX`.DX2X).kXPXUXUX1X~.6X5X5X1X1X1X1X6XDX).J.3X;X-X&X,XKXjX[ [ qXgXW Q _ _ E E p p _ _ ! ! E u u p ! I.U.eXNXh.6 w k.w w g t h 8Xf A n l.g g Q.U.r L.SXeXt X X + X & * ~ ,.x ! _ ( I.",
"I._ E ! 0Xa , @   + + + 8 eXSXtX0 K.U.r 0 d h x y n b k k.h.r r a.9 w v.P.) 7X7XE p u g E ! _ ` Q E ! ! ` T.K.W /.gXT.[ jXJX(.!.:X&X;XOX+XHXDX1X1X1X~.1X6X2XD.<XKXIXPXkX).`.DXjXdXdXfXkXjX~.[.&X*X>X=XH.{.5X6X5X5X;X;X{.].$Xb.f.a.a.c.MXc.a.a.XXXXXX#XG.].].R.s.g.n.@X$X.X].].n.g.d.0 > $ $ @ . O O & + o o O @ ; * + - 8 8 U.E.4XJX,XJ.S.*X6XOXZ.s.G.G.n.g.g.m.#X@Xm.XX].].[.}.'.'.b.'.|..X;X}.'.H.&X*X*X[.[.H.!.:X=X=X!.S.S.&X>X{.F.F.c.6 # : 4 ] T./.Q.)._.(.D._.!.S.G Z.G G W W ] 4.wX6.9XsX6.fXnXsXe.aXSXQ.R.G.f.W.A.A.+XT.T.fXaXe.fXvXlX6.lXwXwXwX[ W A.H Z.Z.S.S.!.S.S._.^.^./.gXhX! 2 $ # 9 c.G.b. X;XH.S.S.!.&X=X:X&XH.&X&X!.H.&X[.[.{..X3X[.'.F.F.'.}.'.n.n.n.@X#Xm.g.g.f.G.J.Z.e S.3X6X(.J.1X<XJXAXU.z.t $ $ @ 2 - + + + + + + + + @ o # # : 9 c.R.g.s.G.XXOXXXG.s.g.+XR.XXXXXXg.@Xn.a.n.c.E.d.a.g.f.].XX{.;X>X>X6X6X6X;XH.*X5X:XH.=X(.`.jXdXdXdX`.jX2X^.dXnXPXPXAXW.D.,X6XOX~.1X2XDXJX).J.3X>X>X&X~.DXkX| T.aX).Y.W _ _ ! _ _ E ` ^ K j p i x ) I.I.eXk.g w e A.w w w l.z.z.n t b u 0 r 0 r r l yXBX>.+ + ; % + - 3 >.7X( P.I._ T.",
"K.I.I.` qX:.a O O O % + + n yXBXT.r 9 w w g u t t i P.eXk 6 w d.K.R.9 0 d b 8X7XI.( E E p u K ! _ { 3.U E ( W Y.).gXaXT.jXDX=X!.=X:X3XOXQ.KXKX2X1X!.H.2XW.e D.DXPXPXIXkXY.2XDXjXdXfXe._./.`.5X;X&X=X>X*X[.>X6X6X5X5X;X;XJ.XX].g.s.d.k.E.c.XXa.].XXg.#X%XR.XXXXd.d.XXR.G.g.s.s.R.XXd $ . # + @ @ O + @ @ o o o X - - - + 8 t x U.AXKXDX2XJ.(.JX,Xs.e d.G.{.g.g.g.m.oXXXm.n.f.'.[.[.}.b.'.}..X3X;X X[.H.S.S.H.&X&X&X=X=X&X!.H.!.S.H.{.'.b.].g.9 . @ 4 qXhXgX^.D.^.!.D.G S.H.H.Z.A.H H _ { aXlXvXsXlXsXsXe.e.e.aXT.AXQ.A.K.K.W.FXkXe.sXt.4.wXwXvXnXvXnXhX0XK.W A.Z.S.J.J.J.G Z.!.D.G Y.jXnX4., # # r D.].f.b.'.H.Z.!.S.!.!.H.*X&X&XH.&X&XH.H.H.[.;X;X{.}.'.b.}..X Xf.].XXXXm.m.g.g.a.G.J.J.Z.e A.(.JX,X^.JXKXSXtXn z 2 $ @ @ $ +   . + + + + + @ + @ o . # 7 g R.oXXXg.G.G.d.d.a.R.XXXXXX%XXXn.R.a.c.c.K.k.e w a.].XX$X3X;X>X5X6XJX5X*X*X>X5X&X&X=X_._.aXdXkXkXdXdX`.^.dXnXIXIXFXFXY.A.(.OXZ.J.6XDXKX).OX,X-X:X*X(.DXgXT.`.jXjX/.' H E K ^ { ^ K u u p ! ( 7XtXU.L.k 6 6 r R.K.9 0 6 x.yXB.h t 0 0 r r 9 6 r tXBXB.8 + + % % + ; V >.7X( ( ( _ T.",
"Q b l h A A C ; * % X - + - f z.eXg 6 9 w r q u p t B.yXeXw 6 6 K.Q.H 6 6 g k P.eX7XI.) E u 4 J J J Y u u E ' ).gXgXkXaX/.2X1X&X:X-X.X3X+XDXUXDXJ.Z.OXOXK.tXFXFXPXnXnXfX/.`.jXdXfXdXe.dX| ^.~.*X&X:X5X5X[.{.5X6X6X5X;X3X{.J.$X].s.a.p.k.j.E.g.a.m.m.m.#XXXXXXXg.g.a.R.W.A.W.R.R.h.6 .   X + X # +   . @ . .     + - + % - t i _ Q.gXKXJX(.(.DXW.A.d.J.J.J.F.G.c.j.n.m.N.#X].b.'. X X'.'. X{.;X>X-XF.H.H.!.&X&X&X&X&XS.S.H.*X,XH.S.F.'.f.b.].G.9 # @ y sXkX_.F G D.S.Z.J.!.H.Z.S.D.S.D.T.T.kXnXnXmX6.5.sXsXfXkXnXPX).T.D.Y./.kXPXkXkXhXfXwX2.sXfXkXdX).T.).A.G S.G Z.F.J.G.D.^.G Y./.aXU : @ # 9 ].}.'.b.n.].J.*X_.!.!.H.S.&X:X!.S.&X&XH.F.H.[.;X;X X X'.'.}. X}.'.|.@XXXj.p.g.R.R.Z.Z.J.W.D.K.K.`.).).KXDXU.I.) i y 2 @ @ $ +       $ $ # + $ + O O     . # 6 w E.E.c.R.g.d.g.R.g.XX#Xm.c.#Xc.p.m.c.l.w w s.f.@X$X{..X;X-X5X3X6X*XH.>X5X:X&X&X!.D.} dXfXkXdX| dX`.dXfXnXmXmXPXPXUXT.W.OXA.A.`.FXDX).4X3X-X:X*X1X2X/.).jXDX/.gX/.' U q F J 4 K u p ` 7X7X0XE.b d 0 6 w K.K.d.9 w k z.rXv i b p q r 6 9 w z.P.f # + - - X + - y a s h z j g l L.",
"l g k z z z A y ; ; % ; $ X   8 l.P.k.w 9 0 q u ! ! x B.P.h.0 0 r g K.r 6 0 w g I.eX7X8X,.K q u q F J 4 U T./.).^.jXFXjXY.`.5X=X>X-X;X6XQ.gXFXDXZ.G.4XR.SXIXIXnXcXmXmXfXjX`.dXdXdXdXdXe.} F D.~.=X&X=X>X*X;X3X3X5X3X;X{.{.XX@XG.e w w h.c.j.g.a.XXXXg.m.oXXXg.XXd.d.g k.k.E.w 6 # . X   + - + + $   . $ # . . o + - + 8 t y ) I.I._ gXFX).(.).T.K.K.,XOXD.s.G.c.g.p.a.M.#X@X]. X}. X'.'..X[.-X[.[.H.Z.S.~.H.S.&X&X!.S.!.,XD.~.2X~.Z.'.}.'.n.].d.# > 2 I { /.F S.D.J.D.S.Z.S.F.S.Z.J.(.^.' /.sXt.wX0X5.aXdXkXnXFXFXdXjX' ).jXjXPXkXjXfXhXsX5.aX5.[ /.H A.(.~.S.D.~.S.D.A.D.W.D.D.Y.' U S @ : 6 a.F.f.].|.'.J.(.,X!.!.^.S.H.H.H.&X&XS.S.S.S.H.H.&X[.[. X'. X-X[.}.{.$X#Xc.a.a.c.W.G.A.W.<X).K.T.gXgXH ).UXtXb P.>.t y y $ - - - - + . + # . . $ + - + X     . # # 7 k d k g w E.R.c.#X%Xa.XXXXg.c.a.v.w 7 w w g.XXXXG.'.*X;X3X4X6X,XH.5X>X-X>X*XS.} } e.dXkXkX| r.dXkXxXmXmXxXxXnXFXKX).+X+Xd.W FXgXW.OX{.[.>X*X1X(./.DXDXgX' /.[ T.' q J J u K u ! ` 7XP.L.l w 0 0 d k.K.r 9 0 w v z.B.>.z l E g q 9 i b v t $ + X % + * 3 y A c v d i d g l L.",
"d g d h t z 9X<.A ; % + X + + $ - 8 d g q 9 r q J u s ~ z h h 0 0 w k.k.k.r 0 6 q h b ) 7X! P W J W S J [ T.Y.).H Y.jXkX^.^.1XH.-X'.}.OXY.0XhX[ e {.,X<XKXnXcXzXi.cXmXmXnXkXdXdXr.fXy.e.aX| D.!.>X:X:X>X:X{.4X4X3X3X.X.X].n.XXc.g.6 6 $ d j.j.m.m.oXR.c.oXoXg.XXk.0 t t $ $ # # + +   + + $ $ # o @ @ . @ $ $ 8 - t t y y t t p s i qXhX_ E qXhXI.Q.gX).Q.K.W.W.K.d.g.c.M.#X|.b. X-X X'.{.;XH.*X*XF.J.J.G S.!.&X&X&XH.H.J.J.Y.Y.,X~.G.[.|.f.f.a.p.6 $ , D J G ' D.^.D.G G ~.~.W.(.S.S.D.G D.T | aXaXaXkXkXdXkXFXjXjX`.^.^.^.`.jXFXjXdXjXjXdXT.| ' Y.!.D.S.S.(.(.W.(.Y.H Y.(.D.Y.q S 4 1 @ 0 a.f.f.f.].'.'.{.(.D.D.(.D.Z.S.&X&X&X!.S.S.!.~.D.*X1X*X;XH.F. X X X}.|.$XR.R.R.d.Y.W.K.K.tXhXgXI.qXkX0Xp ` qX! u h 2 t i t f y y y t 8 t - + $ - # X $ + X + + . . + # # + 8 2 2 h k.m.m.m.XXc.c.oXc.j.h.6 6 7 w v.R.n.f.|.3X$X3X$X4X[.H.5X;X&X3XJ.(.dXt.fXfXkXfXr.r.nXnXcXcXcXcXy.xXnXFXFX<XQ.K.W L.0XQ.K.F.{.[.J.{.J.(.KX`.' H /.^.' [ ' J E W { E K ,.K u t 0 0 w k.l.k.r q q h h n n ) u 0 J q q u l z 2 8 + + $ X X X - a 9XyXeXh h g d g k k.",
"k k d k h f rXyXB.V C % X X X X $ - t z l Q W q u 4 4 P qX>.z k k.w w k k.k.r 9 0 q u i ` ( ! _ T.J q J [ } Y.^.Y.Y.} jX`.^.*X[.[.{.{.XXgX0XK q Q.<X6XDXFXnXcXi.i.cXmXmXnXnXfXr.fXfXy.fXfXdX/.Y.*X:X&X>X>X[.{.OX$X$X3X3Xb.f.XXm.c.a.6 6 8 d c.M.c.d.oXc.c.oXv.d t 2 $ 2 $ . + +   + + +   $ +   $ t $ - t z y t t f z z t y t 2 t 4 ! I.! P T.aX` ) yXgXQ.Y.K.W.A.A.R.R.XX@X$X.X}. X-X'.F.3X5X,X,X{.~.~.!.S.H.=X&XH.F.Z.J.,XY.D.J.H.{.F.F.'.b.f.g.h.0 $ , S J H D.' H D.Y.^.Y.Y.J.!.!.!.D.D.^.' [ /.gXgXgXjXFXjX_.G } _.jX^.Y.).dXjXjX_._.).T.T.W.(.~.&X*X*XD.D.Y.^.Y.' G ' Y.W u 4 , $ 0 h.f.b.n.].[.'.H.H.S.D.Y.^.S.Z.Z.H.*X&XH.&X~.!.W.J.J.,X5X3XF.F.;X X}.;X$XXXg.G.A.e A.W.T.I.8XtXqX~ >.qX/ I P s t t t 0 t f h v z f v z k v f d d t 8 # $ $ + $ $ + + $ + + + % , , 2 b MXoXg.m.g.c.E.E.j.p.6 w h.c.oXXXn.b.|.$X$X4X$X{.[.*X;X&X;X{.A./.fXt.r.y.kXfXy.fXfXcXmXmXcXi.i.cXnXnXFXFXDXgXK.q T.gX<XOX$X.XH.*X1X`.^.W ).' G ^././.J H ' qXT.! I.^ u u q 0 h h.l.h.w q g h z i A 9XP > J J 9 Q Q ( y - % % +   + - y V V 9X9Xn d k l l l.l.l.",
"l.l.l.l.k d B.8XA A V y ; X   + - + $ t b L.p q K ! u 4 ~ x i h h k g d g k.k.Q q q > t ! 0X_ T./.K.J W | /.).G G /.[ ^.).2X5XJ.{.3XOX+XQ.I.q _ gXDXKXkXnXmXcXzXi.cXmXmXmXvXxXfXfXr.fXy.t.sXdXH H ,X*X[.;X*X'.{.3X3X$X}.}.n.n.oXv.v.h.w w h.v.v.oXa.c.m.h.eXeXt * , + - +   $ + $ $ 8 $ o - $ - t z z f v b v b v l.l h j i t > 0 t u u ! ! ) qX~ s wX7X7XT.I.).H s.G.A.g.G.%X3X[.-X-XF.H.>X5X*XF.W.~.~.=X!.S.&X&X&XH.Z.S.J.W.D.J.F.F.H.F.{.|.].n.g.d $ @ 4 p E Y.Y.' H ' /.Y.D.S.~.*X!.~.(.`.).^.).`.DXjXjX`.' ^.`.`.`.`.`.)./.' ).jX`.)././.).`._.!.!.=X~.S.Y.Q.W H ' G Y./.E u 4 : $ c.g.g.|.|.{.[.[.H.H.J.,XJ.D.Z.S.[.&X-X*X!.1X1X^.(.D.Z.H.1X=XH.F. X-X-X4X4Xg.G.G.A.d.H gXgX0X,.:.,.c ~ ;.P ~ u 4 u u t t h h d k k g k.k.w k.l k.v v t t 8 @ @ $ - + $ $ + + - % & - 2 z E.v.c.j.h.k.v.U.h.w w c.c.oXXXG.b.}.}.|.3X4X{.'. X>X[.H.OXJ.H [ lXu.r.t.fXxXfXxXlXxXcXcXcXcXzXzXmXnXnXkXFXFX).T.p I.Q.OX4X*XJ.6X2X).).^.gX' G _./.gXW F Y.gXaX_ qXE q > 0 r l.k.h.w r g u u h z c s 4 u ^ K 0 h U.z $ o % $ o   + f A C y a z.L.h k z.l.x.z.P.",
"z.l.l.z.k b P.h t 8 f V f $ + + + + + + t n b i u K K u u j b g d h k.d 0 w r K.r 0 0 q E qXT.T.jXT.J T /.^.).D.H 2X)././.DXJXJ.{.<XOXU.Q L.qXkXjXkXkXnXxXcXcXzXzXzXzXzXxXxXxXnXxXy.xXr.r.lXlX] H W.J.F. X;X[.[..X3X.X'.|.|.f.m.oXE.M.c.p.h.x.v.v.j.p.c.c.k A 3 & * O % - + $ $ 8 + $ $ $ - 3 z f l.l.x.k d d k k d d g h r g r u g q t p x c >.c a 8XA ) qX0XgXD.A.Z.G.G.d.$X6X3X-XH.H.H.*X&XS.G ~.,X(.1X1X!.H.&X=X*XH.Z.D.W.(.~.H.F.{.H.G..X$Xf.a.h.w : > p E T./.[ J J E ' D.D.!.!.*X~.(.(._.^.(.D.^.<X(.^._.2X`.2X^.^.`.`.2X_.^.Y.D.Y.Y.Y.^.(.!.&X=X!.S.~.Y.[ u F F ' } 0X! y t 7 w g.f.n.$X.X'.'.[.'.H.J.J.K.D.Z.Z.{.*X{.H.H.1X1X1X6XJ.J.G.S.&XH.H.&X;X6X6XXXg.G.R.A.Y.Y.` wX,.~ A C C c s s u 4 q u t q g g g g r w w w r w w k.l.l.b v n y 8 - - $ $ - + $ + - - X & - 2 t k v.c.p.x.x.b h.w c.oXoXoXn.f.}..X.X|.3X.X'.;X;X{.G.J.J.Y.qXsXt.i.u.xXfXfXnXxXxXxXlXu.zXbXcXzXxXy.fXfXdXkXFXFXT.Q Q E.+XOXZ.2XJX^./.DX`.^.H (././.W q T.hXgXT.qXW q 0 u g l.r 0 d j g u d z h i q u K q u ~ b z > X X X + + $ y f a t - $ t l.h v v z v z.B.",
"z.v f z h k h 7 7 8 t f f V 8 % X + + X $ y f c s u 4 u u i g i h h d z g w w r g g q u ! gX/./.FXY.J G /.} (.Y.).2XjXgX).DXJXZ.R.+Xl L.Q tXUXFXkXfXy.t.u.lXzXzXcXzXw.zXmXmXnXnXxXr.r.cXy.u.lXlX,.W R.G.{. X-X X[..X3X|..X.X].f.oXoX#X#Xj.w f x.V.j.p.v.U.> ; = % % % - - $ + + 8 + $ t 8 f v b x.k.k.k h.d w 0 w 0 w w r r g k.q r g 0 u i s a C A A C A :.7X! T.Q.D.W.J.s.].4X6X3X*X[.H.Z.Z.S.J.(.2X2X1X,XJ.S.S.F.S.Z.Z.Z.D.Z.H.J.[.H.H.H.[.{.|.n.g.d.0 $ t ! _ ^ ^ ^ ^ ^ _ Q.(.*X!.&X=X!.(.~.^.^.D.G } S.^.2X,X(.D.J.J.^.J.(.(.D.G D.^.D.} ^.~.!.=X:XH.!.).gX[ { /.| ' ^ P a y 0 w m.b.n.XX|.{.[.[.[.[.[.S.G A.A.A.Z.Z.Z.F.H.J.(.1X2X6XOX,XD.G Z.S.&X-X5X6XGXg.F.J.,X(.gX7Xu ;.a a C C a a 5 u q > u i q d g w g r w r w w w r r k.k.d.d k.l.l.k f f 8 8 - + . 7 - + $ % % - $ - z.x.h.x.x.k w w oX+XVX@Xn.f..X.X.X3X3X[.[. X;X{.OXW.K._ sXlX8.i.lXlXe.aXt.xXxXcXcXu.0.zXbXiXzXy.r.y.r.kXFXFXFX0Xj l Q.A.s.,XDX).).`.`.).D.).Y.T.J q T.gXQ.T.gXT.q q g g r r r k g h h j h t t j u q u P v t $ # + +     - c n z y t V y d l.A A A c v A B.",
"B.B.B.8X8X8XP.z.A z.f y A A A 8   X % X + + $ f ~ ! p q u q 0 q j x x k k k.g r K.g g q _ hXgXT.gX).J F ' Y.Y.Y.`.).jX).).JX<Xd.d.U.4 u I.hXUXkXfXfXy.u.u.lX0.u.zX0.w.zXmXnXy.r.e.r.xXy.y.u.-.u.6.^ U.OX{.;X;X;X}.$X$X$X.X$X}.b.XX#X#XCXm.w d f x.j.x.x.d - & & % % ; % + + # $ 8 8 y z.x.x.v.h.w h.d.k g r r w w r g g w d k w g w g g t t a y y C 3 C 5 a :.a ` FX<X1X{.Z.F.%X6X3X*XH.G Z.D.D.(.~.<X2X,X(.J.J.J.G s.G G D.A.G Z.{.[.H.J.[.[.{..Xn.n.g.k.0 t i p p ^ aXhXaXqX).).(.S.!.!.=X1X_.D.' } !.S.S.S.!.D.~.~.J.J.J.D.S.S.S.S.!.!.} !._.1X=X!.S.!.~.^.T.[ hXkXaX{ p 4 t i w n.@Xb.|.$X].H.[.&X[.H.H.D.Z.H D.A.Z.Z.Z.H.J.J.Y.,X,X,X).W.Y.J.G Z.H.[.;XJX%Xs.G.{.2XDXgXqXC C a 5 5 a a a i p 4 u i q g g g g w d g d g w r r w w r w w w h.x.x.x.x.f d 8 $ $ $ X - ; % - % * - f z.V.x.f 8 0 k.MX#XXX$Xf.'..X3X$X$X$X{.;X;X3X@XW.K.I.5.6.8.8.u.t.xXfX5.&.r.xXxXcXy.0.0.iX0.w.u.y.y.y.fXkXkXhX1.z t g r A.Q.DX`././.^.).W.Q./.H G W /.).T.tXhXI.q q K.Q k.L.E.l.k j ( h u u q q u K ! I -   X X + O     - B.v z f A V.V.8XB.8X8XB.A A A A ",
"A A A 9X9XB.8X8XyX9XA A A v v 3 O X O + + +   - y ~ ) p q u u g u x P.v l L.U.K.K.K.r 0 Q gXjXY.Q./.W q J Y.W.Y.).).).T.).DXAXd.g g 4 4 3.aXhXkXxXr.y.y.i.u.-.0.lXw.u.zXcXxXr.R | r.fXt.t.8.-.&.6.t.qXR.].{.>X3X3X3X$X.X3X;X.X}.].@Xm.%XE.d d 8 x.B.V.f 2 2 * * - - - 8 $ 8 8 8 8 f B.B.x.k.c.j.w w w r w w d r g j h d d k g d g h g u u t i y a a 5 a 5 C @.;.wXgXDX2XJ.H.F.3X6X.XJ.Z.e D.D.D.(.^.(.,XW.J.J.J.J.A.Z.G A.D.A.D.J.J.H.[.&X[.H.{..X|.n.@XXXk.d i u z ! T.hXhX0XW Y.J.!.S.S.!._._.^.T ^.D.G S.S.S.S.D.J.J.Z.Z.Z.F.H.S.S.G } _.} } ^.!.H.!.=X(.H T T.gXtX( i t i d g R.XX@Xn.|.$X{.H.H.[.H.H.S.D.W.K.Y.K.Y.J.J.W.(.W.J.W.W.W.).).Q.D.D.Z.s.F..X4X%XF.F.J.<XAXT.0X$.N a 3 a 3 y u u q 0 0 g h h h d d g d t t d t t 0 0 q r d.h.d.g.c.c.v.v.x.d d d f $ + 8 8 - ; + ; , y f B.x.8 7 d v.VXoX].@X'..X3X4X$X.X.X;X3X3X].XXK.{ sXlXt.t.y.-.sXxXsXaXe.5.fXxXxXy.lXzXw.8.8.i.u.r.r.r.xXfXsX3.@.a t t K.W.DXW.Y.`.`.DX).Y.Y.W H J T.T.T.gXAXQ 0 r r K.K.E.l.x.l j ( u q g u u _ 0X2 2 + + - + X X + - f n v B.A B.B.V.B.B.A n A A v f v ",
"f V A v y f f f A B.f B.A A A y @ + o   + ; X + 2 2 ~ 7Xh q q 0 g i x b l.k x.Q.g W g > g tXhXU.Y.W q H E Y.Y.).DXAXDX(.T.AXW.K.h.2 5 L aXvXxXxXy.r.t.6.lXw.-.u.zXzXzXzXcXy.r.e.e.e.fXfXt.t.y.y.u.nX0XU.E.G..X3X.X|.|.3X$X3X3X}.}.@Xn.%XMXx.w 7 f B.f ; ; 2 * @ 8 8 + + 7 8 B.d j.f v.v.v.c.d.R.G.d.w w r 0 0 0 t 0 0 t i d h k h x h t 0 t 2 u t 3 y s 3 3 a C wX{ ).(.F.s.'.3X3X{.H.e Z.D.A.Y.(.,X(.W.W.OXW.W.W.D.W.Y.' Y.W.W.J.F.F.-X&X[.[.[.|.$X|.|.XXG.k.k h t t E qXaXT.T.H J.1X=X!.S.!.} } _._.^.G !.S.G Z.Z.Z.Z.Z.H.S.S.Z.!.!.D._._.} S.G S.~.5X,XS.' /.T.gXqXx 0 t l r d.R.].'.|.@X.XJ.J.&X-X&XH.J.~.Y.Y.T.Y.Y.Y.A.W.W.<XOXJ.~.<XW.Q.W H H G e H..X3X3X'.s.Z.J.Y.T.~ a 3 5 3 a a 4 > > t h t h b x d i i t t t t 2 0 2 t 0 0 w w d.c.c.c.c.c.c.v.x.h.V.x.h.8 + - 8 ; * * 3 * 2 y f 8 d h.oXVXM.XX{.'.3X4X$X$X$X X X3X.XG.R.I.qXlXlXy.y.-.r.lXdXsXe.&.r.t.u.xXcXi.cXzX0.0.zXu.6.y.xXnXxXnXsX6.:.2 i U.U.Q.Q.Y.jXgXgX<XQ.' W W q q Q K.qXtXg q g r Q U.K.0 b j h E g 0 q r j ! s @ 2 + X ; % X X + y n A B.B.A f f f f f f v v z.z.B.B.",
"A B.A B.v v f f f f f V f B.>.~ i @   o $ + + X - - t ! ( Q q 0 Q ` h h h 0 r K.r g j w l 7XT.Q Q q g J W T.Y.).).).<XT.Y.U.Q.U.> y 2.6.xXfXxXxXy.r.2.t.lX0.0.i.bXcXcXzXu.6.r.R R | dXsX5.*.r.y.t.t.sXqXT.R.G.3X;X.X.X.X3X3X3X;X}.3X].R.MXk.j.8 8 8 3 3 ; - - $ - - 7 8 l.v.eXeXv.j.x.v.k.c.c.d.k.w 0 0 w 0 > > t 2 t t t y t y y i z i i i 4 > > 2 5 u 2 y 5 3 p q ' Z.e H..X3X3X{.Z.e e A.G A.D.J.W.,XOXOX<X+XW.Y.K.Y.T.T.Y.Y.W.,X*X&X-X-X[.[.$X|.|.|.|.].G.r k.g 7 0 ` qXaX).^.!.!.=X1XD.G ' ^.`.DX_.~.D.S.G D.W.A.A.Y.(.(.^.G Y.^._._./.^.' F _.2X=XS.S._.`.gXU.l $ 0 d.R.G.s.F.|.@X$X|.{. X[.&X&X;X=X,XD.Y.W Y.T.Y.K.A.T.(.,X,XJ.~.J.D.H H G H H e Z.[.4X3X.XG.e e K.0 : > 4 3 3 4 u > > > h i t t t t t t y y y y y u y 2 2 t t t 0 r k.d.g.c.c.h.c.v.oXoXE.SXeX8 - $ - ; - * 2 y - 8 f j.c.M.oXc.$X{.[.5X4X$X$X$X.X;X.XG.R.tXsXnXt.r.y.r.&.&.5.sXaX| &.&.6.6.xXcXi.zXzXu.-.lXsX=.t.y.cXxXy.t.lXlXa $ k E.K.K.Y./.T.T.Y.T.T._ ' q q E Q U.T.Q g l r r g g 7 d d i I.W q g L.I.! - $ % + + ; X X $ f 8X8X8Xz.f f A f f f B.z.x.z.z.B.B.z.",
"B.B.z.v v A B.B.f z.B.j.f d l yX9XI.$   . @ + + + $ - z 7XU.W r g ( i w 0 w k.g w r g l U.tXI.L.l h j E W I.K.T.Y.Q.).Y.K.W L.i $ C lXt.sXy.cXxXxXr.5.qXsX6.0.zXcXzXzXcXt.-.&.5.R e.aXsX*.*.e.xXt.t.xXfXyXQ.G.'.;X.X.X.X$X$X3X;X'.3X+XR.oXj.h.j.f ; ; ; ; ; 8 7 $ $ 7 h SXBXE.v.E.j.k.h.k.R.d.A.g g d i u t y z a y y a a y y y t 8 2 2 > 2 u u : : : 2 4 4 2 2 $ : H e e F.{.3X4XJ.Z.d.A.Z.G Z.D.D.J.J.{.OXOXW.W.K.W K.T.Y.K.W H W..X;X-X&X[.[..X.X$X$X].f.f.G.OXE.w 0 0 j ).gX_.!.G S._.`.^.[ ' ' ^.(._.^.~.(.DX2XW.Y.W.`.DXDX_.^.Y.Y.' ' } /.`.`.D.G G D.(.).Q.r 0 0 k.W.OXJ.F.F.'..X.X}..X-X&X-X-X-X[.Z.H K.T.T.T.K.K.Y.W.K.G.G.F.H.J.S.Z.S.Z.A.A.H D.D.,X3XG.G.e 9 r : : : > 4 2 2 $ > u P t @ @ @ 4 y y y a c s C C a C a c a z z z g g k.k.K.d.d.d.d.R.k.E.tXNXeX8 + - - y ; ; , - t x.j.j.#X+XXX,XH.{.3X3X$X.X.X.X.X.XOXQ.tXsXxXu.r.fXfXe.R e.aX0X] 1.r.-.-.i.lXi.i.y.0.$.wX6.1.aXxXcXy.y.fXu.lX<.* $ P.K.K.K.).gXT.T.' _ W Q p E E ( I.yXE.l g r 0 g k t 7 7 i g r r r Q.I.2 o + + % + % X + v rXSXyXk k 8Xx.j.B.V.z.v f k v l.x.x.x.",
"j.h.v k l.v f f B.x.x.E.E.l.k.NXSXSX) # . o + O X + + t 8XT.r q q g d 7 7 k l.w 0 r k l P.tXeXL.b j E ( _ _ _ L.Q.gX).W W ( P.@ @  .sXlXlXu.y.xXxXt.1.5.6.6.6.uXu.0.i.zX8.+.-.5.5.e.e.5.1.5.fXfXfXsXxXnXhXAX+X{. X-X-X.X.X$X3X3X[.*X,XG.4XoXh.v.v - * ; ; 8 y 8 $ $ P.E.tXQ.R.d.K.r r r k.k.d.l d v b z z a c @.C a C a C A a a C y 2 * o @ > P u : > : 4 2 > > > : q 9 9 A.G.W.OXD.A.K.K.A.Z.S.S.S.G.F.Z.F.G.XX+XK.W T.T.T.T.T.e Z.[.-X-X-X-X X.X}..X.X}.f.F.'.{.OXR.r $ 6 ! T./.D.G G G D.).jX/.' ' ' Y.D.^.DXDX2X).W././.).)./.' ' ' [ /./.jX^.G G D.W.A.Y.T.q > 9 q A.J.{.'.F.F.}..X X.X X X-X-X-X X[.Z.A.W.T.T.Q.Y.A.Y.Q.W.A.s.s.Z.G.F.S.H.J.Y.Q W W H R.D.A.d.9 6 0 : 9 : > u t t i p u y @ @ , 3 5 a a a a A >.A a a c c c C c A n n v k k.g w d.r e d.Y.W.K.R.BXx.7 - 8 8 - @ $ > - j.v.M.VXXXG.,X*X5X5X.X{. X.X X.X.XOX).hXxXmXxXdXfXkXe.| | e.aX5.5.-. .-.i.iX9.9.8.-.6.t.5.] 5.xXcXy.r.y.y.t.<.; X d b K.K.Y.T.W T.^ _ _ ! E ( j _ ( tXI.l k r 0 w b x.t 7 t u 0 9 W T.P.$ + % + + X X + v 8XBXHXeXk.U.MXE.v.j.d f z b b b b v l.P.",
"j.v l.l.b k k k h.v.v.oXoXR.d.Q.SXtXtXI.$   X + O * . $ L.U.k.r w t 0 # 7 x.k.r 0 k.l k 8XBXU.b b ! E ( _ ` T.T.T.Y.K.Y.Y.( t . , +.uXlXxXlXy.y.xXr.R e.e.6.6.6.<.-.0.u.6.+.+.&.5.5.6.5.5.aXkXkXfXsXxXnXsXT.W.3X-X-X-X X.X.X$X6X1XJ.OXG.+XCXc.x.t - % - - - 8 - 8 f SXtXA.A.).D.r e r w r k.k.k n A A c A A C a 5 a a C C ~ a C C C C a 2 @ @ > 4 u p u 2 u 2 t 0 q 9 6 9 d.g K.K.E E W L.W.J.J.F.G.H.f.s.s.s.OXOXK.K.K.T.T.U.Q.H D.[.[. X-X&X[.;X.X|..X X[.'.[.'.H.S.A.r > 0 p _ D.^.S.G F ' /.jX/././.^.' ' Y./.Y.T.Y.Y.W Y.' ' [ aXjX)./.} G G D.S.A.W.Y.W q # 0 W H S.F.F.[.[.}..X;X}. X X X X X X[.{.].W.T.K.U.U.K.A.R.Q.OXs.s.f.F.J.F.F.H.,XW.Q p J J W r A.g 6 # > 9 : q q 4 2 i s t $ o , 3 5 a 5 a C L a a a a z a s i a a a a ) B.z.P.L.g r r r H Y.W.R.R.Q.GXNXl.$ 7 8 - + * $ @ d V.oXoXZ.S.*X=X6X5X[.-X;X;X;X X X,XT.aXxXnXfXfXdXjXdXe.5.5.t.e.-.+...%.0.0.<.-.-.-.sXe.[ e.3.t.t.t.u.r.lXt.<.y + - h l Y.T.T.T.T.T.Q [ _ ! K j x l tXtXU.l.l g u h x.d # # q q g U.L.h $ + * X X X + t SXBXtXNXK.R.oXE.E.eXj.h L.( b b x h k n z.",
"k.l.g l l Q U.E.k.E.oXoXoXoXXXc.NXNXSXSX8 + X X X @ $ $ i L.E.g w 0 # 6 d z.k g K.l b L.tXyXx.k ( j ! _ ` _ I.T.K.T.W.Y.j t @ X < 6.lXlXu.t.-.-.t.=.&.5.sXsX6.<.6.-.-.-.8.%.-.6.-.t.6.6.t.fXdXdXkXfXxXnXkX/.W.OX[.-X-X-X;X{..X5X4X!.J.G.d.XXE.k - - - % + - 8 + 7 eXHX<X<XY.Y.W.Y.A.r q k l.E.eXz.A A c c V f y a y a a a 5 a a y 3 y C a a 2 @ @ > u 4 > 2 2 t > 7 > 6 d g h x u p p p Q Q.OXJ.Z.J.{.F.f.s.s.G.OXR.K.K.U.K.W Y.(.~.{.[. X-X-X X X X X X X{.-X XH.H.Z.S.Y.r $ # q K.Y.D.D.Y.' G G T aXjXaXT.T.' T.' W W W ' Q./.T.T.aX)./.H G G D.D.W.A.K.r : # 0 r ' S.S.!.[.[. X;X X X}. X X-X-X-X X[.;X3X<XT.K.Q K.R.J.R.R.G.s.s.f.G.{.G.H.*X,XY.! s 4 4 4 q u g k t $ : > # > > > $ @ @ > 3 N 5 5 3 3 3 a a a a a a z s z a a a a z n B.B.eXtXE.K.r A.W.^.Y.A.4XJXHXKXE.7 $ $ 8 - + + $ t z.MXR.J.~.H.*X3X>X&X-X-X-X;X;X&X,X/.aXfXsXkXkXjX/.fXfXxXt.sXlXwX0.-.7.-.%.6.uX6.6.t.e.5.e.5.5.=.-.-.6.u.lXuXV & & t 0 Q Q.Q./._ _ _ ^ ` ^ p ! j b yXyXU.l.l.b j g l.d 0 $ 6 0 K.E.L.h $ o O X X + @ y BXBXGX+XR.NXoXR.E.+XE.Q.T.Q ( ! j l z z l ",
"h l j j E ^ _ I.Q.NXMXE.R.CXGXE.oXHXBX8X8 - X + X o # $ d U.Q.g 7 7 # 8 z.k h l Q Q L.P.yXyXP.b b E ^ T.^ ( ^ W aXQ./.K.q > @ - +.0.6.0.0.t.-.=.6.5.5.5.6.t.6.1.sX0.<.%.6.6.-.u.zXy.lXlXnXfX/.| dXfXdXe.sXgX<X,X X-X>X-X-X X;X3X6XD.J.,XR.Q.eXv 8 + + - 8 $ $ 8 f HXUXGXJXJ.Z.J.W.K.Q L.U.E.MXE.n A v c a a C a C y C a a a a a a 5 3 , ; N C y 2 $ @ @ $ > > $ $ > 0 0 h z i u 4 4 4 p Q T.W.J.G.G.{.F.F.s.s.F.J.G.R.Y.Y.K.Y.Q.).,X3X{.[.-X-X:X-X X X[.[. X-X X[.&XH.Z.D.' r > # 0 e H D.J.D.H q G ' T.[ T./.gXT.Y.' Y.W H T.[ qX' E H H D.G G H H A.K.w 6 # q Y.Y.G G S.H.[.[.[. X X[. X-X-X-X-X-X-X[.3X6XGXQ.T.K.K.W.G.A.f.s.f.F.'.'.].F.G.J.D.K.x a 4 4 4 u i i x u 0 2 0 - $ $ , $ 2 3 5 C C 3 3 3 5 C a C a a a f a c c c s s c n l.v l.x.eXeXE.K.g K.Y.D.D.3XJXJXHXCXE.7 + 7 8 + + - y v eXE.).~.S.5X3X-X[.-X-X:X-X X[.6XDX/.R | dXjX_.' dXnXxXy.i.cXlX0.9.-.-.<.0.lX2.*.=.t.t.=.=.5.6.5.-.lX0.2.lXuXC ; @ > W Q.Y.).W E T.K { { E ! j ` tXtXeXP.L.b l j k x.k # # $ d U.eXb > o X O X X O - h tXHXR.#XHXoXR.%XNXAXQ.W ^ _ ( ) ) j i i ",
"z x ~ / ] [ _ _ Q.BXHXMXc.oXHXCXoXAXeX8 + % % X O . . t P.E.E.0 6 # 7 f z.f k b j ( 0XI.8XtX8Xb ! E T.{ W _ { _ ).' W Y.q . % <.lXuX<.0.y.-.6.t.5.6.=.=.6.5.*.*.t.t.6.-.6.-.-.u.zXzXzXxXnXfX| } _.dX| [ ' aXDX3X[. X-X-X-X-X X-X5X*XF.<X<XE.) f 3 + X - - + # j.NXHXGXJX3X,XJ.W.R.K.k.R.E.8XE.l.b b b n c v v A c c C a a a C c 5 a C a ; y C C c a 3 2 2 2 2 2 y i u h j x s u 4 : 4 J K H Y.D.{.F.'.F.F.F.F.Z.s.s.A.R.K.K.U.<X6X6X5X{.[.-X-X-X-X-X X}. X[.[.'.[.!.!.S.G G ^.Y.9 # 9 d.A.e H A.D.D.H G H H _ T.' J W T J q 4 q q J H r A.J.D.e H K.L.w 6 9 Z.D.(.D.G D.S.H.&X[.[. X-X X X-X-X-X-X-X&X[.5XJX2XgXT.K.H A.s.e s.Z.H.H.F.'.G.J.Z.D.K.H K a 4 4 : K ! u u 4 u a y V C y t 3 C C 5 5 5 3 a $.A a C C a C A a C A C c z x ) P.l.b x.E.E.E.E.E.R.K.c.W.OXJ.,XOX%XCXVXv $ + 8 ; % - 3 5 K T.Q.H J.6X;X X[.&X-X-X-X X[.1X_.T T aXjX)._./.dXxXy.8.i.cXiX<.$.6.6.6.sXt.1.$.2.6.=. .=.-.6.t.0.lX<.%.0.bX0.< X @ j Y.Y.(.Y.{ qXE ` qX! ! ! P.U.tXNXtXU.h j j d x.x.7 . 7 0 U.L.P.t + X X X X X % 7 v.NX#XHXGXE.oX+XGX+XQ.T.qX] ] ^ s s a a ",
"a a P L ^ 0XgX/.T.+X+X#XoXoXCXHXCXMXv.$ + X % X X o # h U.U.l.7 # . 8 B.z.t P.j g _ tXyXtXI.L.Q ^ E qX{ K qXaX_ T.gX' E # . 3 9.pX0.%.6.-.-.6.5.6.1.O.O.r.=.R &.e.t.6.6.6.<.+.0.i.i.i.u.xXr._.} _.`.dXaXT T.<X~.[. X:X:X-X-X-X X;X5XS.A.Q.( 3 - ; ; - - $ # 7 eXCX+XW.OXG.OX,XG.G.R.K.E.E.E.Q.Q.L.l b ( n b c n A A v c C c a a c a @.A V C y N y C A a y y a a t i i u t i ~ J q 4 4 J u p Y.A.G.G.J.H.F.[.F.F.s.s.s.d.A.A.Q.).2X6X6X{.&X-X:X:X-X-X X X-X X[.[.H.S.S.S.G S.^.Y.D.e 6 6 K.K.d.e G D.A.H j q q : : : : : : # 2 : 4 u r H r e e r w 0 g 9 9 A.J.D.!.G G D.S.Z.H.[.[. X:X X'. X>X>X-X>X&X;X6XKX<XgXT.W H A.s.s.s.f.F.H.F.].].{.Y.Y.Y.E u a u J u K ~ 4 q q 2 y ; C y y a a C a 3 C C c A A C C c c a c C C C A A A 8Xz.b l.l.U.tXAXQ.E.K.R.oX+XE.XX3XJ.F.].W.%XVXv.7 - + 8 - - 3 * 2 ( Y.e 3X;X X X-X:X>X-X-X[.F.~._._.kXjX`.2X(.).e.xXy.i.i.zXw.<.2.6.r.e.r.sX5.5.=.2.*. .=.=.2.<.-.%.-.6.<.<.<.< O . > ).AX/.T.aXT.K ^ aX/ ^ I.b ) U.tXyXL.u j ( U.k z.8 . # 7 d d P.i $ X X - % % + - l.c.HXCXoXoXoX#X+XR.W.DXgX3.Y P 5 I $.;.",
"$.5 5 #.^ qX).<X<XW.%X#X#XXXoXCXVXx.f 8 X + = % +   7 k l.h w 7 # . 7 n v P.8Xh u b tXqXT.l Q 0X/ U qX;.p ^ aXT.T.gXgXu .   3 Z %.%.9.0.@.%.6.2.2.#.#.2.&.*.&.r.sX6.5.t.t.-.-.u.zXi.i.zXxXfX_._._._.jXkXdX_.^.J.{.-X:X:X-X-X-X X-X;X,XD./ 5 , = ; - - - $ $ x.E.VX#XOXJ.G.OX3XW.+XCXE.E.R.K.<X4XQ.U.L.L.P.P.P.n n c A A A C c >.C C c C c c C A C y a y y 3 t i t t t u t x ! E J F 4 u u _ T.Y.R.W.].F.F.[.[.Z.s.s.s.K.H W Q.gXJXKXJX3X[.&X:X:X>X X X X-X X X[.H.S.S.G G G S.D.~.J.e e r 0 0 w 9 9 q q q t u 4 > : : : 4 , > 2 4 > $ : 0 0 0 0 6 6 9 r G.J.Z.S.D.Y.G ' G S.S.&X X-X X X X[.>X:X>X&X[.,XKXKXJXAX).Q.H Z.e e s.].J.[.'.F.{.J.W.U.U.! s p u u J E E p u g u i t y y 5 y 3 C a C A a C A v z n >.>.) ~ ~ >.c c c n P.U.eXeXQ.oX+X+XJ.A.W.+XR.NXAX+X,XG.f.].OXXXc.BXx.$ $ t $ * = % ; C K.(.3X&X;X-X X&X:X:X>X*X*X2X_.dXkXjX~.!.G ^.jXmXxXcXcXi.zX0.-.-.r.e.e.e.5.5.=.$.6.=.O.#.2.6.-.%.<.-.@.Z C < X . > qXaX' { T.^ U J ] / _ ( Q L.U.tXAXL.q i ` U.g l.f . + 7 0 j l h 2   O + - % % % 8 eXGX#X#X#XoXoXG.,XJX).).qX*.$.@.@. .<.",
"N #.$.5.` qXgX<X2X,XXX@X#X#X+XCXHXeXt + % % = % X + t k k h t 0 # # h l.h z.I.l g b yXtXT.L.g Q ! I ;.P K ^ T.^ ' [ T.J @ . * N C %.%.-.-.=.$.2.$.*.*.5.2.*.&.*.6.lXt.&. .&.6.i.zXi.cXcXmXnX_.D.D.D._.jXdX_.`.<X*X;X>X>X:X[. X-X.X;X,XY.J 5 * % O @ $ 8 # t rXVXg.XXG.A.G.J.OXOX+X+XR.W.R.G.W.OXR.+XNXeXv.U.P.P.c c A A A A n >.A C c A A a a c a C C C a a a i i i g i j x E p q q J j s ! _ K.Q.K.G.H.F.[.[.].s.s.e A.A.Y.gXDXDXKXKX6XH.&X:X&X:X-X-X X-X-X X XH.!.G G S.^.D.S.Z.S.S.A.r 6 7 w w 0 6 7 $ 0 t > 2 : u K P u u j j h w 0 0 w g r r r e A.A.Z.Z.Z.A.Y.' ^.G G H.&X-X X X X X>X-X-X:X X[.<XJXKXJXDXJXW.Z.G e Z.g.'.'.].{..XF.d.U.E.( P p J J q q g Q j j g g g i i y C C C C a c a A z c n b P.7XL.j x P x s ~ ) ,.P.U.E.tXNX+X{.G.G.F.XXW.R.R.+XXXW.J.G.g.g.g.oXHXrX7 + $ o + % % ; y Y.,X;X X.X;XH.H.>X>X&X{.1X2XjX/.jX`.*X!.!.' dXnXbXmXcXi.i.i.i.+. .e.xXt.Y =.$.=.2.*.6.5.#.2.-.%.@.%.<.V 3 & . @ / { ^ ^ J U U J u ^ ! ! ( g Q E.tXtXg q p I.L.k.v z.7 # 8 k d g x i + X % ; % % % 8 eXHXCX%X#X#XGXOX4X1X,XgX0X6.6.=.$.N +.",
"@.$.$.6.t.aXgX<X3X,X4XGXXX#XCXCXHXMX8 + % % % % O $ h k h g h 7 # 7 n n h z.L.l.q 0 eXI.U.L.g E ! ~ ^ u K E K H W W [ { >   X 3 Z %.Z @.<.=.@.#.*.2.2.2.=.=.=.=.5.sXt.*.&.t.lXzXcXzXcXzXcXkX/.D.!.1X`.dX| dXjX`.,X*X*X>X&X[.&X-X X X*X<XE 4 & % % + - - + d HXHXG.G.f.F.J.A.R.GX+XG.G.(.W.G.G.G.OXoX+XQ.U.U.U.( ) >.~ s b b b U.7X) c x c c c C C a y C a c a i i h j j j x l j q q u u s x ^ I.R.d.Z.OX.X'.'.G.F.A.e e A.(.JXJXJXJXJXJX&XH.:X-X-X-X-X X X[.}.{.!.G G Y.Y.' G D.G Z.G Z.Z.r d.d.d.d.e w r k.l K.u g ^ T.T.W H K.A.G.d.s.s.s.s.g.G.A.Z.s.G Z.J.(.D.^.' ^.H Z.&X[.[.[. X X-X:X-X-X:X&X,XJXKX6X1X5XJXW.G G S.OX{.g.f.].{.{.].A.k.( c s s 4 > q g g Q j j g h j z z a A A a y c c c c c c b ( U.L.l Q E p E ! ,.7XI.U.W.U.K.R.R.OXOXF.J.{.OXW.+X4X+XR.G.g.s.f.R.%XHXV.8 8 7 $ @ * ; ; u ).3X-X X X[.*XH.>X*X*X,X<X^./.| /.DX2X~.^.`.sXnXmXcXcXcXxXy.cX6.-.6.u.t.6.-.2.*.*.R R 1.Y 5 #.$.%.<.Z C ; @ . q aXT.J K u K K u J ^ K ! Q u l Q.E.T.0 0 u l L.l.l.8X8 . 7 ( l q h v $ X % % % + ; v tXNX#XVXoXM.@XOX,X<XDXDXsXsX6. .+.%. .",
"<.$.N 6.sXhXjX<X<XOXXX$XXXoXCXoXMXrXx.- X % % % O - v h d j j 0 # 7 B.l.k L.j g 0 0 U.Q.T.L.r _ E p ` P p K K J J H T.gX~ $ . % 3 C <.%.2.$.L L Y 1.Y *.2.=.-.6.sXu.t.r.t.u.xXu.cXcXzXcXbXfX`.^.!.1X`./.} dXgXgXAX3X[.;X[.&XH. X-X[..X<XT.2 @ * - - $ $ @ z BXGX$X].s.s.d.R.oX+X+XOXW.,XJ.J.{.+XOXG.G.R.R.T.T.{ _ _ p j Q Q g l L.b j x x c c a c C a a a c a a z i g j k l ( j u q 0 4 i x ! l Q A.G.XX{.].G.f.G.,XJ.e e J.6X5X5X5XJXJX1X[.:X:X-X-X-X-X-X[.[.[.&XS.S.D.Y.' ' ^.(.D.Z.G G F.A.G.g.g.a.s.d.G.A.K.H Y.Y.Y.K.D.A.A.g.F.f.f.s.f.f.f.f.f.Z.A.W.(._.(.' ' D.Y.D.S.H.H. X X-X-X>X X-X:X&X[.,XJX6X1X&X=X*XJ.e Z.,X,X].g.].G.g.g.R.Q.L.u I I 4 : q q g Q l j h i i j x x x c c c c c n n s ! j g g K.l g r E L.E x ! ( T.Y.W.Q.R.G.R.OX3X{.$X,X1X3X+X+X+X+XG.s.e ].$XCXCXMXf $ # @ @ & ; * P W.*X[.[.{.{.*X[.;X*X{.6XFXkXdXdXdXDX6X~.G dXfXxXbXcXcXcXfXr.t.u.y.u.6.zXlXt.t.6.5.R J L Y U ;.2.<.:.C , o . u aXgXqX' W J ^ K u P ` p j l g L.tXNXQ.0 0 0 u l g P.8X7 # $ b g t i c 2 X ; % % X & A eXE.#XVXVX%XXXG.{.,X).gXvXsX1.5 +.$.B ",
":.$.N 6.t.fXdX).OX{.G.OX#XoXCXoXv.V.v - X X * % X - n h h h j > # 0 8Xl.g l d 0 > 9 U.AXAXE.0 Q j u I._ p p ^ E W J { gXgX( > + @ 3 :.:.2.3.;./ / / L 2.6.lXu.zXlXt.t.t.y.t.t.fXxXmXcXi.zXnXdX^.S.=X2XjXfXdXaXkXDXW.H.*X*X*X~.*X-X[. X{.Y.u ; ; + - - + 8 I.Q.%X3XOXf.e d.oXGXoX+X+X6X,X*XOX+X4X@XXXR.OXQ.Y.Y.T.^ ' W [ T.K.r r k.Q l j b x s c a ~ c s c s c ~ x h u g g l b b g q u t i s s i Q W.R.g.s.XX].s.G.,X,XS.Z.H.&X&X&X=X6XKX6XH.&X-X-X X-X:X-X-X X[.H.J.D.Y.' T.' [ /.).(.A.Z.Z.F.s.s.f.f.f.f.d.Z.A.A.D.H Z.G D.J.J.].G.F.F.F.'.f.f.F.G.G.D.Y.)./.' F ' Y.D.(.,X[.F.;X;X-X>X:X[.-X&X[.H.6XJX5X:X&X:X[.J.G.H.*X,XG.g.XXg.d.d.d.k.) s I 4 : 4 p t d k.l l h h i x ) ) ) b x b b x z ) x x Q g K.l.l.k.Q U.T.I.` ` T.qXY.W.W.W.OXOXOXOXOXOXOX,X4XR.R.oXCXoXR.f.G.$XOXoXBXrX$ . @ O & 2 4 T.J.F.[..X3X4X,X3XH.H.Z.H /.dXdXdXkXDX2XJ.H dXnXlXu.0.xXcXfXfXt.lXlXu.zXzXlXu.lXsX5.R 3.5.5.aX4./ a y 2 - 2 t 0XgXT.' W J E ^ E p E ) i j g w E.NXNXQ.0 0 0 u d 0 8X8X7 $ 7 q g l z c 8 X ; % + % $ y l.E.M.j.oXCX$XOXOXW.).aXsXaX2.O.-.+.N ",
"4.4.2.2.t.sXT.K.W.,X%X%XHXc.j.oXv.x.f 8 O % = * o 2 n x j j q # # 7 P.P.0 0 q 0 6 r L.tXtXtXr w k.q ( ( u E { E K J W T.qXI.( t 2 2 2 4 s 3.wX5.aX4.;.4.wXlXlXlXlXu.u.u.xXt.fXfXfXnXu.u.zXxXkX^.S.1XDXjXdXe.fXkXY.G D.H.*X,X,X1X;X{.].G.NXI.3 * + + +   h tXoXOX.X|.d.g.oXMXoXE.R.+X4XOXW.OXXX$XOXOXG.J.W.Y.' ^.[ T ' Y.Y.K.A.K.A.k.K.l.b x c c a z x x s c ~ ) ) j g g g b b k t i i 4 2 y c x ! j k.d.g.g.n.G.G.{.J.&XH.H.[.-X:X>X6XKX6X*X&X[.-X X-X:X:X:X-XF.G.,X,XD.' ' T T ' [ ^.J.Z.H.F.F.F.f.'.F.F.G.{.{.J.D.S.S.S.S.J.*X,XOX{.].'.F.'.F.].J.A.D.' ' [ T ' T G H ,X6X*Xf.[.>X>X-X X-X X[.;X5XJX6X5X>X>X&X[.[.{.*XH.[.{.g.c.R.R.R.l q j ;.@.3 2 4 p d d h.l.b x i h x ) P.l j h l h h h ) c ( Q Q L.k.k.K.K.K.Q E ( ^ [ [ Y.Y.D.A.W.OXOX<X+XOXG.OXOXOXG.R.E.+X+X].F.G.OXXXC.BXf + $ $ % ; @.SXOXJ.{.{.<X<X4X,XH.{.~.' dXnXe.R aXjX(.D.).FXmXcXi.u.y.fXfXfXfXxXu.0.0.0.zXzXu.5.5.1.sXfXqXqX/ u 4 2 2 t ~ I.E E Y.J J W E _ E p p ( j g i w E.tXNXU.6 0 0 h 0 7 eXP.$ 0 7 0 q ( b v y + % X % 8 t ) E.E.j.w MXCX%X3XOXJ.H 0XaX3.aX6.t.=.5 ",
"wXwXsX5.*.t.[ H W.3X$XOXCXE.p.p.eXrXB.y ; % O O + 8 A z l t 0 > 7 $ P.P.0 0 k.g 0 9 k.Q.Q.eXL.d k w L.b j p ! U ^ J J W Q W L.( i t 2 4 4 p 3.sXhXsXwX6.2.6.lXzX0.0.u.u.cXxXfXfXdXxXt.i.zXmXnXjXD.(.2X/.T e.fXfXT.Y.,XJ.,X,X,X,X{.{.{.OXAXtXf * ; ; + 8 7XQ.R.OXG.f.g.oXCXoXR.d.G.OXOXR.R.$X3X4XOX,XJ.A.D.' ' [ [ T W G H H K.K.d.R.K.k.b n n n z h h z z z x ) ) x j g j l.v h t h i u 2 4 C >.s 4 i U.E.R.g.].[.[.H.&X:XH.&X;X:X>X5X6XJX5X>X&X[.[.&X:X:X:X-XF.{.6X,XA.G F R ] [ ' Y.A.F.J.F.Z.F.F.F.G.{.{.,X,X*XD.Z.S.S.S.S.(.W.OXW.J.G.F.f.Z.Z.D.A.Y.' ' T ^ T F D.D.J.3X*XF.&X>X>X-X-X-X[.-X,X3X6X5X*X:X>X:X[.[.>X>X[.[.{.G.K.E.E.K.Q p u a a 5 2 2 i i h k l.l.z h i c ) n h h k g h i z c b l g k.K.k.g k.A.A.Y.' ' ' ' ^.' Y.D.D.,X(.OXGX4X+XOXR.W.W.s.G.R.#XCXOXG.f.g.G.a.NXrXd $ - & ; y I.Q.OXW.A.R.Y.J.,X*X1X_./.nXxXxXS T jX(.^.gXnXmXmXi.i.fXdXfXfXxXnXcXu.0.7.u.xXt.Y 4.sXsXwX4.P s s s p u u u E E E _ W W [ J E u j x l g h g U.Q.tXQ.g 0 0 g L.d t rXc $ 0 0 9 w g f f ; % % % ; V v rX8Xh.d j.#X#X@X3X3X).T.aXT.T aXsXe.=.O.",
"1.5.kXe.J 5.aX/.(.3X3XXXc.MXv.p.h.eXB.B.A ; O - + 2 y h h 0 9 0 0 7 z.eXt d U.l 0 6 g tXE.E.E.k.g r L.l j u p U ] J K ^ W E Q j u 0 q ! ! p p ~ wXsXhXwX$.2.lXxX-.0.u.cXcXnXfXdXe.fXlXi.cXmXmXdX(.J.).).J *.xXxXdX^._.,X~.OXA.Y.G.J.W.+XU.z - ; ; 8 - B.BXR.f.f.n.g.XXCXCX+X+XG.d.W.OXR.+X4X4X4XOX<X,XY.Y.' } T.' ' ^.Y.H A.Y.K.K.c.k.l.b c c n z h i k l h z b >.c i g g l.n z y t u 4 2 a a a a u j l R.oXXXG.{..X X>X:X&XH.&X:X>X*X3X6X5X;X;X[.[.-X-X:X>X-X'.{.5XH.J.D.G J T ^ _ Y.Y.G.J.D.G.F.F.G.{.OXOXOXW.J.S.S.S.S.Z.D.J.W.W.W.W.R.G.W.J.J.A.A.H W W W T J q D.,XF.[.[.[.[.>X-X-X-X[.[.;X3X,X3X=XH.&X:X[.H.;X>X>X&X&X{.A.E.U.U.l i x I 4 4 2 4 5 z t t f P.l.h z a >.n x j l L.g h x ~ c ) b Q K.U.R.K.Q.Y.D.D.W./.^.' } Y.^.^.~.1X*XJ.4X+X<XNXW.J.G.A.,X4XoX+X%X%Xn.s.f.oXVXUXz.+ 8 2 - 2 2 k.E.<XQ.Y.A.Z.D.*X(.' | fXt.&.5.kXDX(.D.T.kXmXcXi.cXxXe.dXdXfXxXlXcXu.-.6.t.1.6.sXvXhX,.p s / 7Xj > q u u W E K K E K E ^ u p b I.Q d t d eXE.E.E.w 9 d L.E.k l eXd 0 7 0 q 0 t d A - + - % y B.v n d d j.MXoXc.].OX,X<X/.{ W F dXkX5.*.O.",
"] sXjXaXJ J qX/.<XOXOXXXE.MXoXj.d d v A A C O % X - v z t 0 w g 0 7 t eXn d eXU.d w 0 E.eXE.eXx.d d l P.( s a K P U U E K E W Q q q u q _ qX` u I qXnXvXwX4.e.6.<.0.cXcXcXy.fXdXdXr.xXcXcXzXlXe.^./.).FXhX5.t.r.fX} ' (.J.D.A.Y.).Q.Q.K.0 $ - 8 ; - - tXKX%XG.f.f.g.%XGXXXOX3X{.Z.G.XX4XOXXX$X;XJ.,X~.!.^.^.' /.Y./.W.Y.D.D.A.K.k.K.eXl.n n c n b ) l h b L.x z n c x h h b P.f 2 z c 4 2 4 2 5 5 L u _ U.Q.R.G.].3X-X>X>X:X[.H.&XH.&X;X*X*X5X5X{.[.[.-X-X-X&X X*XH.S.J.D.G G T K W K.A.A.A.A.W.J.J.G.OXOXW.W.W.J.S.Z.Z.G Z.D.W.J.G.W.W.W.W.W.J.A.Z.H H H H H W Y.H A.J.F.F.[.>X>X-X-X-X[.[.*X6X6X*X{.>X&XS.[.H.[.-X>X>X:X;X].R.K._ qXI.p i u 2 4 2 3 2 C a 2 z P.l.h z z >.c z b L.l h ( ~ s c >.8XeXU.U.g r H Z.G Z.S.D.' G G S.!.!.!.!.S.H.A.d.g.<X4XOX{.F.{.OX$XXXCXXXa.R.G.].%XHXV.8 8 ; - @ - t k I.gXgXY.D.S.(.D.[ t.r.t.t.nXkX`.`.`.aXvXzXcXcXcXr.fXfXr.xXxXxXmXmXt.&.&.sXfXnXhX,.a I 4.qX/ K u J E ' _ E E _ ` ! P p P ( 7XP.h k l.U.U.L.E.k.0 0 w E.U.w z.P.t # r w 0 w l n B.+ X % % C A z f f k B.V.v.#XOXJ.OX<X/.' ' Y./.kXsX5.O.",
"e.kX/._.[ ' T gX<XJ.G.XXMXMXv.eXx.f f f A f - * + - v B.k g w q t 7 0 P.z.d l.U.w 6 w k x.E.x.x.k.k.k b ) ` P s P P ^ ^ E ^ W _ W W q K ^ { ^ ,.s / qXvXnXfXe.5.6.cXcXzXy.xXfXfXdXfXmXcXi.cXcXfXaX_.gXjXnXnXxXt.t.e./.(.Y.J.W.Q.tXT._ u $ @ + - y - t BXHX@XF.].d.g.%X%XOX$X].F.H.,XOX4XOXG.F.F.H.S.S.G D.D.G G A.D.S.Z.G G H r 0 h 8X7XqX0X>.x x x b x b ( b x A c c h h n >.z t 2 s 4 4 4 , 5 a a a / 0XT.E.R.]..X;X-X>X-XH.&XH.H.&X:X&X*X6X6X,X{.H.-X>X X>X>X[.F.Z.Z.Z.Z.' ' J r W A.A.A.Y.D.W.J.W.J.G.J.G.J.G.J.Z.Z.H.J.J.OXJ.G.G.W.J.W.W.W.D.D.A.Y.K.H H K.Y.K.e Z.Z.Z.H.>X>X-X:X-X[.{.4XJX6X;X[.&X&X&X&X[.&X[. X-X;X'.g.OXT.qXqX,.P a a u 2 a I a a 2 t c l.b h i c c c s ( ( ( ( ( p a ;.A 7XqX7XP.u 9 6 e G G G e G G !.G G G S.S.S.H.G.].{.].OX3X*Xs.F.].%X#XCX#Xp.g.G.G.OXGXMX8 - y @ % @ - z ~ T././.(.(.`.gXe.t.t.lXcXxXdX} ^._.dXmXcXi.y.cXfXdXfXxXcXxXcXcXcXlXt.sXfXnXhX>.,.wXwX^ ^ E E ^ E ! ^ ^ ^ ! ~ ` ^ ! ~ ` 7X( k d l.P.x.k.eXk.w 0 6 k l.d d P.k.7 0 g q 0 r ( B.a + + % 3 :.A f z z.B.B.x.E.+XOXG.W.).T.T ' T.aX| 5.sXL ",
"e.aX/.`./.W E T._.(.W.Q.eXj.x.E.z.v v v A A ; o % $ f 8Xb g 9 w k.d 7 k B.h.d z.l.7 7 w x.eXB.x.eXk h h x 7X7X/ ! U ^ ^ ^ { _ ^ W [ ' E ^ P ! sXhX4./ qXnXkXhXaXfXcXcXcXcXxXxXfXfXxXcXcXi.i.cXr.| /././.kXvXlX6.r.fXdX).).2XW.Q.T./ a 4 $ + $ - ; - z.CXCX@Xf.XXa.m.CX%X$X$XF.f.F.3XOXOXOX|.].F.Z.Z.S.S.S.S.S.!.Z.e G G G e 9 0 2 a 9X7X7X! ` ` p ! ! ! ! ) ( x ~ A c i i v n n y 4 s 4 P 4 5 2 4 t K Y qXqXqXQ.A.F. X-X-X-X X&XH.&X&X&X&X*X6XJX6X>X'. X;X X>X>X[.F.Z.s.G G Y.W H W A.K.A.A.D.Y.W.W.W.W.R.J.{.G.W.{.G.J.G.OXOX].{.J.{.{.XXR.D.R.A.A.A.A.A.A.A.A.d.r e s.Z.H.&X&X:X-X-X X[.3X6XJX6X5X&X[.[.H.H.&X:X-X-X;X.Xa.g.Q.gXaX5.~ a 2 2 2 2 a a 2 y 3 a >.n j f z c n c x ) ( ( ! E p P qXqX~ s :.>.a 2 0 9 e A.Z.S.G !.=X!.S.S.S.Z.F.[..X{.$X].{.3X|.f.f.].$XXX%XHXa.a.f.f.OXGXHXMX8 $ $ - o @ 4 a P _ Y.<XDXgXsXlXu.u.u.u.xXdX/.} } e.lXzX8.u.cXfXfXnXnXxXmXcXmXcXxXsXsXkXkXqX/ qXPXkX3.P K ^ 3.{ U ! / { ^ ! P ! ~ ,.7X( d d k x.z.U.x.E.g w 6 d E.v.k U.P.d 7 k.l w 0 g l.B.; - * X 2 C y y n v f v k w d.R.W.AX).W H T.).kX{ sXlX$.",
"fX| ' `.^.).' r ).<XW.R.h.d l.k d v c a y a 3   + % - B.l.g w 9 g g 7 d z.eXk z.eXd 6 6 d v.eXx.z.l.k i d z 7X0X/ ! P P ^ ^ _ ^ ^ [ { ] U Y 3.vXnXhX{ 0XhXkXaXe.xXnXcXcXcXmXxXxXfXfXcXi.8.y.xX&.e.| /.dXhXt.u.zX0.u.sXaXjXDXW.T.! 5 1 * * $ $ - @ c HXHX%X].f.e 6 VX%X@X@X|.F.f.F.OX3X'.'.{.$XOXF.Z.Z.S.S.S.!.:X!.H.F.Z.s.r 9 $ 2 a I ) x I.gXqXK p K P ! ~ ) x x c A v z z c ) z y 5 2 a 4 4 4 4 t a I 5.aXgXU.K.s..X5X X-X-X-XH.[.H.[.[.*X5X6XJX5X{.}.;X>X-X&X[.H.F.G e e H H A.H A.H H A.H A.A.A.R.OXJ.].G.].{.OXXXG.G.F.].G.F.'.G.J.J.G.A.A.A.A.Z.e G r H d.d.s.e G Z.H.&X[.-X>X X[.>X6XJX6X5X-X[.H.H.&XH.H.-X&X;X3X].n.+XW.aXqX3.I 5 4 u a s s a 2 a a C ~ x z h n ) n v x I.) j j p u ^ qXFXgX,.>.c a t > $ 0 H J.*X=X&X&X!.S.Z.Z.F.Z.F.].'.F.f..X$X3X@Xf.'.'.@XoXCXm.6 d.F.OX4XHXUXv + $ $ * * , 2 5 U ' /.jXe.sXzXzXzXu.6.t.fXdXdXdXr.&.i.i.i.xXfXkXxXxXcXmXmXcXxXxXe.5.hXaX[ qXkXnXhXfX5.] ] 1.;.;./ / / P K E ^ ) ) ) i d v x.h.x.eXeXh.0 7 7 k E.l.x.eXk.0 0 l q 9 r l U.B.+ % O & @.3 2 t A f t y h g K.A.).).' H ).gX)./.{ sXlXu.",
"fXe.} ^./.DX).H Y.).Y.Q l k l t t y i i > 3 C - + % + z.U.l.k.9 w K.w d l.eXV.h.x.U.w 7 0 d eXB.z.v x.v l h j x ( ! ! K P ^ / ] / ] 3.1.Y 4.sXfXvXPXaX{ qXgXaXaXsXxXcXcXmXxXxXnXnXxXxXy.i.i.u.&.fXfXdXdXfXsXy.cXzXzXlXwXgXdXY.` L 4 < & % - $ $ $ BXUXHX%X'.G.a.p.CX#X$X$Xb.f.'.OX$X4X].f.f.].'.F.Z.Z.Z.S.S.!.!.=X=X*XJ.r 9 t - a C c I.T.gXFX/.J u J K P ( ` j x n A n z i x ~ c a a 2 u s s a i y a a ,.wXaXW W.G.].3X;X X-X XF.[.H.H.H.&X>X6X6X6X6X X[.5X-X[.{.H.Z.s.e e e H r e e H H Z.A.A.K.G.W.XXG.F.].G.].G.F.{.].'.F.f.'.'.G.].].G.W.G.A.A.A.G e r H r K.A.r Z.e S.&X[.-X5X X X5X6X5X,X;XH.&X[.H.[.[.&X[.'. X].g.@X<XK.T.^ ;.a 2 3 a s a a a 3 a C I s x z z n >.n v x P.) j u q H W Y.).Y._ 7X:.:.2 @ 2 t H D.=X=X=X!.S.G S.H.F.s.f.F.'.'.'..X$X$X%Xb.b.}.$X%X#XoXp.G.].{.4XKXHXBX$ @ @ * - @ * 5 / aX[ sXsXlXcXcXcXmXu.fXdXdXdXfXy.-.cXzXi.cXfXkXfXxXxXmXnXxXxXxXkXfXhX[ T.gXkXkXsXsXaX5.4.#.#.4.4./ P K ! _ ( E i t b b z.l.k V.eXv.t 7 0 l.x.d d V.x.k.k.l.k.9 r K.l.8Xv X - X , 4.4 2 2 i y t y i g T.T.W ^ W Y.FX/.Y.^ { wXt.u.",
"r.5.| ' G <XAXQ.W _ _ { I.j d i t i 2 2 , a :.3 + - + f 8Xl.k.r e k.k.k d f x.f d h.L.h.7 7 x.eXB.x.k l.b l j q j E ^ ! P P / 1.4.#.#.5.5.aXsXaXhXkXkX0X{ aXnXPXfXlXxXxXcXxXxXfXfXfXxXy.y.cXu.t.nXxXdXe.t.fXlXcXcXcXvXlXfXT.5.4.a 3 & & ; ; $ # z LXHXJX4XXXR.a.k.+X%X@X$X|.b.].$XOX.X|.{.'.F.F.Z.s.Z.H.S.S.!.!.=X=X~.D.W t - @ < a >.T.U.W.W.A.H q J p s ! L.( j x >.B.z z x x c :.a 5 4 a a a a 4 2 5 @./ _ D.W.{.f.]..X}. X X[.H.H.[.&XH.&X*X;X6X6X;X'.-X-X X;XF.e Z.H H H A.s.H s.H A.A.D.A.G.R.OXG.G.b.'.F.F.'.'.{.;X[.'.'.].'.].G.XXW.R.G.D.A.A.e r A.A.k.K.A.A.A.e Z.{. X X X'.;X6X6XH.=X=X[.-X&X[.H.[.-X-X X|.b.f.OXJ.W.U.~ c a 3 a @.3 4 2 5 i c A x s s a c ) n b b b ( ) W p W W H G D.A.Q ) s @   o $ t Q D.!.!.=X=X!.S.!.S.Z.f.F.'..X3X3X{.].|.@X}.}..X.X%X+XMXk.a.G.OX4XGXHXHXd . - - * O @ - ;.vXt.t.lXlXzXbXi.cXfXr.fXe.fXy.y.y.cXi.zXcXxXdXr.y.xXfXxXxXxXxXmXnXhXT.T.jXjXaXe.sXt.5.5.1.1.2.2./ P ! ! E j q q r b k k v x.eXx.8 6 0 b v.h.7 x.x.k d g k.r 0 k.r k.8X8 + ; O 3 a 2 4 u > 2 i i t E Q.gX{ ^ _ W.DXY.G [ | R r.&.",
"&.R e.T G ^.<XY._ / { aXaXE q z y 4 2 a 4 4 C 2 X % % f 8Xl k.K.9 d.k.k h.k x.z.t d x.l.d $ 7 x.B.z.v k k k.j r u g E ! P P Y ;.6.$.=.2.6.e.sXaXaXaXhXgXqXaXkXnXmXvXxXxXy.r.fXr.r.r.nXy.i.i.i.i.xXnXdXr.r.r.xXcXzXzXlXlXsXe.sX6., O % % - - @ # tXUX%XGX4XR.e 9 R.oX%X|.|..Xb.}.$X.Xb.{.3X3X-X'.f.Z.Z.S.!.S.!.=X=X!.D.W J 2 @   o $ i K.A.A.Z.A.H W K p x ( ( l.l j n A n x j p s @.c y 5 2 i y C C 3 N a ) Y.(.~.OXf.f..X.X X X-X[.H.&X!.&X:X&X*X3X6X3X[.[.-X X-XF.s.H A.H Y.K.A.A.s.s.e A.G.G.G.J.G.G.].G.'.'.'.[.[.;X;X-X[.F.f.n.n.g.G.].G.G.J.F.Z.Z.s.A.A.A.A.e H A.Z.Z.[.{. X}.-X3X5X5X[.5X5X1X*X[.[. X X X X.X.X].'.{.~.`.Q.7XA a a V $.C a 2 y s >.~ x u a c c ~ b k b P.x b j E W D.H Z.s.R.E.d @ . . #   @ q F G !.~.`.!.S.G Z.s.Z.H.[.;X5X.Xf.].4X$X.X X.X}.$X%XoXE.a.s.$X3XOXGXHXz.- $ - @ @ + @ 3 wXt.6.u.0.zXzXcXxXxXfXe.fXy.y.y.y.cXi.w.cXkXfXr.r.dXdXfXfXnXnXnXvXsXgXgXFXaX0XsXmX6.=.=.6.5.1./ Y ;.! j p g q r W h h d x.x.V.d 7 $ d z.k 7 d B.d h.d r l.r r K.g U.8Xt + +   a #.4 P P t y a i p T.qX5.] U p W Y./.' T T R r.&.",
"5.&.S F [ W.Y.r E P ^ 0XaXI.i i y 4 4 ;.I i :.C O X + 8 rXU.r d.r e d.w k x.f j.d 7 d U.k.7 6 8 z.z.z.k.g g l g g q u p U P Y I 2.sX6.O.#.t.nXnXaXe.hXkXhXtXhXPXnXmXmXy.r.r.fXdXdXdXxXxXu.i.i.i.y.xXe.r.fXxXy.cXcXzX0.0.sX6.6. .* + % - % + $ d rXGX+XXX%XG.a.R.+XoX4X.X}..X}.$X$X4XF.f.;X3X;X&XF.Z.Z.s.G S._._.!.F H q : . . o +   # w d.{.s.Z.A.Y.W K E l l K.Q h v B.A x x u s c A a z 2 s ~ ,.V y C C ,.T.<X~.{.{.].|..X X X-X[.[.&X&X=X5X5X;X X5X5X-X[. X X[.H.Z.Z.e q A.A.A.H r H A.A.F.J.G.G.].G.f.G.F.F.'.&X-X;X-X[. X'.].].].].].G.G.G.J.G.Z.Z.A.A.d.A.r A.e r A.G.F. X X X;X5X>X X;X>X5X5X;X[.[. X-X.X|.|.|..X{.!.(.(.gX8Xa y V :.c S a 2 a c >.x i p a c >.c z j b I.Q Q p r H A.Z.Z.{.XXw . @ : : @ @ . # : F G _.2X~.S.e G Z.Z.[.&X;X-X[.f..X4X4X3X}..X.X$X%XoXNXoXa.G.{.G.c.tXBXB.+ - + % & @ 3 @.0.u.w.-.9.lXcXy.fXnXfXt.r.y.y.i.zX0.i.mXfXfXnXfXr.| r.fXnXmXmXhXgXkXFXjX[ aXnXmXlX*.#.6.sX1.I I / P u p j W r r l z.P.8Xx.d w 7 k z.l.t 8 d d k k.g w K.r 9 r K.tXA - X O o @.;.Y 1.;.s ~ c a ` I._ P u 4 4 r A.).Y.F T ] R 5.",
"R e.S F aX/.J q q J u u ~ >.>.c A #.s / { I ,.a O X O - n yXK.d.e r k.k.k k h.f 8 7 t b z.k d 7 d k.P.L.L.g l r g E K q p / ,.I / sXt.*.=.sXnXmXsXe.aXFXFXkXgXFXnXnXfXfXr.r.fXfXfXxXxXy.y.i.i.q.0.i.u.r.fXfXxXxXzX0.0.0.0.lX-.1 @ O * - + + f BXNXR.g.G.R.e c.VXVXXX4X X X.X X4X4X4XF.F.-X;X-X[.H.Z.s.Z.G S.1X`.^.' J > # o $ - - 2 # . w OXG.G.A.A.q E E Q k.L.L.k l n A ~ x s s s c c a t u p P >.y y V ,.tXAX,XJ.{.[.'.}.}.-X X X X X X5X6X5X>X-X-X>X3X;X X}.'.G.A.A.r r A.A.A.A.A.A.D.G.G.F.J.G.F.G.].].].{. X[.-X-X[. X;X$X].XX].].XXJ.G.Z.Z.A.D.W.Y.K.K.K.K.K.d.A.A.s.F.'.}.;X5X;X X&X-X:X5X;X[.-X[. X;X;X|.'.b.'.F.S.(.<XqX7XC ; y A u : u 4 a A >.c x p c >.n z z ) L.K.r W q E K.d.Z.{.OXd.# . 2 s q : > 8 3 > u Y.T.`.1XG Z.Z.s.Z.F.&X:X>X-XF..X5X4X3X.X.X}.OX%X#XCXoXe s.OXG.R.CXBXBXB.X O - & * O 3 0.0.w.zXu.0.lXy.kXfXt.fXy.u.8.i.cXi.i.cXxXxXfXfXfXfXr.r.sXnXPXaXgXIXkX/.aXkXhXkXsXt.1.sXsXI P 0X;.u p p E g W W ( ) b k d 7 7 k z.v f t 8 t f h.d k k.r 9 e g P.rXt + * o * a #.L Y I a c A c y i i a p p u H W /.[ J T 1.R R ",
"U e.J ' aX' J J J u u j x z y y a y a I P ^ I I , O % + t eXeXr r e r d.d d v t d t t t h v f 0 6 0 g l.P.l L.K.g j K K u Y ,.,.P 5.aX5.6.wXvXvXdXaXaXaXUXPXgXkXnXsXr.fXdXfXfXfXnXxXxXcXi.cXi.o.8.i.xXy.xXfXxXfX0.i.zXw.w.lX+., @ & - & X y rXMXCX%XG.A.W.w g.CX#X@X3X.X X X.X4X4X4XF.H.&X>X>X[.F.s.Z.Z.Z.D.<X^.Y.H : > u 4 2 $ i n t . # w OX{.Z.A.H H q E r L.L.b j ! ~ c ~ s s I c >.a 4 u u s s 2 3 A >.tXgX(.G.F.F.F.}..X.X-X X-X-X[.;X6X;X-X-X-X-X5X>X X}.'.f.G.d.A.r K.K.K.K.R.K.R.A.F.Z.Z.G.].].g.XX].]..X;X[.[.-X3X.X|.].G.G.].].G.F.Z.s.A.A.A.A.K.k.K.k.H r H A.F.F.'. X.X;X-X X-X;X-X6X*XH.-X-X-X.X.X|.}.'.F.{.H.,X).0Xc A 3 2 s K J u y f V c c x P ! ~ ) c c n Q g H H H W A.Z.G.3XR.# 6 7 i ! u : 0 t A 2 2 j Y.(.~.G G Z.s.Z.H.-X>X>X&XF.{.3X4X3X.X X}..X$Xm.%X#Xa.A.OXOX%X%Xc.MXBX8   - - & O < 0.w.9.0.cXy.r.fXfXfXfXcXmXi.8.w.i.w.i.cXxXxXfXe.r.fXxXfXe.aXPXhXkXhXaXaXaXkXhXsXhXt.*.*.] 3.0X0XI J K p r g Q _ E ( b t 7 7 d v f t 8 - t t 8 t 0 r q r K.r r tX:.* O O @ 4 a P u a u 2 2 2 t $ y z s p K J J J U e.[ R ] 5.e.",
"5.5.] 5.| J J q J K p j p 2 > t 2 > 3 u 4 s a a 5 O O & + A rXk r r r g w w 0 7 7 t t 7 t f h d 0 7 7 j L.L.L.U.W q u J K P 0XwX/ { [ R 5.sXhXhXkXkXaX/.hXgXaXPXdXe.r.nXxXxXdXfXfXfXxXcXi.y.i.y.y.cXcXxXfXr.r.r.u.zXw.7.8.u. .& O % ; % + 9XLXoXg.OXOXOXA.w c.CXm.XX$X X X}..X3X3X3XF.[.&X>X>X&XZ.Z.Z.Z.Z.Z.(.^.' q q q x u 0 0 j z.t 0 # # G.4XG.s.e H H K.r k.L.b b x x ~ >.s p s c A y i J q K s 2 2 c A 0XAX(.J.J.[.F.'.}.;X;X;X;X;X[.{.3X;X-X-X-X-X;X-X X X'.f.s.A.k.H A.K.A.K.K.K.A.Z.Z.s.G.].XXG.].].]..X{..X;X*X'.{..X$X@XXXXX].].G.].G.Z.s.Z.A.A.k.k.K.Q d.d.d.s.f.F.'. X X X;X-X X{.3X3X'.H.-X>X;X;X.X}.'.F.{.6XW.Q.SXqXn A a 2 s P q p i z A A x x ! ~ ~ x x x x l g H Y.D.H e s.OX3Xe # k d t g g 0 9 g v y 2 t H W.J.G Z.Z.Z.Z.H.*X5X5X;XF.{.4X3X.X}.}.'.{.$XG.g.CXE.6 d.<XOXg.d.GXUXB.+ $ * % & 1 %.i.8...8.y.u.r.r.t.sXzXcXcXi.i.i.i.cXy.y.xXfXr.r.mXcXnXe.qXnXhXqX0XqXgXdXjXFXsXsXe.5.] ] qXhX` Y P K u q K.L.L.E j t 7 w l.k d t t $ - t - $ 0 0 w r r g k.8XrX; + & X @ L a 2 4 4 2 > > $ $ t t u p K K J 4 J U aX{ ] 1.e.aX",
"aX/ U 5.3.U T 4 J K E u i t 0 $ - @ 2 > 2 4 5 5 N * X O O t 9X8Xl l g g 0 0 0 7 t - - $ t t h g x.h 0 0 u Q I.U.K.q q J P P ,.qXhX5.] ] e.sXaXkXjX/.gXqXqX0XhXPXe.r.xXnXnXxXr.r.fXy.y.cXi.i.i.i.cXcXzXu.t.e.fXxXcX0.....0.8.N = & * ; + 2 BXKXOXg.].,X+Xw a.CX#Xa.%X.X'.[.[. X3X3X3XF.H.;X>X>X[.H.Z.Z.Z.G G Y.Y.p u t u h q 6 0 k.r q W r 6 9 %XG.s.G H Y.Q.H r l l x x s A ~ ~ s x A >.a s ^ 4 K K 4 a C >.0XgX).<X6X,X[.'.'.'..X3X;X X[.[.{.6X[.[.-X>X-X X X}.].f.d.d.A.k.r Q K.r A.Q d.H A.F.].].].XXXX@XOX$X{.[.[.{.H.H.{.3X$X$XOXXX].{.J.F.G.A.A.A.A.K.A.d.d.K.K.A.d.g.'.[.[. X-X;X-X[.[.5X3X{.[. X X.X|.}.'. X;X3X6XDXSXqXqXA a y u J u 4 s i A >.A x x x ) P j x c z l l H W.D.W.s.a.XXn.# r Q.0 0 r A.e 9 r d t t u W Y.Z.G e G s.Z.H.3X3X3X;XF.}.3X3X.X X X[.[.3X].s.CXCX6 a.W.F.G.4XAXBXBXt + ; * = N %.0.0.%.N y.mXt.r.e.t.u.zXcXcXi.y.i.mXxXfXfXfXy.fXxXxXnXfXt.PXnX3.0XT./.Y./.kXhXaXaXaX5.] T.qXE / ^ K q g U._ T.I.0 0 0 b x.f d d d $ $ $ > 7 0 q t g g g P.9Xv % O O O 5 @.L 4 2 > t 0 t t 0 u u p K U P 4 J U ] 3.] U 1.qX5.",
"4.U Y 3.{ ] / 4 u U E p p j q t > t u 2 > 2 4 D C 5 @ o + * V 9XB.v h g q q 0 0 $ $ $ - y t d d l.l.t > 0 ( T.L.T.W : q U U P ,.tX,.{ aXaXaXdXFX_.' ^.T.tX0XhXmXfXr.xXnXxXxXr.xXfXfXy.cXcXy.i.cXi.cXlXu.t.e.t.xXxX%. .8.u.8.N m % ; - + B.HXAX4X$XF.R.c.6 c.HXXXs.3X;X'.[. X[..X3X;X[.F.5X3X3X,XJ.Z.Z.Z.G G A.W g i t t g r 9 d.d.w 9 q Q.w 6 g.G.F.Z.Z.W.W.H Q j p x p s c >.x x x >.8Xa z ! q q 4 u u a @.7XtXAXJX2X3X.X[.[.'.}. X X X&X[.*X6X X[.[.;X X X X'.'.d.d.A.k.W A.d.r d.K.K.A.A.d.f.F.].XXXXXX%X$XOX3X{.F.F.{.{.{.4X%X%XOX].G.].G.f.d.A.A.A.K.k.A.K.K.Q r d.d.G.F.F.[.-X X[. X&X;X3X;X[. X;X X X'. X[. X:X=X6XDXPXqXc ~ a 4 a 4 : q p i c 8X) z x x ;.! p j s x b K.A.W.S.Z.F.R.R.6 # R.Q.q 9 r d.s.s.d.d h h i g K.H A.A.A.A.Z.J.,XOX,XG.{. X[. X;X X[.[.F.;X3XF.%XCXh.6 s.G.,X6X{.oXHXf   ; ; = < -.i.u.-. .&.t.xXt.6.u.0.i.i.zXi.8.y.xXxXfXxXfXt.y.xXxXcXfXfXmXnXwXqXQ.Y.D.^.kXkXkXkXaX] U T.{ K U _ u q K.U.K.T.T.> 0 k k d t d f t $ # $ 0 0 g 0 g j z B.A ; * ; & = N <.#.L s u t i x l r u r Q W E ^ U J L / ] 3.] ^ Y Y / ",
"Y I / 3.] / / K ! ^ ^ E _ Q u q j E j p u 4 L @.#.-.N , * + % 3 a v n b g 0 0 q 0 - $ $ t z t 0 0 h h 0 0 I.tXl I.[ q q ] ^ u ` 0XE ^ e.kXkXjXjX/.^.Q.T.tXwXsXmXxXr.xXcXcXxXfXxXfXy.xXxXy.8.u.i.cXzX0.6.t.t.t.xX-. .X.8.i.u.B = % * - + BXSXA.OX4X{.G.e 6 oXGXXX{.3X&X[.H.[.-X3X'..X.XF.{.*X,XOXG.G.Z.A.A.e W L.u d d d r r e s.s.s.9 : tXk.# p.G.G.Z.Z.W.(.A.K.j s p s s ) >.n x b n A c s p > : 4 J 4 u a ~ I.PXJX4X5X;X[.[. X[. X X-X[.[.*X;X;X;X[.'. X X X'.F.G.A.A.H d.K.K.K.K.K.K.K.K.A.A.G.].].R.XXOX%X4X$X$X.XF.{.$X4XGX+XOXG.].G.G.F.G.g.G.K.d.d.A.K.K.A.d.d.A.G.G.F.f. X-X[.'.;X>X5X X[.'. X-X X X.X;X XH.&X=X2XAXSXwXs s t u K : : u s z c A c x z c >.I p p s x n L.+X6X*XZ.Z.XXd.# 9 U.K.r 9 e a.s.s.d.d.k.g t u Y.R.Y.A.A.A.K.K.R.R.{.F.{..X'..X;X X[.[.[.[.;X{.G.CXv.6 w OX,X3XJ.R.HXeXX - % % = %.cXu.-. .O.=.lXxXlXu.-.0.zXcX8.&.y.xXy.xXy.r.u.xXcXcXcXy.xXmXsXyXyX).).).^.jXFXdXjX/.J J T._ J K [ K q _ T.l gXT.0 r k d 7 d f v t t > 0 i d 0 0 j 7Xn y - % % % 3 N <.<.L #.D I ! ! _ L.Q r E W _ E U / ` / Y P U / L p Y ;.",
"s p L P P / / { { ` E ^ T.W r W W L.W E P s L @.O.%.%.B 3 & O O * y c ) j q 0 q u t t 8 t z z d 7 d b g > I.gXK.K.T.q J ] J u _ T._ J | dXjXjXDX(.).).+XAXyXsXxXxXy.xXcXcXy.y.t.y.xXfXxXy.&.8.i.i.u.-.0.cXxXlXr.O. .&.u.cXi.N & % ; * 8 SXtXG.,X3XOXXXw e #X+XF.;X;XH.[.[.H. X;X'.[. X[.'.W.R.K.R.R.A.K.K.K.L.L.d h k.l.d.9 e s.s.9 9 H U.L.6 # g.OXf.F.3X6XW.K.! s s p s c >.) h v b A n z K u : : J 4 4 a a A SXDX<X*X*X[.[. X-X X-X;X[.[.[.&X>X>X;X}.'..X X'.f.F.g.A.H r d.W K.A.r r d.A.A.G.F.A.d.G.R.R.OXGX4X3X3X{.$X4X4X4X+XR.R.G.F.s.s.A.K.K.K.K.g g A.A.A.d.A.d.Z.s.f.F.'..X[.;X5X>X*X-X-X-X X-X X[. X X[.-X:X*X~.jXhXP s s 4 p J : J K s x n n b x n A >.I x p s x L.U.+X6X6XF.f.XX6 . d L.K.r 9 e s.f.s.a.g.c.k.d g L.E.U.K.K.L.K.k.d.A.G.[. X[. X-X.X{.[.[.[.[.>X{.F.CXVXh.a.G.3X6XJ.G.HXLX8 % % % < +.u.xXt.X.R =.r.t.cXzX8.8.i.i.X.-.r.y.fXxXy.t.cXzXlXcXcXy.xXxXlXyXBXAX).(.Y.).gXT././.T T T.T.u q ^ u W K.U.K.gXT.0 r l d w x.B.f t t g i u g t j c c y O X & * % N Z Z C  .#.L I P ! E E W W W _ ' W E _ 0X{ ^ p u 4 4 p ;.1.",
"P J q 4 p p K / ` ^ E W { K.K.W W W E K / Y L O. .5 %.%.< = * % X O - x ( l g q d t h y t d n x.d 0 b u 0 K.SXK.K.Q W J J q q _ T.K.' T.| [ gXjXY.D.W.AXBXvXlXu.y.y.cXxXlXi.cXu.y.xXr.y.xX-.o.8.i.0.-.i.mXlX2.*.&.+.t.u.lX6.N & % * - B.UX+XG.3X4X{.XXd.c.GXXXG..X>XH.[.[.H.[.;X;X'..X.XF.J.r d.K.k.k.U.L.U.U.L.g d k.c.c.s.s.s.e e Z.A.r l d # 6 $X'.'.5XJX).Q / s P s s ~ B.n b b n P.n s E K 4 F J u u i a n SXAXW.J.=X:X-X X X X X X.X-X*X-X&X;X5X5X'. X XF.s.s.d.d.r d.H A.d.d.K.d.k.A.A.d.Z.Z.Z.A.R.Y.R.+X4X4X3X{.4X%XOXQ.Q.<X(.G.s.A.A.d.d.d.d.k.A.d.r e e e e s.s.s.s.F.F.3X;X>X;X[.&X>X>X>X-X X[. X X[.[.;X=X*X<XDXSX) i a u K q : J ` i z ) ) l b n A >.c ! x P ! ) U.Q.OX3XF.n.m.6 6 g r 9 A.G.s.9 f.].f.R.R.R.E.g l l P.z.n k h k k.A.G.{.>X[.[..X X'.[.F.F.[.>X'.F.GXVXR.g.G.3XOX{.OXKXUX8 + = & & @.6.sXfX&.D L *.$.0.zXzXi.8.-.-.r.r.r.y.xXxXu.zXlX8.y.cXy.u.lXvXvXhXAXR.A.A.`.jX/.' [ /.W W W q q J q W Q K.U.AXL.0 g l.h.w x.B.t 7 u j q 0 g j P.n @   o & O < Z Z B B m N D D Y U ^ K W W W W Y._ J q p p u u 4 4 u J K / ^ ",
"{ ^ p q > u u J u u u J Q _ W Q K.Q _ ^ Y L L N N N B B Z +.< * O O o @ z 7Xb g 0 g h h > 8 z.B.d 0 U.g 0 K.SXR.Y.U.W J J q q W Y.r [ /.} [ jX/.' A.A.AXBXhXlXy.y.i.cXi.8.0.i.i.i.cXr.y.r.r.7.%.0.u.zXmXu.$.2.D D L t.t.6.6.a & * % o B.UXNXJ.,X,XOXd.g.+XGX%Xf..X.XF.F.F.[.{.'..X'. X3X{.G.K.d.k k.k k U.L.l.l k.R.Q.R.f.G.F.s.e Z.G.s.9 k.k # 6 R.$Xf.3X4XY.I.~ a s P p c 8Xn b z.b z.) i i 0Xq F 4 J u u a A yXUXJX~.=X>X[.[.-X X}. X.X;X5X5X:X[.-X>X>X;X[.'.s.f.s.e e e e d.s.d.A.k.A.K.d.Z.Z.s.Z.A.W.<X<XR.J.<X<X4XOXXXR.J.<XJX(.Z.Z.s.s.s.d.r r A.d.A.H d.s.e a.e s.f.s.F.F.{.5X;X;X>X&X>X5X3X X}.[. X-X[.[.;X3X1XKX).8X7Xs 2 q u q : F ` i i ) P.l b v A :.A s x P s ! U.c.OXOXG.R.j.# 6 r w w s.W.{.s.s.].'.s.].+XoXR.l.b v d t n 8Xz.U.R.OX{.[.-X'.f.'.{.F.s.F. X.XF.'.CXCX#Xa.G.,X6X,XG.KXSX$ + ; % , :.wX/ ] *.L O.=.t.-.u.zXi.u.-.-.-.&.r.y.cXcXu.zXzXu.8.cXcXi.xXvXLXyXAX+XD.).).FXjX/.jX/.H W T._ U J q q Q K.Q.SXU.9 g U.r d V.v $ $ j q g q g P.>.@ o o O @ 1 +.0.-.Z B N B @.D L L J J W ^ W W K q q u u J u u q J p J p P P ",
"K J J J J u 4 4 u q u q J r W W I._ E K J L C  .B N B B 0.8.+.1 & O o o $ z P.l h r g l 7 $ v B.d d U.g 6 K.DXQ.Y.K.q q H K { T.W ' /.jX`.gXFXDX(.W.XXGXNXSXkXt.i.cXcXzX0.zXzXi.i.cXxXr.&.&.-.8.-.i.i.w.0.6.6.&.L =.5.*.5.5.5 & = - X h UX+XF.4X6XOXd.g.%X%X$XF.{.3X[.s.Z.{.{.F.'. X X;X{.W.Y.K.x.z.v d h l l.k.d.+X$XG.f.].'.s.Z.J.G.s.w r w $ . c.XX].$XW.H ) ~ I P P s ) 8XA v l.b n n i p { q : : q u 2 a B.tXtXKX3X5X-XH.[.-X X X}..X;X3X>X&X&X:X>X5X;X'.F.f.Z.d.s.e 9 e s.e d.A.d.d.s.s.s.Z.e A.S.J.2X6X,XJ.R.+X<XW.W.<X<X(.,X~.J.J.A.A.G.s.s.d.d.s.d.s.e s.e 9 e s.s.s.s.f.[.;X;X>X5X[.*X|..X.X[.[.-X;X[.[.&X5XKXKXE.l v a 2 : 4 q : q [ s z n ) x j n A :.c c P L s ( E.Q.+X+X+Xv.w . 6 k.a.9 9 s.H.[.F.f.{..X].OXOXR.K.b B.z t h l.l.E.R.G.G.{.{.;XF.s.{.F.s.f.3X;XF.OX%X%XXXd.G.6XJX,XW.JXtX$ - ; % ; ;.;.U { t.sX6.&.+.0.u.%.8.cX8.&.r.-.r.y.cXzXi.i.zXw.w.cXi.zXlXvXSXSXHX+XW.(.`.DXjX/.jXaXF J T.aX^ W u q K.U.Q.gXU.0 r E.d d V.f $ 7 q 0 q g b 8Xy + O @ , , =.-.0.-.%.7.%.+.+.L J J J J ^ T._ E K K J J u J u u J K J p J J U ",
"q J J E U J 4 K p K J K K K W I.T._ J J L L O.$...Z 7.%.u.0.r.&.1 * @ O X y 8X) k q 0 g 6 # f V.d w tXg 0 Y.AXE.R.K.q q ^ ' T.aXq H /.dXaXdXDXjX).).+XGXCXSXhXxXy.cXzXi.w.iXiXzXi.xXcXr.-.u.t.X.u.i.8.-.0.-.=.2.t.sX*.J U ;.s * * ; - t UX4XJ.6X6XOXs.d.@X%X4X].f.3X$Xs.Z.{.f.f.].;X}.J.G.G.k.k.L.z.h t h l.k.A.R.OX].].;X{.f.F.{.F.s.a.s.g.d 7 . 6 R.+XOXOXQ.7X~ a L P s ~ 8X8Xv v b P.n i s ^ J q q u > t a n z U.KXJX6X-X[.&X-X X X X X.X.X[.-X>X>X:X-X[.F.f.s.s.e e w e s.d.s.s.g.d.d.d.s.A.g.A.G.J.*X=X*X~.<XW.Q.Q.W.W.2X,XS.H.*X,X{.F.f.f.s.d.d.s.d.Z.s.s.a.e e 9 r s.s.s.F.F.[.-X5X5X;X]..X.X{.'.[.[.;X:X&X;X6XKXAXeXz y t 2 u K J : u _ x z ( P.b l x B.B.A c I I P ) U.AXNXU.NXv.6 # 6 G.G.s.s.s.s.{.H.Z..X3X{.|.3X].k.h z j t t h k w k.g.R.].$X,Xg.e H.H.f.XX6X].f.3X4X@Xg.a.G.6XJX4XW.DXtX$ ; - * 2 s ~ ! / 5.xX6.-.+.%.-.-.-.cXy.-.y.u.u.u.zXcXzXw.w.zXiXzXi.zXlXhXhXNXAX+X+X2X).jX)./.jX`.W q T.0XU ^ q q Q K.K.U.U.r r Q.r d x.f # 0 0 : q E 7XeX- X @ @ 5 =.t.-.u.u.+.0.%. .$.O.J U E K ^ ` ` ! K U P J U J P U U [ W K J p K ",
"J J J E ^ U Y / U U P P ^ K _ { _ E U J J L L O.@.%.0.%.-.-.t.y.6.5 & o X - 8X8Xg r : 9 q # $ B.d 7 E.k.r K.Q.R.K.K.q q ^ ^ T.T.J H /.jXaX/.jXgX`.W.OXGXAXBXyXxXu.zXzXiXw.iXiXzXzXcXy.8.y.y.u.-.cXu.8.8.-.+.%.=.xXt.*.L L P a , % ; ; d HX4X,X6XJX(.s.s.XX%X4X{.f.3X3Xf.s.].s.s.].3X{.].g.k.r h h d t h k l k.A.OX;X[.[.3X{.F.F.J.e s.s.s.G.k.# 7 6 E.NXR.Q.SX7XA c P ! x x 8XA b z b 8X) i x ! q : J K u 2 y y v U.NXKXJX*X;X;X-X-X[.[.[.-X.X[.3X5X>X-X-X[.s.s.f.s.a.9 e e e s.G.s.d.d.d.d.g.f.g.d.J.3X;XH.H.J.2X+XW.Q.<X(.~.~.H.[.;X;X{.G.Z.s.s.s.G.d.f.g.f.G.d.d.d.d.d.d.g.G.F.F.[.[.;X5X3X.X$X{.'.[.&X[.:X-X{.6XJXCXg b v f 2 2 u ! J : q K x h ) P.b x v B.8XA c s a P P.U.AXMXd z.d $ 6 6 A.G.Z.F.s.s.H.F.F.F.{.'..X3XXXR.k.h h d h b l k k.k.oXOXXXR.s.s.F.G.f.XX4XOX].$X@XXXg.e Z.2XJX<XW.KXtX@ y * * , I / ^ ~ O.6.-.-.-. .%.u.u.u.-.-.u.zXlXu.zXmXzXzXiXzXw.w.zXlXvXhXgXBX+X+X2X<XgXjX/./.kXaXJ J { { U [ u q l g K.R.l w r R.w 7 j.t . t q q q j U.8X+ O O @ *.xXr.&.t.-.-.u.6.@.@.4 u K ! ^ E ^ ` ] U U L L L L R R U ^ ^ U J J L ",
"J K U U ^ Y *.R L L U U Y U ^ ^ K U J U S S S S O.6.t.-.r.r.&.-.lX+., o + % B.rXg g 0 q d # $ z.w 6 v.g r r K.R.g l q u ^ ^ { T.J q | FXjX[ jX/.jX2X+X+XNXAXqXsXu.zXiXuXzXiXiXbXbXcXi.y.zXu.6.-.u.u.i.-.%.+.=.=.6.+.D O.L I I & * ; - h HX+X<X6X2X(.e s.].].{.$X'.3X4XF.F.G.s.s.G.XXXX+XR.k.k h.n v z z k r K.R.OX3X$X'.|.'.F.G.A.s.s.F.f.G.A.6 7 $ d k k tXSXn >.c x K ! ) >.A v z b 7Xx z s p q : W ! u 2 2 t n x d NXJX4XOX[.;X-X[.H.[.-X.X.X$X5X>X X[.'.g.g.c.G.d.r a.d.d.s.g.g.d.d.d.d.a.a.d.g.].{.;X[.H.*X~.W.(.<X2XS.J.=X&X[. X{.].G.].g.g.d.s.d.a.s.g.g.G.k.k.d.h.d.d.a.s.F.[.-X;X;X3X].'.[. X&X>X5X5X[.,X6X+Xk.7 t d - $ $ 2 K K : : E x z n I.n b x A 8XP.P a D s ) z.BXyXv a - # $ 9 A.G.Z.F.F.s.F.Z.H.F.f.]..X@XOXOXoXQ g i i x ) 8Xl.k.E.oXc.G.d.e e G.OX%X@X@X4X.X].$XG.A.A.<X6XW.R.JXBX# ; * & , 2.4.~ ;.+.$.-.-.....X.-.cXlX . .-.cXzX7.zXmXbXzXzXzXw.<.uXvXvXyXSXHXAX4X<X).).jXY.jXkXaXJ q { 3.] { u q K.k.Y.Q.r 0 r U.w w V.v $ t L.Q q g 8Xy @ * @ @ D u.r.O.r.D r.t.sX*.#.Y L P P / P s P / Y Y L L L R R L J U K P U U L ",
"U U L P L U Y L Y L L ] ] / U ^ J U U L S J L L 5.fXsXsX=.&.D r.y.D , O * + y ) i r W K.0 # f 8Xd 7 U.w 0 r K.Q.K.K.q u ` { 3.{ q 4 | kXgXT.kXjX^.<XJX4XCXHXhXsXlXlX%.0.bXbXzXbXmXcX8.w.cXu... .-.cXu...%.+.+.6.-.%.O.@.Y 6.$.O * ; + h UXQ.A.(.2X(.A.Z.@X|.|.$X3X{.$X$XXXZ.s.s.s.A.A.oXx.x.B.B.B.c i i g L.oXOX@X$X|.b.'.F.F.F.s.Z.F.F.F.F.d.w . + @ y >.yXBXz.A c s p x ) >.B.n b b P.) p ! p : q ! K 2 $ @ $ 2 8 7 h.MXJXOX{.3X>X>X;X&X[.[.].$X3X;X X[.F.a.d.g.d.k.d.d.k.R.G.s.g.d.d.d.a.d.g.c.XX].]..X-X X*X*XJ.(.2XJ.Z.H.-X X[. X.XXXXXXXXXc.d.d.g.d.d.a.h.d.k.a.w h.d.d.a.f.f.'.;X3X.X].'.'.[.[.-X;X>X5X,X<XoX6 7 7 $ $ + $ @ $ u P q q E x z n P.b b v B.8Xz.x P s L P.z.BXSX~ y $ # # 0 d.'.G.f.f.Z.Z.G.{.].b.|.].].].R.Q.l 0 i t t z 8XP.k h.h.c.R.A.s.e XXGX%Xc.OX4X$XOX.X{.OXW.).).H K.HXyXX % * & 1 6.6.#.$.%.-.0.i.%.-.%.X.lXy.+. .8.cXi.0.zXbXzXzXbXbXbXZ 2.hXhXgXAXAX<X<X(.Y.`.FXaXgXdX| J u 0XaX3.1.K q L.g U.tXl w h.E.h.d rXB.7 7 Q W q q P.8 @ @ @ 1 1 t.y.D &.e.xXr.e.5.Y 5.2.L I / / P P U Y *.*.Y D &.O.L L J S L L L R ",
"U U L S S D L L *.R L O.#.U Y Y L Y #.L L *.1.R 5.aXfXt.5.&. .y.t.1 , O * * - v t 0 u K.0 # v rXk k eXg r r Q.Q.k.L.u u ,.3.qXaXL J [ dXjX/.jXDXG (.4X<XGXHXyXhXsX6.C uXIXbXbXzXmXi.8.8.zXi.$.@.u.lX8.%.-.-.-.u.8.%.-.X.+.t.<., % ; o 0 HX+Xd.R.gX).W.OX$X$X.X3X%X].XX4X4Xd.e a.R.R.d.k.k.l.8X8Xy y t t d K.oXR.g.@X@Xb.n.@X].G.s.A.Z.Z.H.].d.w # @ * a <.BXBXz.c A x x ! ) >.A b n n ) n s x p q q ^ u @ @ @ @ $ - 8 $ 6 oXOX,X6X3X>X&X[.[.'.}.].{.3X5X X'.f.g.d.h.w w w d.d.d.a.d.d.d.d.d.R.R.XXXXOX|..X X[. X{.S.S.*XH.H.*X-X[. X.X$X@XoXm.E.j.d.k.k.c.k.k.j.k.d.d.w h.h.c.R.G.f.'.$X;X|.[..X-X[.[.[.'.J.4X+Xc.d 7 8 - - - - @ @ $ 2 P K q K x x b ) b b n 8X8Xl.x P D s n x.BXBXa 4 - O 7 w s.G.].f.s.g.g.G.].].n.m.@XXXXXG.G.A.g f y 3 y z n k g d.k.R.R.G.G.R.oX#X@X%X{.{.;X[.J.,X(.T.).K.R.HXl.  % * < N t.u.$.$.%.%.8.i.w.X.%.-.-.u.u.0.zXzXw.9.w.zXzXzXiXIXmX6.4.hXhXBXNXAXW.^.~.Y.jXjXaXgXaX5.R J 0X3.Y / K u L.K.K.Q.k.g w U.k.w V.B.6 > q : # g B.y + + o , 1 -.y.S X.r.fXe.e.e.R *.=.D L $.*.] 1.Y U R ] *.R *.#.L L L L D D D L ",
"L L D L L O.L &.O.O.&.*.*.L Y *.@.$.$.@.@.=.1.R e.| aXfXfXX. .r.r., , O O % t >.h 9 : 0 0 $ v eX7 d E.g w Q E.R.l L.j p / ^ 3.4.P ] ] aXkXT.jXjX_.^.W.XXCXNX0XhXsXwX<.bXIXbXbXiXzXi.w.w.i.i.6.u.u.-.-.-.%.-.u.u.-.+.%.+.-.lX-.< * - @ $ tXNXK.U.W.Y.).OXF..X{.{.OXOX+XXXOXR.R.g.R.K.d.w k l.b f 8 t i i g g R.R.XX@XXXn.].G.].G.g.s.f.F.F.F.F.w $ o * N a pXBXz.v c ! E j x A 8Xc n b ) x x ! E F q ! 2 @ $ @ > - $ - 7 # w c.OX3XOXH.H.[.&X X;XF.'..X;X'.f.G.g.d.d.h.g k.k.k.d.d.c.c.c.k.h.c.c.R.R.@X%X$X|.'.-X*XH.Z.!.&X{.[.}.}..X$X@XM.m.v.E.c.k.r w d k.x.h.E.k.k.h.k.h.c.R.XXg.G..X.X'.}.>X>X&X[.&XOX<X+Xh.7 $ 7 + - - ; @ @ # @ > ! ! q u p z c n b x n n eXl.j P I a v B.rXqXa 5 , o t g K.F.g.G.XXXXXXXXg.c.XX@XN.m.G.XXg.d.d i f 3 - 3 c 8XU.k.d.G.R.W.c.R.oXXXGXOXZ.{.*X{.J.J.H T.Q.U.oXBXt X * = < ..-.6.-.$.%.-...8.8.8.8.-.-.-.u.cXzX0.w.0.0.iXbXzXiXbXbXvXvXkXtXQ.NX<XW.J.D.(.DXgXT.kXkX5.P J { 1.p K E p K.U.E.NXl w w E.k.7 eXz.# $ 0 9 q L.B.t X O o @ , D y. .&.fXdX/.| jXqX4.6.%.@.-.@.O.L L L Y *.L L =.$.#.D L O.*.Y O.O.",
"O.*.*.O.L D D *.O.L O.O.Y D D L O.<.<.V <.wX5.qXdX} /.dXfXX.&.y.S , @ O O O y A L.r 6 W $ # l.eXw d E.k w r tXU.Q.Q.q E E K ^ { K J ] dXjXT.).FX).Y.W.OXOXAXQ.T.hXPXbXbXbXbXbXzXzX0.q.8.0.zXbXmX0.-.%.-.8.6.-.-.+.8.+.X.-.-.-. .= * % . 8XCXE.Q.Q.Y.H D.W.{.3X].].%X+XoXR.R.R.E.R.k.k.k.eXeXz 2 2 y i i r d.g.XXg.@XoXm.m.g.XXOXR.R.XXG.f.F.G.r 2 o < m y yXyXl.v c ( ( j ) >.>.n z.n ) A i u u q W ~ > + * O & , * & - 8 6 6 a.CX%XOX*X[.-X-X>X XF.'..X].g.XXXXc.d.d.h.g k.E.k.k.h.d.d.h.k.c.v.v.c.c.XX$X$X|.[.[.[.[.;X=X{.F..X|.|.XXXXoXoXE.c.d.k.d.w w d f d x.k.j.h.k h.j.XXXXG.G.].'.}. X-X:X>X[.$XGX+Xd 8 8 ; - * * y y * @ o . $ s ` K q j x c c ! c n z.B.z.j j ! s A B.tXBX) a 3 & 2 b d.g.n.XX+XXXc.XXv.m.c.c.].g.f.F.s.d.w h >.a 2 y C >.P.x.E.XXc.K.k.k.c.XX%XXXF.J.{.S.W.^.T.T.W g BXtX+ + < * < -.8.6.0.0.%...7.%.8.6.-.%.+.%.6.0.zXzXuX9.9.iXbXbXbXiXzXvXkXkX).<XJXOX,XW.D.1XDXT.T.kXjXqXK 4 / ! E E q q Q.Q.K.tXr 0 w U.x.w z.z.7 # l r r K.h y + O & @ @ 5.xXD S dXjX} ^.jXnXvXuX9.<.$.-.-.@.L L L L *.&.O.@.D L L D L L L #.",
"D O.L D D  .L +.=.=.+. .D 5 L O.6.%.<.9XpXuXvXkXjX} ^.dXr.S R y.&., @ @ O & t c l g 9 g $ $ v E.d d E.w 0 0 E.Q.tXQ.r q W E ^ ] 4 K 5.kXkXT.Y.DX2XD.Y.,X+XJXGX).SXPXvXbXiXbXbXzXi.0.8.q.zXcXlX6.-.-.%.-.-.0.8.%.%.%.%.0.0.8.-.N = = 3 X d HXE.r Y./.Y.' W.W.3XG.g.+XCXR.d.d.d.R.R.E.E.x.P.z.f 2 2 c n h w d.Z.g.f.G.c.m.M.E.R.c.c.E.%XXXG.f.d.l 2 * 1 C 8XSXtXx.c c n l x ) >.c v A n c c z j g H Q x $ + O O & C 3 * & - 8 8 7 h.+X4XOX X>X>X:X-X[.[.].f.n.XXm.g.d.a.k.k.j.k.h.d g d w a.h.k.k.E.oXoXXX].].]..X'.'.;X;X;X3X{.].$X].m.XXoXc.k.G.d.d.e a.d.k h.d w d x.v.x.h.h.R.XXG.a.'. X X>X-X>X;X3X4X+Xh.6 $ ; - * @ 2 C @.3 @ # o @ i ( r r g b A A ~ ) v v 8Xz.b Q b c c A eXSXyXa 5 5 4 i k.c.oXR.E.v.v.v.c.v.c.a.a.f.G.{.XXW.k.j x c s 2 2 C n x.R.c.k.a.R.Q.R.R.R.XXR.OXW.Y.H ' AXT.r P.BXf + % & < N %.-.%.6.u.8.8...o.8.0.zX0.%.-.8.-.0.bXzXzXzXiXiXbXbXpXiXxXnXjX(.6X6X<X,XJ.J.2X`.Y.gXkXaX] K u ] P E W q 9 Y.K.K.AXw 0 w l.h.d eXx.t 7 Q w w g z y & O X o , t.t.R S | `.^.^./.hXwXpXuX9.Z %.%.+.$.@.O.#.*.*.+.O.O.L D L L #.1.2.",
"3.#.L 5 #.&.O.D =.+.&.+. .O.+.$.-.%.%.<.iXpXlXhX`.' ^.jX`.S R r.&., o O + % y c w r r L.t 7 f eXh.d U.0 0 w U.Q.K.T.0 9 E W E / P p S aXkXgXT.).2XD.D.,X,X1X2X(.).PXbXbXiXzXbXbXiXiXw.zXzXzX6.<.%.-.-.0.w.0.-.%.-.7.0.u.-.%.-.%.< = * X $ MXeXk.j gXjXH G Y.W.W.R.XXG.c.R.+Xc.r k.c.U.z.z.y 3 y a ~ s g K.W.W.J.].a.p.a.j.c.c.v.E.E.c.v.R.R.d.u t 5 C C wXSXeXU.n n ( l.b ) >.c n B.A n c x j g p E u @ . + @ 2 C a , @ + - 8 7 6 h.oX4X3X;X;X:X;X X{.F.f.g.XXoXd.k.c.c.j.h.h.d k.a.d.r w d.d.c.c.R.+XXX].XXXX.X|..X;X;X3X;X|.$X|.$XXXg.W.R.R.R.A.a.e a.w a.h.g h.w h.w h.d.d.R.G.].f.f.'. X>X-X-X;XJX4Xk.w 7 f 8 * O , 2 ~ :.y @ o . @ 2 n g r j ( A c c ) A v B.8X( j x c A 8X0XSXyXc N C a s l L.k.k.h.v.eXeXx.k.k.r 9 f.3X3XOXW.Q i 4 y c u 3 a B.l.k.c.c.d.E.+XW.d.d.Q.Q.U.gX/.q W gXL.l SXrX- + % % m %.0.-.@.<.lXu.7...7.%.0.zX0.-.%.<.0.u.zXzXzXbXiXiXbXIXbXiXmXnXgX<X2X4X,XJ.G D.JX/./.dXhX0XU K ] 3.J W q 9 q U.r K.U.w 0 d z.d h.V.d t t l r 9 w z.y $ + X X @ L R R T } 2XJ.D.} hXvXbXuX9.Z %.%.Z +.+.$.O.O.O.+.$.O.O.#.2.4.4.4.:.",
"4.4.1.;.@.O.L +. .O. .+.+.+.+. ...+.%.%.iXbXvXqX_.G D.2X^.[ R D O.@ . o O & y n q 6 9 k.d 8 d x.d w x.k 0 q L.L.r Q.W 6 g W p { ;.I u 3.kXdX/.^.DX~.G S.1X5X5X1X/.kXPXiXiXbXbXbXiXiXzXw.i.i.0.0.%.%.8.u.iX-.%.%.%.0.i.0. ...-.0.m = % - + f yXtXQ T.tXW W ).Q.Q.W.K.d.A.+XW.c.a.v.j.x.x.A y 2 5 a u u g K.W.,X4XOXs.e h.j.k.U.eXE.E.j.k.v.L.b x 4 C C C yXhXl.V.z.n b b b ) A c z.z.n z.) x g g E ( t # o o * 5 @.@.a > @ - - y t 7 d.CXJX3X.X-X;X;X'.F.F.g.].g.c.j.h.h.d d h.h.h.w e d.s.e d.R.G.G.OX].].].$X@X$X$X$X.X$X@X|.OXOXXX{.OXOXA.G.R.R.e d.d.a.e w k.k.d.d.w 6 w a.s.s.].F.F.F.[. X-X.X3XGXv.7 7 8 t - * , 4 K / ) c $ @ o @ 2 ~ Q g g l c z x n v B.n z.P.Q z v n n eXtXtXA C  .a c p t 0 d d x.V.z.V.k w r r Z.OX6X+XQ.( s i 2 5 y 2 y B.8Xv.R.E.k.d.A.A.R.Q.NXQ.U.I._ ^ 0X0XI.tXyXf + * & * m ..0.-.%.6.lX0.8.%.%.7.0.0.0.-.%.-.zXzXzX9.0.uXiXiXbXbXiXiXbXhX).6X,X,X2X(.S.^.).Y.| kXkX/.u K { ^ q E q : K.Q.q K.Q g 0 l.x.8 d d t 7 $ g w w g 8Xt - % * + @ 4 L e.} ' (.S.} `.hXmXbXbXuXZ %.9.%.@. .+.O. .O.O.$.:.2.9X4.9X9X:.:.",
"8X,.wX4.:.#.O.$.+. . . .@...@.@.<.%.%.0.zXbXbXPXDXJ.S.~.D.| e.R , @ O % - * t A l.w r q $ 8 f d d 7 l.P.0 0 Q K.9 T.T.9 q W q J { ^ u ] kXkX/.' _.(.S.!.1X,X=X2X_.hXvXbXbXbXzXiXpXiXiX9.0.zXzX0.%.%.0.0.0.0.%.%.-.0.0.0.7.-.8.8.N < * - + 8 B.BX8XU.qX_ ^ 0XT.U.<XQ.K.K.c.d.c.c.v.v.x.8XA 3 3 4 4 t u E L.W.).,XJ.Z.d.d.d k L.U.h.l.f d 8 8 y c a @.C C yXyX8X8Xn v k b n 7Xn c n v b n n j g g j ) t o @ o $ c ! ! P 4 > * - 2 8 8 7 c.GX4X$X{..X[.'.F.F.G.s.9 w a.6 w h.j.x.k.w 9 s.s.d.s.g.OX].F.].{.].OX@X$X$X|.$X3X$X.X$X].G.G.{.,XJ.G.J.OXR.A.A.R.d.r e a.d.c.A.k.a.a.s.e s.s.F.F.'.[.[.;X3XGXoXd 8 8 8 - $ > 4 J ' E ( b - + o @ 2 x ( g g l l c v n n n v A P.b k v A 8X7XZXBXA C C C a 5 @ @ 2 8 f d d h h 0 r A.A.F.R.AXtXc c @.a 4 2 2 t n B.x.x.x.d.e r A.U.tXtXqX~ s s 0XqX) tXSXb + + ; * = m %.9.9.<.0.6.8.<.7.8.w.-.%.%.%.%.%.zXlXuX<.0.iXbXiXuXiXiXlXzXFX<XJX,X~.6X`.^.).^.' aXkXkX] q ^ { q 9 q : q T._ q tXL.w 0 eXz.7 f t f $ > g g g L.7X- + - * & @ , | dX^.^.D.Z._.FXkXvXzXiXiX9.7.<.Z  . .+. . .@.@.2.<.4.9X7X9X:.9X8X",
"9X8X7X9XwX4.2.=. .D 5 O. .+...%.%.7.0.uXiXiXlXvXFX^.G ~.^.^./.R : @ + - ; + - 7XL.r g g # 7 f 8 h.7 k eXd 0 L.U.g u Q.E # e q : ^ ^ 4 J kXkXfX' Y.`.^.,X6X~.J.6X`.gXnXuXiXiXiXiXiXbXiX9.8.zXi.8...%.%.%.%.w.0.7.7.9.-.8.8.8.%.0...= ; ; ; % ; 9XhX7XT.qXU p s ` tXgXQ.K.r k.k.k.v.x.E.B.z y 5 3 5 P ~ j L.).<XW.A.A.A.e 6 g k h d d t 8 - 8 a C V C a >.hXyXeXz.8Xv v b z.>.n v n n n v v b g g ( c 2 # @ . $ I E _ W W u > & * 8 8 7 d R.CXGX.X[.[.[.F.F.s.Z.e e w a.k.c.k.h.d.w r a.d.s.d.A.W.{.F.H.3XOXJ.G.XX@X@X$X$X$X$X$XXXG.,X,XJ.,X,X3XJX+XA.K.R.k.R.R.g.d.w a.d.R.A.d.g.s.s.f.F.[.[.[.3XGXNXw 7 f 8 8 - # 4 J ^ _ W L.l.y @ @ @ - s ( g r l b z c v B.n c n ) b b v A ) I.SXyX9XC N @.@.1 , @ @ - $ $ t t r 9 H A.A.A.+XNXI.i y C a a s a a v z.k h.k.g k.k.L.I.,.,.;.2.Y ~ ,.~ I.vXtX$ $ * = % * m q.0.-.%.-.%.%.<.%.8.0.0.%.%.%.%.%.0.9.0.6.iXiXiXbXiXiXiX0.vXSXAX6X*X(.2X(.G 2X/.| kXaXqXu J qXT.: q 9 9 Q K.r E T.j 0 d eXf 7 h.t f t t ( l d U.8X- + + * & @ , e./.} ~.(.G gXjXlXzXuXuXzXzX7.Z B B  . .O.@.$.2.:.4.>.9XwX9X:.>.A ",
"8X8X8XwX0X7X4.6.2.$.$.+.+.B B B C 9.iXzXiXzXbXvXkX^.S.^.^.^.aX| 1 @ & * % X - 7X( r g l.t - f d j.d d V.l 0 r T._ q T.K.q 9 r q W aXW K ^ aXfX/./.).H ^.DX2XJ.JX<XjXvXuXw.iXiXbXZXiXiX0.<.0.0.8.%.%.%...%.w.w.<.%.%.%.7.%.%.%.0.7.% % = = % O y BXyX! ` / I ;.9X` 0XT.P.l.k h.d h.k z.P.s 4 4 5 a a a 4 j tX).R.e A.Y.r 9 g q 0 $ $ - + + ; N C @.C a :.SXhXP.z.B.v v z.) n n c z.n b h k b g g ) a $ @ $ o 2 ( ( K.Y.Y.K > , * - t t 8 w R.JX4X{.[.[.H.Z.e s.Z.g.d.K.g.a.w r d.K.R.R.K.K.K.R.JXJX*X*X*X{.W.J.G.XX$X$X.X.X$XOX{.,X6X,X*X6X3X,XKXQ.r l g g d.k.K.k.d.9 a.d.d.d.d.d.s.F.J.{.F.3X4XVXj.7 8 8 - @ @ : u ' Y.D.Y.R.U.y - @ o o y L.l r g j z v 8X8XA a c n ( z.z.n A 7XyXBX9XV C N @.N 3 O o $ $ $ g r r e H Y.K.R.AXQ u @ * - y ~ ~ u a ) 8Xn l.b d k b ) ,.,.;.;.4./ ;.~ ~ wXyXi o * % % % & B q.<.<.%.<.8.-.%.%.8.i.uX9.%.6.0.0.w.uX<.7.0.iXiXbXiXiXiX<.sXAX<X4X.X~.2X`._.Y.' [ fXaX/ u ^ qXW q q 9 W Y.H g I.( 0 0 x.j.8 d h.t 8 - i h w r k 8X- . + 2 % @ 4 aX/.^.} Y.H kXkXmXxXu.0.bXzX%...%.%...@.O.2.2.:.4.:.9XqX7X>.z z c ",
"a c 8XeX9X7X7X:.:.2.;.#.@.@.+.%.%.9.lXbXuX0.zXIXnX`.} G ^.} /./.F . + - %   $ n b r w h i 8 8 f f f 7 k L.$ > E I.q g W W 9 9 q W qXK.J U e.kXaX' Q.W.2X6X(.J.6X<XgXvXwXw.iXiXbXiXuXuX0.7.0.w.9.0.9.%.7.0.lXw.7.%.%.0.0.%.%.0.0.9.m % % % = & & 9XhX) ( ~ I 4.4.,./ 7X8X) b k k P.z b 7X~ 4 p I A 2 * $ $ t L.tXU.K.K.r q g w t $ $ + O * 3 Z C Z C C 8XhXyXn z.n v v ) n n c c 8Xc b z j g r g P.u o # @ @ i eXT.R.D.A.Y.J > @ - - t 8 $ h.CXGX3X].F.[.F.Z.e A.d.s.s.d.e r k.K.d.k g r k.r L.JX4X,X6X,X~.5X6XJ.OX$X.X$X].{.,XJ.*X*X,X3X6XJXGX+Xl # > $ # # # 6 k.l.K.d.d.d.d.A.d.A.s.G.G.G.4XCXj.8 8 8 ; 2 2 : u W A.A.A.R.R.L.z 2 $ .   t z.L.0 r l t y A 8Xc c c ) z.z.x.A n >.yXLX:.y $.N 5 +.@., O - t > t q r q r E.tXE.0 $ o o @ o * a x 4 u c A A >.7X>.A B.8XyX6.Y P #./ P i ) yX) - * % % % = M 0.8.q.8.%.0.<.9.6.%.9.lXiX0.%.7.<.9.zXzX9.9.9.Z uXbXiXbXbX6.qXgXGX6X3XD.S.1XjXA.Y.jXkXsX^ J W W r r e q H q 0 Q tXu > 0 x.7 $ x.f d > 2 i 0 q d.b 8X-   + * . o D /._.T ' } /.fXxXmXy.6.0.cXzX%.w.i.-.=.#.#./ ,.,.,.,.7X) x z c ) >.",
"A f c z.P.8X7X,.,.;./ ~ 4.2.-.zX0.7.cXmX0.8.u.cXxXfX| } ' ' _.aXS . o - + X @ 8XP.0 g 0 z y - t d d 0 6 k u 0 u T.Q.9 q r H r q q ! ( j U qXkXhXT.Y.).6XD.D.*X6X6XAXqX:.zXbXzXbXiX9.9.Z 9.iXiX9.9.<.%.0.0.zX0.%.7.9.-.%.8.<.<.0.w.9.= % = % % ; t qXtXx s ~ #.$.#.:.wXwX:.c >.>.7Xn ! ) ! 4 u / 5 @ O + + # 8 h U.tXK.0 q g g 0 $ y * O < @. .N C V C >.LXyX) n n n n 7XA n x n >.) i t l w q b n 2   @ $ - v l.K.G.G.Z.A.W u > - 2 2 - t 8 h.%XGX$Xf.F.Z.s.d.d.K.d.d.A.g.K.d.9 6 # # $ $ # r I.GXJX6X,X~.*X*X*X,X{.]..X[.;X,X5X*XH.3X,X4XHXMXk.$ # . @ # # # . $ 6 w w w k.R.E.h.R.k.R.c.XX+Xj.6 d A 8 ; - 2 u W K.A.Z.F.A.R.U.z.- y - + + d l.g k.j i t a 8XA c s c P.l.x.n ) c yXZX9XC C %.C 5 C 5 @ , 4 u u Q g r Q P.n t @ # o o @     2 ~ s t a c C >.,.8XA 8X9X9XwX2.I U p u ) qX9Xy * % % = % = Z 9.w.7.9.%.%.9.0.<.<.0.w.0.9.%.0.9.<.9.iXiXZ 7.9.iX9.9.zXmXlXqX+X4X6X3X~.S._.(.Y.Q.dXaX5./ K W q 9 e r A.K.q 9 I.U.q i L.h.# d x.d t t a s 0 r g U.8X$ + X O X . [ /.^.} F [ sXfXt.cXu.-.0.y.y.o.y.y.zXsXsX0XI._ ! ~ x x b h x b ) 7X",
":.C z k k l.n >.! ` 0X0XaXvXlXzXw.8.y.y.t.-.u.zXr.xXr.T T } /.).[ @   @ O   $ 7X8Xg g q i z t t 8 V.k # g K.0 0 I.I.0 q Q K.e e 9 q L.( ^ 5.aXsXT.Y.).2XD.J.*X3X4X).tXvXbXzX8.9.w.9.7.<.9.iXuX9.9.0.9.8.0.uX0.9.-.<.7.<.<.8.8.0.0.9.m = = % % * - ) yX7Xx i a a :.<.wXwX:.>.~ 2.,.,.~ s u t ! ! @   X @ O + + $ z P.U.b l g g h i 4 @ , N  .N C C Z V 9XvXeXn ) b v n A c x c A >.x t i b l g j t # # 2 t t v U.R.G.Z.Z.D.A.W E 2 2 - - f f 7 h.VXN.].R.R.c.k.k.R.k.r r e 6 # # . . + $ o . # 0 tXHXJX<X1X{.S.1X3X3X.X{.[.{.5X6X*X{.,X4XGXE.8 $ $ @ o . o + .   . # # # 6 6 0 k k k.k.K.j.p.w w d 8 f y ; @ 4 E W A.J.G.G.G.G.k.U.f t - + $ t d k.g g j f a >.8XA c c P.z.z.n n c 4.yX9XC C Z @.N a N 3 @ , 2 u j I.I.d $ $ - 3 @ @ - @     @ a ) 4 4 I :.C a c A :.<.wX4.;.a i ~ 7XyX9Xa - = = % = m 7.q.q.0.9.8.<.<.0.0.-.0.0.0.0.9.7.0.0.7.9.iX9.Z 9.9.iXiXiXuXcXvXhXAX6X6X4X1X~.2XDXY.Y.qX[ [ K K [ q q e e Y.Y.q r Q u t g eXE.7 k P.b i t i 4 q Q K.U.c   + - + . : T.^.' ' T U r.cXy.y.u.-.-.y.y.-.y.u.sXkXhXT.U.T.` / p j ) n ) ) n 7X",
"a c ~ L.l.h z ( I.I.Y.T.gXvXsXu.lX8.y.r.r.-.y.y.r.y.r.R ' ' Y.(.[ : . @ - O X i tXb j u u a i t z.V.k $ l.tXr q g Q E q K.W.H r 9 q U._ p ^ [ /./.Y.(.DX,X~.1X5X6XAXSXPXmXlXuX0.iXw.9.Z 9.pX9.9.0.9.9.<.<.0.uX0.<.8.9.7.7.<.<.<.0.0.7.m = = % ; * 2 >.yX8X) c a c :.:.4.4.;.a a I P I s 2 z >.i @ . o @ @ o - 8 $ - 0 i P.P.j i 4 , & 1  .5 5 %.%.V Z rXyXP.) n b n c >.n x c 7X>.y t j l g g d t # o - t i l.v.R.A.F.J.J.A.A._ t - - y f y $ 8 p.8 m.j.h.k.x.x.j.7 7 6 # # #     $ $ + o @ @ $ 7 x.CX4X3X*XJ.,X6X;X.X X X{.5X=X5X5XOXGXMX8 $ - 2 @ o o o   X + # . . # . . # $ 7 8 7 7 8 6 7 f 8 8 8 ; 2 2 u _ K.R.W.{.G.G.R.c.k.v - @ + + 8 t g r g b y a ~ :.~ c ~ >.B.x.n n c >.:.9X<.@.Z @.@.5 C N , , , , 3 z y @ O * * , , , y 2 @   o 2 >.a 4 s a a a @.,.>.~ @.:.,.>.>.>.9XrXA ; * = % = = 7.zXiX9.7.%.7.9.9.8.9.<.0.0.0.6.<.<.9.w.9.9.iX9.Z 9.9.iXiXiXlXvXkXgX<XOXOX3X1XS.D.).T.Y.T.aX^ J E Q.H e r H Y.K.r T.0Xq q g NXtX7 U.l.v i t a u u Q L.T.t   + - + . u `.Y.H | aX2.t.lX8.u.u.&.t.y.8.r.u.r.sXDXQ.W.Y.Y.T.^ K i c ` ,.>.~ >.",
"C $.,.P.( j x 7X0XT.Y.Y.gXjXhXt.u.-.r.y.8.X.y.y.y.r.r.&.e.T.D.Y./.4   O - @ . 2 yX( g l u s a t v z.z.g E.NXl q 0 T.Q.q Q Y.H e r r T.L.p W [ aXT.^.`.(.S.1X1X*XOX<XgXhXhXlXzXiXiXw.9.Z Z pXpX9.9.0.9.<.<.0.iX0.0.9.6.-.<.8.7.7.9.uXw.q.M = % % - O y B.rX7X;.~ :.4.4.a >.;.I I 5 5 I a u C c $ . . @ a 2 - ; 3 - % o - i z 2 2 , , 1 5 5 1 D $.C V <.9X9XA ) x b n >.>.c c ) 7X>.u i b g g g d 8 o @ $ - z l k.R.G.G.J.J.K.K.W x 2 2 y ; ; 8 d 7 6 7 7 6 d 7 7 $ . . . . . # #     X + o @ $ 2 $ 6 R.GX4X4X5X3X5X.X}. X;X;X5X{.6XGXOXoXd 7 8 f $ , 2 2 @ o   + + . . . .     # . $ $ # 7 + 8 f 8 8 ; - 4 s W K.A.R.R.W.J.G.G.K.k.b t 2 - + $ d h d r j i y c 7Xn c c c z.z.z.c c c :.9X9XV Z @.$.5 5  .1 < < , & O O & , & & & , 4 i i 2 o o o 2 c 5 4 5 5 ~ ;.! s x ,.wXwX:.>.n A A ; ; * % = = M iXiX9.uX9.%.%.<.0.<.9.0.9.0.9.9.7.%.9.9.9.uXiX9.Z 9.9.9.pXuXvXvXhXQ.<X<XW.(.(.G G (.Q.).kXT.^ u _ gXH e A.K.Q.K.9 T.tXq w l Q.k.w 8Xk 0 0 s I 4 K g L.P.2   - y . . W `.^.D.jXkXlXt. .-.zX-.&.y.r.X.X.t.fXjXgX<X2X`.T.T.^ ^ I ~ :.4.;.I a ",
"@.$.0X` ( ( ! / [ /.).2X<X`.jXhXy.r.X.r.r.X.X.y.+.&.r.t.fXjXD.' jX^ # o 2 - . $ 8Xn u j u P x t $ k E.d w Q.L.r q tXgXr K.Q.A.H G 9 /.T.J W T.kX/.^.).G 9 (.~.W.<X<XQ.hXhXvXlX9XuX7.7.7.Z 9.iX9.9.uX9.<.9.9.0.9.6.9.8.9.9.Z 9.Z uX9.w.zXq.m % % % % ; A A n A >.9XwXwX) c s I ;.I 5 a a a C - o o . 4 P a 4 * & % = * @ @ @ @ 2 , < 5 @.5  . .@.V 9.<.9X4.c c c b l.) >.c c n 7X@.2 z ( g w k.t $ + - 8 t v l K.K.G.D.G.G.W.K.K.( n i - - - ; y - + 8 7 + 7 # + +   X +     X . .   o > 2 $ $ 2 y 7 7 oX+X4XJX3X3X3X.X;X X;X6X3XGXGXk.t # - 3 $ @ > 4 4 > 2 > o . .         + + + + + + 8 - $ y y - - y c ( Q K.K.R.K.A.G.A.K.R.K.x c 3 @ + $ 8 d w r g t t n >.A n c ~ n l.z.n a c >.<.<.<.V <.@. .N D N 1 < N < & & ; < , * , 5 I u ~ s @ o X - a P 5 L L >.a p ! ,.,.8X:.A y y y y ; % = % = m 7.bXiXZ 9.9.<.<.0.9.9.9.9.-.9.0.9.<.9.uX0.9.uX9.V Z Z %.<.9.uXvXwXgX).GX<XW.Y.W.G D.).T.jXFXaXJ q _ ).A.r A.A.Y.A.9 T.Q.0 0 U.R.0 0 L.g $ > ~ I s K u L.7X- o ; -   # | jX^._.jXkXxX=.5 -.y. .X.y.X.S r.y.jXDX<X,X6XDX`./.^ U / #.*.#.#.O.L ",
"D #./ ` { ^ K L e.`.2X2X1X).DXkXy.X.S r.y.X.X.y.2. .-.xXnXdX_._.jX| @ o - @ o @ 7X8Xg p u P / 0 $ d P.w 9 E.E.0 0 U.T.q H Y.D.A.r r ).T.J J T.kXkXT.gX(.A.J.D.W.GXGXAXT.gXhXhXwX9.Z 7.7.V Z pX9.uX9.9.9.9.0.0.9.9.9.9.<.9.9.9.7.9.Z 9.iXiXM m = % = ; ; y 3 y a ;.>.8X7X>.s s I I D a 5 a 3 + . . 2 4 4 4 L a , * ; 3 , @ * 1 5 4 5 N  .C  .O.C <.9XV 9X9Xs z >.b l.n n ) b n 7Xc t t h w k d t $ + - t v n Q K.A.G.G.Y.K.K.K.K.l.( c y - ; ; C - - 8 + + + + + + + X X   X X o @ 0 2 q t 4 2 @ 3 - # 6 k.%XJX4X3X5X X X}..XJXGXGXMXw # $ 2 2 , 4 J q : 0 i z t 7 $ @ + X + @ O X - % * ; ; ; 3 3 3 3 z ) ( K.K.K.K.Y.D.Y.Y.R.W.W j y - o - $ 7 d d g u t i >.P.P.n ~ >.n b l.n c @.:.<.<.V <.V C @.@.N 5 N 1 N C N 3 m C N  . .$.Y ^ P I y O X o 2 s u 5 a ~ c ,.,.) a y a y 2 - ; * % % % = = %.w.bXuX%.<.9.7.9.9.9.7.8.9.0.0.0.9.%.9.9.9.9.iX7.V <.<.<.0.uXvXhXaXNXAXAXW.W.^.Y.D.).gXI.aXPXaXE K W K.e H e e Q.K.0 T.K.9 6 R.E.w w l.d 7 > P ;.s p q I.tX- o % X . 4 dXdX`.`.gXfXfX&.&.xX-.D r.y.r.X.r.r.`.2X,X,X1X`.jX/.[ U I L #.O.#.=.$.",
"=.O.Y ^ ^ U R *.fXjX_.1X~.,X2X).e.r.D r.y.-. .t.xX=.&.t.fXe.} _.jXdX>   o @ o > 9XqXi p U P / > 7 t k.d 0 E.E.0 6 L.Q.r r W.e e e H _ W q W T.FXdXT.).gXW.Y.W.Y.Y.Q.AXgXtXhXvXpX9X9.7.Z B Z uXpX9.9.9.9.9.w.0.9.9.8.<.9.9.9.9.9.9.Z 9.bXiX9.V = = % % % ; ; - t y y z A 8X7X) P s a 4 D a * o . @ 5 I J U #.#.C N N N 1 1 5 N 5 5 5 5 N @.@.@.@.:.<.:.<.:.c a A b l.n ) n n P.>.A t t i g w d 7 - + o - z x K.Y.A.Y.Y.W.Y.K.K.K.K.g P.! 4 3 3 3 y ; ; - 8 + + o $ + . X + + - t t p q : : p i > * 3 - # 7 M.GX<X6X3X[.}..X$XGXCXMXx.# $ 2 2 4 L p F G H r g l P.v v y 2 y y - @ + * ; = ; ; ; * < a A A l.U.R.K._ K.K.Y.Y.Y.Y.U.Y.E 4 & o O $ $ d d d r u i ) A z.n c @.b l.b v @.@.@.:.<.<.<.V %.@.$.5 D #.D 5 5 N N 5 C O.#.$.+.L K J ! a & % X @ 2 4 4 4 a 8X7XA y t ; t - + * & O % % % % m iXzXzXiX9.<.<.9.9.9.9.7.9.9.9.iXw.9.Z 9.9.9.iXuX<.%.<.<.uX6.6.sXyXhXAX<XW.W.)./.G Y.).T.T.kXjX[ { _ _ W e e 9 e <XY.9 K.W 0 r K.eXw k k d > 2 s L s u : I.tX- % $   o 4 fX| jX_.| dXe.r.y.xX&.X.r.t.r.r.r.[ <X6X5X*X!._._.dXaXqX1.1.5.#.Y #.#.",
"+.L ] e.{ R *.dX/.`._.=X~.1X2X`.} e.r.r.y.8.1 -.nXxXe.e.dX| dX_.dXdXu O o o o > tX8X> q ^ u P 2 $ f k.g w E.W.w 9 Q U.q K.<XG 9 e r H ' _ { qXhXkX[ { ).K.H /.AX).W.AXAXgXgXhXyXuXpX7.Z 7.Z 9.iX9.9.9.Z 9.9.0.w.9.9.9.9.0.9.9.9.q.Z q.bXbXiX7.= % % = % % & * O y 8 2 t z 8X7X~ a u 2 s 3 o o o , a I L U Y O.@.+.C  .N 1 1 D 1  .+.N @.@.@.:.V A <.A <.>.~ A c l l.n A ) n ) ` c i t g h.k 0 7 @ $ X * t p _ Y.Y.Y.Y.K.K.U.U.U.K.L.Q x ~ a - * ; ; ; * - - % X t t 2 8 f V v n Q q q H W q p ~ 4 , 8 8 # w MXGXGX6X{. X3X4XGXNXh.7 + @ , * Y ] J J H W H H g l l n B.n v V y - - * = ; = ; < 3 N V >.B.x.k.R.K.Y.K.K.Y.Y.Y.H W G u , O O o - 8 k h.g g t h 8XP.z.v x ~ n n b z ) >.A <.@.<.<.V @.Z $.O.5 O.$.L @.D 5 @.$.#.@.@.O.=.U K ,.@.5 & o   2 u 5 a z A A 2 - - ; * & O % % % & = % % M bXbXbXiX9.%.<.9.0.9.0.0.7.%.%.9.7.<.Z 9.7.9.uX9.9.<.6.<.uXwX<.qXqXgXNX+XQ.AXFX/.^.T.Y.E 5.sX3.[ T.).T.K.r e 9 e <XW r Y.g r r d.+Xr d k.g $ t s 4 4 u > I.eXt @ - & , 1 r.e.jX} ' e.| r.fXy.&.-.r.-.X.&.e.T.AX6X*X*X!._._.} /.5.{ 5.qX] Y ] Y ",
"*.L 5.1.5.] e.{ /.`.!.!.~.~.6XDX[ e.1.&.&.r.&.&.xXxXfXe.e.T } dXdXe.D , @ , & $ yXqX: g u 4 s i 0 t k h.w Q.U.0 r r K.K.r <Xe 9 e w W T.Q.qX{ 3.aXqXU [ T./.Y.`.DX).Y.Q.gXtXyXqX9XvXuX9.<.<.iX9.9X9.<.7.%.7.9.9.7.7.9.0.0.9.8.9.%.Z iXzXbXbXw.= % = = % % = O O * & ; 8 y f A c a s z t * o o , 5 L L L L O.#.@.$.$.Z  .N D D  .+. .N $.$.@.Z @.<.<.9XV :.:.:.i k z.B.A c s j ! ,.i t k h.g z - + + o @ > 4 u H H Y.Y.U.R.U.K.Y.K.U.K.b P.>.C 3 2 * % ; ; % ; * t y v n A b n l g g K W W W W _ ;.2 * * $ # d E.GXGXOX,X%X+XCXd $ - - @ , S ] U T W W H W ^ Q l P.l.v l.B.v i y A N 3 m y N m :.>.A >.P.U.E.K.Y.Q.Y.Y.W.Y.Y.K.' J u , O O X + t b l g g d k b P.b x x x n P.P.v ) >.:.<.<.<.%.Z C @.%.@.D  .O.D @. .+.@.+.%.$.@.@.L 4 L #.2.@.2 o @ @ * y a t y ; * % ; ; * & & % % % % = = < Z zXzXbXzX0.Z %.9.0.0.0.%.7.9.%.%.7.%.<.0.9.%.<.iXuXuX4.<.wXuXqX0XyXQ.T.Q.gXjX/.Y.jXaX^ U 3.e.] U U T.tXK.e r 6 e AXK.r T.q r r K.k.w k.k.t t t a u u q q 0XtX- X & & , D &.} /.' F | dXdXdXr.S xXy.D &.&.| ).DX<XJ.{.S.!.(.H gX[ { aXU J Y U U ",
"] L J R qX[ { ).' (.S.!.!.S.4XDXaXe.e.&.D y.y.&.r.t.fXdX/.F } dXe.&.D , & & O $ qX0X0 u u u I 2 t 7 d l.w K.R.k.r r Q.H H <Xd.9 e r H T.aX' K ] sX5.U U aXgX/./.jXgX)./.Q.Q.qX0XyXwX<.<.0.0.w.0.Z 9.9.9.<.%.7.Z q.<.7.%.9.0.0.<.V Z iXbXbXbX9.m = = = % % % % = = % ; ; % - 2 y y a y - @ o & < *.*.L S D Y @.@.@.%.@.@.@.@.@. .O. .N +.@.C Z :.:.<.A :.:.:.:.x n P.A c a x ! ` c h d h.w k.z y + + X . , S J W K.Y.Y.U.Q.R.K.K.U.E.L.U.8Xc A V N N ; m 3 N C C a n n z.l.k.L.l W W W W E W T W [ P , , * - 7 7 E.CXoXGXR.c.k.+ @ - y 3 Y aXaX] E ^ ' ^ W E E ( P.l.l b l.z.v f a V :.V V A 9XA 8Xn 8XP.I.E.U.R.T.R.W.K.Y.W ' H ' ^ > o O X + t b g r w d b n b P.b b n 7XA A n A 8X>.A A %.%.C +.@.@.+.@. .@.@. .@.@.$.@.<.<.%.@.@.D a L $.$.@., O O & & * - * ; = * * = = = = = & m m < M 7.7.w.w.zXzX7.%.9.0.0.6.-.%.%.8.7.%.0.<.%.0.0.0.9.6.6.uXwX7X7XwXqX0XqXT.Q.gX).Y./.dXaX| 5.5.] 1.^ J E T.K.H A.d.9 A.<XK.W T.r Q W Q.r d.v.d $ $ i I / 4 q K tX8X$   @ & * 1 &.R } ' } /.dXe.dXe.&.y.y. .X.&.gXDXGXOXJ.J.&XJ.D.Q./.^ T.aXJ K ^ { aX",
"{ ^ u K qXT._ gXY.W.D.J.H.J.OXJXFX/.e.=.D t.y.D r.fXdXaX/.T F e.R  .5 , & @   @ eXqXl q q s ;.t 0 $ d l.w h.E.R.g r Q.H A.AXY.9 9 W r _ T.E 4 U 1.] 5.qXaXaXdXaXY./.Q.T.T.tXtXI.wXqX:.6.uXwX0.wX9.6.uX<.9.9.9.%.0.<.%.7.0.0.0.9.$.$.lXbXiX9.q.q.M m m m % % % = = = m ; % ; & * ; - O X o @ , @.2.*.D 5 a @.$.$.<.@.%.<.+.@.@.@.@.@.@.@.@.Z @.@.Z :.:.>.:.>.A c ( 7XA A c b ( ( n z d d.d.g b t o o + o > D ' ' H Y.Y.Y.R.Q.Q.K.E.U.U.E.8XB.A :.<.V V Z V A A y v B.n b l b P._ E ! W E J J ^ U /.fX*.4 3 , * # d k.R.+Xw 6 8 $ , , 2 ! hXPXFX{ { / U U ^ E _ P.P.( b k.l.x.8Xv f A A <.A <.rXA z.8XeXP.U.eXQ.E.R.Y.K.Y.Y.Y.H H ' ' 2 o O O + 2 l g w r d b l.b P.b x b >.n n ) A 7X:.A A <.%.Z %.C +.$.%.@.+.%.@.%.%.<.%.<.<.9.$.@.+.N 5 O.&.$. .* % & % % * = < = = < 3 * < m Z m 7.q.7.M q.q.<.%.0.w.-.<.uX0.uX6.<.$.<.0.<.8.0.9.6.9.uXuXwX<.wXwXwX9X7XqXqXqXqXT./.)./.Y.' aXaXsXsX5.Y ] ^ u W _ q H A.e 9 R.Q.W K.Q r W K.tXr w x.d 7 $ f ,._ : u _ tX8X- X O , , 1 &.T T G ' dX| dXdX| &.r.lXr.&.R /.DXJX+XJ.G.J.D.A.Q.T.T.gX{ J qXT.0XaX",
"I.qXT.W qXgXU.gXW.D.D.J.J.W.OXGXgXaX] =.r.y.t.&.e.dX/./.`.} J ' R L 1 , * & X - 8XyXI.q > P 3.i $ $ d k.g w Q.U.W r K.K.r <XR.9 e A.H G W W J U 1.U 1.e.aXaXaXT.W Q.gXQ.T.T.tXqXqX7X9XwXwX6.9X4.uXuX6.<.<.0.6.%.6.%.6.-.6.6.0.0.0.<.0.uX8.%.9.0.9.M Z 9.Z B B 3 < = < = = ; * ; & & O O @ ,  .2.$.L 5 @.$.@.$.6.<.%.<.%.Z @.@.+.@.%.+.@.@.@.C %.$.<.@.C >.8Xn A n >.A v n P.L.b z.l.d w r k.k 2 @ o O o , U ^ T H Y.K.Y.Y.K.R.T.U.U.eXP.U.8Xc A 9X9.B.9X<.A v y z.z.b h l b ) _ ! ^ U U U ] [ ^ aXnXkX*.1 * , & $ 6 w w 7 # 8 3 5 1 : ).FXDXgXtXhX5.*.R / ^ ` ( ) ! b b l.eXeXx.f A A B.B.A 9XrXB.8XeXz.P.E.E.E.E.K.R.T.Y.Y.W W ' T 4 o O @ + t l g 9 w d v n b b n v x n n n 8Xn 8X>.c :.<.:.@.%.C Z @.@.@.Z %.@.Z <.<.<.%.<.<.%.@.-.@.O.&. .+.%. .< < < = = m ; = = m M m M %.zXw.9.w.q.Z 7.q.zX6.0.lX<.<.6.6.6.2.$.<.6.-.<.<.6.<.wX6.9X<.6.9XwXwXwXwXqX0XtXqXT.T.T.Y.T.T.T.aX{ fXwXY Y ] P U [ W q r e 9 e Y.W.r K.K.g r K.+Xw w k.x.w t i ~ 4 : p Q 7X7Xt o @ = & 1 X.R U F } jX| dXdXR | 1.t.t.r.dXT.).<XW.W.Z.e A.K.U.W I.T.E K gXqXT.T.",
"T.gXtXH Q gXK.K.U.A.A.d.G.XXOX<X)./.qXe.lXu.5.5.T dXdX} `.} H R *.O.1 & = & O - >.7XL.p 0 q P s t d k k.w 0 Q.E.r H Q K.r W.W.e 9 G H 9 H T.^ J U Y ;.1.kXaX3././.T.T.T.qXT.tXqX7XwXwXwXwXwX9X9XwX4.6.9X0.6.<.<.6.6.6.$.<.<.-.6.$.$.6.6.0.0.0.7.7.7.w.w.q.iXiXM m N m m = = m M % = m < 1  .$.O.$.@.@.$.<.@.%.<.<.V 9.<.<.Z <.<.V $.@.Z ..@.%.C $.<.@.A 8XP.x.8X) ~ A f l.x.l.l.z.l.w w r d.j 2 @ @ O O 4 R T G W Y.Y.Y.R.U.R.U.tXU.E.x.8XeX8X8XpX8XA 9XA A v l.eXU.l.b ( ! ) / U Y Y Y Y 5.aXdXaXgXFXgXI * 1 3 2 # 7 $ $ * 2 , S S J DX4XW.Q.SXmX6.O.O.R #.Y I Y P ! ) l.E.eXV.x.B.B.9XrXA 8XBXz.z.8XV.U.E.E.eXQ.E.U.Y.Y.U.Y.Y.' ' u @ + % @ i L.r w a.0 g b v v P.n z n ) A 8X>.7Xn c @.A :.<.@.<.%.%.Z $.Z %.V 9.<.9.<.<.%.<.%.@.%.%.$.-.@. ...-.%.%.M = = m = = m N Z Z B 7.w.w.7.%.7.9.w.%.lXcXmXlXwX$.$.2.2.4.6.4.<.<.$.<.2.wX9X9X4.>.9XqXrX0XqXqX7X0X0X` I.I.[ W ' aXaXaXaXsX2.2.1.p 4 ! _ W H q e 9 K.OXR.K.K.K.K.9 E.Q.6 r K.k 0 i p K : q W E I.8X- O & & = 1  .*.[ J /.jX[ dXjXT e.e.r.e.e.jX).+XOXG.W.A.A.r U.K.g T.I.H _ T.T.T.' ",
"U.T.T.W q Q.L.l U.K.k.d.K.R.R.OX<XgXjXe.&.=.e.5.' _._._.dX| J ] O. .m * = % X - >.7XQ W u : u s t t k L.w 6 R.Q.9 K.K.Y.W K.<XK.9 9 H r J [ W 4 4 Y 5.5.t.e.aXdXaXT.W _ T.I.I.{ 0XqXqX7X7XtXqX9X9X4.<.wXwX9X<.6.<.2.<.2.2.6.6.$.#.1.lXcXmXzX0.0.q.Z 9.9.9.w.q.Z Z 7.m M = = ; m = = M ..-...+.@.$.$.%.%.%.@.<.<.9.V <.9.<.<.%.V %.Z @.%.$.%.%.+.@.:.~ c A B.8X8XA A c n z.x.x.l.l.k r 9 e r l.y @ @ O o 4 U ' H Y.Y.E.U.Y.Q.U.Q.eXv.P.eXz.z.B.rXrXB.A B.B.x.x.P.eX7Xb P.) ! P I L #.O.Y Y 0XhXPXQ.Y.).FX[ 4 L 1 , 2 $ @ & * , : L J A.2X,XXXQ.gXvXsX$.D O.*.O.L Y L / 3.P.8X8XB.f V.z.B.9XB.8XyXB.x.v.B.8Xv.P.E.E.Q.E.R.K.Y.K.Y.W [ L @ + $ $ i L.r 9 e 0 g b k k P.P.v n A A ) 8X>.A ) n c c @.@.$.V C Z V V Z 9.9.9.Z Z Z <.<.Z Z C @.-.$.+. . .%.8.q.M = = m = m M %.7.%.%.7.7.0.9.%.B q.zX0.6.vXnXlXlXwX4.4.:.4.4.4.4.4.:.wX9X,.4.qX9X,.7X7X7X7X7X0X0X0X` ~ ^ ^ _ ^ { aXqXaXsX4.wX5.L u K _ Y.' H r 9 e W.Q.K.Y.g Q K.q E.k.6 g E.k.$ t u / q J p j qXc + O % & < N 5 L R J dXfX/.dXjXT [ e.| R [ gX).OXOXG.K.R.l 0 L.L.U.gXT.' U.Y.U.W 9 ",
"Q T.T.Y.' tXtXT.Q k.r d.K.R.W.OXW.(.gX[ R e.e.5.[ `._.} dXdXT [ O.N N , = % O @ A rXb g E q u ! 0 0 d E.k.6 r Q.w g W r K.K.Q.R.r 9 r H W K.^ K U L 1.5.1.sXsX5.T.qX[ I._ p ! ` 0X3.7X` >.qX7X7X>.,.4.qX:.:.4.4.#.;.4.5.2.4.4.:.t.t.lXnXmXlX-.0.iX%.Z 7.q.9.7.9.Z %.B B M = = M = = B 8.8. . .+.Z %.<.C @.Z %.<.<.9.Z 9.<.Z Z <.Z @.Z @.$.%.$.@.@.@.~ n ) 8X8XP.c ~ c P.8Xv.h.k b h 9 9 9 d.L.i @ * @ @ u [ T Y.W Y.Y.Y.K.Q.tXE.l.U.x.eXE.x.B.yX9XB.rXB.B.n z.z.U.8XP.` ` ~ I L D $.=.L / sXhXFXQ.W.W.<XY.H / 5 @ 2 @ , , 1 S R /.^.A.4X3X4XGX+XyXvX4.L O.&. . .&.R Y 1.,.7X7X8XB.9XA A 9X>.8XeXV.x.eXE.eXE.v.v.U.E.U.T.U.Y.' K.F W U , $ + o > Q r e e 9 u g l h z.8Xn v n n ) 8X8X) n ) c s c C $.C %.Z V Z <.V Z Z Z Z <.<.Z <.V Z <.<.@.$.%.<.%...7.M M M Z B M 7.7.%.Z B 9.0.w.0.9.7.0.iX0.sXsXt.4.wXwX6.1./ / / / 3.,./ :.9X4.8XqXqX7XI.I.I.I.` I.qX0X,.4.1.] { 1.3.5.1.Y 2.=.1.Y P { hXT._ Y.H 9 e H R.K.K.W.q e r K.Y.w 6 g E.k 0 > u [ J J q ! yXA + % = < < N  . .L R sXsX| dXjX} [ [ e.| dX).W.OXG.R.A.K.w 0 d L.tXgXT.K.K.T.W 9 # ",
"q _ Y.T.K./.gXT.g i 0 r K.R.A.G.W.W.).| aXr.5.T ' jXdX} e.e.T 1.O.N N < = = % + a hX! q _ p _ E 0 7 t E.K.6 w K.K.r w q K.Y.W Q.A.e 9 H K.' Q.aX^ P P 1.1.4.*.U e.3./ { { 3.0X3.3.3.qX7XI.I.U.I.7X0XwX9X9X4.0X;.;.3.4./ P I ;.2.wXt.6.6.uXlXuX0.iX7.%.9.w.0.7.Z Z %.7.7.B M M M m B 7.7.....%.+.%.%.%.%.@.Z Z <.9.Z V Z Z 9.Z <.Z Z @.Z @.@.C a a c c n P.P.8Xz.>.A v n z.l.j.b x q 9 e 9 A.l.> @ @ O - L ' G ' Y.U.U.R.Y.Y.E.8Xx.eXE.E.eXx.eXeXB.8X9XB.v 8XB.P.8X8X7X,.;.;.#.O.@.=.$.I 0XhXSXQ.GX<X3X,X(.H /.T.P 4 @ , 5.e.kXjXDX(.G ,X3X4XKXAXQ.FXhX@.L $.%. . . .L I ;.,.>.>.8XB.A B.8X9X>.P.eXE.E.V.v.eXeXE.E.U.R.U.Y.Y.Y.' H J J @ + + o @ j r e e q H Q ( h v n 8Xn n n A 7X7XP.b ) ) x i a N C %.<.Z V 9.9.9.V Z Z <.%.$.V Z V <.<.Z <.%.%.%.B %.o.M 7.zXq.q.7.Z Z %.%.Z <.pX0.6.uX9.uXzXzXwX;.4.2.;.4.3.3./ / ` 3.3.,.` 4.qXyXyXqXI.( ( I.I.` 7X0X,.4.qX4.wXaX1.Y 2.1.;.1.1.L a ^ qXqXT.W K.r 9 Y.R.K.A.U.Y.r 0 9 U.Q.w 9 l.eXg 0 u u u U q 0 ( yXc O O = < < B +.&.O.&.sXaX| /.jX/.[ e.r.dXjXQ.<X$XZ.G.R.r g 0 u eXQ.Y.T.K.T.Y.H # W ",
"# Q T.[ ' Y.U.T.T.0 w g r K.A.Z.,XOX).gXdXfXe.] /.jX} } fXr.*.R %.+.N = < ; % O y yX7Xu q ! p p i 0 w U.K.w w U.U.W 9 0 Y.T.W K.R.A.e 9 W K.T.qXqX/ u L 2.5.#.1.2./ ;.qXsX4.4.3.1.` / ` 7XI.P.( ,.qXyXwXwXqX,.,.,.,.3.` / / 3.4.2.;.$.2.6.lXbXlXwXuX0.0.iXuX%.%.<.%.C 7.w.7.8.i.B ..B B N %.%.%.<.%.%.@.@.Z %.@.%.<.Z V Z <.Z Z C %.%.$. .C I a s >.) x P.eX8Xn c z A 8Xl.l.k k x E G e 9 r l.$ o @ o @ J W H ' T.K.Y.U.Y.R.U.U.8XE.E.E.V.eXeXV.B.9XB.A 8X8X8X8X>.7X,.,.#.I #.O.@.<.#.;.yXFXNXQ.KXJXW.,XD.S.DXJXFXqXI.qXSXKXjX(.DX1XD.W.4X4XJX4X+XKXFX) a @.%.C  .D D $.;.:.:.:.4.<.9X:.A 8XB.B.E.eXE.x.8XE.U.E.E.U.U.Y.U.Y._ Y.W J S @ @ - . : u H e e G F q Q l.k v 8Xn v A 7Xn 8X8X( b ( ) i a D 5 @.%.<.Z Z 9.<.Z 9.%.<.-.<.<.<.<.<.Z %.Z %.Z C N Z Z N @.0.9.<.<.9.<.$.<.6.9XuXuXwXuXuXwXwXwX6.4.6.wX4.;./ / ^ ] { ` 3.0X/ ,.,.,.7XqX7X` ) ` I.0X3.,.,.4.4.2.2.#.;.;.#.4.2.Y #.a p 3.aX_ r r H r r Y.K.H A.R.T.r q W T.K.w w U.U.w i _ K J U q 0 ( 9Xy % % * = m ..-.-.-.-.fXsX[ | jX/.R e.fXdXjXAX4X$XF.OXW.r U.l eXtXQ.Y.T.T.K.W q 9 K.",
"q q W Y.Y.T.T.T.tXb L.U.d.W.J.F.OX4X2XDXkXe.| [ dXjX| R r.t.r.-.-.%.B N m % % % y wXI.0 q ! E p j j h L.Q.w 9 K.E.K.q g U.K.K.A.Y.K.r r H H r E tX3.P a I I #.5.#.#.;.2.;.;.1.4.1.3.3.3.7X` P.) ) 0X7X,.8X,.~ ` 0XI.{ / / / / 3.2.2.wX4.2.<.wXuXwXuXuX0.uX6.<.<.@.%.<.<.<.<.0.0.N B Z B N Z %.%.%.$.%.<.%.<.<.<.<.9.9.Z %.9.9.Z %.%.%.C 5 a a i ! ) b ( 7X8XP.>.B.c n ) l.l b x u q F 9 e A.h $ o * o $ u J G Y.Y.I.U.R.R.T.U.eXv.E.v.P.v.eXeXB.B.B.9XB.9X9X<.8X:.:.:.;.@.@. .@.%.$.a c yXUXHX<XKXJX<X(.~.~.6X<X<XKXKXGXOX4XOX,XJ.<X(.<XJXGX3X4XJXKXSX) a C :.@.C L @.$.$.2.;.@.4.<.9X9XA 9X8X8XP.eXE.x.E.E.x.eXQ.U.U.T.Y.K.' W W K R 4 * @ @ @ u W e e 9 9 9 J L.b b v c v >.8XP.7X7XL.( ( _ P 4 5 5 N @.<.<.<.Z 9.9.9X<.<.<.$.6.<.<.<.<.<.<.<.<.<.%.@.$.C @.<.<.%.<.<.<.<.6.9XwXuXwXwXwX9X:.<.4.4.4.wX4.4.4.4.,./ ^ ! ! ! / ` >.,.4.7X,.>.I.7X` 0XwXqX4.4.2.2.;.4.$.2.@.@.2.$.D a S P qXtXW K.W e r K.K.k.K.U.Y.r r W K.K.q g L.L.r u j ! ] ^ K q p 7X7X2 % % = < N 8.-.%.-.t.cXt.R | jX| R R e.fXAXJX4XXXZ.W.W.r U.U.gXhXT.W T.Y.r r q W Y.",
"H 0 r W T.T.T.T.SXtXU.E.d.J.~.Z.J.4X6XDXdXe.*.R [ jX| | r.y.-.&.8.8.8.B = = % % - 7X7Xp u E ^ ^ x ) g 0 E.K.w r H U.W r Q K.K.g k.K.A.r r r K.Q qXqX` P a L #.6.#.#.$.#.;.1.4.2.2.4.5.wX0X,.7X7X) 7X7X7X7X7X~ ` / ! ! ^ ^ / ;.3.4.4.6.wX4.4.4.:.<.wXwXwXwXwXwXuX2.<.<.<.<.<.<.-. .N @.<.<.<.V %.%.$.<.$.<.2.@.<.<.<.<.9.%.7.<.%.%.%.N 5 a a s p ) ( b ) 8XI.) 8XB.v v b b b j K 9 : 9 9 r K.0 $ @ $ * 4 _ W H ' ( L.U.T.Y.U.eXU.E.U.E.E.U.eX8XV.9XB.A 9X<.A 9X<.:.<.2.@.@.@.5 C C @.a x yXUXKXGX%X4XDX<X(.,X3X*X,X4X4XOX{.$X].G.J.6X<XGXKX<X%XJXKXJXT.x A @.V A C a @.a :.6.#.:.<.:.9XwX8X8XrX8Xx.E.E.E.eXU.L.U.U.U.T.U.Y.Q Q ' W ^ ] L @ o @ @ $ p A.9 9 F 9 9 l l.b n n n n 8X) P.I.P.j E ^ ^ 4 5 5 L @.%.<.<.<.-.<.6.6.2.2.$.#.2.6.2.<.6.0.<.%.:.<.:.:.2.2.4.uX6.6.<.4.9X9X4.4.yXwXwXqX:.:.:.9X4.4.4.:.;.;.,.3.3./ ^ / ` ` ,.:.4.wX4.,.7X4.>.,.3.wXwX4.4.<.2.2.wX<.<.:.$.2.2.#.L L / [ ' E W r e K.K.k.K.U.K.L.r W g T.K.6 g Q.K.0 g ` 0XqXJ u q ) yXc & O % % < ..o.X.%.X.-.xXr.T /.jX/.=.5.5.e.AXGXOX].F.G.A.K.k.L.AXgXY.r aXQ q W H K.r ",
"Q g j q I.Q.r K.SXgXk.K.K.A.G.F.G.<XGXjX| e.5.*.[ jXe.R r.y.t.+...-.0.B = % % X O c yX7Xt u _ T.` ` u 0 l E.K.9 r tXK.q W K.L.Y.K.K.Q W r q Q K.U.0X,.P s #.;.=.$.$.$.:.2.6.4.2.1.2.wXsX4.4.>.0X7X4.3.9XwX4.,.` / ^ / / ] 3.3.4.4.#.:.6.wX9X4.:.;.:.9XwXsXwX4.4.wX<.wX9X9X<.6.6.$.:.<.<.<.:.<.0.6.6.<.4.4.2.$.2.6.<.6.<.<.<.<.%.%.%.@.5 5 u p ! ( E l I.7X7Xn >.v n n x b L.j q : : F 9 H Q 2 @ O o @ P 0X' W W _ _ I.K.U.T.U.eXz.U.U.E.E.v.x.8XrX9X9X9X9X<.<.:.@.<.$.@.@.L N @.%.@.A c U.HXKXJX4X$XJXJX<X2X*XJ.{..X3X'.}.'.'.].3X4XGXGX+XOX4X6X<XW.j a :.<.<.V A C A a @.<.@.:.A <.>.pX9XB.rX8Xl.U.U.U.E.U.L.U.I.I.U.T.I.T.[ L.W J U R , . O o . q W 9 9 F : 9 g b b b n >.v n 8XP.P._ E K E J J S p 4 a @.$.<.9.<.<.<.<.4.6.2.Y Y ;.@.#.$.:.<.:.$.:.2.2.;.:.:.9X4.:.,.,.>./ ! x ` >.7X,.,.>.0X4.;.4.:.#.:.4.1./ 1.] 1.3.;./ ;.2.:.:.:.4.wX4.;.,.4.4.4.2.2.2.2.$.6.4.2.$.$.:.@.2.I / { E g q r w K.Q.K.l U.T.W q W g H Y.Q : W L.q 0 g ( { ] 4 : 4 7XyXt + O % % < 7.8.%.X.+.8.y.-.R aXjXT e.u.6.aXSXJX%XOXG.Z.A.R.r K.gXgXW J tXq q W Q W 9 ",
"W Q Q q W T.r W AXNXg d.R.Z.F.G.OX<XJXAXaXt.u.5.[ jXaXL -.y.t.X. ...0.%.m & % X O y qX7Xu > u ` 0X! p g 0 U.E.w g T.Q r j q g T.K.Q K.Q.K.r r q g _ ` / ;.;.*.#.$.$.2.4.6.2.:.2.;.2.4.4.4.;.:.4.wX4.:.4.:.:.,.;.3.3.3.3.3.;.1.1.;.#.;.4.:.,.7X4.7X,.,.,.7X,.~ ~ :.:.:.4.>.wX4.:.:.4.4.:.:.>.:.4.:.,.#./ ;.;./ 3.6.2.6.<.<.<.<.%.$.$.L 5 s u u ^ E E E I.I.) n 8Xn 8XP.v b ( p 9 : G 9 e H u @ @ @   @ / ^ W W ^ { I.U.T.I.T.U.P.L.U.eXU.E.U.U.eXrX9X9XwX<.A <.:.C 6.$.a a @.C C Z :.:.A E U.AXJX4X%XOX<XJXAX3X|.F.[.'.}.'.}.@X4X4X%X4X%XW.CXJX,XH H u I :.%.V :.C A C a c :.C @.C :.>.9X9XrXrXrXU.E.P.U.U.U.I.L.L.` I._ _ { { _ K u J { 4 @ @ O o > g q 9 G 9 9 g l b b n >.n 8X8X) ( ( E p J u K P K 5 L a $.-.6.<.2.$.:.2.2.3.5.[ ] 5.1.;.;.4.;.I / ` 3.;.;.;.,.I ~ >./ ! ! x P ! ! ~ / / ;.,.;.I ;.0X4.4.wX4.Y 1.1.;.3.;.Y @.2.$.@.:.2.:.2.4.2.6.4.4.2.2.4.4.2.wX:.#.:.:.#.#.#.I ] { E g u r l Q.tXL.( I.I.g q q Q T.K.0 g T.Q q K.T.^ U 4 : 4 x qX9X$ O = = < < -.0.-.X...-.y.r.] aXaXU &.u.t.e.gXGX%XOXG.e A.R.d.Q.AXgXu K _ g W W r W r ",
"Q r ( j g I.E W gXSXU.k.+Xd.Z.Z.OX4XGXgX4.6.u.2.^ /.dX] r.y.-. ...-.0.8.m = = * o 2 >.qXj u : u / K _ I.9 K.Y.r r g T.T.q 9 g L.U.W K.tXtXK.g q g E ` ,.~ #.2.#.*.@.@.2.4.4.2.4.2.2.2.4.4.:.4.4.2.:.;.:.#.;.;.I ;.;.] 1.;./ ;.2.6.2.4.4.;.~ 4.0X>.` ) ) ! x s ! s ~ :.~ a >.:.>.>.>.3.,.,.,.` ` ,.,.,.3.3.{ 3.5.4.:.2.<.2.-.-.<.@.@.5 a P L J J J p E ) n P.7XB.v 8X) v b l r q 9 G e H k.# @ @ & o 4 1.E H ^ { / I.I.I._ { P.U.I.U.U.U.U.x.z.rXrX8X9X9X:.:.>.C C :.@.5 5 @.@.@.@.V <.A j g Y.W.4X<XOX+X%X4X4X4X$X|.F.b.|.4X4X$XOX%X%XGXGXGXgXW q E s @.:.<.@.V :.V :.a @.$.I @.:.9X9X8XrX8XtXyXP.U.P.L.L.I.I.I.` _ _ ` ` _ ` ^ E H H ] J @ @ @ @ o 0 g G 9 9 G 0 u l b n 8X>.B.P.P.( _ W K J J ^ K U P L 5 a $.$.2.6.<.;.#./ / W J W _ ` ^ ^ _ ` ^ ^ ` I.,.7XqX4.~ ~ / ! s E K ! E ( ! ! ! ~ / / I ;.4.4.4.6.4.2.2.1.;.1.;.;.:.:.$.:.2.$.:.$.2.6.4.4.<.2.;.:.2.4.6.4.@.#.#.#.;.Y P P K u g l Q K.T.qXI.I.` j j q 0 Q.gXq 9 U.K.g g tXqXI.] 4 @ u ,.yXn o O * < < < 8.u.0.0.-.8.8.&.R dXdXR -.-.8.sXSXGX4XR.Z.s.G.OXR.Q.tXT.u u ! ( I.g q r r ",
"q : _ ( E W q W T.gXQ.K.Q.d.s.Z.W.<XAXSXwX0.8.-.] /.jX^ =.u.8.+.-.8.i.%.< = < * O o z wX7Xp : 4 / ` qXT.g Q Y.U.w q tXtX0 q Q K.L.I.T.U.T.Q Q r r u ! ~ L L #.#.$.#.@.#.5.wXwX;.2.2.2.4.6.4.2.:.:.$.2.<.:.:.2.I ;./ 1.1.1.2.2.5.5.4.2.;.I / ` ~ ! ! ` ) ! ! ! x x ,.~ ~ >.>.7X7X8X8X` ! ! ^ { [ ` / ` ` ^ E ^ ^ / / #.2.6.<.$.$.C a a L U U J J H J W ( ( 7X8Xz.z.8Xn x b k w 9 G e G d.0 # @ & O @ L ] K q K ^ / / ` _ / _ _ ) I.I.L.L.U.x.U.yXtX8X9XwX:.:.@.A #.;.@.s c @.@.V Z <.<.:.s u q G <XJXGX%X%X%X%X%X4X3X$X'.%XOX%X@XG.@X%XGXNXQ.W u p I A @.:.Z C N C @.$.@.@.#.@.:.C :.9X>.9X8X8XyXeXI.P.L.( ` I._ ` _ ` ` ` ~ ! ! Q W F T L , @ @ @ + $ h W e e 9 9 > j b P.z.8XP.P.P.( ( ^ ^ U J K K ^ ~ P L a @.@.$.4.4.:.~ / ` W H H ' T.I._ _ T.tXI.L.I.P.I.qX,.;./ P p u K u E E ^ ^ / / ,.3.3.3.3.;.;.;.;.2.2.#.#.;.;.$.$.6.:.2.2.:.<.$.$.<.$.2.2.2.2.;.;.,.3.5.1.;.;.Y L @.] L P u u W l L.L.l I.qX0X` x u q g Q.Q.q g U.r q K.Q._ { 3.S > s wX9Xt o O * & * m 0.0.0.zXzXu.-.6.] sXkX] 6.%.u.lXSXJX4XR.Z.A.J.R.R.U.Y.[ P u ! ( I.Q 0 q 0 ",
": q _ E I.E u Q I.Q.U.U.R.G.Z.s.R.AXGXSXvX0.7.6.] aXjX] &.-.u.i.u.y.i.8.m & = * O o t wX0X! > u { 0X0XT.U.q w U.q 9 T.T.W g q E ( qXtXT.Q Q U.Q j u u P P P L L Y #.;.2.4.4.4.;.;.:.2.2.2.4.2.:.$.$.=.$.@.2.6.$.2.*.#.1.*.;.$.2.$.;.2.2.;.;.4.,.) / ) _ ! ! ! p u x u ~ 3.,.qXrXqXI.) I.T.I.K._ _ _ T.W J E ^ ^ / ;.;.:.4.$.C I c s #.Y L J J J J U _ ( n P.8XB.8XP.v n x 0 9 9 e 9 H r 6 # o @ @ , Y J J W K ^ P ^ ` ^ / ^ ` ) ) _ ( ( eXU.E.yXrX8X9X8X:.9X~ :.:.@.:.:.@.:.@.C C V :.:.I E u J H gXGX4XGX#XR.XX$X$X3X$XXX].XX$X%XGXJXAXY.E u P L c A A A <.C C @.<.@.@.C @.@.a a :.wX,.yX8XB.qXtXI.P.) ( ( ) ~ ` ` / ,.,.` I s l W q H qX/ * & X - $ 0 H G 9 9 9 q h x h n z.8Xz.) ) ! K ^ R J J J U ^ I L L O.@.#.2.4.wX4.3.` T.' W ' Y.Y.Y.W H Y.Y.W Q Q h b ` ,.` K u K ^ K ` ] ` 3./ I Y / 1.3.4.4.2.;.2.6.6.;.$.6.6.$.<.2.$.$.@.@.$.6.6.$.2.:.$.:.:.;.1.4.2.qX4.3.4.;.s I / I U p p ( Q l I.( qX0X) ` / q p E T.r r K.k.q r I._ K E K u p ,.7Xf . X & = = =  .8.8.6.u.zXzX%.=.R dXhX5.0.%.-.vXtXAX%XXXA.J.G.R.W.R.U.qX1.a E _ T.Q 9 q r ",
"q q I.I._ Q W I.0XU.K.Y.G.R.G.F.OX<XHXgXlX0.<.0.qXsXdXR &.&.cXcXu.8.8.0.B = % % % O o i qX~ s p W K E _ _ g q W T.q r T._ E u u { ` qXqXn ) ) j x x p K P ] ^ J I ] 4.4.4.3.4.4.;.,.1.:.:.:.4.<.<.<.$.@.$.$.$.6.$.$.2.2.@.2.wX$.2.:.$.4.6.2.;.#.~ / / / { ^ ^ E p p p P / I.I.E g K.K.K.T.Y.K.K.Y.T.' W H ' T._ { 4.4.9X2.#.#.I I P I Y D 4 S J U ! ! ( P.) n B.8Xv v c q q 9 9 e r l > > o @ @ , I { W q G W J U / ;./ Y / / / _ _ ( ( ( I.tXtXz.8XwX9X8X9XC C C :.@.C @.:.<.C C V $.:.C A c s ! u K.AXGXGX%XXXXX|.].$XXXOXOX+XJXAXW.K.p u I @.c C C C <.<.C C :.@.C 5 C @.:.:.:.>.9X<.yXrX8X8XqX7X7XP.! / ~ / ~ / / ;.,.;.c s x K G Y.W [ 4 . o @ $ $ u H 9 9 : q i j v l.P.8Xb b ) ` / ^ U U J S L R #.I #.;.;.;.4.4.wXwX4.{ W G H H H H H W W H H H W A.Q r E ` T.[ _ { { ^ / / / ;.#.;.;.$.:.4.6.6.<.$.2.uX0.2.@.$.6.6.<.#.@.#.#.$.:.2.<.:.<.2.:.2.4.,.3.4.;.3.;./ / I P u Y ^ ~ ~ ~ ~ ) ) 0XqX,.! x s s u 0X_ q > Q K.q r I.{ q u qXT.K 3.>.c 2 o * ; % % M 7.8.7.%.8.cXmX%. .R fXxX6.0.%.-.9XqXAXAX%XG.Z.G.A.Q.W.Y.qX4.P K T.T.W W 9 q ",
"q q Y.U.U.g E tXT.T.T.W.A.G.F.G.%XNXAXqXwX9.<.0.sXfXr.R R X.cXcX8...%.8.9.m = % = & o 2 ~ ` ~ ! 0XT.p u _ _ j q K.g 9 g T._ u p ) s x ,.9XqX7Xi ~ ! ! ! / ^ U u Y / / 3.,.3.3.,.4.4.:.:.4.<.9X<.2.<.$.@.@.@.$.$.6.2.6.2.#.6.lX6.$.$.<.2.2.2.;.@.#.#./ 1.] / ^ ^ { ^ ^ { { _ E r Q r K.K.K.K.W H W H H H H W ' { qXwXwX6.:.#.Y / ! / Y R S S S S U ^ _ ) P.z.n 8Xv.v c s u q 9 e e A.i $ @ @ # . , ^ [ H G H H K ! ;.;.#./ Y ;./ / ~ ( ) I.8X8X8X8X8XyX8X:.9X:.:.@.$.C C C @.<.V A <.V C C C C c I u p ( Y.AXJXGXOXOXXX$X%XHXHXGXQ.K.J E ! Y :.C a V :.<.9X<.<.$.Z C C a @.@.@.A :.9XA 8X9XqX) 8X8X) ) ,.,.;.I / ~ I ~ >.:.;.#.~ P E r H Y.[ 4 o @ @ $ # q J q 9 q q j x v n z.eXP.) n ) ~ U U U J L D L Y Y #.*.I @.;.4.5.4.4.3.Y.W W H H W ' ' Y.' Y.W K.K.K.K.E _ { ` [ { 3./ / Y #.I @.@.$.<.$.6.6.$.:.+.$.=.6.$.O.$.:.4.4.@.#.#.#.:.2.2.2.2.4.:.,.:.;./ ~ / / / P p p P P ~ ~ ~ x P ) ,.7X>.) 8Xc i i s ! ! ! ! i q W I.q j ` K u _ qXT._ 0X>.t + O = * % = 7.i.8.....-.zXu.-.&.R t.xXsXzX%.<.wXyXtX+X<XOXZ.J.A.Q.Q.Y.{ ] U u ^ E W r 9 r ",
": q E I.T.u ( qXI.W /.Q.A.G.A.{.4X+XtXqXwX<.<.0.lXfXt.D O.=.zXzX-.%...9.zX7.= % * * O @ 2 >.0X` { aX` u p ` E u U.Q q q Q ` p ~ s u i ) >.) ) 7X7X) ! ! ! K P P s L s P / / ;.;.;.;.,.:.4.4.4.4.2.2.2.#.$.#.#.$.6.2.$.@.$.<.6.6.$.<.<.6.2.<.$.:.$.I I ~ / ! / { 0X] ^ 0X{ E E W K.H A.W W K.' ' W G G H H W _ T.5.wX4.6.#.#.#./ I / R L D S S T ^ ^ ( I.) n z.8Xz.b x s J q 9 9 e l t @ * @ o . u / ^ W H W E ~ >.:.;.;.~ / ~ ) ~ ` >.7X7X7X7X7X>.7X9X9XA :.:.<.C :.C C a C @.C <.<.<.:.:.:.A C #.P P E g K.+XGXGXGX<X+XGXKXFXNXT.Q j E P s @.a A <.9X<.<.9X@.a :.C C :.:.:.:.A :.A >.9X9X8X) 8X7Xc >.;.:.4.~ ~ I ~ ;.@.>.~ @.;.s ^ W H Y.T./ 2 o o @ . > u J 9 q q u h z b b z.P.z.n x ! ~ ! U L L L Y Y L Y ;.#.I I ;.3.5.1.` ' _ ' W T [ [ [ T.[ Y._ Y.L.L.Q E K ` ] ` 3.3.~ I ;.@.@.@.@.<.2.<.6.<.<.$.$.@.+.2.$.$.#.@.#.2.#.2.1.#.;.;.#.#.:.:.:.;.;./ I P s I P L K s a L P p K ~ 3.qX0X` x ) ) x u u s ~ ! u u u p j ` ( I.,.u K ^ E E I.0Xa @ % % = % % M w.zX8...-.8.0.u.-.=.*.t.lXxXzX%.-.uX7XU.NX4XOXJ.W.A.Q.Q.W E / ] L E _ W u 9 q ",
": F K _ I.p ` I.E E gX).A.J.G.OXGXNXQ.7XuX<.7.zXxXlXe.R &.=.u.0.8.%. .-.cXiXm % & = O o @ c 0X7XE _ ^ u p ` ` E _ E g i u p x / ! u u p ( ! ! I.qX0X` ) P s ! / P u s P I P P s s / ;.3.;.;.,.;.;.;.;.;.2.1.;.#.#.#.Y @.2.2.:.@.@.$.$.<.6.2.<.-.;.@.@.@.;.@.I ;.3._ { { / ! E _ I.Y.' Y.' T.[ [ [ ' W ' W ^ [ { 3.2.2.#.I I Y ] / Y R L L R L U K ^ ( ( z.z.B.8Xb h s p u H G : q r t @ % o X $ / { W W W Q b 8X@.:.A @.#.~ ~ ~ ;.:.,.>.>.n 8X9XA 8X9X8X9X:.A V A <.:.@.C C @.A @.9X9X<.<.:.:.C C s I / K g I.).GXUXKXQ.SXT.T._ Q j p ~ I a :.@.:.<.A V <.9X:.C C C C @.C @.A @.A <.:.A 9X8X7X8X>.>.:.>.:.4.;.@.;.@.:.~ @.@.@.;.P E W H W T.qX5 o . o . $ : g q q : u u j z v k 8X8Xn b n ! / / S L R R Y L Y 1.1.Y / ;.1.;.1./ _ [ [ [ { 0X{ ^ [ [ ^ ' ^ ^ _ ^ ! P / 3.;.1.4.C :.$.:.$.@.$.@.%.$.<.<.2.$.@.$.$.2.6.2.;.#.I ~ / / #./ Y ;.#.I I ;.;.;.Y I ~ I L ;.I a a s J P ! ! ~ ` ` ) ! P x ! ) x x p p x p u p j s u ! ` 0X/ ! U u > K qX7Xy % % = = % = B i.i.8.%.-.8.u.6.=.=.5.u.xXmXzXZ %.uX7XU.KXGXOXOXOXA.Y.gX_ K ] 5./ ^ qX{ W W H ",
"J E { { ! ` 3.^ K ^ /.Y.A.W.{.,XGXAXT.,.wX%.7.zXmXxXr.e.&.&.u.y.0.-.%.8.u.zX%.= % = = % % y I.0XJ 4 p P L / 3.,.! p j p u u s I x p i p ` ( x E ( ` 0X` ~ ! I P a s s I I I I ! I I / Y ;.Y ;./ L / Y Y 1./ Y ;.a #.;.2.4.<.$.$.V $.$.<.<.<.$.$.$.@.@.:.$.2.:.~ 3.,.3.{ ~ ! ^ ^ W _ ' ' ' [ [ [ 0X{ [ [ [ { { / ;.$.;.#.#.Y Y / Y I L R R L L Y ^ ( b b l.8XB.n k h x u : F : 9 H q $ o + X X a qXT.' H Q ( ) :.:.:.:.@.;.;.) ~ :.:.:.:.>.>.>.9X8X8X9X8X:.9XA :.A :.:.A C C A @.A <.9X<.V :.:.:.>.a a c I s ( I.T.tXSXSXhX! p s x s z ~ @.:.:.C V A :.9XpX9X:.A C A A V C A :.:.<.9XA 9X9X8X>.>.:.:.4.:.:.:.@.I c ;.~ @.I @.I @.I J W H W _ aXa @ . O o # > i u q q q u j x z v V.V.8Xz.( ) ) / R L R Y U Y U Y 1.;.;.1.1.4.;.4.] 1.3.] 1.1.Y P U U U U P P P / I I Y :.:.2.<.@.<.<.$.$.$.@.@.@.:.@.$.$.@.@.#.2.2.2.1.1.Y U U / P Y / / / ;.~ ;.;.I ~ I ;.;.3.;.I ;.I >.~ ~ ~ ! / ! ! p u u i _ ! ( ( ! x p i i ) ~ x x i s I s P ] / : u 0XqX>.; % % % = = N 7.8...8.0.-.-.u.-.=.&.r.sXlXzXzX%...lXwXtXHXGX4X,XW.G W T.Y.P / wX/ P 0X` _ Q W ",
"E E 0X{ p 4.qX] K ] [ W H W.{.4XGXAXT.3.lX7.7.zXcXxXt.&.&.-.t.0.0.-.i.0.%.7.7.m = = = % O - c wX` q 4 Y Y s P ,.s p s p >.x t i u ! ) _ ) ( x ! t l ) ~ x c ~ ~ s I ~ ~ ~ ~ / / 3./ Y P I / / Y U / ] Y U P / / P / 1.2.6.2.2.$.$.@.$.$.$.<.%.@.@.%.%.@.<.<.$.@.4.4.4.;.I I ! ^ ^ ^ ^ E U R U U R 3.3.{ ] { { 3.1.;.$.;.;.1.;.] Y I #.R U L U ` ) I.P.b z.eXz.v b h s u 4 : F q q 0 # + o o o i aXY.H H W j c >.A C C @.I ~ ~ C @.:.:.:.:.:.>.>.8X>.:.8X9X:.<.A A A C V A A A A A 9X9X<.<.:.V V :.:.:.C s s s p x ! qXhX~ s s I c A A C A A :.A :.<.9X9XwX:.A V A A <.A A >.<.A A <.A >.:.>.8X8X>.:.:.4.:.a c ~ a a c s c I a L J J W _ W ' fXY @ @ @ . . > s i q J J J J u x z.z.x.E.x.z.( ( ~ ] Y L L U Y Y / / ] ] 1.1.1.;.4.1.1.*.*.#.#.#.Y Y Y Y Y Y L Y ;.#.I #.$.2.2.6.$.$.$.%.@.C @.@.$.@.:.@.:.$.C Y 2.2.1.1.3./ P P ^ ! / / / ] ,.;.4.;./ I I / ;./ ~ ~ :.:.0X3.~ P p p u u g u u p _ 0X7X) x h u p x ~ s i I s ,.;.a s qX^ 4 K aX0X2 % % % = = < 7.8...B 8.lX-.+.-.-.r.-.t.u.u.lX0.7.8.zX4.qXNXGX4X,XJ.G q T.[ ^ P 2./ P ^ E _ L.T.",
"_ ! ^ ^ P 3.2./ P [ E F H W.W.4XGXAXT.aXzX8.7.iXi.u.y.-.-.-.-.-.%.%.0.8...%.0.7.= = % % % * t 0XsXp : I 3.@.s L ;.s ! s ~ ~ s i p s x ! I.I.( ( u u u i i s ~ c ~ ,.,.,.~ ~ / I 3./ I I I Y ;./ / ] ] / / ^ ! ^ s ~ 3.:.1.2.2.$.@.@.:.@.#.@.C @.C @.@.V %.$.<.@.2.2.:.@.I ~ ;.;.I ~ U U U Y L L Y #.1.] 1.3.1.1.#.2.1.;.#.;./ / Y Y Y Y Y ^ ! ` ) z.z.z.x.8Xz.k b i s s u J : q q 0 # + o O @ 4 `.^.' H W j ! ~ a @.L I L s s I C :.:.:.:.8X>.>.>.8X:.A A A A <.:.9X9XA A A A C A <.9X9X9X:.<.A V <.A :.C I c s ) x ~ 8Xa a @.c C A A A <.:.<.9X:.9XA <.9XA A B.A A :.A A A A A A B.A B.9X8X8X:.8X:.;.:.,.c I ~ s x ! ~ I a L K J W W { T.T.sXaX, @ o   . # u j q q q q q u z v x.B.V.x.l.k.b ) ` / U P U Y ^ / ] / / 1.;.;.;.;.1.$.#.#.#.#.#.$.Y #.Y *.Y Y #.#.#.@.@.@.$.<.$.<.<.$.:.$.@.$.#.@.@.@.#.@.#.@.I ;.1.1.3.] / P K K ^ _ / ^ ` 3.3.4.,.;.~ ;.;.~ I I qX:.,.) ~ s h p i u u u g j ( ) 0X7X( x u i x x x i i ~ ;.4.4.I I 3.^ u ! 0Xa - % = = = = m 8.w... .0.u.%.+.-.&.-.-.y.lXu.i.w...8.i.wXgXNXGX4XZ.J.' H [ T.U P ;.4.I K u I.I.U.",
"T._ u P I 1.U L ^ 5.' G A.D.J.3XGXAXqXqXlX%.7.q.i.w.xXy.-.-.+.-.-.8.u.6... .0.q.M = = % * % @ I 0X^ u P 4.Y u ;.wXs ;.s t i ) x i i i ) 7XqXI.( l j i i p i i j x ,.7X4.3.,.;./ I I ~ ;./ / 1.4.3.3.^ / ` ` ! ! ! / ,.1.;.2.2.;.I #.@.;.@.@.@.$.$.@.@.$.$.$.@.%.6.<.:.@.@.@.:.;./ Y Y / Y Y #.$.=.O.L #.2.1.1.1.;.;.#.2.1./ / / ;.Y P P P ` ` ( b l.x.U.8Xx.v l.x i s u 4 q F J p # . . . o , e.dXY.' ' _ K ! P a L I I L a a ~ a @.:.9X:.:.>.8X7X9X8X9XB.A A B.A A A A B.B.A A V B.<.9X9X:.A <.<.B.A A A c a c c c c a c c A C A :.C A pXpX9X<.9XA A B.B.B.B.V B.B.B.A B.B.A B.A 9XA 9X9X>.8XA 9X4.~ >.>.~ ~ c ! ~ ~ ` P P K K T [ _ T.gX| fXxXD &     # . > l q F : : q u j z x.x.v.E.x.l.b n c ~ ` ( ! ! P / ^ P / ;.1.;.#.#.$.2.=.2.$.@.#.@.L L L Y Y Y Y #.I L L I $.$.<.-.$.6.<.<.2.#.#.I L ~ / Y I Y Y Y / 3.1.^ ^ P p P K ! ^ P ~ 3.0XqX,.;.;.;.,.;./ ;.0X,.~ ~ j i u t i j h j ( ) I.( x x x x x i h i x ~ ~ :.I @.#.5 I / / / ,.@.2 & % % = = M B 7.......8.8.%.X.%.+.=.-.lXu.0.i.w...8.u.qXSXGX4X4XJ.W.Y.G ^ [ ^ p 1.qX^ u u T.Q.Y.",
"tX_ u u / 5.1.u Y { [ G Y.W.J.4XGXAXtXsXlX-...w.zX0.i.xX-.X.-.+.%.%.0.0. . .8.7.M M = = = O @ 2 ~ ,.~ Y ;.I P Y ;.#.,.s s ) j i i s p x b ! ) ( P.l j j i u t u u x ! ~ 7X4.,.I ,.;.;.,.#.;.4.qX3./ / ~ ! ! ) p p ! ~ 3.3.;.#.L I Y ;.#.I Y a #.#.$.$.<.2.<.6.$.<.+.C @.@.@.;.;.I #.;.#.#.I @.#.#.+.$.2.$.4.2.I #.;.2.;.Y / / / / I P ~ ` ( ( b k x.z.V.z.x.l.l.j p q 4 : q q p > . . o X @ 1 y.dX/./.[ U ] U K J J K ^ / ! P c I ~ ;.,.>.7X8X7X8X8X8X9X9XB.B.A B.B.V B.B.V B.V A B.V 9XV A 9X9X9X9XwX9XA :.:.c A a a c A z C A V :.<.9XuXyXB.A A 9XA V B.V.B.A B.B.B.V.V.8XrX9XA A B.9X9X9XA n 7X~ ~ ~ ` ~ ( ( j ( Q E p K E J [ aXe.3.aXsXfXcX8.< o O # . # > ! q : F : q q g eXx.x.E.E.x.l.l.b n P.I.7X` ! p ! P / 1.2.;.@.;.4.6.6.2.$.@.I I L L s L U Y Y Y #.L 5 L $.6.@.a @.6.wX6.4.1.Y Y I P I U Y P P P P Y ` P s ^ ! ! ( ! ! ) ` ,.0XwX0XI ~ :.~ I s P s ! p i h j j ( ( l l h h b l x ) ~ ) ) x i t i ) 0X~ s s 5 P s L ~ ,.;.>.2 * & * = = = 7.7.7.....%.7.-.%. . .-.-.0.0.0.0.i.8.7.0.u.sXSXGX<XOXA.S.G J ' [ J U 3.sX/ J q I.).K.",
"tXK.u J 1.aX3.K ^ [ W J Y.D.G.4X4XAXjXaXu.w.7.q.w.0.8.y.8.-...+. .%.-.8.X.......q.7.= = = & @ & 3 / ,.;.~ P a P I p P ~ >.` i i i s c ~ ~ ) ( l ( h u h ( j j j i j i i s ! ~ s I ~ ;.;.c :.wXwX,.;.~ P ! ~ ! x ~ ~ ! / ;.Y Y P I P P Y I #.L #.;.;.4.6.6.$.$.O.+.2.+.a a @.:.I Y U I L I L L @. .@.$.2.2.4.4.;.Y 1.1./ I P ! P ~ ~ ` ` I.( b l.P.v.E.x.x.E.L.l r q H : : u p u # . $ o X , -.cXt.fXe.1.1.5.] J J J K E E ! ! ) ~ ~ ~ ) ~ >.7X>.A 8X9XV.B.V B.B.B.V.9XB.B.B.B.B.B.V.B.B.B.A 9XA B.yXpX9XA C :.C A a A A A A A >.A A 8XA B.A A A A B.B.B.V.pXV.B.B.B.B.V.8XV.9XV.rXB.9XB.B.8X8X8X>.) x ! ) ) ( _ g Q K.W W H W ' /.kXfXaXsXt.u.cXi.8.< @ @ # . # u K q 9 G q q g l.l k.k.E.U.l.l.l.z.P.z.P.P.) ! ! ! / ,.;.;.#.;.4.4.2.:.:.@.I #.I Y Y 1.1.] / ] Y I Y I ;.2.#.@.I 2.$.I L I L J K P p L P U / { P ! ` ^ P ! ! ! P ^ ` ` 0X0XqX7X,.x ~ I i a 4 s ) ( j j ( P.L.l b h h d h b z.P.) c x z s i u p ~ P 4 a L a D 4 u ;.7X:.y * O % = = = Z 8.%.....%.8.%.7.%... ...-.0.-.-.w.w.7.%.cXt.qXKXGX+X,XW.D.' H ' [ J K U ^ ^ _ W K.Q.Y.",
"Q.K.K W ] 1./ J ^ qX' J A.D.W.,X+XAXKXaXwXzX7.7.0.0.8.-.0.8. .%...%.%.-.-.-.....7.q.B = % = & % & a :.,.;.s 4 s s L s s P ) ! i u s s x x ( ) b ( h d u l Q ( ( b j p i ! ) ! a s a I c s ~ 4.9X7X9X,.~ ) ~ x ~ ! ! ! / / P U / / P K p K U K U I L Y 4.2.Y @.L $.2.=.L a Y 1.I / / ] Y Y I I @.a @.$.2.6.4.2.;.I 1.3.;.~ ! ! ! ` ` ) ` L.l l.L.U.V.x.l.l.L.l.g q F q : : E Q $ .   & O , o.i.cXy.t.t.r.sXfX| J J J W W Q g l L.( ) ) ! x ! P.) 8X8XB.9XB.V.9XrX9XV.V.V.B.V.B.A V.pXB.B.B.A B.A V A 9X:.:.:.:.a :.C >.>.A a A B.c A A f f A 8XrXrX8XrXV.V.9XV.x.j.V.x.V.eX8XrXrXrXpXrX9X9X9X9X8X) ) ( ( ( _ ( Q Q W K.K.H H H ' ^.kXnXxXxXlXy.cXcXcX..O @ o . . > K H : : q q r j k.k.l.l.l.L.x.l.l.x.l.z.I.I.I.~ ~ / ,.,.;.I / 4.3.4.4.2.:.@.;./ 1.1.] ` / ` ` / / / ;.;.4.1.4.3.2.Y s 4 J K 4 4 K K K ! ^ ^ ` ! ! / s p p s qX` ` 0X0X` ,.` ~ s s ~ ~ s ~ c >.I.7XU.b ( b g t 0 d l.x.l.l.v z.z i s x ~ x s ! P 4 u s L L s L s ,.:.C = % % = = = M w.w.7.%.%.8.7.%...%.%.%. .-.8.7.7.w.q.B 8.xX5.T.KXJX+X,X,XY.' J J /.[ J U ^ ^ W W K.).W.",
"Q.K.W ^ U U K K ^ T.J G ' W.,X4X<XHXFXT.5.cX0.B q.i.-.%.8.%. ...%.%...%.8.%.....M q.w.m = = = % & , a :.,.L s P P P s 4 u j ! p i P x s h x ) b L.L.l.g g 0 d g b ( ( ) 7X7X) s s i s ~ c s ~ ,.,.4.7X7X,.` ` ` u ! p ! / K I { { ^ P J K K 4 4 P L p Y ;.1.2.#.2.1.;.Y / / ,.{ { ] 1.1.#.Y Y #.+.$.$.2.4.4.;.I I / 3./ / ~ ~ ) 7X) ( ( ( Q k.l.z.x.x.l.k l.k.r r e 9 q q g q . X O O & N cXcXcXy.xXlXxXnXnXaX' W G H Q K.k.g K._ ! _ ( ( ) >.8X8X8X9X9XrXpXrXrXrXrXrXB.j.B.x.x.rXrXrXB.V.8X9X8X>.A y a a C A A >.c 8XA f y A A y A z n 8XrXyXrXrX8X8XB.B.V.V.x.f x.x.x.eXeX8XeXrXrX9XB.B.B.A c n P.) ( ( ( Q Q W r A.H H G H Y.' dXfXnXmXcXxXxXcXcX-., @ @ @ . . 0 p q 9 9 r q r Q L.L.k l.k.U.l.l.P.U.P.P.P.I.7X` ,.` ;.` ~ ;.3.4.qX4.4.2.;.;.;.;.^ K K K ^ _ ` / ` ~ / / 3.4.;.U L u 4 u K p J K P K K K ! P ` 0X` ! p i s 7X7X! ~ ` x u ~ 7X) ) 0X) ~ x ~ ! j ( ( j g l g k d g U.P.z.k k l.x ) >.~ x p u P K 4 J 4 K U 5 Y 4.:.a * % = M = % m B w.zXw.8.%.%.-.%.B ..7.7.%. .%.q.w.0.%.N zXlX5.gXAX4X+X,XD.D.G H J /./.J [ [ T.W W ).DXAX",
"AXQ._ ' U U ] _ aXT.q J D.D.J.3X$XGXDXT.5.lXi.B 8.8.8.8.%...%.-.%.+.B %.%.%.7...q.zXw.Z m = % = < & * C :.,.P s I L 4 J 4 u p K s P ! ) c z x k v l.z.l.k 0 0 g l b l ! ( ) ) ) ~ ~ ~ I.` ! ! 7Xx s ,.,.! ` 0X/ u p u ! 3./ ! / P K ! K ! K u p K u q 4 Y 1.5.4.1./ U / ` ! ` _ U P U U ] #.#.;.$.2.:.4.4.4.;.~ / ;.{ ` ` ) ` 7X` ) ( U.U.K.l.l.l.z.b l.Q l q e e q : H H q #   O * O , -.cXcXxXxXnXmXPXnXgX[ ^.D.G r K.K.K.d.Q Q Q ! ( P.) ) A 8X8XB.9XrXyX9X8XrXV.rXV.x.x.x.d V.B.V.8XeXeXrXrXyXrXn c a a A a A y f A A f A A A 8XB.yXBXrXV.x.v z.x.f x.x.x.x.j.V.x.v.eX8Xx.B.v B.A A v A A v z ) P.( x Q E W r W A.H H G D.Y.G ' /./.sXaXgXhXfXcXlX5 , @ @ . . # u g q 9 q 9 q q Q Q l l.L.L.l.l l.P.U.( ( 7X) ) ^ ) ` ` ` ` 0XwXwX,.:.2.:.2.#.Y P p q u E ( ( ! ! ! p ! P ^ p u L P u u E P u u u p K ! ! ` / 0X0X` ) j q u ! 4 u j j p ) qX0X7X7X( ( i u t u h h p b L.l.l l k k l l.U.P.P.) ` / p p p u K P p 4 q Y U 4 ;.wXy * % % < m = = B ..%.u.zX9.%.%.%.....%.7.%.-.%.%.w.w...B %.zXwXaXAXAX<X+X,XG W.H H J [ ' J [ qX[ W K.).).+X",
"AXQ.W T [ { ^ W T.T.F J ' H A.OX%XGXAX/.qXsXiX..Z %.u.q.o...%.-.8...%.%.....8.%.i.i.8...m = = m = % % = a 4.1.a L P 4 4 p L P J p K K _ ` ( ) z.l.b l.l.l k l k.l b l h j h i p i ( ) ` I.0XI.I.x p ! ! t p ! t u P ! 3.qX` ! ! ! E E p p u u K K 4 4 P P 4 P Y P U j ! ! ( _ P K J 4 J Y ;.;.#.2.<.2.<.wXwX3.,./ { ` / ! ` P.7XP.P.P.L.L.l l.L.l.l.b b Q E r q q e 9 q q # . + O * & 1 u.xXvXkXjXdXkXkX/.Y.G D.D.A.r H K.Q Q W j Q E ( ) n c v A A B.A A B.8XB.z.z.eXv.x.x.x.x.x.x.x.x.x.z.x.B.rXrXyXrXB.A A v A f f A B.8XrX9X8X8X8XrXrXx.x.x.h.z.x.x.x.v.v.U.x.E.E.E.eXeX8X8XA B.A A A v A c h n n c i j b Q Q H W H A.A.D.G D.D.' T F W K.T./.dXfX6.1 @ @ . . # # g Y.r : e q q p j b P.v.k.L.l Q L.) ( ( P.) ( ! ! ! ` I.` 0XwXqX4.2.4.2.#.Y Y U P K u u j x j b j ! j p u u p { ` p p ! s u u u x ! ! ! p u E ` ! ( p > > x u u ! ! ` ` ` ( _ ! ( ( j u u h x ( b L.l l k g d k k.U.7X8XU.j p p u K K J J K J 4 4 Y P s 4.I , % & = = m M m ..X.X.i.zX7.%.-.%.%.7.7.7.%.7.8.7.9.7.N %.6.6.qXgXAXAX%X<X<XA.Y.' W ' T.^ J ^ aX[ W ' Q.Q.K.",
"<XQ.W T e./.U u _ { T F ' Y.D.<X4X%X<XjXaX6.uX%.B %.%.8.8...7.%.%.7.%.%.8.%.%.-.zXi...%...m = m = = % % * ;.qXP P U 5 4 4 P P 4 J J u p s b 7X8X8XB.l.k k.k k k b l.b b x i 0 u u ! ( E L.T.I.I.) ! ! p 4 u p : 4 ^ / ` I.! p ~ ! ! ! u u u u E E p K ,./ 4 u P s ! x x x b ( p p 4 4 s I @.;.:.4.6.4.4.wXwX,.,./ _ ^ ! ! ) ) P.) P.L.L.l l l L.b b b l g g q 9 9 r g q : . . + O * 1 X.u.fXaXaXY.A.' Y.Y.D.G Z.D.D.H K.Q g H W j E j x ) c y v A v v A A ) n B.P.v.eXeXE.eXv.E.v.v.x.k.x.x.h.k x.x.rXrXrXeX8XB.9XB.B.B.rXrX8XV.B.8XeXx.h.B.x.V.v.eXeXU.E.eXMXMXE.eXE.eXtXeXeX8X8X9XA v f A A A v n n x s j E Q W H A.K.A.A.A.D.~.J.D.G H G s.A.D.Y.[ 1.a 3 : o . . . 7 Q K.e e G q u p x P.l.l.L.Q Q _ _ ( ` I.P.` ( ! ( ( ( ! ~ ,.,.;.6.4.2.$.#.I Y ! K i i l b b ( b ! x p p K ! ` 7Xs p x p x ~ ~ ! s u 2 0 t u j j ! ! p u / ! s p E ( E p ( I._ ( ( ( g j i x n P.) b b L.P.L.L.g g l l l.p u u K ^ ^ q 4 S J p L Y P / 4.2 @ O = = M M M m o.-.-.zXcX%.%.%.%.7.7.7.7.%.%.9.7.%.Z N 7.0.2.wXSXGX<XQ.+XW.H Y.' _ T.T.' T ] qX{ W T.gX).T.",
"OX).' H | aX_ E ' T.[ H ' G G ,X<X+XGXDXhX4.6.8.%.B B %.0.q.7.%.%.8.7.%.8.....-.zXcX..7.o.M M M = = m % o 4 :.;.P L L L L S u 4 P ^ J u u j b b l.b l.l.l.l.l.l b l.( ) P.j p i ( ( E Q _ Q W _ _ _ ( p p ^ p : u ( p p p u t u i p ` ! _ K u j p p P ` ` P s s p ! x ( ( l x j u p U Y L I #.:.<.4.4.:.0X0X_ ~ ` ! ! E ! ) ) I.n L.L.L.L.K.l.l ( P.x p q J q 9 r g L.q . . o X O , S &.| /.Y.H G G A.S.D.~.!.H.D.A.A.K.A.W H W E j l x n c A A A A C f A 8X8X8XtXeXyXeXeXeXv.E.E.MXeXv.V.eXz.v.v.x.x.x.B.rXeXB.9XeXrXB.8XB.B.B.z.z.B.x.eXrXeXV.BXrXeXE.x.E.eXV.x.U.P.eXP.P.8X>.8XA A V C A y f 8X8XA n x x x ( Q l K.Y.H H D.J.~.H.S.S.A.F.F.Z.F.Z.G J ^ U , . .     # 0 K.H q q q u u j b l.L.Q K.L.( ( ) ` ) ` ` ` ` ( W Q E ,.,.c @.:.$.2.4.#.Y I P p u i ( b b ) b b ( ! ) ) p ! ` P i x x ~ ! x p u q u i u u j ! ( ` _ E ! K u 0 > u i j ` qXI.( Q ( Q j x s p c I.I.I.U.L.L.k.g r k.l l g q q u U P S u u P L s s ;.4.a , O & = M M q.q.8.8.y.-.u.zX0.%.%.-.-.%.%.%.%.9.%.%.Z 7.%.<.6.4.yXKXKXQ.R.<XW.A.H K.T.T.T.[ [ ] ' _ E _ Q.Q.Q.",
"<XQ.Y.W ' [ { ' ^ aX/.' ' H H W.+XXX+XJXSXhX4.6.9.%.%.%.%.9.7.%.%.%.-.%.%.%.%.6.zXlXu.8.8.8.q.o.M m = O o - I wX#.a s S S K 4 J ^ E K u q g g l l g g b L.U.U.L.I.) ) x i x x x ( ! P.I.qXI.j h p q t u ! ( ! ! ( ( E j u u h 0 t q u K ` / P p u i ~ ~ p x ` ~ s x x ! x j ( j u u s Y ;.;.#.4.4.;.:.;.c ` ` ! j ( ^ ! ) / / ` ` ` ( L.L.L.l.P.P.l p K q q q q l L.0 #       o 2 K [ H G D.Z.Z.s.F.G.J.J.J.~.J.G Z.H W K.H W W l l h c n A A V V A V V f B.9X>.P.8XeXU.B.B.V.V.NXeXE.eXeXBXrXV.P.E.8Xx.V.B.z.B.8X8XB.rXA f x.V.B.8XeXeXeX8X8XV.8X8XB.x.V V.V.V.9XB.B.B.rXrXV.V 9XV V B.B.V A V 8XB.A A n ~ b x j L.K.A.H A.A.S.J.F.Z.d.s.d.G.G.s.s.Z.G A.q : $ . o o . # t E W q q G q u r j l.K.k.l U.I.) ~ ~ ~ I ! ! ! E E E 7X,.,.,.,.4.2.4.@.I a s s s ! 7XP.n ) x c I.) x x u ! ` ~ ! ~ s i u u P ! q q L.P.L.P.I.P.( I.I.g q q u u ! x i i z ( 8X) b ) ! ~ ~ ~ ` ,.~ Q Q g r r r d.k.L.g g L.! ! / I / Y Y ~ ,.I ;.:.a , & & = < B w.i.i... .-.y.u.u.0.<.-.0.-.%.0.%.%.9.Z Z 9.<.%.:.$.:.SXHXAXQ.E.AXAXH W W Y.` W ^ ' T._ Q W T.gX).Q.",
"<X).K.Y.K._ { { E { ] W W H K.+X+XE.+XGXKXyX,.%.%.%.%.<.V <.9.9.%.+.-.8.8.-.%.0.zXlXi.0.....i.i.q.M = = * @ 3 a ;.I I I s L L P ^ I.E j l u r U.K.g w r g E L.I.) 7X` ) ( x ! b ) ( ) I.P.( x j j i 0 4 t j ` I.( ` _ I.Q j Q h 0 u p j p u s / P P ` ;.x s ( ! ) ! j ! ` I._ x s u p s P I ;.4.4.:.;.,.~ ` ` ! ! ! ) _ ` ^ ^ / ( ` I.( l.l.L.l.l u u u q q q H Q t # # o     @ : W H G s.Z.Z.s.F.F.Z.F.Z.Z.D.Y.D.A.Y.A.Y.K.K.l L.L.b n 8X8XB.B.V 9.B.V A A >.A >.8X8X8Xx.B.B.rXeXz.x.x.eXeXeXV.P.eXeX8X8XV.z.B.8Xv A B.B.B.8XeXrX9XeX8XB.8XB.B.V.B.B.V.B.V.B.B.V.V.B.V.B.9XV.V 9XB.9XV B.V 9XB.9XB.B.B.B.B.n x l l K.K.A.Y.J.A.A.G.Z.d.d.g.g.s.s.F.Z.s.Z.A.H 0 @ o o . # # 0 g r H r q q 0 g g l.l.L.b x ( ) s ~ ! ! P ! x E x ~ ` ` ,.;.;.:.4.c I I ~ ~ p i i s u t > t i i s i t 2 i t u t u 2 > u E ( Q j P.b h z v ( Q ( Q ( j u u i x h i h v n 7XI.7X) ! x ! P u u u u E l g g r k.L.U.L.U.I.) >.,.:.I C ~ ~ >.c a a , O O & m 9.q.q.zXw.X.X.-.t.6.u.0.%.@.-.$.%.0.8.%.%.V Z <.<.:.:.:.>.BXNXE.E.R.tXtXg q _ T.T.^ E _ T.T.K.Y.Q.Q.T.T.",
"<XQ.W.L._ ' { { J ^ [ T.W q W gXAXQ.U.+XAXNX9X:.<.%.<.%.@.Z %.9.<.0.%...7.%.%.6.0.u.t.-. ...w.zXi.o.B m * X @ 2 @.c ~ ;.#.I ;.~ ,.qX` ) I.P.j L.L.l g g r g g j p x x j ! x ) 7XI.P.7X` j i i i E j u u u x ( ` j Q Q Q l Q U.P.p j ( x u > u i i a i i u i s x x p t t u j ( x s s ! s s I ;.:.2.;.;.;.,.` ~ j ! E p E ! ^ ! ! ( ( P.l.z.L.l.l r 0 q r r g g Q t $ . . o o # > u K.A.s.s.Z.s.G.G.g.s.s.s.G.A.A.A.K.Y.Q Q l.b h b l.z.P.B.9XB.A V B.B.V B.9XA 9X8X8XB.8XB.8XV.V.B.z.z.z.z.8XV.B.z.9XrXV.rXrXV.eX8Xz.B.A B.8XrX8XV.V.9XB.B.B.B.B.V B.B.9XV.9XV B.V.V.V.V V.9.V.V B.B.9.B.V B.B.9XB.B.B.v n z.z.v l.l.k l k.k.H r A.A.d.a.g.g.g.s.g.G.G.s.d.A.A.r : o . o o . # > q g H 9 9 r r d k ( P.b j ( ) ( i j p x E ! ! ! ! ) ,.,.,.,.4.qX;.;.~ s x u > $ > # $ > > t u i u t > > t 4 4 2 p s x I.0XL.h h t t t b ) ) x j I.( h u u i p t x x b 7X) ~ ~ p i g u u p u u j u g g g l I.tX8X9Xk t 2 2 3 2 a a a a t 2 3 & & X % B w.q.q.i.8.8.8.-.-.-.0.6.0.%.%.N %.w.0.%.%.<.<.$.:.:.4.7XqXE.Q.Q.U.U.T.K.W K _ qX[ W ^ ' _ W Q T.T.aXT.W ",
"Q.Q.T.Y.Q T.T.E E _ 0XT._ g g Y.Q.K.K.Q.+XtXeX8X<.@.%.<.<.:.Z Z 0.w.8.......0.0.6.6.-.-.X.-.i.zXq.q.w.B O X O * 2 3 3 C A a s y a a y i n qXtX8XU.g u g g p u g u p u u j p i ! ) ` 7X) s i i i h q t i x ` ) l ( _ l i 0 t j h l.I.8Xn i i t 2 2 2 2 > > 2 t i t 2 > > $ $ 2 > t s ~ ;.>.#.:.4.4.,.,.3.,.^ ! j ! ! j E ! x j ! ` b b x.x.x.k g q r 0 9 W k.q > # # + o   o > q r A.s.s.G.g.s.a.g.a.R.a.d.G.A.A.H K.k.k.l l.v l.b l.n z.z.B.B.9XB.B.B.V A B.B.V B.B.9XV.8XV.V.V.V.eXrX8XV.B.B.V.B.B.B.B.B.rX8XeXeXV.V.B.9XB.B.A V B.B.B.A B.9XB.B.B.V.B.9XrXV.V.V.9XrXV.V.V.V.V B.V 9XB.B.B.B.V.B.z.z.z.x.v x.x.B.E.P.x.l.l l.k.d.k.a.g.g.g.f.n.G.G.s.G.s.d.G.R.g : # o @ o . . # g Q r 9 r k.q j h x ) ( x ( ( u u u u u s j i p p ! ! ~ ;.,.,.4.~ i u u u 0 > t u j x ! ` ~ ! ! ! s x ! ! i i x x h h b L.b k l k h b ) c s s x x i h i i ) x x ~ x ) ~ ! p u ( g u i ! p i j u l L.l.P.8X) z - $ o X @ & % * * - - & O O % = = B 0.q.w.q...0.cXu.0.-.-.-.i.zX6.N  .9.0.%.Z %.$.$.:.,.7X7X8XeXQ.U.U.K.U.K.W g Q Y.I.Q _ { _ E W Q T.T.tXQ.T.",
").).Q.K.Q W Q _ I.( _ T._ W W W _ W K.Q.Q.oXeX7X9X:.:.$.$.$.<.%.<.w.%.B ..7.u.uXu.-.=.t.8.y.u.%.q.q.i.7.m % & & & * - ; 8 ; - - O @ + @ $ i 8X8X8XP.x j j g p u u E u u p p u u ! ! ) ! x ! x ~ s i t i x b x i ) I.( h h h h k z.L.z.b v ( x t j ~ z u i x s x x x z i t > > $ > 4 i s a ;.:.4.,.,.;.~ ~ P p E E x j p g u j ( P.b b x.z.l.g q q e 9 r g g $ # # + + O o # q K.G.Z.g.G.g.G.R.g.g.g.XXa.a.k.d.k.k.k.k.l.x.B.B.x.x.z.x.l.v z.8X8XV.V.B.B.9XV B.B.B.9XV.9XrXV.V.V V.9XV.9XB.V V.V B.B.B.B.B.B.B.P.x.V.rXV.B.B.A V B.9XV 9XV B.V B.9XV.9XrX9XV.rX9X9X9.V.V.V.V.9.V.V.V.V.V V.V.V.V.f B.V.B.B.x.x.j.j.V.V.E.x.B.x.x.x.c.h.d.g.a.g.].XXg.f.g.f.f.f.G.K.u $ . . o o o . $ g K.Q r r r u 4 i ) ) h j l L.l.h 0 u u p u t q u 0 u s s P I u u t u i g j j b ( ! x I.( ~ ) ` b x x j u u 0 t t 7 t k z.l.b b h i c c c >.) >.n >.! i x s ! ( j ! ` / ! K ( j 0 u x ~ ) ) P.7XqX8Xc y - X   % + X * % % % + X O * & O % m m zXbX8.7.7.N i.cXu.t.6.+.-.zXzX0. .%.9.%.B %.<.@.Y / ` 7X7XU.P.L.U.U.L.K._ Q W T._ W W T.0X_ q g Q Q.T.T.T.T.",
"Q.T.T.T.Q p j _ aXI.E _ I.I.Q E ! W L.W.E.E.E.8X8X,.:.:.@.:.$.@.%.9.7...B 8.zXzX6.$.-.6.u.cXu.N 7.q.q.i.i.< < & O & % - % % - % & * O X + X o t n >.8XqXI.( ( ! j E u q u j j P ) ~ ) x x ) ! x ! x x ! A c x c c b b h b b b z.z.k w t d i i h j ) ) x ) ` ) ) ` P.) ( b j h i i u t 2 u I ~ ;.I ! p 4 u u u u p u t q h j l b l b ) b h h u q H r r H Q > . . $ + o o @ u Q G.G.f.Z.g.g.g.XXm.g.a.g.a.a.k.k.U.x.k.x.B.B.x.x.x.x.x.B.B.z.B.z.B.V.V.B.9XV.V.B.V.V.B.9XV.V.V.rXV.B.V.rX9X9XB.V rXB.B.9.B.B.9.>.n n B.B.9XB.<.:.A V 9XV.V V 9XrXrXB.pXrXrX9XV.V.rXrXrXrXrXrXrXC.rXrXrXrXrXB.V.V.j.x.B.B.V.V.x.x.x.x.x.j.x.x.x.v.B.v.v.c.d.a.a.g.g.G.g.f.g.].].f.s.d.d.u $ o o O O o # > g K.W r G q q i ( ( x h h P.L.b j j x E i ! p i u p I ~ ~ x x x ! x h d u t g g 0 0 i h g h j h u t t 0 t 0 t h d f x.z.v v b j z c ~ ~ 7X,.9XwX9X~ 4 4 u j ~ ( ! ` E P ,.! ( ( P ) 0X7Xn ) ) n y $ o + % - C % % = % % ; % X O ; = % = B  .w.w.8.%.N ..u.zX-.6.u.-.8.zX0.8.%.0.0.%.%.6.2.5.3./ ^ ( l.x.l.l _ T.W E Q _ T._ W _ _ _ _ ^ E W T.T._ _ L.W ",
"Y.Y.Q.T.Y.Q E L.T.I.L.( _ _ _ ( _ _ _ U.K.K.b I.I.>.,.,.;.;.2.<.<.Z 8.8...o.u.u.6.=.t.t.t.xXlX%.N 7.7.i.i. .m , % % - % X % * & * % % O ; @ X - @ - z 8XqX8X7X` 7X) E i p ! ) ( ! ) ` ! x ! p i u a :.7X7X9X>.8X) b c h z b k n P.g 0 t 0 0 0 i 0 u i i x ( j j l g t g j j h j h j j p p p x P x s u 2 u u i u E j u i ( P.( b h b ) x u q q q H W W W : @ . o . @ . o 4 E d.G.F.f.F.F.s.g.n.c.a.a.d.c.c.c.c.v.x.x.x.x.x.v.x.x.j.A B.V.V.x.z.z.V.V V V.V.9XV.rXrXrXrXV.V.rXrXrX9XV.rXrXpXrXrXV.9XB.9.B.V 9X<.A >.>.B.A 9X<.A A V.V V.V rXrXpXrXpXrXrXrXrXrXC.rXC.ZXrXrXrXrXrXrXrXV.V.rXV.B.x.z.A A v x.x.x.x.v.M.v.c.v.v.v.v.v.v.E.E.v.h.d.g.g.a.a.f.].XXXX].g.a.k.h.d > O X X + o # : q W W H q q j b x h h v f v b ) ) ( _ _ 7X` x p ~ >.) ) ~ ) I.P.x t 0 0 d q h g g k h h h z k h i h h d d t t d t v P.z.b ( b j ! ~ s @.:.:.,.,.c u 4 p p ( ( ( I.p x 0X,.7X,.;.,.>.z 2 t - - $   X * V ; ; ; % % % % % % O X = = = m %.8.8.8.-.-.%.%.6.lX-.-.lX6.0.i.8.%.0.<.<.<.wXwX4.wX{ ^ E j l l.l.L.W W _ W T.T.W W _ T.I.Q p Q Q.T.U.Y.Q W W r ",
"E W I.Y._ Q.L.L.g U.T.I.Q E _ T.( Q _ L._ Q l l h j c 7X0XsXqX4.6.<.-.8.8.-.0.i.0.-.t.-.-.u.u.%.B 8.q.o.8.o.N m = = ; O X % * % % % % * ; ; 3 -   o @ t y y i z 0X,.,.7X7X7X,.) p x ) ( ! j i u t c 7X,.9X,.:.c A n ) x n n v z.P.k 0 g h u 0 0 j t 0 u g h i g h g 0 g g 0 0 0 t l P.I.` ) ) ,.) >.( x ~ ) ~ ! x ) ( x b x k z z v x ! u 4 q G r W W : # . @ o . o $ t b r e s.'.].|.].g.g.g.g.c.g.a.k.v.v.E.v.v.x.v.x.j.v.v.v.B.x.x.x.B.B.v z.V.V V.rXrXV.rXrXrXrXrXrXrXrXrXV.rXrXV.rXrXrXrXrXpXV.V.V B.V V :.:.:.<.:.B.A V B.V 9XrXrXrXrXrXrXrXrXC.V.V.rXrXC.rXC.rXV.V.V.C.V.V.V.V.V.B.v B.B.B.f V j.B.x.v.v.v.E.M.M.v.j.c.j.v.v.v.E.c.d.k.h.a.g.g.g.g.].G.g.d.d.k.k t + X X o o . . $ K W J J g W Q i t t v y z v x j j ( ` ( z i t i x x z z c x h t 0 t h g d d l b k d k k b z.b h k l h 0 > t t t z z i i j u q p j s >.wX~ ,.;.p u u ! E ( j ) qX) ~ ,.;.t 2 2 y 2 - - - @ $ & O O % ; = % = % % % % % % % % % * m ..%.7...-.%.-.0.=.u.6.=.+.u.u.w.u.-.-.0.@.$.qXwX` qX_ ^ E E u g Q L.{ _ { _ E ^ _ E Q K.I.W g g T.tXU.Y.K.W H q q ",
"q H _ K.L.tXQ.L.g l L.T.L.E E _ I._ Q ` I._ Q Q p u j ( ^ { 0XI.wXwX$...-.%.-.i.6.lXlX-.=.u.u.%.7.8...o.-.8.8. .* , % O % & O & % % % & & = ; * X X O % - - - 8 t c z i c 7X9X>.i 7X( j ( ( p j 4 s ;.>.;.>.>.a a i i s j z v h b i t 0 > > u h j h j b l l l h g l l.g g d d 0 0 0 h ) I.( b ) ) P.h h x ! ,.7X~ ! ~ x z i h b f 0 p _ J : H W Y.j 0 #   o o X   @ 0 j.v.a.a.g.XX@X].f.f.a.a.a.h.j.c.E.E.v.c.E.c.c.v.v.C.V.M.v.j.B.j.V.B.x.B.B.B.B.B.V.V.V.V.V.V.V.8XeXrXrXMXrXrXMXV.C.rXrXrXrXrXrXrX9XB.9XV B.V C <.A 9XA A B.rXeXrXrXrXrXV.BXBXV.MXVXMXMXVXVXC.C.MXoXV.v.eXV.x.B.B.A x.A B.B.B.B.B.V j.x.v.v.M.v.c.v.E.c.h.k.j.j.k k.E.E.k.d.h.c.c.c.d.a.d.g.g.j.h.k d - o X + . . . . # : J _ H g g p t t t t y z z x b ( x i x i y z a z z i t i z z v b h t w 0 d d g h z z.z h k b z h x t u i y u y u t u q q q u J ` qX,.a I #.u u p p u j ( qXSXyXy t - @ o O O X + - @ O O 3 * % ; m % % & & * < 5 N < * , m N %.%.......-.%.-.u.lXu.-.O.D =.u.u.-...u.u.@.3.qXtXAX).T.Q p ! ! E E ! W U ^ [ _ E Q _ T.T.l g K.U.tXtXK.T.K.Q g W K.",
"K q W K.K.T.tXQ.K.l g _ T._ W _ _ I.{ _ _ _ ! K ! E ^ K ! I.Q.gXtXsX#.$.u.8.-.-.u.u.6. . .-.uXlXw.-...-.X.X.X...N m < & & & & < & % % % % & ; ; % O * - X + - - * $ @ @ $ t x f ,.yXwX( ! ( E u 4 u ! ;.;.:.4.qXs u u q t u p u t t t u t t t i c x x z h b v h h h g t d g j z h t 0 t i i h t z k t t i z x x n s z x x z t t t t j j q F W E q > # .   X o o   - d j.j.j.c.c.d.g.a.g.m.m.c.h.h.x.v.E.x.k.k.j.k.x.v.v.M.v.v.C.v.x.f j.f z.A B.V j.f B.V.V.V.V.V.V.V.eXMXMXMXVXMXBXMXrXrXC.rXBXrXeXeXrXrXV.rX9XA A A 9XB.A rXrXeXrXBXC.V.MXC.rXC.C.MXVXMXMXVXVXrXC.E.v.c.x.x.v.V.V.x.B.B.f A A A B.B.V.V.V.j.v.v.C.M.E.v.v.E.x.x.j.k x.U.x.l.x.k.k.k.h.h.h.d h.h.j.j.h.f y - X o     . . . # : k.K.l w 0 u t 2 2 z a c x ) P.) n c z i i z s i z z c v v n v i h h u t h x z x ) ) >.>.) b n x / s u 2 2 i s u u u g q q q s / Y L s K L ! ^ j u g rXSXrXy $ - + X X X X X % ; ; & & & = = % & % = < N ..%.<.-.N C %.-.-.....X.-.-. .N  .6.lXlX2.5 5 -.lX0.%.%.8.0.;.0XgX<XAXQ.tXQ u P p P P E ^ K ^ _ / W E _ Q L.Q L.Q.NXtXU.K.U.Q l Q U.tX",
"W g W Q Q K.tXgXtXK.Q Q Q _ _ E E { I.^ E ^ _ K J K K 4 ^ tXQ.HXtXqX3.=.t.u.-.%.u.lX-. .5 +.u.zXu.%. .%...X...X.%.-.%.B m 1 N <.C N 3 = * O = = % = = = % % ; %     X + O X $ - c qXyX9Xh q u E K p P P P P / ` u u 4 q u q u u u 3 u t i s ! c z z z c n 8Xn z k z h 0 t t i h n P.n b h i z x v v h z z x n x >.x z x x t t t t d i q r W H q # #   .   X o O O t v j.j.j.j.j.h.r d.c.g.h.j.x.v.8XV.x.j.l.k.j.v.v.E.M.v.v.v.v.x.x.B.V.B.8XB.B.B.B.B.B.x.x.V.x.V.v.x.v.eXMXMXBXMXVXMXVXVXC.rXrXeXeXeXeXBXrXrXV.rXB.B.9X9X8XyXBXeXv.eXMXMXMXC.MXC.V.MXMXoXoXMXM.v.E.E.R.k.v.v.v.x.x.z.l.x.B.v z.B.eXV.V.V.v.j.v.j.v.V.v.x.x.x.x.x.B.x.x.v.x.v.z.x.z.z.l.j.x.x.x.h.x.x.f v f y - o     . # . . # w g k g g 0 t t t s i t i n z.n ) x x z i y z t z z c z n 7X8X,.! p u > t u t i s z ) 7X~ ~ ~ I s 4 4 5 4 u K p q J E u 4 u E ^ ;.~ s s P / ! ( P.P.yXyXd $ + - + + % % % % % ; % & & = = = = * = <  .%.+.%.%.-.-.%.%.+.......%.%...X. .+.-.t.u.2.@. .6.zX-.+.-.-.-.] T.<X<X<X+XQ.T.~ 3.p U U { ] U K U ^ E W W _ K.U.Q.tXE.L.k.k l.b l.U.8XqX",
"I.Q E Q l K.U.U.Q.tXT.K.W K.W E W K P ^ / _ ^ [ J J L u _ ).+X4X<XQ.0X/ +.-.-...-.zX6.N  .8.0.lX6.+.N  .-.-.-.......-.-...+.-.-.-.%.+.N < = = & = ; = % & ; * ; O + + O X X - @ @ f yXhX>.j j _ P K P s s / ~ P u 4 q E Q J q E u a 3 4 a c >.>.:.>.8X8XA n v i i h t t h j n z.) v v x z z h t h f i h z b ) c ) b x x x t 0 t t t w r Q Q w # # . + +     + @ 3 z v k j.j.j.d l.h.g g k.c.P.v.V.v.x.j.j.x.x.v.v.v.v.v.M.M.v.j.v.x.x.x.B.8X8XA B.V B.j.B.v.v.v.j.x.v.v.v.E.M.v.MXeXC.MXMXMXMXVXrXeXC.V.rXC.C.rXrXV.B.rXBXBXMXrXC.eXMXHXHXVXV.MXMXMXeXC.v.M.M.v.v.v.v.E.E.E.E.E.V.x.x.z.f n v b P.B.B.x.eXV.V.V.V.x.j.x.k.l.l.k.x.x.x.x.x.x.x.x.B.V.B.B.B.z.x.h.h.x.x.h.f v f t $ o     + . # . # 7 w k h h u u u i u t t z b v >.c ~ c i h j i i i i i i c ) ) p u > 2 > 4 4 i 4 > 4 I a p s L , 4 4 4 4 4 u P u u ! _ ^ ` T.,.0X;.I / ,.! ,.qXqX8Xv t + + @ ; % + + % % X % % O = * = m m m m m N ..X. . . . . .X.....X.+.X.+.X.....-.-.+.@.+.-.-.+.6.u.-.+.0.u.*.{ gX<X<X,X+XQ.K.,.1.D L ] [ ] Y U K K E ^ ( _ L.T.Q.L.g r l l z.U.8XP.P.b ",
"I.P.I.L.Q g g k.l E.Q.U.W _ _ W U J p L ] / { { U J ] [ _ Q.OX%XGX<XaX] &.-.0.%.%.lX0.+.+.8.-.-.$.%.+. . .%.+.+.%... .....+. ... ...%.+. .1 < = < < < % = % % * % % % O X % - -   @ z >.7XqX8X~ P ^ ~ P I ,.3.~ ^ P K E E q q ! 4 5 I 4 2 4 a a x ~ >.c i t y y t u > > u z ) 7X8Xc x z z x z i i i z x c x ) b n h i t h h h t 0 d g k d 7 # . . + + +   + $ 8 z z f k x.x.v h.l.l.k z.U.P.v.x.x.x.x.v.E.x.x.x.x.x.v.j.v.j.v.v.v.V.8Xz.z.P.P.n f f k b x.v.v.C.E.v.E.v.v.v.M.v.C.MXv.v.V.C.C.C.MXMXBXBXVXeXV.MXrXrXBXeXLXUXBXeXE.E.V.v.V.j.V.ZXZXMXC.V.C.C.C.v.v.j.v.v.v.v.v.E.E.x.l.b ( ( ( ( ( P.L.U.8XeXeXV.eXV.v.j.k.k x.U.k l.v.v.k.v.v.k.v.x.x.x.8XeXv.j.k k h.f k k v f y - $ o . . + # . # 7 t d b l g l h u i i i d i x p i i > 0 > $ t q 0 > > > u p u u u 4 u 4 4 4 4 > 4 4 u 4 J 4 4 1 4 4 a 4 4 p p s ,.qXqX4.7X~ @.s ~ 4.,.;.wXyXn t $ + % - * ; & % O O O % % = = * < < X.o.8.o.......X. . .X...X.%.8.8.%... .%.-.%.%.%.-.-.+.C +.-.6.-.8.%.%.-.6.O.{ Q.<X,XOX,XK._ 3./ L U 5.] U Y Y ^ ] ^ E _ _ T.U.K.r g k.l l.8X8X8XP.) n ",
"( I.I.U.U.b g g g g I.T.T.K.Q _ W T U Y Y Y { 3.U P ] 3._ Y.<XOX4XAXgX{ =.t.u.%.%.i.0.-.-.X. .O.-.%.8.%.%.%.%.......%.......+.@.+. . .....m m ....m m < * % & % X % X % O % * % O o o 2 a ,.wXqX~ Y ;.,.~ :.,.4.3.0X3._ E u u u > 4 a 4 4 > 4 u 4 4 u 4 2 2 4 u u u 4 0 > u i p s u t t t > t t u t a n ( ) P.x j i t 0 t j l h l b l t 7 6 . . +     X + $ t f z z i f v f h.x.x.8XeXP.z.l.x.x.v.k.x.v.x.k.l.x.x.j.x.k.k.v.v.MXv.8XeXU.P.I.) ! n n b l.z.v.eXv.E.E.v.v.v.E.c.v.v.MXMXC.MXV.C.VXV.C.VXHXVXeXv.V.MXHXUXQ.HXUXBXz.l.v.v.BXMXV.C.VXVXV.j.V.j.V.x.x.v.v.v.v.v.v.v.v.x.l.k.Q Q _ ^ W T.qXqXqXtX8Xz.z.V.eXeXv.v.K.K.R.R.k.L.c.k.k.E.v.v.U.x.k.v.v.eXV.x.k d h.h.k.x.x.b f t @ +   . . . . . # $ i h d l h u d 0 t i i E p p p 2 q u > > > > : 0 4 u ! E K u u p u > 2 2 u u 4 4 u J u , 4 4 4 4 : : u P a a c a i y 2 - 2 y a y c >.A - + + & % - = % * * % % % = = = = , m X.o.o.i.y.o... .m  ...+.X.8.......%.%.%.%.%.8.8.+.%.%.%...%.0.0.8.-.-.+.-.&.*./.T.,X<X<X<XY.T.aXR R ] e.] R ] R ] ^ ^ ^ _ T.U.L.q q k.K.l L.P.tXP.b b x ",
") P.8X7X8XL.b l g g g U.Q.U._ W ^ R R Y R *.] 5.] ^ / 0XY.K.+X,X,XOXQ.[ #.=.-.%.%.-.-.-.-.&. .+.-...%.0.0.<.Z @.%.%.8.%.%.%.+.+.X. .m X.X.o.8.i.i...m m = * = * * % % % % % ; * 3 % o o $ 2 A yX>.A :.A a 3 a a >.` 7X` ! ! P u 4 q 4 q 4 4 4 J J 4 u 4 4 4 2 : 4 q u u u K K P q : > : 0 4 : : > > 2 p i i x t 0 t h g h k h g ( j 0 # # +     X   X @ - y z z j.k.h.d h.k j.E.E.E.x.h.x.eXE.k.v.k.c.k.k.k.K.R.R.k.k.k.E.eXV.eXU.eXU.U.I.tXT._ ( Q L.Q l.U.v.v.v.v.v.v.v.v.v.j.C.C.v.j.V.C.ZXZXC.V.V.V.E.L.8XP.rXUXUXAXHXUXHXz.eXv.V.BXBXV.V.V.V.B.B.B.V.B.B.B.x.V.V.V.v.E.v.v.U.v.k.K.g K.W W aXkXkXhXqX7X8XP.v.E.eXE.R.R.G.G.G.R.G.d.k.k.c.k.g.c.g.k.k.k.x.eXE.x.k.j.j.j.v.x.n v a 3 - X . . . . . . # # 7 t d b k.g g g g g q J u q q : q q K p q 4 q 4 u ^ ^ E u u s P p p > u u u 4 : q 4 > 2 : 4 : : 2 p u 2 - * + * -   o @ - $ @ - - - @ X % & % = = = , < < * = < , < 1 m m X...m o.o.8... . . . .....8...B %.8.7.7.%.%.8.8.%...%.%. .%.8.0.0.0.-.%.&.*.5.aXAX2X4X4X<X)./.[ S 1.e.0XU R *.R U U ^ _ { qXK.l r r g l K.I.I.0XL.Q j p ",
"n n P.8XU.L.l L.j r q Q T.T.I._ ' U R R *.R ] ] qX{ ^ aXT.Q.<X4X4X<X).qX5.$.-.%.-.8.0.0.0.X. .+.7...%.%.0.9.%.%.7.8.....8.-.+... .X.X.X.X.o.8.o.o.o... .m < , , = = % % ; = * ; * * * O   X 2 y y 2 2 - - @ @ @ - - 2 2 2 i a 4 @ : 4 4 : : 4 4 4 4 4 4 4 : 4 : 4 J u q K K ! ^ 0 4 q q : q q 0 u q u j i j j g k u g d g g d i 0 $ o # # .   X   . @ 2 5 c n k x.x.j.d h.v.E.oXv.v.k.v.v.c.j.v.k.k.k.R.R.R.R.A.K.R.R.E.E.eXv.x.z.8XrXyXhXhXqX' W Q Q k.k.l.x.x.x.v.v.C.v.v.v.v.x.v.V.V.V.j.C.rXrXC.MXVXeXx.P.z.tXHXHXKXKXHXUX8Xx.eXeXrXrXV.V.B.V.V.V.V.V.V.B.B.j.B.B.V.v.x.x.k.k.k.k.r r A.D.D.T | aXsX0X,.7XeXE.U.R.oXXXR.g.R.J.W.R.A.R.R.c.R.R.G.G.R.g.c.k.k.x.v.eXE.j.j.x.h.x.z z c t $ X     .   .   . $ # 7 k U.P.b Q E q u u g p u q q u q q q 4 q q u ^ I.( E ( 7X7X) ! ) x s P E > > : : @ @ 4 2 u 4 , @ + + + X @ @ X   o O o o o X O O - & % * < * < N ..5 3 C N m  ...X.m X.X. .X.....%.....N  ...%.7.7.o.o.%.7.%.7.8.%.%.7.%.%.%.%.%.%.8.0.0.-.%.=.*.5.[ DXKX6X<X<X).jXaX[ e.aXaXT.1.*.Y ] R / ^ { [ T._ E q q Q U.tX0XI.( ! ( j ",
"! ! ) 7XqXU.( Q q r W W _ T.` _ ^ U R R R R R { aX[ T T.gX).<X<XDXJXjXT.e.2.$.-.-.0.0.0.-...%.%.Z Z %.%.%.7.%.7.7...%...8.8...+... .N ..o.......m X. .N  . .1 1 1 3 < 1 N N = = < = % % & @ + @ @ o o @ O o o + @ + O O * * 2 4 3 , 2 , : > 4 > : 4 u p s p P ` ^ 0X! u u ! ! Q q 0 q q q u q q 0 q u q g u q g l l g k z.l t 7 # . . . . # . .   o 2 a v n l.x.k.j.h.x.E.E.c.j.k.c.c.j.c.c.c.R.R.K.d.d.A.J.W.Z.A.R.W.XXoXv.eXeX) 0XwXhXhXfX| F H A.A.d.k.k.K.l.x.E.E.v.v.V.x.z.l.z.eXV.V.B.x.B.V.C.MXrXeXeX8Xz.BXUXJXJXKXKXtX8Xz.BXHXNXeXeXrXrXC.rXMXrXrXV.8XeXB.8XB.z.U.k.g l w E K.K.G G !.S.F T 5.qX;.6.vXsXgXT.AX+XR.K.G.R.W.,XJ.W.R.s.W.G.G.G.R.XXE.c.R.c.k.k.v.E.eXx.k k.R.k.d.w i 2 & %     . . o .   . . $ i P.0XtX7XI.7X0X0XI.I.E E _ ^ ! ! E p ! ! _ I.x s z t t @ $ 2 > 2 p s u t 2 , 4 , 5 3 2 @ @ . . % X % - % + O   + + + o X % % = = % = , 1  .#.;.a 5 5 5 O.N D  .X.X.o.X.........o. . . . .+.%.%.%.%.q.q.7.%.9.9.7.0.9.Z Z 9.7.7.7.0.-.%.-.O.] | T.gXDX<XDX).' ' [ [ e.kXdXaXe.R R U K 1.0XT.qX' ' J q W W _ I.gX0X( x ! ` ",
"` E ( 0XtXT.L.W q q W ' [ T.0X` ] U T R R 5.e.aXfXaX| dX/.).).2X2XKXDX/.[ 1.+.-.%.8.0.8.%.7.%.%.Z 7.9.9.9.9.7.%.8.%.%.....-...%.N N  .....o..... .o.X.N 1 X.O. .N N 5 5 $.$. .< = = = & = * o .   X o O X X X + * & O X o o @ , 1 3 5 4 @ @ > > u u ! x s p i 2 s ` >.~ :.,.` ( ( E j u g j j u u g l Q Q Q Q l Q I.qXtXl.t # . . . . . . .   X + t z z f k.x.h.j.h.c.NXE.c.v.R.c.c.E.XXR.R.R.R.R.A.R.W.W.W.W.D.D.R.R.XX+XE.tX9XsX3./ wXe.R T ' Y.A.d.d.Q g g l l.k.l.v.V.x.B.B.8Xz.V.8XV.V.V.rXV.V.eXMXBXrXB.z.tXKXHXJXGXGXSXz.B.BXHXBXHXBXBXV.V.C.VXV.B.8Xz.x.eXv.x.l.U.l.g K._ T.T./.!.G G G ^.[ 4.lXlXbXlXaX/.jXDX).D.R.R.A.A.D.S.J.D.A.J.J.F.A.R.R.R.R.R.R.d.c.k.x.eXE.k.h.c.a.d.h.t t ; % X     . . . .   . . $ 2 b 8XtXqX8XtXtXqX0X_ ! ^ ` j ~ x i t 2 > # $ # + + o     . o . @ # 2 t 4 4 , 2 5 3 O o o & O % = % % % + O o * * & * % % = % = = , 1  .X.Y I L L L 5 D D D  . . .X.%... .m ..........B %.B %.0.7.B 7.7.7.0.8.9.0.iX9.7.7.Z 7.8.0.8.+.+.O.e.aX/./.T.).).).' F J T e.aXe.aXe.[ e.] U { 5.aXaX[ W ' Y.T.T.r T.qXyX^ p p 0X",
"K p _ tXyXI.E W ' W W ' [ T.aX0X[ J R R 1.e.aXaXkXaXR T F W ).<X<X`.T.T.qX5.$. .%.8.0.7.%.9.7.%.7.iXiX9.9.q.7.7.8.8.7.7.%.....N .. . ...o.m ......8.%... . .D D D D L 5 @.=.$.N < = = = & % % X % + & & O X O & + % + O O X o o * 2 3 a 4 4 2 4 u t 2 > # + . . o $ @ : 2 t i s u p x ! ! ^ / _ ( I.0XqXqXtXqX0XtX0XP.i $ . . . . . # + .     @ $ t f d h.v.c.j.k.v.MXE.c.k.k.R.R.R.R.OXR.G.R.G.A.Z.J.OXJ.W.W.A.A.A.R.Q.2XAXgXaXhXlX6.6.6.R F } S.G D.Y.T.Q E j l l.k.v.v.V.V.V.V.V.V.eXBXVXV.V.eXBXBXNXSXSXeXz.eXSXHXKXGXHXSXB.P.BXHXSXFXgXBXZXeXj.v.h.h.l.v.eXE.oXE.c.E.E.U.W T.dXdX| ^.^.G G ' T 2.u.zXmXlX4.] gXjX`.W.,X,XA.A.G 9 D.A.d.A.J.J.G.G.R.R.OXW.XXR.g.d.h.v.eXoXc.g.a.g.k.k h y 2 +             . . . o # > t i i t i u q u > > # > # $ $ # $ .     + o X X + @ o   . .   X o O @ o @ @ - * % % = * = m = % & * * & O * & * 3 = = = = = < 1 m  .D 5 L L I L L  .D  . . ...o.o...B .. .....%...+.@.%.7.%.%.Z 7.7.7.7.7.7.w.iXiX9.7.7.Z 7.q.0.%.%.=.5.sXgX/.).).).Q.T.F F R fXdXe.aX| ] | U J ] { /././.W ' /.gXgXT.{ ] ] J K / hX",
"K K ^ 0XT.E T.gXaX' ' T [ aXaXT.U T [ e.e.] e.e.dXaX^ F F [ <X).(.Q./.gXsX6.$.+.+.8.0.8.7.%.7.7.9.iXiX9.7.0.%.7.%.7...%.%.%.%.B ..%.......X.m ..o.X.X. . . .D  .5 5 D L 4 D L $.N m = = = = = % ; ; * = % % & & & * & = = & * O O O * 2 , $ > $ @ @ .   .     . . . . @ o o # o $ > t t u t u 2 u E ! ( _ ! ( / ,.s > $ . .     . # X     X + ; y y k h.a.j.g.c.v.MXoXh.d.k.g.R.oXR.XXR.g.A.K.J.Z.S.A.J.Z.d.Z.A.W.W.Y.2XDXdX| | sXmXlXu.6.*.} F G S.Y.Y.aXaX[ W l U.E.k.v.E.E.V.V.V.v.x.V.v.V.eXBXBXHXHXGXSX7Xz.yXHXGXHXHXUXBXv tXSXFXHXSXeXhXUXUXv.v.E.E.R.E.oXE.oXoXR.XX+X).T.dXdXdX_.`.`.=X_.D.} 6.t.lXzX0.4.3.jXDX2X^.!.2X(.Y.G G H K.H G.J.J.W.R.W.G.G.OXOXOXg.g.c.c.v.oXMXm.j.a.c.h.d z y - @ O     X   .   . # + # @ $ $ > 2 > @ $ : > $ @ @ $ $ + # + + + X - O X + @ @ . o o   o o X X @ o o @ = % = = = = = = = = < * < * = % % * = * < < < m 5  . .5 L a L L D D D  . . .....o.o.m m ......8.%.%.B %.<.7.%.Z Z 7.7.7.%.%.9.9.iXiX9.q.q.q.7.8.0.-.-.=.Y aXhXgX).AXY.Y./.' T | kXdX[ [ ] [ [ J J 5./.[ /.[ T ' T.T.gXaX{ ] { U J U sX",
"P J ^ _ { T.aXgX/./.' T | aX[ [ T.J J [ [ e.e.{ sXkX| T T /.).Y.AX).gXgXaX4.=.-.8.8.8.%.%.7.9.q.iXiX9.9.7.7.M 7.7.%.B 7.7.%.%... .%.8.....m X.m ..o.X. . . .D 1 O.L Y L J L L L  .5 m < < < = = ; = % = % = = * = = = = = = m ; % % * O o o @ .   +   X + X   - $ + X + o   + . X # $ # @ # @ # $ : : $ > 2 > > > > $ $ . .     . .     X O * y f h j.c.a.a.c.XXoXv.c.d.d.G.G.+XOXXXG.G.G.J.W.J.D.Z.G Z.e G D.W.<X<X^.2XjXdX| R t.cXzX6.r.R ' S.!.1X_.} dXfX/.[ Q.Q.E.R.R.E.+XeXv.x.k.R.c.k.BXLXZXNXSXKXHXAXtXP.rXUXCXHXCXUXBXB.NXSXUXSXyXtXLXLXUXeXQ.R.W.<XW.R.R.R.OXOX{.J.,X2X`.} } | _._._._.} _.r.xXcXcX6.2.vXPXFX`.S.S._.`.DXdX/.Q.FXQ.Y.Z.S.J.G.A.G.Z.F.G.].F.f.R.c.R.oXMXoXm.c.a.h.g w d 2 - + + + + + .     X . o . @ # $ 2 $ # # # @ # . $ + + $ + X $ * X 3 ; X + $ X X + o X O X X & ; o @ = < = = M M M M M m = < m N m m = = = , < < < < <  .@.5  .L 5 4  .L 5 5  . ...X.......m m o...X.o.%.%.%.%.%.7.7.Z 7.7.7.M 7.7.9.q.iXq.7.9.zXw.%.8.0.-.-.=.2.qXgXtXtXgXY.Y.' T T [ dXfX[ T R | [ U [ gX/.[ | ' W /./.T.gXaX[ ^ R T J e.sX",
"U U { { { T.gX/.[ /.' T ' /.[ /.aXT J ] | R [ { dXkXR T ' ' ' T.<X).gXgXwX;.+.+.-.8.0.%.q.iXq.q.iXiX9.9.9.9.7.9.7.7.B %.7.%.%. ...-.-...X...X.m ........X.X. .1 5 #.L L 5 L L 5 D N m < = < < = ; % = = = m 1 < = = m M = = = = = ; 3 &   @ & o X @ + X + + X + $ + X - $ o - + + + + o o @ # $ 2 @ @ $ 2 > $ $ o . o . . .     + +   o % - - i d d d.h.g.c.XX#XoXc.c.c.d.A.R.J.J.A.A.J.J.D.G.J.A.Y.' Y.K.^.).<X,XD.D.jXkXkXr.&.u.i.zXi.fX| ^.!.=X`.`.dX| e./.`.`.W.J.W.OXR.R.E.E.MX+XoXR.eXHXUXLXBXrXUXUXSXSXU.E.UXNXHXCXUXMX8XyXBXLXLXvXpXLXLXSXQ.R.D.J.W.W.R.A.G.,X=XH.H.*X_.^.} } | dX_.!.^.!.} fXxXcXu.=.uXIXIXUXjX} ^.2XDXFXFXkXPXUXKXY.G Z.A.Z.Z.G.H.F.Z.F.s.s.f.g.m.m.M.MXoXc.h.d.k.k.k t t t - $ + +     X       o . . o $ @ # @ @ o X + - % X - 8 + - + X 8 8 + * + X X @ @ @ O o & * 3 * = < < m m M M M M o.o.m 1 ....Z B m < 1 < m m m 1 N @...N +.+.$.@. . ...+.........B ....B o.m X.m ..%.0.8.Z %.%.7.7.7.Z 7.7.9.7.9.q.iXiXq.7.w.w.7.8.u.0.-.6.6.qXqXqXgXQ.Y.T.H W J [ aXaX| [ R | [ T [ dXaX/./.T ' dXjXaXgXaX[ T q J T aXaX",
"3.U U P ^ T.aXaX/.dX/.' T [ | aXaXT.R [ [ U [ [ aXaX[ T T W ' Y.Q.).tXaXaX5.-.-.6.8.0.7.w.zX9.7.iXiX9.9.9.9.M 9.B Z 7.7.7.7.Z 7.8.o.....B X.m m ..X. . .+.X.X. .5  .a 5 L L a  . .@.N 1 < < < < = , < m M m ..N = m o.M M M M = = = < < & * < O X O % O + + + + + + + f 8 % - + + + + + @ $ + # @ $ . # $ $ # + + .       X     o o @ - - - 0 d k.d.a.a.c.oXoXE.oXg.R.].s.s.].F.A.F.F.Z.A.D.Z.G ).FXFXjXjXFXjX2X2XD.} jXIXmXbX6.%.i.mXcXfX_._.!.!._.jXdX| | ^.2X*XH.H.{.OXG.A.K.K.<XW.J.G.Q.SXIXZXZXtXBXSXLXSXU.eXUXGXHXGXHXeXU.SXLXZXZXZXZXyXyXLXtXW.(.D.D.A.A.Y.).1X1X&X=X=X~._.`.jXkXfXkX`._.!.} r.xXxXy.<.bXIXIXIXkX} _.DXFXkXkXkXPXIXFXD.e S.G.Z.G.*X[.F.F.H.Z.s.s.d.g.c.XXoXoXR.k.d.j.k.d.d k l.z 8 $ + + + X + + + - O o X o @ o . o X o * - % X % % + X   + % + + % + X O & & , & & < 1 m 1 1 < m m M M M M o.o.i.o.N m Z ....B B N  .m m m  .%.%.@.B C -.zX0.N N %.%. .X...X....... .....m N ....q.w.%.%.7.%.Z Z 7.7.7.7.7.Z 9.q.q.9.Z q.w.8.8.u.u.0.t.4.0X0XT.T.K.K.T.W T J T [ [ [ aX[ { [ J ' /././.T.' [ jX/.[ T.qXqX[ J J K 0X^ ",
"aXK u J ^ qXgX/.T.aXdX[ [ /././.T.' T [ | [ | { aX| T J F J Y.Y.Q.Q./.T.1.2.6.t.u.u.0.%.w.w.7.7.iXiX9.9.M 7.7.7.7.Z 7.7.7.%.%.9.0.%. ...N ...... ..... ..... .+.+.+.N %.wX6.@.@.N +...N m  .1  .N m m ..M o...m m M o.o.M M M M m m m < < < < , & O & * % + + X + + + - % X - X % % X X * $   + . + @ + @ + o . $ + + X X X X   o o - t d g h.h.c.d.c.g.R.oXoXR.m.g.g.s.s.Z.F.H.F.{.{.Z.Z.J.Z.e K.PXPXPXkXFXFXKXDX^.^.jXIXIXIXbX<.8.cXxX| } !.!.2XjXkXdX/./._.1X~.&X~.*X5X,XK.A.K.D.J.~.W.Y.yXLXZXZXyXLXLXBXBXyXE.HXCXGXGXHXNXx.hXLXZXZXZXZXpX9XUXAXD.~.!.!.Y.).DX).1X5X=X=X5X2X2XFXFXkXPXFXjX_._.} dXy.cXi.0.IXIXPXIXnX_.jXFXFXPXkXhXjXFXqXH H S.S.J.{.{.H.F.H.*X{.Z.F.s.f.g.XX#XE.oXoXd.a.a.d.k.w h.l.x.k $ + + + + - % @ % @ + @ @ o o O @ & % % % % X % + X X - X X + % % * * , & & @ , 1 N 1 m m X.m o.o.o.M o.o.8.i.8.....B B B ..N  . .N  .N X.8.%.N %.%.7.w.%.B  ...N  .....X.m ..X.X.m ......B N 8.0.Z B Z 7.Z B Z Z 7.Z q.7.7.9.iXq.9.q.q...%.lXlXt.6.5.qXT.0XK.H Y.T.[ T.' T T T T { dXaX[ [ [ /.aXT.[ F ' aXaXqXqXhXhXT.J u qXaX! ",
"3./ u ! qXhXgXT.[ gXaX[ ' [ /./.T.[ ' [ aXaX/.^ T [ T J T /.T.W K.T.T.{ 3.2.6.6.u.cX0...8.0.7.7.iXw.9.7.9.Z 7.7.7.Z Z 7.%.Z Z w.o...X.m m ..X.m ......X... . . ... .N %.lX0.%.%.B %.%.8.X. .N  .N  ...B B N ..N ..y.i.o.o.o.M o.B o.m m m < 1 m < & @ O * o   @ - X O X O & X X O % X X * - % + + + + + + + + + $ + % - + + X + $ y k l.k.d.d.d.d.a.c.R.E.R.+XXXg.g.f.f.Z.'.{.F.F.H.,X{.F.J.Z.G K.jXPXnXfXnXPXPXFX`./.PXIXIXIXIX0.0.cXy.dX} ^._.`.FXnXfXkXDX2X1X1X1X:X5X1X2X).^.Y.D.D.(.W.).UXyXpXZXZXZXyXvXLX8XU.GXGXGXGX+XMXP.tXvXLXIXZXLXZXSXLXKXA.e D.D.`.DXDX_.1X1X1X2X6XJXKXKXPXPXkXPXkXjX_.} fXxXi.i.y.mXIXIXIXPXkXkXkXFXkXdX/.dXnXT.Y.D.Z.H.J.J.H.F.F.F.*XJ.F.F.F.F.f.G.XX+XoXR.R.d.p.g.d.a.a.w w n A - + + O + O X + + % - - * + + & * & & = , & * * & * & = O O & 3 C $.@.C , < 1 < m 1 m X.m ..o.o.o.o.o.8.-.-.6.zX7.Z iXZ B N N N N X.N N  .N Z %.%.7.8...%...N .... ..... . . .X.......m ....o.w.%.M B 7.Z Z Z 7.Z 7.7.9.q.q.7.w.w.i.u.u.0.u.t.t.5.aXaX0XT.W H ' ' J /.aX[ ^ [ T ^ [ 5.[ T./.gX/./.' J [ aXgXqX{ hXhX0XK E qXqX` ",
"qX;.J ^ qXhXgX{ gXaXT.^ T ^ | gX/.T.[ /.aXaX[ ^ U U T | | ' ' Y.H W T.0XaX5.r.r.t.u.-.-.u.w.q.q.9.iX9.9.9.7.Z 9.M Z B 7.Z M Z 7.8.o.m ..X.B .................... ...B ..0.0.7.Z Z ....N m N D N  .N B B ..%.Z <.6.8.8.8.o.M o.M o.o.m X.X. .D 1 1 , @ , , 5 3 * % O O O @ @ O % = % = % % O @ - $ % + + - - $ % + + + + + + % % y l.k.h.w a.g.d.w a.c.R.oX+XoXG.f.F.f.Z.F.{.*XH.Z.F.{.J.G.D.D.Y.W T.kXaXdXaXnXPXPXjXjXPXIXIXIXIX0.i.cXxXdX_._._.FXnXnXkXPXFXJX6X6X5X1X5X=X`.DX2X_.~.S.S.A.Q.UXSXpXIXIXZXZXZXSX8XU.NXGXJXGXBXBXeX) hXbXZXbXZXSXLXUXFX).Y.G ~.2X2X`.2X1X_.~.2XJXDXUXUXUXPXPXIXPXkX_._.fXcXcXcXu.bXIXPXIXIXnXkXFXkXkX| aXkXUXgXY.D.G Z.F.H.H.[.H.F.{.*XH.s.s.f.f.F.R.OXOXR.R.c.a.a.d.g.k.d.0 l qX7X2 - % % % % + % + % % - - * * & < , * & & , 1 5 < & , 1 @.<.:.;.@.wXlX2.2.<.N < m X.X.X.X.o.o.i.i.i.t.D L 6.pXZ uXiX9.V N Z .. ...8.%...%.8.7.B %.7.....8... .N m  .................o.m ..q.w.q.7.Z Z Z M B 7.7.Z 7.9.w.7.%.q.w.8.w.cXcXu.t.e.e.[ 5.[ [ ' T.Y.W W [ ' ^ [ { [ ^ ^ ^ [ [ /.aXT.T.^ ' [ aX0X3.{ qXqX/ ! ^ 3.,.0X",
"wX] P ! T.hXgX^ qXaXqX[ E T T.aXaX/.T.[ [ [ ^ [ [ ' [ aX5.T W [ E W T.{ 1.e.t.5.t.lXu.zXzXw.q.w.7.q.w.7.7.q.M 7.Z 7.B Z Z Z 7.w.q.............o.....m .... .N  .N %.%...7.9.Z Z %.7.B B ..X.N  .B N Z Z w.uXV uXuX<.+.0.y.y.y.o.o.X.m X.X.1 1 1 1 L a $.4.4.2.#.5 , @ , , @ , * = & % = & = ; * % & % - - % % + + X X O O % ; A 8Xx.w a.s.a.g.a.a.c.oXoXoX$XXX].f.F.f.F.F.*X&XH.F.H.F.H.G.Z.Z.J.W.).FXdX/.aXkXkXnXkXkXPXIXIXIXmXu.i.cXcXr._._.`.PXnXxXnXPXUXKXKXJXDX1X1X_.1XDX`.2X(.D.G A.JXUXPXhXbXLXLXLXZXyX) tX+XGXHXHXHXSX8X>.wXvXzXuXwXqXhXFXUXUX2XJ.S.~.!.=X5X=XS.S.DXKXFXUXUXLXIXIXIXkXjX_._.fXxXcXcX0.lXPXnXIXIXnXnXPXFXkX} [ FXUXjXH D.!.Z.Z.F.[.[.H.F.{.*X[.s.F.F.'.F.{.G.XXR.R.oXc.a.g.f.A.d.k.( >.:.3 ; * ; % - ; + + % % + % - ; * < < & , 5 X.6.u.5 , $.wXnXlXI u 4 qXhXqXqXhX3.Y y.r.r.-.8.y.i.cXo.t.fXT I wXuX9XiXbX9.V N Z C N %.-... .7.i.w.....0.....%.B N .. .............B m ....B M o.q.w.Z o.7.Z 7.7.7.Z Z 7.7.q.7.B %.8.-.-.i.xXfXfXsXsX] [ /.T J W ' [ ' ' J [ T.{ e.[ ^ ^ [ { { /.[ [ ^ [ 0X{ 3.{ 0XhX3.! ! / / / 4.",
";./ ! ! ( qXgXI.{ qXqXT.^ [ T.T.gXT.[ T J W ' T.T.[ T U T J [ ' _ [ [ ] 1.1.e.t.t.xXmXlXu.0.8.7.B 9.9.q.7.M 7.Z 7.Z B 7.Z B q.iX8...m m o.B ..o.m o.X...B N N B  .X.....%.%.B 7.w.7...7.8.%. .B B B V Z iXbX9.uXuX$.5 5.-.o.y.y.o.o.X.X.X.X.D 1 1.e.*.wXhX;.a I 6.lX$.D 1 @ 5 6...< = = = < ; & * * * + % % X X % % * * % * C 9XeXh.a.d.g.g.d.a.d.E.v.R.R.OX].F.F.F.s.Z.H.{.*XF.H.{.F.Z.Z.Z.S.D.A.DXUXFX} dXkXPXFXnXnXPXIXIXIXnX6.y.cXcXxXe._.dXkXmXmXPXPXUXUXKXKXJX~.!.1X1X2X^._.(.G.J.JXKXKXFXhXwXvXvXbXbX8X7XtXSXHXCXVXUXZXrX>.<.6.sXwX4.qXqXgXFXUXJXD.S.S.S.1X5X&XH.!.2XJXKXUXUXIXUXUXPXkX`._.jXnXcXcXy.6.t.nXnXIXIXmXPXIXPX_.F G jXFXQ.G ~.~.S.Z.H.J.H.Z.H.{.*XH.F.F.F.F.F.OXG.OXG.g.+XoXg.a.e d.E.tX) a y 2 & * * + % - - % % + + - ; ; * = < < m %.-.lXlXfXaXvXnXvX3.s p _ hXUXgXqXDXFXhXUXnXnXcXmXi.cXlXX.dXdXT.aX8X9.pXZXZX9.V V N N ....%. .m 7.i.w.8.B -.%. .....%.%.7.%.7...B B m ..o.B B ......7.7.7.Z M 7.7.7.B 7.Z %.%.7.7.7.%...8.-.t.u.xXxXnXkXe.[ 5.[ J F W /.T.T W [ e.T.qXT.{ ] ^ [ qXT._ ' ^ [ qX3.I.7X7XhX,.^ / ;.` / ,.",
"/ / ) ^ ^ qXgXqXI.3.0X0X[ [ I.' T.T.[ [ [ [ T.T.3.| R J T [ T.W J J ^ { e.] e.kXfXxXlXt.-.-.8...Z 7.9.7.7.7.Z 7.Z 7.Z 7.Z Z q.q.7...B B ..B ..B B ........7.%.%..... ...7.%...w.i.8.B B %.%...%.B B V Z pXZXiX9X<.4.1.qXxX5.*.cXy.cXcXy.xXnXfXaXkXaX` hXPX` s 4 @.vXvXhX2.Y 6.lX-.%.m < = < = = ; * & O % % + - % * * * * * 3 A x.E.eXE.a.w d.k.v.oXR.R.XX].{.F.F.F.Z.F.H.&X*XZ.Z.&XH.H.Z.S.~.J.H ).FXFXF G dXFXPXPXPXPXIXmXxXlXr.y.cXcXkXdX_.jXkXIXIXIXUXUXUXKXKXKX(.Z.!.1X1XD.S.J.A.<XUXKXFXgXwX2.wXwXpXpX,.8XMXLXUXMXMXLXLXZX9X<.4.<.4.6.wXqXqXgXFXAXD.G.S.H.>X>X:XH.!.=X6XKXUXUXUXUXUXPXDXDX`.`.jXxXmXcXr.r.sXnXIXIXIXIXPXPX_.G F DXFXY.G ~.~.!.H.J.H.Z.G H.*X*XH.H.Z.Z.Z.F.{.J.OXG.r K.E.k.r k.K.U.b t @ 2 ; O O O % + + + + & - - - ; * % < N N N +.<.uXvXPXgX0XSXtX) b j gXPXPXjXgXDXjXDXPXFXFXnXIXnXlXt.sXaX[ Y.hXwX9XpXZXpXiX9.Z C Z @.+.%.N N ..8.7...N ..%.-...B %.%.7.7.B B B B B B B o.B B 7.7.M 7.7.Z M 7.7.7.%.%.B Z o.Z 7.8.8...o.-.u.sXsXxXkXkXfXe.] [ T T ' [ [ ^ [ T.^ [ _ [ { { ^ [ { _ W E { 0XqX3.` qXqXqX^ ] / ] 3.1.~ ",
"3.1./ _ _ 0XyXqX{ { 0XqXT.J E ' [ T.[ [ [ [ { T.[ T.[ [ R [ /.^ J J R [ e.t.fXnXnXfXu.t.&...o.o.8.7.7.7.B B 7.Z o.7.7.Z Z 7.q.M B 7...B B B B B B B B B %.8.7.B ....%.%.%...%.8.0.8. .m ..%...N B M V <.pXbXbX9.<.wXhXT.kXsXD t.zXmXmXnXkXkXFXaXFXhXtXFXIXhX;.s a qXvXkXhXkXnXsX6.-...m m < * * ; ; * O % + % + % O O O & ; = 2 i x.eXE.K.d.w d.R.XXd.R.OXJ.OXH.Z.Z.Z.F.H.*X&XH.Z.H.J.[.H.H.~.!.G ^.KXFXG F _.kXPXPXPXPXIXxXsXt.-.y.mXmXnXjX_.`.kXPXIXIXUXUXUXKXJX6X,XH.=X=X>X!.Z.J.d.<XKXFXgX5.4.6.6.9X9XwX,.9XZXLXHXMXBXLXHXZXpXyX<.<.<.6.5.4.aXdXFXDXOXOX1X>X>X:X:X[.&X*X5X2XUXUXPXUXUXFXFXDX2X_./.dXcXnXy.-.t.IXIXUXUXPXIXPX`.G ' jXjXK.Y.2X5X!.S.!.H.H.Z.S.!.~.H.S.Z.S.S.H.H.J.J.W.A.d.U.T.k l h 7 # X X X % X X + + + + + + % + @ + + X X & < m 5 N @.6.sXqX0Xl hXyX~ ,.( hXSX/.Y.jX`./.DXKXjXjXgXkXnXhXvXhXhXW ^ SXsXZXbXpXpXiX9.Z N Z Z %.-.N  . .............%...B B B o.Z Z B ..o.Z o.B o.B B q.7.7.q.7.7.7.7.7.B B 7...B 7.B 7.8.o...-.-.t.t.fXfXkXfXnXfX*.R ] ] aXaXU T e.T.W ^ W _ { { [ _ ' K W K { qXqX` ` qXqX_ / { ! / { 3.P ",
"3.3./ _ _ ` T.0X0X` qXaXT.J J W W T.[ ^ ^ [ _ _ W [ [ e.U T T.[ U ] [ R aXkXkXfXfXfXsXu.-.-.X...q.7.7.Z B B ..o.B 7.7.M M 9.q.B 7.7...B o.B ......B B B ..7.%.B ..B %.7.B B ..-.X... .N  .%.%.N N Z 9.pXpXbXbXuX$.lXgXW T.gX5.vXsXIXPXkXhXFXKXjX).FXhXgXPXSX! p ~ 7XSXtXI.tXhXvX6.$.%.N N 3 & % % - * @ - % + + $ + + X + O @ & @ @ 2 i ( Q r K.R.g.d.J.J.G.J.F.Z.Z.Z.S.!.~.*XS.Z.Z.[.!.H.!.~.~.G ' kXjX} G dXkXIXIXPXIXIXmXsXr.r.cXmXnXjX`.1X_.KXPXIXUXUXUXKXKX6X{.&X&X:X:X>X=X*X{.J.AXFXgXsX=.6.6.<.<.4.wX8XyXLXUXBXV.MXLXLXBXZXyX:.<.<.<.2.sXfXdXFXFXAXAXJX6X=X=X>XH.[.;X5X3XGXKXJXKXKXUXFXFX2X`.dXsXxXxXxX&.t.nXIXkXjXFXUXFX} F ^.`./.Y.`.6X2X!.Z.S.!.!.S.J.!.!.S.G Z.G Z.S.J.D.A.~.).W Q ^ > 2 @ o X % + + X X + % @ @ - $ - @ + + X X + O X O & = , 3 3 a ;.2.#.sX5.I 4.qXkXhXaXgXKXFXAXKXDX<XDX/.| aXwXnXnXPXT.T.hXyXiXbX9.9.9.pX9.Z Z Z @... . .N  .8...B B 7.7.Z Z 7.%.Z 7.7...Z %.7.B B B B M Z 7.Z 7.q.9.7.7.%.B B 7.o.Z o.Z 7.7.....8.-.=.r.sXfXfXkXnXxX5.L R e.aXaX{ [ [ T.' E _ [ T.5.T.' W H ^ T.T.0XqX` { qXQ._ _ _ ^ ^ ` ` ^ ",
"/ / ^ / ` ^ T.qXqX` ] 3.qX{ ^ H J _ [ { [ T.[ J E R [ [ T [ aXaXaXR T e.fXnXfXfXnXsXe.r.u.-.X...8.7.B o...B Z 7.B B o.7.7.7.q.7.7.o.B B Z o.B ..o...o.Z Z %.B Z ..B ..7.B  ...%. .X.1  .+.%.$.Z B %.<.pXuXuXiXiXzXsXaX_ AXPXnXnXsXnXqXgXjX).KXKX<XGXgXQ.hXFXwX1.,.) hXyX( qX3.qX:.3 5 3 ; * O X X + + + + - + - + + + + X X X   o o o @ 2 u p Q.T.A.G.W.J.J.D.S.S.S.S.S.S.!.!.H.S.S.!.H.S.=X5X1X_.D.`.dXS.G dXFXIXUXFXUXIXIXt.&.xXmXmXfX/._.1X2XFXUXUXUXKXKXDX1X5X=X;X[.&X:X:X=X6X<X+XJXKXkXsX6.6.6.2.:.9X<.yXLXLXLXBXB.v.BXLXBXUXBXwXwX6.<.$.e.e./.kXUXQ.+XUXJX1X5X5X[.F.;X5X6X<XJXDXDXKXKXUXKXDXDXPXnXfXxXxXr.sXnXPXgXY.`.FX`.G G 2XDXY.H (.1X_.!.S.D.S.S.Z.G S.G G G G G G G (.A.9 ' gXg : # . . o + X X + % % % o + - - 2 2 - $ $ $ + $ + % O X & & O * * * 5 @.@.-.5 1  .6.wX/ tXPXFXAXDXAXgXjXjXY.' aXP 4.yXhXT._ hXwXuXpXpXM 9.iXiXZ %.Z Z %. . . ...8...B 7.q.9.7.Z B 7.B 7.7.Z B B 7.o...B B o.B M 7.7.9.q.q.9.7.Z ......B B o...8.....8.r.-.t.t.aXe.fXxXu.t.R R e.e.| fX[ ^ [ ^ ' T.{ 0XT.T.W q E T.gXqX` { I.` I._ _ ! ^ { 0X! / ` ",
"/ / / / / ! _ T.T.{ / 3.0XqXtXK.E J [ { aXqX] [ ^ [ ^ U | aX/.aX| R R 6.fXnXlXt.t.sXe.e.t.8.....%.-.......o.B B B B 7.q.q.q.q.Z o.B B B B o.B 7.7...Z Z 7.%.7.Z B 7.0.8.7.B ..o.o... .+.%.Z %.Z Z 7.9X9X9.9.pXiXlXhXT.Y.gXPXhXwX2.sX[ ).DX).DXKXAXKXKXAXQ.hXdX6.5 S lX6.2.<.5 2 * ; * * % X O + + + + + @ - - 8 $ - $ + X + O X + + o + @ @ @ 4 q K.DXY.G D.(.D.Z.G G G G !.J.S.S.H.J.H.!.!.1X1X!.G _.dX_.F D.DXUXFX/.jXIXIXt.-.cXmXlXnXDXDX`.DXFXUXUXUXGXJX2X<X5X3X[.[.>X>X1X5XKXAXQ.SXKXhXt.r.-.=.$.<.9XyXLXLXZXUXeXP.z.eXSXBXyXLX8X7XvX,.5.qX[ } ).DXDXUXUXFX2X1X*X.X'.{.6X2X(.).DXDXKXKXKXKX`._.FXnXfXnXmXt.y.nXIX| G `.DX2XF !._._.^.!.S._._.G G F F q e G 9 : q 9 9 : : : F 9 q u u > # # . o X + + O - * ; & 2 3 2 a a t t $ - $ $ X o o . @ O   X O O % < < , < , < N N 5 ] qXFXDXQ.).<X).<X).gXgXhXgX~ ` qX^ ' qX0X4.pX<.V 9.pXiXpX9.V V 9.Z B B Z 7.B M 7.9.7.Z Z Z 7.7.M Z Z Z M B 7.7...B o.Z o.B 7.9.7.8.w.8.%...........X.-.-.%.+.%. .=.sXxX6.5.lXxXy.t.r.5.e.aXe.dXaX[ ^ ^ T { [ | ^ W W W T.gXqXI.I.3.3.{ ^ _ E / ` 3.{ / ^ ` ",
"/ / ,.3.{ ^ ^ _ [ I.,.1.7XqXtXtXQ W E ' [ T.{ ] ^ R [ ^ [ aXe.e.e.&.=.t.xXcXsXt.5.xXt.&.+.&.X.%.-.o.%.X.o...B o.7.q.w.q.9.9.9.B B ..B o.B B B 7.M Z o.Z B Z Z 7.Z 7.7.9.7.B B o.7.B B B %.%.V Z 9.9.pX9.Z Z uXuX4.qX/.K.T.qX^ 1.qXaXT./.<X2X).<X<XAXKXFXgX] D  .1 , N 5 3 5 ; & * % O O O + + @ X + @ - $ t t y t t 2 * + + - + + + + + o   . @ : > T.K.9 H Y.A.9 e e 9 G 9 G G G G G G G ^._.^.^.G } `._.F G `.KXDXG ^.PXIXlXlXnXmXnXmXFXjX2XJXKXUXUXKXJXJX2X1X6X*XF.[.-X>X6XDXFXKXgXSXFX/.{ t.2.1.wXwX9XZXLXrXBXBXP.( ( 8XBXeXE.yXyX7X) 0X/.Y.^.Y.Y.).FXUXUXFXFX^.J.6X{.].+XA.e ^./.`.FXFXDX2X(._.kXnXcXmXmXfXxXmXnX[ ' 2XDX`.!.!._.!.!.S.S.G F : 4 4 u p u q F : q u q q : : : q q > X o o +   o + X X - y y A a C a t 4 i a 2 $ 2 t 8 $ + . X o o . X X O * & * = = & < m 1 1 , > W T.Q.DXDXDXAX).T.aXkXvXqX3.T.T.aX0XqX9XuX:.<.Z pX9.pX9.9.<.Z 7.Z Z 7.7.B B ..7.7.Z Z 7.M Z Z Z Z 7.Z B Z 7.o.7...B B Z 7.q.7.7.q.7...........%.X.....+.+.=.$.&.-.t.e.6.t.0.t.-.&.&.r.dXfXnXdXe.aX[ ^ /.aX| [ J W ' T.gXQ.0X3.{ 3.^ P ^ { 3./ ` 3.! P p ",
"^ I ] 3./ _ _ W ^ { 3.;.` 0XtXAXT.W J W [ { aX[ ^ [ { 5.aXfXaXaXe.5.&.t.u.u.sX6.e.fXt.&.O.-.+...-.+...%.o.B B o...7.w.7.7.8.7.B B B 7.B o.B 7.B M 7.7.Z B Z Z Z Z Z 7.7.7.B N B 7.B C Z %.<.Z <.pXpXuX9.9.Z 9.<.qX{ T.Y.Q.T./ 0XfXhXgX).2XAX).<XQ./.DX/.K 5 , N N , < = = = * O @ X   o X o     + $ - $ $ - 2 y A t y z z 2 - 2 - + X o o o   @ @ # $ : : 9 9 9 : 9 : q : : : q g g u q F J } } D.D.^._.1X!.G `.DX2XG ^.kXmXlXxXmXcXxXcXkX`.^.1XJXFXPXFX`.(.!.!.1XJ.F.;X;X,X2XDXUXUXKXDX`.Y.Y.T.aX3.wX,.7XvXBXrXBXyX( b n P.yXrX8XeXLX8X! T./.^.(.^.D.).FXUXPXPX/.G Y.2XOXK.H F : T F W dXDX_._.~._.nXnXcXmXcXlXmXIXIX{ ^.2X2X2X!.!.!.S.D.G G : : : , 4 u a a y 4 4 y y 2 2 2 u : : t 3 * O X X o X + o - v c ~ a 2 2 i s c c a y y t 2 - y t - $ @ O @ +   X O X % * % O & ; , & , , , > /.KXDX2X).).).gXhXhXsXsXaX[ T.T.qX4.wX6.uX9.iXiXpXpXpX<.Z 9.Z Z 9.7.Z 7.7.Z Z Z 7.Z 7.9.Z 7.7.Z Z Z Z 7.7...B B B 7.7.w.8.8.8.7...........+... .+.X.$.+.$.O.L O.=.6.r.t.u.-.=.&.e.t.fXnXkXaXaXR ^ aXkXaX{ J W T.gXT.T.qX{ / / P K { qXqX,.,.>.! s P ",
"P ! / ;.` qXqXE E ^ 3./ 3.qXT.gXQ.Y.J W [ aXgX5.U [ aXaXkXnXdXt.t.5.=.t.t.u.t.6.6.e.R *.&.-.%.X... . .....o...B B ..8.q.9.q.q.o.o.B M 7.7.q.7.M M 7.M Z 7.Z 7.M Z 7.Z 7.%.Z B 7.7.%.Z Z <.V <.0.9.uX9X9.V Z uX9X3.T.aXT.qXaX5.fXxXhX/.Q.<X4XDXFXjX' J : : , < 3 m * & * * & & O       o @ $ # @ $ - $ t $ 2 t i a y s i a x ~ A a 2 @ o O + o   . . . : u : : > q : u u u 4 2 a a 4 4 u : : : : G !.S.!.!.!.!.DXJXDX^.' nXmXlXlXnXxXcXxXkX_.!.1X2XKXkXaX} } G G ~.J.,X4XJ.A.).FXIXUXUXDXG D._.^.T.T.I.` yXSXz.eXyXrXx ~ ( P.rXMXeX8XqXtX7XI.Y.Y.^.^.Y./.T.T.gXaXW J /.).W q S : : F F : F ' _.!.=X(.jXnXcXcXnXnXmXIXLXqX^._.2X`.=X!.!.!.G G : : , , 5 , 3 C C C a C C a 3 C A <.7Xx >.<.M % X % + X X # i 7X) j u u u x ~ c s c c y a z f y y - $ . o @ + + + X X X + X X & @ % = , , 5 4 U dXjX).).AXDXjXhXsXwX5.{ W ' gXaXs 4.bXuXiXZXiXpXbXbX9.V 9.9.%.9.Z 7.7.7.Z 9.9.Z Z 9.q.9.Z Z Z Z 7.7.%...Z B ..7...q.q.8.8.w.8.......X.X.X.+.+.O.O. .D O.O.O.O.O.&.6.y.u.u.r.r.t.e.e.fXxXe.3.J ] kXsXaX[ T T.gX).aXqXaX/ P P P / { { 3.,.` / ) ` ,.",
"P ~ ;.3.3.qXqX_ W U I P 3.qX0XQ./.gXW T [ aXdXsXR ^ | aXkXnXfXt.r.5.-.u.u.u.6.&.&.R D D O. . .+.+.+.+.+.....o.X...%.8.8.8.0.8.o...B %.B Z 7.7.B Z Z Z 7.9.9.7.9.M 9.9.Z Z 7.7.Z 9.9.<.<.Z %.uXbXpXpXbXpXpXiXpXC [ gXT.T.qXaXaXe.sXhXgXDX<X).DXDXjXJ : , @ < = = * % X % % X X X o   + o o @ @ - t t t t i a x c a s ! s t t u ! ~ ~ 2 . X + X X . @ 2 :.a 2 a s u y 4 5 5 a 5 5 C a , 5 4 , : : q S.S.!.!.!.!.`.`.2X^.' fXmXxXxXxXnXcXcXdX_.!.!.2X`.T S F F q : H q Y.AX).H ' kXPXSXkXgX^.D._.D.Q.T._ I.SXtXU.eXtXP.j ` ) n eXBXtXP.n 9XwX7XT.T.Y././.).T.T.tX[ : S [ ^ : : @ : 1 S F : F F G S.=X!._.kXPXmXnXIXIXIXkXdX_.`._.`._._._.G 9 : > 3 1 3 5 5 5 :.>.c :.@.V :.V <.<.8X>.8X<.<.m % % X + o   # i b ( p I.W E E ! s i z u s c c c n z t - $ 2 t - $ 8 8 + + +     + + * * , < 1 D D ] gXjX).<XjXgXhXvXsXY ^ J Y./.T.! sXbX9.iXbXuXuXbXIX0.Z 9.Z V 9.M 9.9.9.9.Z Z Z 9.Z 7.7.Z Z B %.9.0.%.Z B %.7.%...8.8.o.8.i.y.o.X...+.+. .+.+.O.O.D O.#.=.=.=.O.-.-.-.u.-.r.6.e.r.t.fXsXR R Y 5.sXaX| R [ aXgX).gXhXqX] U P ^ 5.{ ^ ! ~ ) ,.,.` ` ",
"` ` ;.;./ ~ I.T._ ^ U Y 1.qXgXgX).jXY.W /.aXaXkX1.U ] 5.dXfXe.e.e.=.r.u.0.u.-.-. .*.&.*.L L  .O.+.+.+.X. .%...+...0.i.u.8.8.q...7...%.B B Z 7.q.7.B M 7.7.9.Z 7.V 9.Z Z 7.9.9.Z Z 9.Z 9.V <.iXmXzXiXbXbXbXpXlX~ J gXaXQ x ~ e.fXsXkXhXDXAX(.DXgXU S D 1 < = % % % + X X     o @ @ + $ $ o o $ - v b b b x z s s x p s ! P p p u ~ P 2 #   + % % @ & 5 <.:.;.4.9X<.C C C C C C 5 @.$.a 3 3 5 1 4 : 9 F S.!.!._.dX`.2X_.^.fXnXcXnXxXmXmXxXdX_.!.!.!.G F : S : : 4 : : q T.dXT 4 ' T.K.' Y./.^.} ^.T.Q.I.T.U.L.eXtXyXb ( I.P.l x.tXBXQ.8X0XyXhX,.qXT.T.Q.).gXJXDXY.@ , 4 , @ , @ 1 S J | T D.G F F !.!._.dXkXmXmXmXmXnXhX`.`._.`.`._.} _.F : : 2 3 2 2 3 4 a C C c V A V $.%.C C C z C @.<.B = & X X +   $ i j g q W J u u ! s s i i i x x v n 7X) ) ! b c f t t f f 8 7 # . X + % & = = , 5 D L e.FXFXjXgXaXhXvXlX#.T./.AXT.Y.wXbXsX<.iXbXZ 9.xXmXbX9.Z 9.9.9.9.9.Z 9.9.Z Z 9.9.9.B Z Z M B Z 7.7.Z N %.-.%.....7.8.X.X.i.u.-... .X. .O. . .L O.O.&.=.2.&.O. .&.t.-.-.8.-.=.&.e.sXvXfX2.R 1.e.sX1.[ T T.jXjXaXFXkX{ ] ;.P ] qX_ ! ) s s ` ` ! ~ ",
"/ ,.Y a P ! _ T.qX^ Y / / qXFXgXgXgXaX' ' [ [ sXaXR U 5.t.fXsXe.6.6.t.-.8.r.8.-. .O.&.6.=.*.O.@.O.O.O. .X.....X.-.y.i.8...8.8.....%.-...N ..7.q.%.Z B Z Z Z Z 7.9.9.9.9.9.9.9.V V 9.<.<.<.0.bXmX0.<.iXpX9.<.bXaX[ [ T.K.` ` ] fXxXaXqXQ.).DXDXaXL D 1 < , < ; % X         $ t y $ 2 t y t t y z P.z.) n z i y a u s s u p { T.E ! ! 0 .   + X X % & m N %.C C <.9XV >.<.$.:.#.C a @.C 5 5 2 2 4 4 : : F } _.} dXjX`.2X`.fXnXmXmXmXIXPXfX`._.!.!.F G F F R R 4 5 @ : @ 4 S 4 : ^ DX<X).)./.} ' [ ' qXgXyXI.l.tXeXtXk.( I.U.L.k.E.SXtXU.I.3.qX;.4.,.^ Y.^.,X6X(.A.> , @ @ * @ @ > K H (.`.G F G : F F !.} dXPXnXnXnXkXjX`.1X1XjXdX} } F : : : t i u t 4 y y a a a a a @.@.@.C V A z A 0.cX8., & 3 X + . @ i ( u q q q K E P ! s c u u i j h j g i ( ( j h h h z v n v 8 8 - + + % % @ * * , , 1 O.sXkXkXjXgXsXfX4.P qXAXDX).T.sXwX@.C uXbXu.6.lXmXbX9.9.iX9.9.9.V Z iXiXZ V 9.9.Z B Z Z o.Z Z ..7.Z N %.%.-... ...8.-.X.8.8.u.-. .+.+.+.O.O.D Y O.L &.O.D  . .+.-.8.-.-.r.r.&.6.t.sXxXt.Y 1.sX5.] R [ [ jXgXjXFXkX{ 3.Y P { qX[ I.yX/ s ) ~ ! ! ",
"p ;.~ s ~ 7X` _ qX/ P ] U 5.PXFXgXjXkX/.' R R aXsXR ] 5.sXxXt.5.&.-.-.-.-.8.8.X.X.D O.=.2.#.O.#.L  .+.+.+. . . .-.8.u.-.X.8.o... .X.+.....%.-.%.B B 7.Z M Z %.7.9.M V 9.9.9.9.9.9.9.9.9.9.uXmXbX0.-.bXmX<.Z vXhXT.[ DXhXgX0XK fXsXsXkXkXDXFXjXU 1 1 < = = % * @ + + $ - 8 z t i i z x ) 8X) 8XP.n b v x x i u s s I ^ u q q u q u s d $ +   + % & = 0.zXZ 5 3 y V V V A A C A :.a c y y t 4 2 t > 4 # : } _.} `.dX`.2X2XdXnXmXIXIXIXnXdX_.!.S.F F F G ' } ' 4 4 , @ @ , , , @ j JXJXJX).' ^ 5.3.qXaXqX0X0X8XNXSXL.k.U.I.L.U.k.K.HXAXK.T.T.3.sX;./ ' Y.D.~.*XH.G.E : @ , * 2 P E W W.W.2X!.G F F : : F } dXnXnXfXdXdX`.`.=X_.jXdX} } : : > 4 u l p p x x a y y f a y a s +.<.<.V 9XwXuX0...< , 2 O o o . > b g u q u E ! ! ,.~ x x j j h i t 0 $ t j g : 0 0 g j l b h y f y - + + + - * , , , , D 1.] hXkXfXvXI j /.Y.).Q.T.sX;.5 C 6.mXzX6.zXmXiX9.iXpX9.V 9.V Z q.w.M B 7.9.7.Z Z B Z Z o.%.%.%.@.%.%.-.%.X.%.-.-.8.t.8.t.t.=.+. . .=.&.&.O.O.O.D D  .O. . .-.-.-.-.-.6.-.6.e.6.5.t.&.5.5.*.e.U | /.aXjXhXgXgX0X/ I s 0XaXT.qXhXqX` ^ / ~ ~ ",
"P / ;.s ,.hX0XI.gX! P I ] 3.hXjXjXjXgX/.| ^ e.] e.1.*.t.fXsXt.r.5.6.r.-.o.-.X.+.X. .L O.L O.O.&.O.&.+. . .X.+.-.y.8.-.-.8.8..... .-.-...N ........B %.B B B 7.9.9.M Z 9.iXZ Z Z 9.9.pX9.0.iXmXcX0.0.mXlX$.5 $.sXqX_ gXAXgX0Xu aXsXvXsXsXkXfXJ 4 1 < < = * % o + + 8 t y y P.z x h 0 0 u l l 0 0 h d h z z a s I ~ P ! ! p q q q i ( t # + + & m = < 8.zXuXZ V V V <.<.v a A y y a ; v c y i i g 4 4 : : F ^.| fXjX`.5X6XDXjXnXnXnXnXdX} ^.F : : F G G 2X1XA.! u : , O & * & u Q J.*X,X~.} ' ,.,.0X0XqXI.P.U.HXBXk.l.P.I.I.I.L.k.rXHXeXQ.I.' { { [ ^.G ^.~.S.F.J.Y.l 2 - y C b Q H *XS.5X~.G F F F F : F T r.r.e.dXjX2X~.=X_._._.dXF : : u 0 u g g L.z.v z.9XA c A x a a 2.-.V 9XpX9.9.9.B m < * & @     @ i v s p u s ,./ ` x s c z c v z i t t g u q q q g W j L.Q b i z A z 8 $ X + $ O * , < , 1 R xXnXkXnX{ _ Y.W.Y.Q.hXvX5 5 $.5.t.lXu.zXcXzXw.zXiX9.9.V 9.Z pXq.M Z Z %.7...B %.B B 7.7.8.-.@. .%.-.X.+.-.%.+.-.u.t.-.6.-.6.+. .&.&.L D D O.D  . .+.X.%...X.-.+.-.-.t.t.=.5.*.=.5.5.2.5.e.[ [ [ /.gXjXFXhX/ ` P P qXhXE I.hXhXqX! ^ { / ",
"/ P ,.3.hXhXI.T.hX/ u L 1.3.gXFXgXgX/.3.{ R 5.5.1.5.5.2.&.5.6.=.r.6.-.-.-.-...X.+. . .L O.L Y L $.$.=.O.X.-.-.-.-.t.u.t.-.-.-.X...-.-... .%.%.-.%.%.B %.B 7.%.7.9.M M 9.bX9.V 9.9.9.iXiX0.zXbXcX0.u.lX6.$.5 5 4.hXqXT.Y.K.Q.K 0XnXsXxXsXD S 4 1 * = = & O X # $ t f f z z x j l j h q 0 g g 0 0 0 t v c z i i c ~ ~ ` ~ p u u p j z #   + % % = = m ..9.9.uXpX9XB.<.<.C a y t A f A A f v k j l u 4 : : : } dX_.`._.1X=X2X`.kXkXnXr.} T F F F F 9 G !.5X*XD._ ! ~ 5 3 ; * , g W.Z.&X*X!.D.W ` 7X0X{ { I.U.BXUXMXx.P.7X` ` I.( l V.HXNXE.Q.K.K.T.' G G !.,X*XJ.{.+XQ.l.2 y 4.` 9 D.J.J.5X~.S.G S.} F : : F S F F } dX`.!.!.~.`.fXdX4 # 4 u 2 0 h g b U.I.eXyX8XB.8XP.0X,.<.<.<.9XpXZXbXw...m m 5 3 O       y 8Xy s a s 3.,.;.,.,.8XB.8XB.B.v i z b j u > : q j ) j l ( j i v A 8Xt + + + O , , < 1 m  .u.mXIXPXtXQ.AX<XA.Q.hXuXN 6.6.t.*.6.u.0.zXw.iXzXbXiXV V 9.Z 9.9.M %.B %.%.B ..%... .....8.%. . .%.-... .+.-.&.&.-.=.=.5.6.t.&. . . . .O.&.&.+.O. .+.+.X.+.X.+.-.=.&.5.6.t.t.*.2.=.*.#.=.e.R /.[ T.gXhXFXhX/ { I ! qXhXj I.hXaX0X^ U K ] ",
"/ P / wXhXSX_ Q hXqXL L / ] hXFXgXgX{ [ | ] 5.e.*.5.6.1.*.6.t.=.t.=.+.&.+.X.X.X.&. .O.L O.Y O.D O.O.+. .+.-.r.-.+.6.u.-.+.-.%...%.-.-. . .%.7.8.%.B ..Z ....%.%.Z B Z 7.iX9.Z Z V 9.iXiXw.zXzXi.w.u.t.2.2.2.5 <.nXgXW.Y.Y.T.I.hXnXnXmXt.1 < < , * & O O X @ t i n n h b ) ( P.x j q 0 q g j h u z z c z c c A ~ >.,.>.~ s i u j 7Xt .     % = = < m %.0.0.<.pX9XV <.9Xc s ! >.) 7XyX8Xc z.b g d 0 > 4 : : F jXjX_.} !.~.1XDXdX| R T S : : F F } F G *X>X{.D.' F ! >.y - y ) U.J.S.S.!.!.D.D.Y.tXT.L.L.T.E.HXSXk.x.8X8X>.~ ,.,.n x.BXBXMXtXE.K.Y.H A.G J.1X2X6X4XOX<XE.t a wXI.q (.H.*X5XH.S.G G } F F T S S J J F F q F 9 F S J 4 , - , 2 2 t t v x L.Q Q Q g b U.U.qXgX4.:.Z V pXZXbX9.m m Z C 5 * & O o + f y y a A 9X~ #.,.9X7X8XqXrX9X9X8Xn z a i a t 4 z z j 0 0 d g g U.BXB.$ o O @ & , < 1 m  .X.cXnXhXSXgX+XQ.W.gXhX6.$.lXsXfXe.6.u.8.q.w.w.iXbXiX9.Z uXiXq.9.M %.%.8.-. ...%.......%.%.%.+.-.-.=.+.+.+.=.=.=.#.L #.e.6.-.&.&.O.&.O.O.O.O.+.&.+. .X.X.+.&.+.+.&.=.=.2.e.2.=.5.2.*.*.5.e.[ [ ' /.hXjXkXqX/ ` ~ ~ hXtXE tXgXI.[ { U u / ",
"^ ^ / { qXhXU.p hXqXP / *.^ hXFXhXjXT.] 5.1.5.6.*.*.*.2.5.6.t.6.6.&.&.-.-.+.+.+.+.+.O.&.*.O.#.L O.O.+.O.+.t.-.6.-.&.=.=.2.-.+.+.+.+.%.%.%.%.-.-...B %.o.B B ..8.%.Z M Z 9.9.9.7.M iXiXbXiXi.i.0.i.u.&.e.t.sX+.2.vXT.T.W.AXAXgXhXnXIXcX-.N 1 < ; ; * @ o . $ n eXz h g h h i l ( i > 0 t i j b b h c 8X8X7X8X0X9X>.;.7X,.~ i i s P.8 . X X * 3 N  .m N zXIXpXpX9X<.<.4.wX0XI.L.( U.yX8XP.8XL.k g d u 4 , : : /.dX/._.^.D.^.^.T : S F S F : F } F G S.&X>X;XH.H q s wXC 2 b SXOXOX(.~.(.^.D.G A.R.U.K.Q.tXtXSXE.h.z.8X8X>.;.:.>.7XU.v.BXMXE.E.R.A.A.D.W.W.(.<X2X,X{.,XQ.t A sX' D.(.S.=X5XH.!.!.!._.T ' } T.E L.Q.q # . # . . # : > @ 2 2 > 2 a a A A b K.r r k.K.NXQ.Y.W ^ :.<.V pXpXiX9.%.B %.Z 3 < O o % O - - - 2 A 4.>.>.,.~ c n 8XA 8XrX9X8XA a v C a A A A i z t w h.E.HXBXv t $ o X o @ 5 m m X.m -.xXhXFXQ.W.W.).gXsX<.<.wXfXxXaXt.lXi.w.8.q.w.iXiX9.uXiXbXiX7.Z ..%.-.-.+.+.......%.+.+.+.=.-.&.+.O.$.O.+.$.=.*.O.L 2.e.r.&.&.&.&.O.O.O. .O.+.&.&. .+.&.&.O.O.&.&.*.&.*.L L *.t.5.*.5.e.] ^ ^ aXgXgXgXT.P ~ P ` gXtXQ gXgX{ [ ^ [ ] U ",
"J ^ { ] ` hXT.Q gXtXP Y / P gXhXhXgXT.^ R ] 5.5.*.1.5.=.=.*.2.e.&.*.&.O.&.+.X.+.+.&.O.&.O.O.O.&.O.O.+.O.&.t.r.&.*.D L *.6.=.O.$.+.+.=.-.%.%.%.%.%...%.%... .%.8.7...%.B 9.iXiX9.9.iXiXiXw.w.0.8.u.lX5.fXfXlX6.<.sXgX).W.).Y.hXkXnXnX-.m ..m = < @ @ @ # + t eXSXU.g g q 0 0 i j x i y i z a n A 8X8X9XqX8X>.>.7X>.>.:.7XA y 2 i t + X O * ; m Z B N N 0.bXbXpXV C :.;.0XQ.Q.Y.K.r g g l L.v v h t 2 @ 2 2 @ : q : : : : : : F T ^ J U R F F } F S.S.!.>X;XS.W.H ! vX@.> L.<X{.,X6X2X`.(.W.Z.A.G.R.R.Q.Q.AXNXl.l.8X8X>.:.:.:.A P.U.R.E.eXE.E.R.R.W.W.W.R.J.W.,X~.{.,XR.i 3.sXH Y.1XZ.=X5XS.!.!.=X!.G G !.W.R.oX+XK.> @ @ # @ q ` s $ 2 u 4 y a A A B.P.U.E.R.E.E.W.W.A.G W ` :.uXpXpXpXiX<.Z <.@.3 N O X % ; 8 + + $ y >.:.:.:.>.~ x ) ~ A 9X>.8X9X8XA A A 9X9XV A eXl.g g E.HXE.l.B.a - O @ - - < m B m  .-.PXFX<X(.<XgXqXaX<.$.$.sXfXfXt.t.lXw.7.7.w.iXw.q.iX9.q.iX8.Z N O.+.+.+. . .O.O.+.+.O. .O.O.O.@.L #.@.O.#.2.6.5.Y *.&.-.&.&.&.R O.O.&.Y O.O.+.O.O. .O. .O.&.O.R Y *.5.Y D R 2.5.R e.e.R J [ gXaXqXhX{ K I ~ ` yXT.Q tXqXT.{ K [ aXY ",
"[ ' ^ / I.gXtXE gXsX~ I I P aXgXgXaXaXU R ] e.5.*.5.5.Y L Y *.2.R *.&.&.&.O.&.O.O.+.$.#.O.O.O.O.O.O.&.O.&.-.&.5.D R 2.5.#.Y @.#.@.@.$.<.=.$.@.%.@.+. .+. .+.-.-...%.B N zXzXiX9.iXq.iXiXq.9.w.0.0.lXt.kXfXt.6.<.wXhXgXAXY.Q.AXFXnX-. .N m m 3 3 $ . X $ t d 8XSXAXL.w 0 g ( x c >.>.>.A A A >.9X9X7Xc n ) A >.7X>.>.8X>.a $ @ $ t $ X O % * N Z Z @.<.9X9XuX9X9Xc ;._ H D.).(.A.A.r g P.z.z.z.z.z t 2 y - $ 0 u : # . . # : g qXT.Q ' T.' } !.!.!.S.!.>X3XS.~.Y.K sX4.u Y.<X].3X<X).Q.Y.W.W.D.A.K.E.E.U.Q.E.l.eX8XA >.:.>.>.z.L.U.R.E.E.MXoXR.oXoXR.E.R.R.R.J.*XG.R.K.` hXT.F D.~.J.6X1XS.G !.1X!.S.G S.G.OX%X+XU.h a a : $ h tXU.d $ 0 j z.8Xv B.eXx.E.E.oXW.R.G.Z.s.D./.[ qXbXpXiXpXpX9.%.%.Z N 9.; X X - ; - X @ y a >.8X9X8X,./ ,.9X9X:.A :.>.<.9X<.:.9X9XB.9X8Xz.l.k.K.U.K.U.E.z.A c 2 + @ < = m m m -.PXPXKXW.Y.T.0XfXsXL @.6.fXnXt.6.zXzX%.7.w.iX9.7.9.iXq.zX0.%. . .D  .O.O. .O.O.L L O.L O.@.O.O.@.;.$.;.#.*.6.=.Y &.&.5.r.&.&.&.&.$.#.#.O.O.L O.L O.L L *.&.Y L R *.*.R L L *.1.*.e.e.[ U | hXaXaXsX/ s P ;.3.tX` Q Q.T.{ T.K I.sXJ ",
"aX^ J ` T.gXT.g T.tX4.#.a u 3.hXaXaXgX[ T ] e.5.*.5.*.L L *.1.*.O.O.R O.O.O.O.D  .O.O.O.O.O.O.+.&.*.&.&.&.=.&.&.R 5.t.5.*.Y #.#.#.Y @.#.#.O.O.O.@.+. . . . .O. . .+...$.zXiXw.0.9.9.iXiX7.%.q.zXlXsXfXnXsX2.@.$.wXaXY.).<XDXFXPXfX .m B m < < * @ $ - t B.z.U.E.eXL.k k L.P.8X8X9X8X>.:.:.:.>.:.A >.7X8X>.x c ) 7X8X>.c t @ o @ t ; % X * m C <.<.V 9.pXbXpXuXpXwX` I.K.A.D.J.R.Q.E.eXP.B.8Xz.n x t v z 8 t l.U.G : $ 2 2 t U.+X+XR.J.S.G S.!._.!.!.H.1X6X&X!.D.q 0XwX! K.3X{..X,XW.R.XXOXR.W.E.E.E.E.E.E.L.L.8Xz.) >.,.8Xz.U.x.L.U.U.E.MXeXv.MXoXv.E.E.c.G.].G.G.d.k.qXkX' e S.H.H.5X*XS.S.!.1X~.H.Z.Z.G.XX@XXXc.k.B.V.x.6 w h.v.oXa.6 k.MXVXj.MXVXMXv.E.E.R.G.J.{.*XD.D.T.vXbXpXZXbXLXbX<.C 3 <.iXm + + + + $ . $ t y A >.8X9XwX;.:.:.>.>.:.9X:.,.,.) x >.8X8X8X8X8X8XU.tXE.k.L.U.v.rXyX8 X % * = m m m X.fXFX).Y.H /.sXnXnXsX6.6.aXdXe.r.cXzX%.7.w.zXq.7.q.iXiXw.u.lX6.=.O.D D L L Y Y L O.*.O.#.=.=.#.#.#.;.I I L Y L S L R &.&.&.5.2.=.=.#.L I I Y L Y R O.&.R D R L R Y U Y L R 1.*.e.] R R e.aXaXgXaXqXU 4 P ;.4.qX_ L.T._ _ T.E ^ { 4 ",
"aX' ^ T.` qXE.Q I.qXwX~ L p ` gXgXaXhXaXR R e.5.*.5.*.L S Y 1.R R R D *.&.D D &.L L O.O.O.O.+.&.&.&.&.&.r.r.*.*.L R ] ] Y ;.;.1.#.Y L L I O.Y I L O.#.L Y O.R  . . .-.0.w.0.w.w.Z 7.q.iX9.%.0.zXu.5.hXfXaX2.D 6.mXhXtXY.A.T.DXPXlX+.1 m m < < X + v eX7X8X8Xx.x.U.l.b L.rX8X8X9X8X:.A :.9X:.:.:.:.4.qX9X,.7X7X9X8X>.A z 2 o + - + % X X Z pXZ C Z <.pXbXZXpXpXbXqXT.W.Y.A.G.A.R.R.E.eXx.8XeXV.x.8XU.l.7 7 k E.eXg # t z v l.c.oX#X$X].Z.S.!.!.!.!.G S.1X5X~.!.!.e T hXT.K.g.].{.].R.E.E.R.R.E.E.E.E.MXQ.E.U.U.l.b 7X>.n b U.E.E.k.K.k.E.v.E.E.x.j.v.M.R.c.g.XXg.G.A.Q.gXQ.G S.S.H.~.5X!.S.!.~.(.J.Z.G H.g.XX].m.d.c.eXMXoXc.h.d.m.CXc.p.h.m.VXM.MXVXMXv.oXE.R.R.F.,X1X1XY.jXPXuXpXbXZXbXbXV 3 C 9.bX9.% X   $ +   $ t t A A 9X4.:.:.9X4.9X9X8X:.,.;.>.) ) I.0X7Xl.n tXyXeXU.k g k.NXNXLXBXt . X % ; = m m D =.kXDX)./.aXfXkXkXvXsXt.sXt.5.t.lX0.8.w.zXw.q.9.q.iXzX0.6.mXxXt.5.R L S D R Y Y Y Y $.#.;.2.#.a a L @.I #.=.*.D O.D S D &.&.&.5.*.L D L L #.Y Y Y R Y L L L L S L R 1.1.1.R R ] ] R R aXaXaXhXaX{ K P I 1.,.3.! L.T._ T.{ _ E ^ : ",
"[ ^ _ 0XI._ T.L.) 0XwX:.a p / T.aXhXhXe.e.[ ] R ] *.R R R R Y Y L L Y Y L O.Y #.Y I Y Y L D Y *.&.5.5.&.O.R R L D L L Y I L O.Y L #.1.2.#.#.#.Y L *.L Y L D *.O.*.t.sXlXw.iXzXw.9.9.iXbXw.-.8.cXy.&.e.dXaX5.5.xXmXhXgX' D.).FXkX-.m m m < ; + + # 8XSXtXU.U.k.K.eXE.eXeXtXP.8XI.7X>.A 8X:.>.9X:.:.:.:.:.,.9X9X9X9X>.x u 2 o X % X X + % V zXuX; m <.bXZXZXZXiXbXvXtXD.J.,X*XG.A.R.oXU.l.E.HXMXv.VXMXj.6 w v.oXv.w d z.eXv.k.c.m.@X{.G.G.s.S.!._.!.S.G !.5X=XS.S.H H aXgXK.d.g.G.].XXc.v.E.E.E.E.v.oXE.E.E.K.l.L.L.8X8Xn z.z.U.E.E.Q.K.l.E.oXoXv.j.c.m.c.a.d.g.d.d.R.A.A.e s.H.[.H.&XH.S.!.!.1XG S.A.Z.OXG.].n.].m.m.VXVXMXc.c.m.m.VXVXa.m.m.m.VXoX#XMX#XXXXXCXGXXXJ.!.^._.kXnX6.ZXZXpXZXuXZ 5 O.;.cXuX% +   # $ + 8 y t t a 9X9X6.<.8XwXeXyXwX,.;.;.~ x b P.L.L.L.7X8XE.tXeXh.w h.E.AXBXx.v 8 X + * = m m m , 3.jX/./.jXaXlXaXsXnXt.5.2.6.u.t.6.-.i.zXiX9.iXw.iXzX0.wXvXnXfXe.e.J S S L U U P L O.@.O.*.Y O.O.O.+. .@.+.+.+.O.O.O.D &.&.&.2.2.*.D P I L L L L P I Y Y R R ^ ] ] 5.5.] ] 5.] J J J e.aX5.aXqX^ / P / 4.qX` K ^ tXT.T.T.E u ^ q ",
"J J E T.T.I.tX( E ` 3.:.I s U _ gXaXaXaXe.U L R e.R 1.5.5.1.] U U U R L Y Y Y I L Y Y / L D L O.e.=.&.O.D L  .D O.#.#.O.O.@.L @.L $.$.$.#.#.Y Y Y ] U P S 5 Y e.e.nXnXwX9.w.iXw.9.9.iXiXlXu.t.t.t.&.e.aXaXhXxXlXxXvXjX).W.`.jX5.X.m < < ; % + + $ z.BXBXNXU.w w k.eXBXeX8Xb P.0X8XP.n ) A >.,.9X9X9XwX9X:.9X<.9X:.A t t 2 $ + + $   X = uXbX<.C N Z bXbXZXZXbXuXnXjXW.*X1X{.Z.XXXXR.E.eXMXVX#XN.#XM.a.e c.%XM.p.j.h.eXNXoXc.c.m.m.|.].G.s.Z.D.!.^.!.S.!.:X*XH.H.D.G D.' T.W.d.G.g.g.c.c.v.c.j.j.oXoXoXc.k.L.U.U.P.P.P.z.l.z.z.v.E.E.oXE.c.k.j.c.j.c.c.g.g.g.a.g.A.A.d.s.Z.{.;X*X[.F.H.S.S.~.1XG G s.R.OXR.].g.XX@XN.VXHXVXoXXXc.m.M.VXn.N.@XXX%Xm.g.oXCXOX$X%XGXoXW.1XD.^.nXsXwXpXpXZXiX9.C a 1.qXvXiX% X   . $ + $ y i 2 2 V uXwXwX9X7X7X,.,.,.:.,.~ c 7XU.( ( P.T.P.tXBXBXc.d.d.R.NXtXx.U.B.8 $ * & m m 1 1 L aXjXdXfX5.4.#.sXmXsXsX5.2.-.u.u.0.i.iXw.9.w.w.i.zX6.hXkXT.fXe.e.e.R D L D a I I 5 D D O.O.O.&.O.+.+.+.+.+.=.+.+.&.=.=.-.-.=.&.*.L L L K p K P Y 3./ / / / ] ] Y U Y ] / ^ U U ^ 5.aX{ { T.0X! I ~ I 3.4./ ` I._ U.qXI.! j ! 4 ",
"J J ! qXI.I.T._ ! ,.wX:.;.I ^ [ 3.qXT.qXaX^ J L R ] Y ] ] 3.1.] ] U R U R Y L S L J L L L 5 #.*.&.=.=.*. .O.*.O.&.$.=.O.@.O.+.O.@.+.O.L L O.L I L L L S L L *.sXsXfXkXaX6.zXw.w.iX9.9.iXzX8.-.u.r.r.*.5.qXnXmX=.sXwXaXDX).jXe.S < 1 m 3 * * + $ v x.eXAXBXK.w w E.NXeXP.eXP.P.b I.) b x >.7X7X:.9XwX3.,.4.<.uXuXA y t t t $ + - +   X = vXvX~ C N C w.bXpXZXbX<.vXFX`.~.,XJ.{.4X4XR.R.NXoXR.oX#XXXm.c.g.#XVXm.c.v.v.MXVXCXm.m.m.g.n.].OXG.A.G G _.=X!.S.H.&X[.H.~.J.e e A.G.A.g.d.a.a.c.c.c.j.c.oXE.v.c.R.E.U.E.L.l.P.z.x.U.U.x.v.K.E.E.E.v.c.k.h.c.c.c.c.d.c.A.A.s.e Z.G.H.H.{.H.S.S.S.~.~.^.!.H H R.XXg.c.g.XXN.N.#XCXCXMXXXm.n.XXCXm.n.@X@XGX%XXX+XGX4X$X$XOXW.A.,X(./.fXt.uXuXpXZXpX9XN c aXjXaXcX< + + . # + $ f y 2 - C V <.wXwXqX7X) ! ,.~ / ~ qXhXT.E K.I.tXtXtXBXtXE.E.k.k.U.k.l.8XeXb + + & 3 m = 1  .[ dXdXaXaX6.L lXnXsXsXsX0.u.y.y.cXcXw.iXiXiXi.w.zXwXFXjX| aXR R e.5.L D L a @.@.+.@.+. .&. . .+.+.$.-. .O.+.=.=.=.6.t.6.r.=.&.*.1.U J S D L L #./ / / ^ ^ U J K K ^ / ^ / ] ] 3.qX4.;.qXwX` P s P ;.qXqX` ,.7XI.I.qX_ E K E > ",
"' u E qXT.T.{ T.^ { 4.4.~ P P U [ 0X3.{ e.qXU P U Y / ^ U P ^ / ^ ] ] Y #.R U L s S J S L Y &.6.&.=.r.-.&.5.-.&.O.+.$.+.+.+.$.+.+.+. .@.L N D 5 a S L L R 5.e.e.fXe.aXnX0.zXi.0.iXiXiXiXzXi.u.u.t.6.6.wXaXnXnXO.=.t.aXjX`.jX&.1 < < m ; % $ # f eXx.L.eXU.k.k.k.eXSXBXtX0XI.( Q ( I.7X( ) 7X,.7XI.) ,.7XwXwX9X9XC - 2 z t 7 + +   X X ; vXPXtXqXC M 7.iXZXpXwX4.sXkX).J.(.J.OXGX4XXX+XGXoXg.XXCX#X#Xm.c.CXm.n.m.R.oXHXCXCXXX@X#Xg.c.XXXXOXA.e Z._.!.!.S.Z.S.H.*X;XG.F.Z.e A.A.d.g.g.d.c.c.c.m.j.j.k.k.E.NXQ.U.U.U.x.x.U.x.v.E.U.K.l.R.E.E.E.E.v.c.c.c.h.d.c.c.g.r e d.G.G.Z.e Z.S.!.G D.~.^.S.G G A.R.c.h.g.].@Xn.N.#X%XVXoX@XXX@X@XHXm.a.b.XX4X%X%XGXKX%XOXJ.G.A.Z.`.JXT.aXmXbX9X9.pXbXuX3 P gX(.Y.vXa + + . +   - f i a y V C V 9XwXyXyXwX~ ! ` ! ( yXhXI.E T.T.0XT.tXtXNXNXNXE.c.k.k.E.E.x.z.f # X 3 < < 1 D S | | aXhXaXD sX5.] 5.wXuXcXy.8.i.zXw.iXzXbXw.-.6.sXgX/.jXdXS e.t.5.O.+.$.$.$.%.%.-.+.+.+.+. .+.+.+.+.+.+.O.O.O.&.&.=.=.-.&.*.&.*.R U L U L I L 4 P ^ E J K u K ! ` ` ,.0X0X0X0X,.:.9XwX0X~ s P I 4.4.;.,.,.P.7XqXqX_ ^ u > 4 ",
"J J K I.gXI.^ I.` ` 3.4./ P K K { qX0X] 3.qX3.{ / ` 3./ ^ K p p J P U Y P Y U U L L L S Y *.=.=.=.r.6.6.-.=.=.O.O.+.+.+.+.-.+.+.O. .+.+.+.+.C  . .D O.L R t.e.S aX| /.PXsX0.u.w.iXzXiXw.zXcXzXi.i.lXwXuXsXt.lX*.#.hXdXjX/.|  . .m = 3 * o $ 8 V.eXU.k.v.k.k.E.E.E.NXAXtXT.I.I.L.! qXhXqX( _ ` _ Q _ 0XwXwXwXV C y 2 y z t @   + X X % a FX/.gXgXa m 9.zXbX9X<.lXsXdX).2X(.Z.G.OX$X$X4XGX4XXX#XGX#X@Xf.g.CXm.N.m.XXVXCXHX#Xm.N.@Xm.g.c.c.R.A.G D.!.!.!.!.Z.Z.H.H.[.F.'.G.s.e A.d.A.d.g.d.c.c.m.c.k.k.E.E.E.K.k.E.U.U.v.E.k.c.E.k.E.E.c.k.v.c.E.E.E.R.v.k.R.k.K.k.r d.R.d.A.W.A.e D.D.Y.).^.^.G G e G.R.v.R.c.XX].b.@X%XCX#XoX@XXX$X@XGXCXg.].].$X4X%XGXGX4X$X*X*XG 9 !.2X/.hXIXmXuX<.pXLX<.a _ )._.).nXwX2 X + + X - a i s >.C y N C :.uXvXwX` x ! ( T.gXqXT.T._ T.I.K.T.tXAXKXSXKXE.k.E.k.K.Q.yXyX@   o 3 N 1 m D D e.e.sX*.O.t.e.5.aX6.lXbXzX&.-.i.zXiXbXzX8.-.t.kX/.Y.jX/.T dXfXr.&. .+.<.-.%.%.%. ...%.X.+.+.+.X.$.-.&.O.D O.O.&.&.O.-.r.O.O.*.R D U L D D S J J P J K E E _ _ ` I.,.0X7X7X3.7X4.9X,.P s I Y 1.5.Y I ,.0X>.7XgXT.3.^ 4 : s ",
": u / { qXqX_ ^ 3.{ ;.4.4.;.P K U 3.3.3.` ,.{ qX0XT.I.` ` _ ! K p J P U S L L L L U J L #.*.O.O.-.=.&.-.=.O.+. . .+.+.=.+.%.+. .+.+.+.+.+.%.%.%.$.+.O.O.e.fXe.T } jX' dXvXsX0.0.zXzXiXiXzXi.u.y.zXzX6.wX4.*.6.=.D sXaX/.} R D m < m 3 &   8 eXP.P.x.R.k.k.E.NXNXNXtXtXgXT.tXqXW _ T.SXT.^ _ E E T.tXhXyX<.:.C 5 V a a a z $ . . o X = 9XhX^.<X).x < 0.bXuX<.0.bXxXe.^.2X).G A.{.].$X4XJXGX%X%X%X@X|.a.@XGX@X%Xm.XX%X#XCX#X@Xn.@Xm.c.d.k.R.K.s.H D.^.Y.~.D.S.J.Z.s.G.G.Z.G.e e d.R.k.c.g.m.c.c.v.v.E.E.K.c.U.k.U.v.c.L.U.R.x.c.U.U.E.E.U.K.U.v.c.v.E.R.E.K.E.k.k.d.k.d.r k.R.K.r H H W ^.Y.(.G e A.W.k.c.c.c.XXn.n.@X%XCXCXoXm.@X$XXXCXCX@X|.$X4XJX$X+XJXKX6X6X6X~.G G D.T.kXmXbXzXpXbXIXV c Y.(._.2XIXIXa   X + X - c z a a y y y 3 C :.1.Y ! E u g qXFXgX[ aX[ T.' Y./.<XKXKXHXHXNXE.tXE.E.NXBXrXt $ # 2 1 m m  .S e.dXsXe.6.u.lXvXmXxXlXbXu. .-.u.bXbXzXzX7.%.nXPX<X^.DX} T R e.e.=.+. .+.<.8.B  ...+.+.+.+.+.-. .+.+.O. .D O.L *.&.O.&.6.*.L *.L L R R D D S D J K U ^ W _ Q L.I.I.P.P.) >.7X7X0X7X~ s I 1.4.2.*.Y ;.;.7X0X7X` P / s > > / ",
": u ` ` { qX{ ^ 3./ / ;.;.4.;.c s s ,.0X0X` 7X7X0XI.` ` ` _ ` ^ E K J L S 4 S S S Y L L O.*.O.O.6.=.=.=.+.@.O.+. .+.-.+.+.+.%.+.&. . .+. .+.%.8.%.+.+.=.e.r.r.R ' jXY.Y.kXnX-.%.zXzXbXbXzX-.X.0.cXbXlXlXsX6.u.-. .sX/./.R S X.m < V - X . d LXtXE.K.E.v.E.CXHXHXKXSXQ.Q.W T.T.T.T.T.gXgX_ W E E 3.aXsXwX@.N y 3 C C C v f $ .     X C vXFX_.2X).) y <.bXpX<.iXcXmXfX} _.G 9 D.,X$X3XGX4X4X%XGX%X@Xn.n.%XGX@X#Xn.N.#X#X%X#X@Xb.N.m.g.R.K.W.K.d.e A.(.^.^.^.H D.r A.W.A.g.G.d.g k.k.E.R.c.c.R.R.U.E.E.v.k.U.E.E.R.k.R.k.v.U.c.k.E.k.L.U.E.E.E.E.k.E.E.E.E.E.E.k.k.k.k.h.k.K.k.Q W W _ ' H Y.H r G A.R.k.k.E.G.n.n.|.@XGXHXHX%X@X@X%X@XVXVXn.].%XGXGX%X4XJXJX4X6X6X(.G e G DXPXmXbXuXlXbXvXC ( (.(.J.gXnXIXA X X X X - A z c i i C C N < 1 5 5 u W W g T.FXaX' aXjXjXY.G Y.AXJXDXAXGXUXHXE.k.E.Q.AXyXyXI.> @ , < m X.D &.r.t.t.t.u.t.lXvXvXlXlXt.=.u.lXzXbXiX9...%.kXkX).DXDX/.T T R R +.-.-.%.-.%...%.%.-.+. .O. .+.O.O.O.O.D L #.L Y #.O.*.&.=.L *.O.R R *.R R D R U U U E _ E g ( I.P.) ) ) ) ` _ ` ` ` ,.4.4.4.#.I ;.3./ 0X0X` u P P u > P a ",
"> : K P K ` 3./ { 3.,.I ;.4.4.4./ ~ / ,.,.7X0X) ( ) I.I.L.( ( Q _ U U P J L K L R ] R R R O.O.=.t.=.#.*.O.L  .L  . .+.+.+.+.X.+.+.+.%.+...%.%.%.%.%.+.2.&.e.| F F `.`.).FXPX6.%.0.zXbXbXzX0.+.-.zXzXvXxXxXxXu.t.6.lXe.dXS D X.m m ; * t 8 l.SXNXtXE.E.E.NXHXSXHXKXDX).Y.' Y./.T.T.T.FXFX[ q u ^ p L :.@.a 5 3 C y a z c f $ . + X O V IXPX2X~.(.T.c C mXLXuXvXbXIXkX^.D.F : (.JX6X6XJXJX%X+XJX4X@X|.@XGX%X@X%X#Xn.#XCXGXGX$Xn.b.XXc.R.r d.Q.K.r H Y.Y./.' W W H H K.K.d.d.k.x.d x.U.c.R.R.E.U.l.R.L.K.v.E.E.c.v.E.v.k.c.v.v.k.k.v.v.c.v.v.v.E.E.E.E.U.x.l.U.k.k.k.k.d.k.g g K.K.T.Y.' G q 9 r A.R.G.G.R.#XXXb.b.|.%XGXHXHXCX@X$X4X%XHXVXn.n.%XGXGX%XCXGXGX4X6X2X_.9 G _.FXPXIXbXpXpXbXlX7XK.+X,X2XDXnXmX:.O   X X ; c A >.~ z a V Z 1 1 D 4 4 ^ K.W W jX/.W aXDXgX^.Y.Y.(.2XAXAXHXUXHXE.r g Q.tXBXUXtX# o & m m m S D r.-.u.X.u.lXlXzXlX6.t.u.u.lXcXbXmXiXZ %.6.nXAXW.2XFXjX[ e.| S  .-.u.0.6.-. .%.-.6.%.+.+.+.O.+.O.O.O.#.O.O.#.Y #.#.Y O.&.*.R Y R *.*.R  .L L L P K J E _ ( ( L.P.P.I.) ) ( _ { T.T.0X,.,.>.@.I I ~ 3.3.` K p ` ~ 4 2 ,.a ",
"P : u ] p 4 / 3.1./ ,.;.~ ;.:.4.,.;.:.,.,.) ) ) ) ( P.I.( ( E E K P U U L L L L R *.R *.O.*.O.*.2.#.#.#.O.#.L O.O.O.@.O.+.O.+.O. .+.%.-.-.B 7.8.-.0.6.$.Y R T } /.FX2X(.DXFX6. .%.iXbXbXbXuX6.6.lX0.u.xXlXt.u.u.0.xXe.e.S S m m < % + f BXtXBXtXE.g K.NXKXHXHXAXAXDX(.D.G _.).FXT.[ FXgXW q _ / 1 5 5 , 3 N N C a a c A y -   X X + <.IXnX`.D.,XQ.Q :.vXIXpXuXbXnXPXDX' : F =X2X6XJXGXJXGX+XGX4X$Xn.].CX%X#XGX@XXX%XGXKXGX%X|.n.n.g.XXR.d.K.R.H e F G ' W ' ' Q W E W d.k.k.k.h.z.v.E.E.R.E.U.L.U.E.E.E.R.v.c.k.k.x.v.x.c.E.U.k.x.v.c.c.x.v.v.v.E.E.E.x.x.l.x.x.x.k.d r w r H ' W G H H e H R.A.G.d.G.R.XX$X|.'.$X%XGXGXHXCX|.$XJXGXHXVXm.n.%XGXGX%XGXHXGX<X6X1X^.G G _.DXFXnXmXbXpXvX4.gXQ.s.{.GXFXIXIXuX* o X X ; a :.C C s C $.%.m , 1 S 4 q _ AX/.gX' T dXFXDX^.G D.^.2XDX<XAXKXHXk.r NXAXAXHXUXtXj 2 * < < m S 1 y.r.8.y.u.-.zXzX6.0.lXlXcXmXmXIXbX9.C N uXPXDXW.6XKX).F dXe.&.&.-.+.u.-.6.+. .=.6.-.+.O.$.#.O.Y #.#.#.#.Y Y Y *.;.L O.Y Y L L S L L Y O.O.R D J 5 J ^ _ ( ( l ( I.) ) 7X,.{ T.,.,.7Xc c c >.,.,.3.3./ L P P s p , u u @ ",
"x 4 u P Y K P 3.qX,./ ~ ~ @.:.:.4.qXqX7X>.) ) 7X) P.I.( ( ( L._ E J p J U R R L R R Y L L Y #.$.Y Y Y Y Y #.#.#.$.O.O.@.+.O.O.+.$.-.6.-.%.+.%.0.0.0.-.$.R *.e.' /.FXJXW.Q.FXsX-.Z <.lXbXbXbXlXlXsXt.t.xXxXu.t.8.8.y.t.&.1 D m m = - - t LXKXAXtXQ.g d.oXKXKXAXJXJX2X^.H ' _.jXFXaXW gX/.' [ T.4 , N 1 < 1 @.C a a A A >.a @   X X % 9XIXPXDX<X<XG.U.tXyXLXpXiXbXIXFXDX(.F F _.1X6X6XGXHXCX%XJXGX%Xf.g.%XGXGXGXOX@X4XGXHXGX4X@Xn.b.@XOXR.g.A.G.K.A.e 9 q W ' Y.' W g g r g h.k v x.x.U.k.E.E.E.U.c.v.c.v.v.E.v.x.c.v.k.v.k.x.v.E.v.c.v.E.R.v.k.x.x.E.v.x.E.x.l.j.k.h.h.g r r 9 e 9 G A.K.r d.R.A.G.f.XXXX|..X}.|.3X4XHXCXCX4X].$X4XGXUXHXm.m.%XGXGX%XGXKXKXJX5X~.^.G S.2XDXFXvXvXpXbXbX0XT.).F.g.GXKXIXIXvXC X X * 3 c @.:.@.C $. .m < 1 1 D 4 J E ).FX/.W ' aXDX2XD.S.(.1X(.2X4XAXKXAXk.l FXKXFXSXHXUXLXy & < <  .1 X.8.y.y.cXy.-.y.u.6.lXmXcXmXmXIXbXbXM ; 0.mXkX<X,X,XDX' J kXdXe.-.8.6.8.-.-.6.+. .O.&.O.*.#.*.#.Y Y Y #.#.;./ / ;.;.Y Y Y *.L S J D Y *.&.=.L D L L K ^ _ E ( ( I.7XI.7X0X` / ,.,.;.>.a c >.qX0X,.` ^ U K S u 2 @ y a @   ",
"t u > : P U u Y / ~ { 3.7X,.A a a >.7X4.7X8X8X0X) 7XI.( Q Q ( _ ^ K u S L *.&.R R #.L S D L O.*.I Y 1.;.Y Y I #.#.#.#.#.#.O.#.+.+.-.6.+. . .8.-.0.8.-.=.&.e.fXT W DXJX,X<XFXnX%.m N pXIXIXbXmXcXlXlX6.t.y.r.8.y.i.y.y.X.1  .m < = * s yXLXHXgXFXFXK.r R.HXGX<XGXDX(.~.G D._.FXjX/.J ^.gXgXT.^ 4 1  .5 < N Z @.C a >.>.A a 2 O X X ; zXIXnXFX2XA.A.+XgXtXbXpXiXIXPXFXJX2XF G _.1X1X6XJXHXGXCXGXGX4Xn.c.CXHXHXJX%X].%XGXGXGX4X@X].|.|.|.@X].g.d.G.R.H e G H G G H H q r r d.k l.l.l.x.E.v.v.eXV.v.c.v.c.E.v.v.v.c.v.v.k.R.h.x.x.E.E.v.c.v.v.v.v.v.x.x.x.x.x.x.B.x.x.k.k.k.r r q e 9 e A.K.A.c.c.c.g.g.].|.}.}.}.|.$X4XGX%XGX$X].{.OXJXUXCXXXXX$X%X%X%XGXJXJX6X5X1X~.G D.2X^.^.hXuXuXbXnX` Y.6XOXG.<XHXIXIXIXpX& X @ a 2.@.N N < m 1 < 1 , 1 5 U W q ' FX' F aXkXDX_.D.G ~.~.~.2X2XJXKXAXR.k.AXFXAXHXUXUXvX3 O = 1 X.X.o.o.y.y.y.y.r.y.u.0.iXmXbXbXbXbXIXbXV V zXnXFX2XJ.(.DX' } kX| &.X.8.w.6.-.lXu.6.&.O.O.O.#.#.*.Y Y Y I I Y ;.;.^ / / I P Y L L U L D O.=.5.=.D D L R ^ ^ K p ! p ` yXqX/ ! 3.:.;.a c >.,.) ( K._ _ _ K T S 4 4 t 4 a 2     ",
"@ a 4 , 4 5 u P U { I.T.` 3.,.s c ~ >.>.,.4.7X>.8X0X0X` j E E ( ^ ^ L L D D *.=.*.*.L 4 S P Y Y Y / 3.Y ~ ;.Y 1.Y L Y Y Y #.#.#.#.$.@.@.+.6.0.%.8.-.0.6.e.e.nX| F gX6XW.1XFXnXlXB < uXIXmXIXIXmXmXxXt.t.lX6.t.y.y.y.y.X.S D < < * o 9XUXUXSXgXKXKXQ.r R.JXJXAX2X<X(.1X~.G ^.DXjXT.' ' jXjX' u p D 5 1 < 1 5 N @.C 2.;.~ A y % X - <.bXIXPXFX).s.OX<XQ.8XIXbXuXvXkXFXDX2XG G !.(.5X6XKXUXHXGX%X%X$Xg.XXGXUXGXGX$X].%X4X%XCX4X%X$X|.|.|.|.@XG.f.G.G.A.A.Y.A.G 9 e r r r r w k k.l.x.x.U.v.v.v.v.j.c.v.v.v.E.j.x.E.K.E.k.k.d.k.k.c.oXv.v.v.v.v.v.v.v.v.x.x.h.x.x.x.z.x.k.k k.h.r g K.A.r d.d.R.c.c.].f.].}.'.}.}..X4XGX%X%XGXXX'.;X$XGXHX#Xn.@X4XCX%XGXJX4X4X3X*X1X^.A.^.~.G Y.aXlXuXbXsXu W 2X3Xg.OXKXLXvXpXpX; O . 4 ;.4 , < < 1 1 5 D 5 D L ^ T.' W jXH H kXkXDX^.D.G D.G ^.6X6X6XJXGXW.Q.AXhXgXKXHXtXqXc * & < X.X.o.o.y.o.y.y.r.lXcXuXzXmXbXmXiX9XbXZX<.uXsXxXjX2X(.J.JX^.| dXR O...y.i.8.0.y.lXsXu.6.O.L O.Y Y R ] 1.Y Y L P P ~ Y I L L Y L L U L L R O.&.&.D L O.] ] U K E ( ` { 7X7X~ ! ,.:.A A c ~ ( ( _ W K.' H q : 4 4 4 @.c 2 .   o ",
"X 2 a u > : 4 L J ^ ' _ Q _ ) ) >.) ~ s c >.,.~ ,.0XqX7X( E E K ^ ^ ] L L D O.6.O.*.L D L U L Y L P / U Y / Y Y P Y #.Y Y #.#.#.@.O.=.5.6.u.u.u.-.i.u.O.R &.t.dXW jX,XJ.2XDXkXcX8.N uXLXbXbXbXbXbXcX6.lXxXu.t.cXy.y.o.o.X. .< < * @ 8XSXUXUXgXgXFXQ.A.+XJXKXDXJX,X(.~.D.S.} `.kXjX/.q /.`.q J 3.@.5 4 , 1 1 , 5 5 5 a P ;.a @ X ; pXLXLXPXhXQ.G.,X<XW [ mXbX6.sXhXY.Y.(.D.G 1X~.5X4XJXGXGX%X%X4X%Xm.XXCXUXGX%X{.].$X4X%X%XGX4X|.b.}.|.|.|.g.g.R.d.A.d.A.A.e e e e w h.k.k.k x.x.U.x.x.x.j.v.v.v.v.v.v.v.x.x.v.MXc.k.k.h.k.c.d.d.v.c.v.oXM.V.j.v.x.B.j.x.j.j.B.x.z.V.x.x.h.j.j.h.l.k.k.k.R.c.c.g.XXG.b.b.b.}.}.$X4XJX4X4X4X}.].3X$XJXHXCX].@XGXGX%X%XGXJX4X>X*X5X~.<X<XZ.(.DXkXnXlXmXwXL /.2X4XJ.OXKXIXLXbXZXC X . > qXqX6.%.N  .D L I ;.qX^ J T././.jX' W /.jXkX^.D.D.G G ~.6X,XH.,X6X<XQ.).gXSXUXAXtXtX8X* * * < X.o.y.y.y.r.y.t.t.zXuXzXIXbXbXpXpXbXbXbXuX+.fXjXDX(.,XDX_.| T T r.X.i.i.w.u.r.y.xXxXsX*.O.O.1.] R ] [ 1.] L a p U / L a I Y L Y L L L R D R  .D *.*.R ] U J ^ 0XqX,.` ,.~ s s ~ >.,.) ! ! W _ ' H G F : 4 U I ,.C a @   X O ",
"  o 2 I L s 5 p q : H ' ' W ! _ ) ) c ~ :.,.~ I ~ ,.,.,.` E Q K ^ R 1.*.L O.O.=.O.#.L L I Y U Y P P ~ I I U s P Y 1.1.Y ;.*.R #.L L -.u.lXlXu.u.-.cXzX .O.&.| dX[ DX,XH.6XDXfX0.0.0.pXbXpXpXbXmXmXmXuXlXxXt.r.y.o.y.y.o.X. .< , * @ 8XyXHXHXFX).AXQ.R.<XJX4X1X6X<XD.S.G S.G /.FXFXaXF /.`.W T._ x ~ U L S 5 5 < , , 4 #.;.2   X V bXbXvXPXFXW.A.JX<XH J lXbXwXlXaX/.A.S.(.D.~.5X=X3X6XGXGXCX%XGX4X@Xm.oXHXGX+XOX].|.4X%X%XGX4X@X}.}.}.b.b.n.XXc.c.c.R.d.d.k.K.d.k.r d x.x.x.V.x.x.l.k k x.v.M.v.v.v.v.v.v.v.v.E.d.k.A.d.K.d.c.k.k.c.v.E.v.v.V.V.x.j.j.j.f j.f h.f x.V.j.x.x.j.h.k.c.c.k.k.k.h.g.g.g.f.b.b.b.b.|.4XGX%X$X.X}..X3X3XGXKX#Xg.@XGXGX#X%XGXGX3X3X;X6X4XW.W.D.(.FXnXxX6.sX6.2.FXgX<XW.A.AXPXmXbXbX9X% . @ sXnXmXxX2.D L U ! ( I._ g _ T.).jX' J ' dXjXDX`.Y.D.G ~.,XJ.H.4XJX4XAXAXgXUXHXFXtXyXyX* * , < o.X.o.y.y.y.r.-.lXzXiXzXbXiXbXiXbXZXbXbX%.5 fXjXDX(.2XFXjXdXT &.r.r.y.y.u.r.&.y.xXcXcXt.2.*.L L R U R ] U L P P ! U P S L L L R L L R O.D  .&.Y Y R R U U ^ ^ 3.0X,./ ;.I c ,.7X7X,.) x E _ W W H r H H K U L a > , o   X X ",
"X X @ 5 I I Y U u q q H H W Q I.! ) ) ,.,.~ s a I / ` 3.0XT._ E ^ U Y *.O.O. .O.L O.L L U Y U P P P / / P L 5 L Y 1.1.*.Y R 1.#.O.$.t.xXxXu.r.-.8.y.cX-.&.r.R e.| DX2XJ.1XDXkX-.%.iXbXLXpXpXbXmXIXbXuXzXlXt.-.r.y.y.o.o.X.m < & & 2 yXtXNXAXKXSX).gX<XGX6XOXD.1X2XD.G D.^.^.`.FXkXT.G ^.jX^.aX_ E I.T.^ U D  .N  .-.e.sX;.:   @ 9XbXbXLXPXFXR.J.<X2X/.T t.cXsXvXFXFX).A.<X(.J.5X;X;X4XGXGX4X%X%XGX@Xm.MXUXGX$X4X.X}.4X4X%XGX4X$X}.}.b.b.n.g.R.c.h.k.c.j.c.c.c.k.c.j.l.j.z.V.j.j.k.l.f v f x.v.v.v.v.V.V.eXv.x.k.g d.g.A.R.d.d.R.k.c.j.v.v.v.B.V.V.V.B.f h.d d d d d d h.h.h.h.h.j.j.k.h.h.a.d.a.e a.f.b.}.b.|.@X4X4X$X|.}.}..X.X4XHXHXc.g.#XHXCXCX%XGXGX3X;X;X3XJXG.A.R.Y./.kXsXxXfX6.sXnX/.<X<Xd.gXsXuXvXpXpXV . . I.yXhXsXaXJ J K _ g g T.Y.W ' /._.F T /.dXjXFX`.G G (.(.~.J.{.>X6X{.<XAXQ.hXPXUXSXSXLX@ & < X.X.o.y.y.y.y.y.t.mXmXbXiXpXpXbXbXIXbXZ Z N +.lXdXDXDXJXFXdXdXe.} r.X.-.8.r.&.D t.xXmXcXxXxX6.L U U U J J U ] ] Y P J L L L L L L T D R L O.O.D D L U J J ] { ^ ^ 0X,.s a >.4.wXb ( ` ! u p _ [ T.' W _ ! u > @ @ @ O O O % % ",
"X X @ $ , 4 s K E J G G H Y.T.E p x ) ,.,.:.,.1.I P I ,.3.{ _ ^ U U R R Y D O.O.O.O.O.L Y U U U I L I Y U P P U U Y ] U Y Y R *.-.6.xXmXxXy.r.&.r.y.r.-.r.&.R e.dXDX6X,X2XDXfX .m iXiXbXZXbXbXpXzXbXiXbXbXt.r.y.y.y.y.o.X.X.1 * o :.LXeXKXHXFXFXgXAX4X4X6X,XJ.J.,XD.Z.~.D.`.kXjXT.' ' ^.jX/.[ Q W Q W W ^ L L  .-.nXIXkX{ @ . ; 9XbXbXIXSXQ.A.<XW.gXkXr.t.lX6.kXkX^.2XJ.J.OX3X6X;X3X6X4XGX%X#XGXGX@Xc.oXHXGXOX3X3X'.$X$X$XGXGX|.'.}.b.b.f.g.g.c.k.k.j.k.j.k.j.h.h.j.x.B.x.B.j.f d d d d f j.x.C.V.E.V.v.x.x.k.k.c.A.A.J.{.s.s.g.d.c.R.v.v.x.j.B.j.j.x.V.V.x.V.V.h.d d h.j.h.h.j.x.j.h.a.a.w w 9 p.s.f.b.|.n.].$X%XOX.X}.}..X.X{.%XHX%Xg.g.GXHXCX#X#XKXKX4X3X.X3X4XGXOXJ.W./.kXnXsX6.$.u.fX[ DXDXH FXIXcXIXmXbXwX> . x qXqXqXaXT G : r r k.Q.).J H jX/.G ' jXjXdXFXjXH T `.(.S.H.H.3X6XJ.,XAXQ.PXUXFXtXKX8X  O , m m o.o.y.y.y.-.cXmXbXpXbXbXpXbXpXbXLXC 3 0.xXxXfXFXFXJXjXjXkXr.R S X.-.8.r.r.R r.y.cXxXcXnXu.5.*.R T T J R ] 5./ J 4 L L L R L L L L D D D D 4 S S J U R qXaX3.~ ~ ;.4.wXwX9X7XL.Q j P ~ qXqX0X0XI.E j 2 @ . o o O X O X O * ",
"% X % O O @ @ : 4 K [ ' _ _ I.I.K q ! I.E ~ 9X0X:.I ~ ;.{ / { qX{ U T S J S L L #.L L S L L U L L P U u L / 1.U U L J J U U D &.y.cXmXcXxXr.&.X.r.r.&.-.X.r.r.r.dX/.KXJXDXjXfXt. .N N bXLXbXbXpXiXZXiXbXmXcX-.y.cXy.y.o.o...m & o c UXSXKXUXUXaXQ.KXOX{.5X;X{.J.J.(.(.G Y.jXFXjXaX/.F G jX/.J Y.Y.K.H r W q J T aXgXaXgXp   o <.iXzXvXwXFXSXK.GX).aXnXu.2.lXvXxXkX/.A.Z.A.R.6X<X{.3X$XKX%X+X%XGXGX#Xh.c.CXKX%X.X;X Xb.}.4X%X%X$Xb.b.}.n.f.a.a.a.a.h.h.h.j.k.d.w p.h.j.j.j.f 8 f f h.f v x.B.B.v.v.x.j.v.v.x.j.R.g.s.G.{.J.{.J.Z.d.g.c.c.v.v.V.x.x.h.d f f j.f j.j.j.B.x.j.h.d h.h.h.a.w p.9 9 a.s.s.g.G.g.XX$X%X$X.X}.'..X.X}.].$XGX$Xg.g.CXHXVXoXCXUX%XXXGX$X4X%XJX4X4X<XY.gXnXsX2.$.mXsX/.DXDXW.gXmXcXmXbXIXIX:.. . W qXT.^ ' J q r K.W Q.Y.H Y.`.^.[ [ dXkXsXdX/./.' Y.2X~.Z.F..X6XOXJ.Y.T.FXUXtXtXUXi   * & = m M o.q.o.y.y.cXcXzXbXIXbXZXiXiXpXiXV %.zXu.nXkXjXjXjXjXFXfXR R R X.r.-.r.r.R e.r.cXxXxXcXnXt.e.aX| W ' | 5.R P ^ U R D *.O.D L L S 4 S D L S S J U U ^ { / I a L 2.wXsX0X,.P.( Q P.0XqXsXlXqX,.u 2 #   o X X O O O O * * % ",
"% % X X X X o . @ > 4 K / 0XwXqXT.{ K p j ~ ,.qXwXwX4.,.~ ~ ,.qX{ ] U S S S D I L L D S S L Y Y *.L P p J U 1.5.R T J T [ R &.u.cXcXcXcXr.r.} r.&.r.r.X.D &.| kXkXjXDXDXDXjXkXxX8...m pXZXpXZXiXpXbXbXbXmXmXy.r.y.y.o.o.o.X.< & + + SXHXtXKXUXFXgX<XJ.{.6X{.Z.S.(.<XD.' ^.jXjXaXjX/.W ' `.).W A.Q.W.W r q 9 W /././.Q.T.> . a iXbXmXmXIXUXGXW.KXgX{ lXsX@.lXsXnXsX/.{.{.$X4X<XGXOX3X$XJXKXCX+X%XKXCXg.c.CXGX%X|..X.X}.}.$X$X%X%X@X|.b.].f.a.a.p.a.p.w p.h.k.c.k.h.h.h.j.8 j.j.B.V.B.x.x.x.x.j.x.x.x.x.v.v.g.d.g.f.G.H.*X*X>X3XF.G.G.R.R.oXeXv.v.x.k d d h.d d 8 8 8 d x.B.j.h.w h.p.h.a.a.w a.a.a.a.g.g.XXXX%X$X3X}.}.}.3X$X].|.$X@Xn.G.XXCXCXCXVXHXHXXX%X%X4X,XNXGXGX4X<X).kXkXuXlXwXnXkXT.2XJX<XAXnXcXmXmXbXbXsX2 . # T.tXK ^ W E q H Y.^.G D._.^.' } /.sXfXkXW Y.jX).' (.J.F.H.3X6X,XW.K.Q.FXKXSXSXLXi . * < < m M o.i.q.y.y.mXzX0.bXbXZXZXiXpXpXiXZ %.-.t.xXsXjXjX`.jXjXdX| R r.r.X.X.X.} &.r.y.xXcXxXcXcXr.e.e.[ G ' [ R L L 5.e.R R R S D D J L J P Y R U T U U R / / ~ I #.#.2.2.qXwX,.( L.U.0X,.,.2.:.a 2 o . o @ O X O % O O % N y 2 ",
"= * O X X X X X o o @ $ a ,.wXhXhXqXI.~ ` ) ~ ,.qXwXwX,.c I / ~ 3.] T L S S L I L D 4 S S D Y Y *.L R ^ ] L R 5.5.U T [ aXe.r.xXcXcXxXcXy.r.R &.r.r.r.-.&.&.R e.kXjXjXDXDXjXxXxXi.7.C uXbXpXpXbXbXIXbXiXu.cXxXu.r.y.o.o.m m , * &   yXUXQ.SXUXhXU.Y.J.$X6X[.Z.Z.2X(.G (./.| dXjXkX/.[ Y./.).' G Y.^.K.H g J K ' _ T.T.q . @ <.bXbXbXmXIXPXAX<XJXDX/.sXlX#.sXt.nXdXT.,X3XGXGX+X<X6X4X@XoXHXCXXXCXCXGXg.g.@X%X3X|.}.$X;X}.}..X%X%X%X@Xn.g.g.f.s.p.p.9 w w a.h.w d 8 d f V.j.f j.j.f h.f h.d d f x.v.V.E.R.c.g.d.F.F.3XH.&X*X5X5X[.F.s.G.G.d.v.v.U.V.j.j.h.h.h.h.w 8 8 8 h.j.x.v.x.j.k.h.d w w d k.g.d.c.oXoXXX@X|.|.}.}..X$X$X|.@X%X@X|.].%XGXCXGXGXUXCXoXHXGXJX%XGXKXGXGX<XT.hXnXbXvX2.kXkX).DXJX<XjXkXxXmXIXIXpXIX:.. . x ` ^ K 4 u q g W./.G A.2X^.H /.aX/./.kX' G ' 2X2XJ.e {.6X6X{.OX<XQ.FXSXSXSXSXLXt   % % = m M o.q.i.r.y.cXzXw.mXLXZXiXpX9.bXZX9.0.X.-.nXnXkXjXjXDXjX} | T S S S S S X.&.r.t.fXxXfXxXnXt.e.aX[ ' [ [ R L U e.{ R R Y D L L T D L P Y ^ U R Y Y Y I I ~ #.1.6.2.;.4.3.I.( l qXqX) a 2 @ . . . @ o X X X O X @ a :.yXwX4.",
"D 3 & O + % % X + + .   o @ i ~ ,.,.,.7X,.! ~ ` qXqX4.2.;.I ;.;.~ U R U R Y I / @.s S D L L L D D R 1.e.5.U L J R U ' ' aX5.e.xXnXfXxXcXr.r.r.&.X.X.X.r.r.r.} } dXjXjX).DXjXfXu.-.9.Z uXZXpXiXbXZXbXbXiXi.cXmXy.-.y.q.o.= m < * O o eXUXSXSXUXgXI.W.OX,X3X,XJ.D.D.W.Y.`.T.F dXkXdX/./.^.' (.D.G D.Y.K.q q p K ! ^ qXQ . . c bXbXmXmXmXmXPXgXAXJX(.).fXnX2.xXsXxXjX/.4X4X%XKXAXQ.4X4X%XXXKXHXCXCXCXGXXXf.].@X$X].'.$X;X Xb.}.$X$X$X@XXXXXg.a.a.s.a.9 a.w w h.h.w f j.V.f j.8 8 8 8 d j.d d j.z.v.8XE.v.R.R.].F.F.*X5XH.[.*X>X5X;XH.Z.Z.s.s.K.c.c.v.V.x.j.h.j.k.h.j.h.k h.j.j.c.j.v.c.h.k.j.j.k.x.v.v.v.M.M.m.n.f.b.}..X|..X$X%XCX%X$X|.].3XGXGXGX%XJXCX%XHXKXHX+XKXKXKXJXAXK.kXIXbX6.1.FXDX`.JXGXOX`.nXnXIXbXIXpXwXC   # h x ` { p ! ^ ' W W.D.G /._.Y.).jX).Y./.' e Y.2X6X,XG *X6X,XW.AXJXgXFXSXT.qXUXLX+ X * = = = M M o.y.X.y.cXlXu.bXbXZXpXV V bXbXiXu.-.r.nXPXkXkXDXFX} F S S S S S X.&.r.r.kXr.e.r.r.t.xXr.e.e.' ' /.| 5.=.5.e.] T L 1.5.*.R L L R L I U U Y L I I s I @.,.6.wX6.1.3.3.) ! 0XwXqX! 4 > o     o o X o % O @ - ,.vXmXvXwXwX",
"6.t.$.5 * % % % % % + + .   . @ a a >.wX,.x ! 3.4.1.3.5.4.4.:.;.s P P L R / Y ;./ U L L L D L Y L R R *.e.R U U [ [ [ T /.e.t.nXxXr.fXxXr.t.r.&.D D 1 S S S } } dXkXjX`.FXFXnXt. .7.9.zXbXpXZ pXiXbXmXbXw.cXcXy.o.i.o.M m m = % O   B.UXSXSXgXFXgX<X<X,X3X6X6XZ.Z.1X2X).' q | dX| /./.^.' 1X`.G A.Y.Y.u u 4 s ;./ >.> . o wXbXbXIXIXmXmXPXgX<XDX_.(.kXkX1.xXxXnXjXY.<X6XGXUXHX+X4XGXJXoXHXHXHXHXGXGX$X].|.@X%X$X@X$X.X X}.}.}.}.XXXXoXoXc.h.c.k.h.d.w a.a.k.x.x.V.x.j.f d w w p.j.j.j.j.h.x.V.v.x.c.k.A.Z.F.H.H.;X5X>X;X[.:X>X5X~.~.~.D.A.A.A.k.j.v.E.v.j.h.j.x.h.h.j.j.h.h.h.d k.h.k l.x.v.x.v.x.E.c.c.g.f.a.b.b.}.|.}.|.$X%X%X$X].|. X4XJX%XGX4XGXGXJXKXKXHX+XHXGXGXJX<X).nXmXmX6.T.jX`.,XJXJX,XDXnXnXIXIXIXpXV 9X@ + A c / qX~ I ( W H ).W.G H ).).).AX`.D.G e A.1XJX,X~.,X{.J.Z.W.AXDXtXtXgXU.gXUXc   O ; = = = M M i.y.y.y.cXi.8.zXIXbXuXV 9.bXzXiX0.6.t.sXkXnXFXFX/.F F F S S S &.r.t.fXxXnXe.r.e.| r.r.e.| | F ' aXaXaXe.e.sXR S J U 5.aXR L L I Y I I P I D a I a I :.4.sX4.2.4.qX,.~ ) hXwXP 2 @ o X X o     + o X X 3 wXhXIXPXkXqXqX",
"sXnXIXvXC ; O % X X X + o     o - y C 7XyX,.s ! ] 1.1.wXsXwX$.a a L L P U U U I I Y R U J L 1.t.#.S S R e.5.R e.dXe./.' aX[ e.xXfXr.t.r.r.xXt.e.X.X.D S S S S F J jXFXDXFXPXnXt.-.8.w.bXbXiXV 9.pXbXbXiXw.zXcXr.y.q.o.M = = = = *   t UXAXtXT.kXAXgXJX,XJ.<X2XA.S.6X6X).H q ' /.T.jX)./.Y.^.J.G Y.Y.W ' ^ K c ,.c z 4 o o $.uXzXbXIXmXmXPXgX(.6X6X2XDXjX^ t.nXnXhXY.4XJXGXKXUX+XKXJXKX%XCXGXCXHXGX6XOX].$X.X%X%X%X@X}..X-X}.b.f.f.G.XXXXv.E.v.v.k.k.k.k.k.x.c.x.j.f j.j.j.c.j.j.j.j.j.j.j.v.v.l.R.K.A.d.Z.s.H.&X5X>X;X-X[.-X>X5X=X1X,X~.Z.s.d.A.K.h.k.E.E.x.x.v.x.x.j.j.j.j.j.k.k d d d k h.h.k h.h.w a.a.a.f.b.}.b.b.|.$X4X%X|.'.'.{.{.4XKXGXCXCXGXGXJXGXGXNXeXHXNX+X3XW.).kXmXIXvX[ ).2X,X4XJX<XDXkXnXIXbXbXpXV IXy X A ,.;.0XI s u q W _.Y.G Y.JX`.H W.).D.e G {.,X6XJ.J.6X,XA.e Y.Y.gXKXAXgXtXFXyX#   % % = M = M M i.o.y.y.cXw.8.lXbXIXuXZ Z iXbXzX..-.u.1.kXkXkXjX`./.} } r.r.r.&.r.y.fXt.e.e.kXdXR | r.r.r.e.T ' /.T.e.e.fXkX[ q J U U 3.5.R L S 5 s s P I I a @.@.:.;.2.2.#.#.1.1.;.0XyX4.a , . o .   X   X X X   X - A wXhXSXPXhX[ { ",
"aXkXPXIXsX<.- X X O X X X     . X @ 2 c wXyX:.I 0X3.1.2.6.6.4.:.@.c P L P P I a s I I L R *.2.5.R S S U fXaXe.aXaX| [ T | } 5.fXr.R r.r.dXxXfXy.r.y.r.S &.S F F F | kXDXDXkXsXt.-.8.zXzXiXiXZ Z bXIXbXw.0.cXcXi.y.o.o.M = = = = * O . BXHXT.tXgXgXAXDX<XG.Z.W.OXOX*X2X6XW.A.q H Q.2X).).2XW.Z.G <X^.W J U I ;.wXc I a O * <.<.pXbXIXmXnXkX`.).6X6X,X<XgX^ sXmXmXkXQ.,XJXGXHXHXNXGXKXHXJXGXHXVXCXGXJX3X.X.X|.$X%XCX%X|.|. X}.'.f.s.s.s.d.c.E.v.v.x.v.x.j.k.j.j.h.j.j.h.f j.h.j.j.v.j.j.x.E.x.x.K.d.A.H A.Y.D.~.5X>X-X-X'. X&X&X&X=X=X~.~.J.e s.d.s.w d.c.x.v.x.x.j.j.x.c.c.j.k.h.k k q 0 0 w p.w w w w a.a.g.n.n.n.N.n.@X%X$X].].F.[.;X,XJXGXCXNXGXJX6XJXGXAXBXHXHXNX<X,X(.).kXnXmXPX/.<XJX3X{.OX6XDXjXPXIXbXZXiXZ pXy + y ~ 0X;.;.,.p K ' /.Y.G Y.DX).q Y.W.Y.A.J.JX{.Z.F.3X6X{.e A.T.W Q.FXFXQ.tXUXv   + * = M M = m o.q.o.y.y.i.8.8.iXIXIXuXV 9.iXbXcX .%.t.t.kXkXaXaXdX_.} r.fXfXr.S &.r.t.5.R e.kXfXe.r.fXfXe.e.} ' /.T.5.aXkXkXaXJ [ ] P 5.e.] L D 5 5 L I @.@.#.@.;.;.;.1.#.#.;.;./ 4.wXwXa , . o X X           . y A 9XwXhXhXPXUXPX( { ",
"T.FXPXnXhXvXC @ X X     . X   o o o O - c wXhX0X;.1.1.#.#.2.2.@.#.@.L P L I I s s D S J R 5.2.Y J S J U kXkXaXqX[ /.' F aXe.e.e.e.| dXfXt.e.r.fXy.r.&.&.r.r.} } | dXjXjXDXkXt.t.-.%.0.zXiX9.Z 9.IXIXiXq.w.zXcXcXo.i.M M M M = % % X . 8 UXSXtX).FXjX(.D.Z.G W.4X,XF.,X4X<XD.9 e Y.).Y.A.2XJXG G (.).W : 4 J ;.0X,.>.2 o V pX9XpXbXIXIXnXjXDX,X6X1X,X<XgX` nXmXmXkXQ.,X,X+XCXHXNXNXGX4XGX4XGXNXCXGXJX6X$X{.'.n.@X$XGX$Xb.'.}.}.f.s.s.a.w d.p.w h.h.d h.d h.d h.k.f j.j.j.k.k.c.x.x.x.v.v.x.d.r d.s.s.A.W.<X1X=X>X>X-X-X}.;X[.H.!.=X1X=X,XOXZ.A.d.d.d.d.k.k x.x.d k k.k.k.h.a.d k k l k.k k j.h.h.h.w d.d.f.n.|.N.n.@X#X#X$X|.F.[.[.[.;X3XGX+XMX#XGXJX3X4X4X+XHXUXHXHXJX6X(.FXkXwXxXnXaXAXGX4XOX4X6X).[ hXIXZXZXpXV 9.; - 2 y / / / 3.^ p q Y.).T.' 2XY.e A.D.(.(.).2X,XG.F.6X3XZ.W.).Y.H Y.gXSXtXAXUXt   % % = M M M M o.q.o.y.i.7.8.0.iXbXbX0.9.iXbXcXbXu.u.u.nXkXkX/.dXkXT : } fXy.r.r.R | e.&.R fXnXfX} r.nXfXR dXT ' /.[ aXqXaXfXaX/.[ ^ ] 3.[ 5.1.#.#.5 L I #.$.:.;.#.;.#.Y #.Y 1.2.4.wX0X2 2 o . o   X X     o @ i rXSXyXyXyXhXPXIXhX0XqX",
"T.FXPXPXhXwXqXwX>.- .             . o @ 2 y >.wX;.;.#.;.#.L #.#.:.@.;.Y I I #.a 4 4 S ] 5.e.1.L { [ U | kXkXaXaXT.| } ' /.e.fXxXr.R fXnXr.R R r.r.e.S r.r.nXdX} R kXjX^.jXkXsXt.u.+.i.mXzX0.7.9.bXIXbXw.q.8.i.i.o.y.o.M M M M = % = X # VXUXU.AXFXgXG Y.W.d.Z.+X6X{.F.G.,X<XA.W.W.W.H G ).DXY.G Y.Q.W J U / P ` 0X>.- O V pX9XpXbXLXIXSXjXDX<XJ.J.6XJXAX0XIXmXlXvXgXW.(.,XCXHXBXNXGXGX6XGXJXHXCXCXKXJX$X*X'.].|.].@X%X$X].n.g.@Xm.c.a.a.a.w w w w w 8 w d x.j.x.j.j.h.x.c.k.h.h.x.x.k.k.k.d.s.s.F.s.Z.J.!.1X=X&X&X-X[.'.OXZ.9 G !.&X1X5X,XR.d.d.d.d.d.k.k.x.x.h.k.g h.w 9 w a.w w k.g l.j.k.j.j.h.j.g.a.a.g.XXc.m.v.M.XX].].].[.*X[.3X6XGXCXVXHX%X4X3X3XJX4XHXUXHXUXJXJXDXPXsXlXvXnXhXL.E.+X%XJXJX).hXSXZXZXZXpX; <.A % 2 a u K P / u q K T.DXY.' DX^.e G W.<XDX<XD.J.6XOX3XG.A.<X<XH H gXgXFXQ.yXBX+ % = = M M M = M o.q.q.i.w.o.M iXzXbXzX<.0.w.zXzXu.lXmXlXxXkXjXkXkXdXT : F R &.r.r.&.r.S r.r.fXnXfXe.r.kXr.R | T J Y.W { T._ /./.aX[ U ] sX[ 4 / t.2.@.L &.I #.#.L #.I #.#.#.2.=.4.sXwX5 $ @ X o X X X   o $ t z 8XSXSXyXyXhXPXLXPXPXqX0X",
"Q.PXUXSXhXwXtXvXSXqXz $ .     X o o . . @ $ a :.wXwX1.#.1.Y Y Y =.#.#.;.Y Y #.L I D ] ] R 5.e.U ] [ T.aXhXaXT.qXT.T.' T | | kXxXdXe.fXnXfXr.R | R R r.r.fXr.| S F aXdX} dXPXkXlXu.0.cXmXbXiX9.7.pXIXzXw.8.o.8.i.o.o.o.M M = M M = = + + BXUXE.tXDXY.' H (.2Xs.J.6XOXZ.G.4XJX,X,XJ.W.Z.9 (./.' gX).H J J ] ] ] [ K i 2 o 3 <.V pXZXbXIXhX^.2X6X6X$X4XGXNXtXPXbXuXPXSX<X2XJXJXHXUXHXCXJX3X3X6XGX#XXX%X4X<X,X{.{.{.f.|.$X@X@Xc.g.m.XXm.c.c.k.a.a.h.h.d j.j.j.l.h.h.h.h.a.k.x.g d d v x.x.h.k.a.d.F.g.d.J.,X~.1X=X!.H.J.OXOXe 6 # 9 G S.=X(.W.A.d.r w r h.l.l.l.h t d q r r a.w e s.e w d.k.x.x.x.j.j.h.j.j.j.d.E.M.c.c.R.g.F.G.[.F.{.*X4XJXGXCXCXKX3X5X*X5XJXGXUXHXKXJXDXDXFXPXpX0.zXmXwXz.NXGX4X4X<XFXUXLXZXZXZXpXm pX9XX 2 ~ K U J 4 J u Q /.gX).H `.DX' H Y.jX).Y.D.A.,X4X{.s.OX<XA.W W W gXgXT.BXV.- % = = = M M M M o.q.q.i.w.o.B w.zXbXzX9.9.q.zXzX-.i.mXmXfX| /.gXdXdXT F S S R r.r.R } R &.t.t.fXfXe.| r.e.e.| W F ' _ T.T.T.gXT.| T.{ aXkX[ 4 3.sX2.$.-.#.L S Y Y L L Y Y Y 2.4.4.<.a 2 - +   X X X   o o z n n I.SXHXtXNXvXSXhXhXhXqXqX",
"gXPXPXSXPXSXtXBXLXBXeXf t @ X X   . . o . @ 2 y wXwX6.4.1.*.1.Y Y @.#.1.#.Y #.$.O.#.5.[ q R sX] ^ T.aX/.aX[ T.T.' [ T F | } fXfXfXe.fXxXfXr.} r.R } r.r.r.S R : T dXkXjXjXkXkXxXmXlXu.zXzXzXq.<.iXbXbXw.7.B y.i.o.o.i.M M M M M % % % % x.UXeXAXkXgX} G D.DX,Xs.OX,XOX,XJ.W.<X6X<XD.e G jX/.T /.DXK.q u K U U W u u 2 @ B.9.V ZXZXZXLXSX).<XDXGX$X4XoXU.hXmXbXuXvXnXDXJXJXJXKXUXUX%XJX3X;X5X4XGXCXCXHXJX,XOX&XF.{.}.].m.oXXXM.c.M.c.a.c.h.d.k.k.k x.z.x.k.h.a.w a.p.9 w w d b k x.B.z.h.k.k.a.d.d.G.*X5X1X1X!.G e e U.Q.0 0 0 : : 9 H e r U.E.k d d 7 $ $ 8 - # $ > 0 g d.r a.a.e a.a.r x.x.x.z.j.j.j.j.j.c.c.h.d.k.G.G.G.'.[.'.{.3X4XJXCXNXGXJX3X;X*X5X4XGXHXHX4X).(.gXLXIXzX9.mXIXvXn MXKXGX<XAXFXLXLXLXZXpXpXV Z 9XO 2 P { [ U u E E _ /.AXgXH D.(.D.H ).DXY.q ^.).W.R.G.J.OXW.A.H ' T.T.L.tXtX8 % = = M M M M o.o.M w.w.i.q.M 7.iXzXiXw.iX0.9.zXi.8.lXxXmXnXaX[ T dXfX} F S S S X.} &.S &.r.t.t.xXfXe.| r.r.e.aX' 9 W ' aXT.T.FX/.T.aX| aXaXJ q ] sX6.6.t.5.*.L L R L Y 5.2.2.2.2.@.a 2 @ * +     X X   o $ c P.L.Q.HXSXMXAXhXvXhXhXwXqXsX",
"wXvXhXhXLXSXtXeXHXBXeXz.B.y O X . .   . o + $ 2 C :.wX4.1.Y Y Y L L Y I P L $.6.=.2.sX5.: J fXfX{ T./.[ gX[ _ T.K.' F F } r.dXe.e.R fXnXfXe.&.R r.&.X.r.S S S S T dXkX/.| [ aXnXmXcX-.u.zXw.9.9.iXbXbXzX7.B 8.i.y.o.i.o.M M M M = % % % 8 rXtXeXgXT.W H H A.<XG.Z.(.<X(.A.D.(.<X2XH G (.DXY.H /.).).W u u 4 J J ^ u @ * pX9.V ZXZXZXLXUXFXDXAX4X4XGXNXz.hXIXlXuXzXPXDX2XJXKXHXHXHX4XKX6X*X3XOXJXGX%XHXJX,XOX-X[.[.'.G.g.M.c.c.c.m.m.j.a.d.h.h.h.x.x.x.j.d.w r s.a.s.s.a.r d d t y v v f d d d h.d.R.G.!.=X~.e 9 > # > t > i > ! q # : : : 0 i 0 - $ + X + @ + X * $ @ $ 0 w d.d.a.d.a.d.d k l.z.V.c.h.j.c.h.a.e d.s.F.G.H.F.'.{.XX%X4X4X+X%XJX3X*X>X5X3XOX%XCXCX,XJ.).jXvXbXzXuXbXmXvX` eXKX4X4XKXLXZXZXZXZXpXpXB.<.9X+ 2 s U ] { U p W Q Q.DX).Y.G ^.Y.`.DXDX' 9 G ).Q.d.A.OXW.Y.AXY.H W _ T.LX9X$ % = M = = M o.q.q.o.w.w.B B B q.iXzXw.7.w.iXq.zXzXi.bXlXnXPXPXdX[ | r.| S S } S X.r.&.&.r.r.r.y.xXdX| r.fXe.R | J F W Y.gXT.gXFXjX/.aX[ [ ^ F 4 [ 5.t.t.=.r.sX] K L U 5.4.5.;.@.a y , O o X + +   o     2 s ! ( L.NXNXQ.tXUXPXkXkXhXhXaXhX",
"wXhXvXvXvXSXyXNXHXHXeXx.8Xz @   . o       o + - 2 a #.:.4.4.;.*.#.#.P P I 1.6.t.6.5.sX0XJ J | aX/.aXaXT.kXaXT.gXT.W F F | e.fXfXe.R xXnXt.t.e.| S X.&.&.X.S S S R fXdX| [ aXnXmXxXlX6.zXcXw.9.w.iXiXbXiX9.N ..o.q.w.q.B q.o.o.M M = = = + v yXeXT._ T.' A.Y.(.W.A.A.J.W.<XH G <XDX^.D.^./.G Y.jXgXT.! ^ P J J ] / c - - pXrX9.pXpXpXZXIXPXSXSX<XJXKXNXP.IXIXzX0.lXIXkX).).<X4XHXGX%XJX5X{.>X;XJXCX%XCXGX4X3X[.[.[.[.F.m.c.g.c.d.c.c.c.k.h.h.h.x.x.x.k.h.r 9 9 s.a.e e r w 0 $ @ @ - - - 8 t t f P.Q.A.s.G G 9 0 t 2 - 2 4 4 # ! a . . @ @ . . @ o X X X + % X + % % @ - 0 0 w r d.d.c.k.k g h h v.R.c.k.a.a.d.G.G.s.Z.H.F.F.'.3X4X$X%X%X%X<X4X5X:X>X6X5XXXGXGX4X,X,XjXhXlXlXbXbXiXlXIX9Xj AX+XHXUXLXLXZXZXZXZXZXC pX:.o 2 a 4 e.aXP q E Q Y.).W.(.D.W._.DXDX).Y.' H A.A.W.W.).Q.Y.`.DX' q ) yX9Xy - % = = M M M q.w.q.q.zXw.m B 7.q.iXiX9.B q.zXiXi.8.lXbXnXnXPXFXPXdX[ | | S S R D X.r.&.y.y.r.-.y.fXe.| e.| S R T J F ' T.gXaXaXFXkX/.T J J W T J [ 5.sXxX6.sXhXqXP K *.qXY I a 4 3 2 +   X X . + .   o @ L qXI.L.NXHXSXQ.BXPXPXkXhXhXaXsXhX",
"aXsXkXvXhXLXUXtXeXHXNXP.b ) u @   o     X .   @ + - 5 a @.:.4.wX4.1.P P 3.wXt.6.t.t.5.[ q J T ^ [ /.aXdXPXaXT.gXT.W : F T } e.e.r.| e.xXfXe.r.r.r.} r.X.R &.S S [ aX[ T aXkXnXnXlXcXxXi.zXw.w.zX9.9.iXbXw...B M 7.i.q.7.i.o.M M = M = = X y vXhX( Q Y.W ).).A.W.W.e Y.W.).q r ^.DXDXY.D.W.G (.2X2XY.E ` K L e.R U a $ ; pXV 9XrX9XZXZXZXSXPXKXAXGXGXU.7XmXmXbXu.iXmXnXjX(.A.OXGXGX%XOX4X5X>X.X5X4X%X%XGX4X4X[.'.[.'.G.G.R.d.g.s.e a.a.h.k.k.x.eXj.k d r d.a.r a.r r w > # $ - + + + +   X + - 7 t k 9 # 9 : # g t 3 y y 2 t : p >.2 @ @ @ @ o + + $ % + + + % % - + - - - o # 0 k.h.k.k.K.l g q l k.K.d.g.d.a.f.Z.s.s.f.F.].$X4X%X%X@X@X4X4X5X5X;X>X5X$X%XJX4X%X,X2XkXxXu.0.bXIXzX0.mX;.0 Q.+XUXUXIXLXZXZXZXZXpX9XpXV * 4 5 4 qX5.4 K J H Y.Z.D.D.W.(.2X2X(.(.2X(.W.K.r ).AX).W.).jX).T._ 0XwX8 O % = = M M = M q.w.7.w.zXw.m M q.w.iX9.7.%.0.zXzXi.8.u.xXPXnXkXkXPXkXdXfX&.S  .S D &.&.&.r.r.r.t.t.aXe.e.] T S | | [ T T [ dX/.hXkXjX| J F J aXaXJ [ sXsXvXvXfXsXaXU P 4.4.a a a - - @ X       .     . @ 3 ] qXI.E.SXHXCXyXSXhXvXhXsX5.qXaXsX",
"wXsXsXhXvXUXSXhXeXAXHXtXK.qXqXs O + X   o       . @ 2 2 4 5 @.4.5.1.P P qXlXlX6.lXsXaX{ J W [ J J T /.dXkXjXqXgXT.W F J T R L R e.R e.fXfXr.r.r.r.r.r.S X.S S S R e.[ e.kXPXPXIXvXcXzX0.0.i.iXiX7.Z iXpXiX8.M m o.bXiX9.w.q.M M = M = = % , :.yX7Xg q T.FXQ.H ).4XJ.A.Y.Y.H Y.' jXJX2X).J.D.,X(.).' E p 4 P e.L 4 4 $ - pXpXV pXpXZXZXZXZXIXUXSX+XAXU.wXbX0.lXbXcXzXsXkXDX<X,X%XGX%XOX4X5X>X-X5X6X4X#X$X%X4X$X3XG.F.J.R.g.s.s.s.s.d.w d.k.U.x.l g g k.k.k.k.g.d.0 t t - + + $ X + # .   X o + + o @ o # . @ > I.> 2 y 2 t i 0 r 0X) i $ $ - $ $ + $ 8 t f f f 8 f 8 - - O o o - 8 t d h.k.b l g r A.r A.G.g.s.s.s.s.a.g.g.XX%X%X@X#X$X@X$X6X5X=X:X5X6X4XGXGX4X,X<XKXnXlXu.u.bXmXbXiXuX5 $ _ HXUXIXZXZXZXZXZXZXbXbXpXC * y 4 u / s 4 ^ W H A.e Z.W.2X2XJX(.(.(.2X2XJ.W.).).' H W `.DX/.' qXyX9XO % % = M M M M Z iXzXq.q.w.q.m o.q.zXiXZ Z q.9.w.zXzX8.u.lXkXaXaXkXjXdXkXkX&.X.r.X.X.-.&.X.r.r.r.r.r.] | dX[ J T e.dXaX' F T.kXaXsXdXjXdXJ q ^ kXT.T | sXsXvXvXhXwXtXqX7XqX;.a a t @       X         . o 4 O.3.I.E.tXNXNXNXtXhXvXnXsXsX4.sXsX5.",
"5.sX4.sXhXkXhXSXNXBXHXCXU.T.tX3.t - X             o @ * 2 3 a a 3.;.P ^ qXsXsXlXxXlXsX[ H T.aXW q J | fXkXdXaXgX/.' T ' | } S T } e.e.r.fXr.r.r.r.X.X.r.X.S S S S fXfXdXkXnXPXnXmXxXu.-.q.zXiXw.Z 7.9.iXw.w.o.m M zXzXq.q.w.M M M M = = = O @ c wXI.I.Q.DX2X).Y.W.JXY.e K.Q.gX2X).(.JX2X(.J.W.Z.H H E E K I e.*.4 4 ; ; B.pX9XpXZXbXZXZXZXLXUXHX).W.> 9XmX0.i.mXzX0.6.hXFXAX<X,XGXJX%XOX5X>X>X>X5X6X$X%X@X@X4X4X$XG.G.f.s.s.Z.F.s.d.s.A.A.k.k.r g k.k.k.k.k.k t > o $ ; - % $ + + $ $ # $ $ $ + + O & * @ $ u T.: t t - t u 9 9 tXtX8Xf - $ 8 y 8 7 7 6 7 d f x.j.f y 2 & @ O X - - t f z l b l H r e d.A.s.s.g.g.g.g.XX#X%X#X#X$X@X%X$X.X3X;X-X=X6X4X4XKX4X6X3XKXIXvXw.lXzXmXbXzXbX0., > ( UXLXZXZXLXZXZXZXpXZXbXzXy O 3 5 L P 4 4 u H H Y.G Z.,X6X6X2X(.(.(.(.(.A.).KXSXH : q Y./.gXgXPXhXy O % = M M M = M q.zXbXq.7.w.M M q.w.iXbXZ Z 8.7.zXmXu.u.u.fXkXaX| gX| /.kXt.r.8.8.&.X.-.&.X.r.r.&.r.e.R R | } T U dX| [ | [ | fXaXe.e.dXdX' : T gX/.| aXsXsXfXsXhXqXqXvXsX:.a 5 y + X   + X           @ @ 4 1./ ! E.NXMXQ.yXyXwXPXPXnXsXaXwXsX5.",
"sXwXwXhXsXPXFXhXtXBXeXeXtXU.U.T.~ - O o         X X + X @ 2 a L ;.4.4.9XqXqXfXvXkXlXe.aXT [ jX[ : J aXkXdXdXqXkX/.J T aXdXe.R T R e.e.R r.r.r.&.r.r.D -.&. .-.-.*.dXnXfXdXdX/./.fXsXcXy.u.cXzXw.9.7.Z w.iXw.q.M M iXw.7.zXzXw.M = M M M = = % - yXhX8XT.AXDXY.G H Y.).(.A.W.JX).(.~.(.6XJX2XG.A.9 W H W ! 4 L L 3 5 2 * A ZXbXbXZXLXZXZXZXZXLXUXHXK.> a bX0.zXmXbX0.0.lXvXFXDXOX4XGXJX4X5X>X>X>X5X6X{.@X$X@X%X%X%XXXg.f.s.s.s.s.s.f.f.Z.s.H r g l l.l.k.d d $ - O o + + 8 8 y f f f 8 8 t $ + $ $ + % - 3 ) U.Y.9 u i t 2 0 9 e K.U.l B.v - $ j z f t t t d d w w 8 t f 3 y ; + ; ; - y v k l.k.L.k.g d.K.A.A.R.R.XXv.XXoX#XXXXX].XX%X%X|.;X-X&X5X6XJXGXJX4X3X2XFXIXIXbXzXcXxXlXzXcXV y a v SXZXrXZXZXZXZXZXZXIXZXpX& @ 3 4 ~ ~ I u u q H A.G.J.6X,X{.,X3X6X,XD.H Y.DXFXFXdXJ J W T.hXPXvXy @ % % = M M M M M q.zXiXiX9.7.M M q.iXiXiX7.0.%...i.zXi.u.-.fXkX`.jXjX/.e.fXr.y.y.u.u.u.2.D &.r.r.&.r.r.R T R | T T e.R R | aXdXkXfXdX] e.e.S J ^ /././.dXfXlXnXfXqXqXqXqXvX4., a , .   . . + . X X X X @ 4 Y / ! L.tXBXMXMXBXPXvXfXnXkXsX5.sXhX5.",
"lXsX5.nXFXkXSXhXtXtXyXNXtXE.K.L.qX5 @ o       X   X X   o @ 2 a a 4.yXvXwXaXaXhXsXsXt.dX| /.jX_ : J e.dXe.aXaXkXaXU [ [ /.dXT T | | R R &.r.&.r.r.X. .-.-.X.-.t.&.sXfXe.| /._./.jXfXt.8.w.cXcX9.7.7.Z 9.iXiXw.7.M q.q.q.w.zXzX7.= = M M = = % % A vXLXSXAX).W F : /.KXKXD.W.,X~.1X(.(.2X6X6X{.s.A.Y.H W J : u L 5 5 2 @ C pXLXLXpXZXZXZXZXZXZXUXUXl $ 2 uXbXbXcXmXzXlXlXnXPXKX4X4XGXJX4X6X5X>X;X;X6X$X.X%X@X%X#X%X%X#XR.g.G.s.g.s.s.A.A.Z.r H l l v k d 8 - - X O % - ; 8 f f j.x.t 8 7 7 $ 7 t f $ - y 8X7XgXK.9 0 > 2 t q 9 e J.R.r l.8Xv t i x n z.l.d d d d 7 7 t z A A C 8 8 % + - y i k l.U.E.U.K.K.K.R.Q.Q.E.E.v.c.M.oX#Xg.XX%X@X|.;X-X[.;X5XGXKXGX+XJ.(.hXnXmXbXbXmXvXlXsX<.3 C 9XA yX9XpXpXZXpXZXbXZXLXIXZX$ @ t 4 P P ^ ` E r K.A.D.OX3X{..X3X3X1X,X(.D.Y.Y.T.kXnXqXP ` hXPXSX>.- % % = = = M M M q.iXmXbXbX9.7.7.7.q.iXiXq.w.zX8.+.w.i.w.-.e.dX_._.`.`.} | r.r.xXcXi.y.u.&.L &.t.u.r.&.&.R R R R R R | ] R ] aXsXdXkXkXR | *.J J | aX' [ e.aXlXnXsXqXqXgXwXwXI , 2 @ . . . . .   X o X @ 2 4 K ^ T.tXeXMXMXrXBXvXfXsXhXPXaXwXnXfX5.",
"lXhX1.sXPXkXFXhXSXyXtXBXtXE.U.U.) P 4 @   o + X   .         - 4 2 ;.vXyXqXqXaXaXxXnXfXsXe.' /.' T J [ aX] dXkXkXdXaX| T | e.T T R R R D &.r.r.r.y.&.D -.8.u.u.u.lXfXfXdX| /.jX`.jXkXt.-.u.zXzX8.%.7.7.7.iXzXw.7.7.M 7.q.w.zXcXw.M M M M = % - X @ wXUXPX).T.W q [ jXFXDX).D.G W.2X<X1X,X,X3X3XF.W.A.G e r K P I I 5 , o 3 pXbXZXpXZXbXZXZXZXZXZXyXi a y <.bXlXu.bXzXzXzXmXUXKX2X<X4XJXJXJX6X>X;X X3X.X$X%X@Xm.m.XX#XoXXXR.R.R.R.K.A.A.d.r Q L.P.z b v f 7 - - % ; 8 y f f d d t t d t 7 t t f n d $ 8 A P.l tXA.9 q > t p q 9 9 Z.A.r d.NXeXx.h.k.k.x.8Xk t 8 t d 7 0 d n B.f f 8 O O O t t d h.k.l.U.U.k.U.E.eXeXMXeXM.v.v.M.oX#XXX@X].'.{.&X&XH.{.4X4X4X(.!._.gXnXmXzXzXxXxXnXnXa 2 C <.:.uX<.pXpXpXpXpXZXLXLXIX9X@ @ 3 u u u E W H K.+XJ.J.OX{.{.3X6X3X,XD.).2XjX' W gXkXhX! ! PXLX7X$ @ % % = = = M M o.iXbXbXcXbXiXq.7.7.M iXiXZ iXbX0.u.xX8.-.X.t.jX' /.jX} T R R X.y.y.i.cX-.+.L &.r.y.r.&.&.&.R R R R ] L R R R R 5.aXsXaXJ R | T [ aXgX/.| e.e.sXlXsXqXyXhXsX:.5 * * . . . . . . X . o o 2 c P K _ tXtXtXrXyXyXhXhXhXsXsXfXaXsXkXe.5.",
"hXxXe.sXnXhXhXPXhXyXtXeXtXeXqXU.Q U K , o o o   . .   .     $ 3 2 A 9XqXqXgXqXhXkXvXsXe.| R /.T.T S R e.U fXkXsXsXfX] R R R R R R R R R &.r.&.y.r.&. .+.r.i.i.u.cXt.r.e.} /.jX`./.kXt.6.8.i.i.%.7.w.iXq.q.zXq.7.7.7.9.q.bXzXcXbX7.M M = = = % % O y 9XFXFXqXK ^ fXkXdX[ /.Y.A.).<X1X,X3X{..X6X{.A.A.H r H ^ ^ P a 4 , O 3 ZXIXLXbXZXpXiXZXZXpX9XyXc :.C 3 wXlXlXvXmXbXmXnXPXjX).J.(.AX6X4X3X;X-X;X{.{..X%Xm.N.M.M.M.oXv.v.MXMXE.E.U.L.k.L.P.z.z.f h i - $ + - ; y A B.f d 7 0 7 d f t f B.B.h d t v 8Xz.g r W.e 9 : 4 i p : 9 G Z.Z.A.A.+XNXoXU.h.r h.k.x.v t 7 d d d d k h.x.f - - - O 2 i h.k d h l.x.P.U.8XV.v.eXeXMXoXv.E.MXc.c.%X$X{.[.H.&X;X3XJX6X3XJ.(.`.kXnXxXi.lXxXkXPXPXs 2 5 C V uXpXpX9XyXZXZXbXIXZX9Xy @ @ 4 i 4 K W r K.W.R.G.,X4XA.G.3X4X4XW.W.`.DXjX' ' dXPXPX;.! LXyXi $ * % = M M M M q.w.q.i.mXzXzXzXiXZ q.q.iXiXM 9.w.u.y.cXy.r.*.aXaX} /.jX`.} R &.-.y...y.i.+.=.-.&.u.y.X.&.&.&.&.R R e.e.R R e.6.Y *.t.sXR S R R U [ dXaXaXaXe.t.xXvXqXaXSXhXhXa 2 @ @ .     .   X X   @ 5 ;.,.) ( I.tX0XtXtXyXyXvXhXxXkX6.3.sXnX6.wXt.",
"e.sXfXaXsXsXhXvXhXhXyXyXtXyXyX8XU.E P L , @ . o . . .       + $ , 2 >.wXhXgXT.aXsXlX6.5.aX[ aXdXR T 5.[ J e.fXaX| *.R ] R S *.R 5.R &.&.&.&.&.y.t.-. .X.-.u.cXu.cXr.&.R T } `.`.' aXsX&.+.8.u.i.8.i.i.7.q.iXq.7.7.9.iXiXbXzXmXcXq.M M = M = = % & & t wXUXqXs 5.hXkX[ T T.jXjXW.G.<X6X6X,X].;X3XJ.A.Q.Y.H W K p 4 4 2 @ , wXbXIXLXZXZXpXpXpX9X9XwXC V y = $.nXPXvXcXzXzXcXnXgX/.D.J.4X6X3X{.{.H. X[.{.'.XXXXoX#XM.C.v.v.MXMXeXMXI.I.P.8XB.B.v d t d 2 $ + + * V A v x.k w 0 0 w t 7 d 8X8Xl.k k l.eXtXE.d.A.A.e 9 0 4 a s u e G Z.Z.F.G.+X+XCXoXg.d.d.r l.eX8Xh t 7 g k.k.k.k.d t y % O - t k k k.k k l.x.j.x.j.x.v.v.v.E.v.oXoXR.XX%XOX{.[.&X!.&X3X6X5X;X(.`.kXnXcXcXlXnXnXFXDXtXq y a C <.uXpXpX9XpXvXrXpXIXpXV ; @ @ 4 u u Q Y.d.A.R.G.G.+XOXG.$X4X$X,X<XW.DXjX/.[ [ kXPXhX,.yXLX9X- $ * O & = % Z q.q.w.o.q.mXi.i.i.w.q.w.w.q.iX9.9.7.7.y.y.xXr.dX/.} Y.| /.dXdXe.r.-.8.o.y.u.%.-.$.-.xXcXy.u.&.D X.R &.e.R R t.fXe.&.=.6.e.T S L L J e.jXaXsXsXt.lXxXsXqXhXPXhXhXc ; - o   . .     X   o 2 ,.4.7XI.I.tXtXeXI.qXwXsXkXhXsXlXt.5.sXxXe.sXsX",
"5.aXnXt.*.sXxXsXhXvXhXtXtXtXyXtXU.L.! 1.L 4 @ .   .           $ - - c sXnXhXaX5.xXvXsXt.aXe.aXaX[ R R R S R sXt.5.D 5.r.r.R R e.*.R &.&.O.X.-.r.y.t. .&.+.u.i.%.-.-.&.R [ dXDX).' /.dX5.=.y.cXcXi.w.q.B 7.iXiX9.9.7.iXbXzXcXcXw.q.q.M M M M M = % @ 2 / PXsXs 4.PXnXaX] { jXKXY.W.<X4X4X3X'.].4X,XA.W.W.r r H p u u 2 @ O a 9XIXLXbXpXpXpX9.pXpX9XA C C 3 s nXPXnXlXlXlXcXmXnXjX(.*X5X5X6X3X*XH.[.H.{.].$Xc.XXMXeXv.V.V.V.eXV.E.U.P.>.n B.v d f k h t @ - * - f x.x.k.g w 9 w t 0 z 8Xb w w g U.E.oX+XR.G.G.s.e 9 q u 4 s p q e Z.Z.H.{.OXXXGXCXOXG.s.d.d.L.7XeXk.d w d.d.d.d.d B.A - & + - d k.L.k.j.x.x.d d j.v.v.c.v.E.oXeXoXXXc.m.G.F.S.H.H.*X;X>X;X~.(.dXxXxXy.sXfXkXjXgX).W > i :.:.9X9X9X9X9XpXZX9XpXpX9Xy & O $ i s u L.Q.A.d.%X4XOX].G.4XJXJXOXW.W.W.jX).dXT.[ PXhX;.,.vXuXf ; * & & O = = 7.mXq.M 7.q.i.i.o.i.w.w.iXiXiXiXq.q.7.B X.r.fXe.[ H H /.' F } r.e.fXy.y.y.i.u.+.-.+. .0.cXmXcXt.X.D &.&.&.R S t.r.D =.5.O.L &.R R S R dXaXsXfXsXxXlXxXqX0XLXhXyXwXa 2 o . . .     X X o @ a ;./ 7X8XeXeXU.tXqXyXhXvXlXsX4.6.6.xXsXlXsXt.sX",
"aXsXxXt.t.t.lXvXsXhXhXqX8XeX8XrXU.U.I.{ 1.;.2 .         X   . + - 2 c wXhXhXkXqXsXnXlXt.sXfXdXfXe.R U S S L 5.e.e.&.5.sXe.&.D r.*.R R  .X.r.y.y.cX-.&.-. .u.u.-.-.-.u.e.dXdX_.^.^.^.| 5.r.xXcXy.0.7.7.7.q.iXiXiX9.9.iXiXw.cXcX7.9.w.q.q.M = = % % * , y wXvX:.qXkXkXkX[ [ /.FXDXW.,X4X$X4X$XJ.OXXXG.W.W.r A.Y.E t u t @ O 3 A ZXZXZXpXvXpXV.pXpX9X9XA y y 0 gXFXkXkXxXcXcXcXnXkXAX,X>X3X6X5X*X[.[.[.{.3X%XR.R.MXv.V.v.V.v.v.v.c.k.l.l.v f f h.x.h.t $ @ $ 8 f f j.h.d.k.d.w 0 d B.rXU.q r d.d.R.NX+X+XOXJ.f.s.s.q q 4 s K K g H Z.f.F.{.{.].$X%X+XG.G.J.A.r k.NXMXU.k.w e w d.k.eX8XA - $ - f b k k.x.x.E.c.v.R.c.R.R.R.E.oXE.E.K.d.d.R.J.J.!.J.*X&X X*X(.`.kXmXxX6.aXjX2X(.2X).U.i i A wX9X8X9XB.pX9XpXpX9X9XV & O @ 2 x L.K.Q.+XA.G.4X%X].R.OX%XGXGX3XOXW.).`.T.aX^ [ fXqXwXwX9XV 3 % % % % O = B zXcX7.m 8.i.i.i.q.i.zXzXiXw.iXiXiXiXq... .r.fX| T.' ' /.| F F R &.r.y.cXcXi... .-.u. . .-.y.cXy.&.O.e.&.R &.L r.2.&.t.=.5 D *.&.Y R aXaXT aXxXxXcXxXlX0X7XPXhX7X7Xa - o     . .   o o @ 5 >.~ ` 8XtXtX8X8XI.qXhXfXfXlXt.6.2.6.u.t.r.t.5.e.",
"t.sXsXlXlX6.6.2.sXnXhXhXyXqX8XtXyXeX7XI.{ 1.u @ o X X X X   # . + 2 @.qXgXhXkXqX3.vXxXvXsXfXdXaXsXR D R *.R *.L e.&.D t.r.D R &.&.*.O.D -.cXmXcXy. .&.-. .0.i.y.y.y.y.r.aX/.F ' ^.' T [ e.t.xX&.B M q.q.q.iXiXiXiX9.iX9.0.cXzXo.M q.iXq.m % % % % % * - :.LXwX,.qXUXjXJ dX)./.2XOXW.OX3XGX4XOXR.G.OX4XOXd.K.Q.K.j j i o @ - V pXZXpXrXZXrXpX9XuX<.9X<.A z > Y.gXDXjXkXkXsXsXcXnXjX(.;X;X>X>X{.H.H.H.J.J.G.c.R.oXeXE.E.v.c.v.j.h.w k k x.h.l.x.x.k 7 $ $ - f x.h.h.d d.d.w 0 f V.rXl.k.d.Z.A.oX+X+X+XOX{.[.s.H.Z.r J p s P u q W d.s.s.{.{.{.OX$XOX{.*X,XJ.Z.G.E.NXBXeXa.a.R.R.k.l.n 8X$ @ + - t b k h.k.h.c.h.d.a.d.g.d.K.E.x.k.R.W.G.Y.W.,X1X~.H.S.H.,X`.hXxXlXxXsXjX2X*X*X1XJXgXs 2 a 9X9XA uX9XuX9XrXpXpXA * X o - i ) L.E.<X4XG.XX$X@X%X%Xn.%XGXGX4XOXW.).DXjXaXU 3.5.qXLXwXy y ; % ; % & = N i.cXcXq.B o.i.i.i.i.zXcXbXiXiX9.iXw.iXzX7.X.r.e.dX).2XY.Y.| F : S S &.y.y.cXi.0. .+.u.-.D X.u.y.u.+.&.r.&.S e.&.*.r.t.r.O.D D *.&.L R fX^ S fXxXmXmXmXsX3.0XPXPX7X>.y @ o     . . X O @ * a ,.7X0XqXtX8XP.7X7XI.5.5.5.sXlXt.6.u.r.6.=.5.t.e.",
"e.t.6.t.lX-.+.t.xXsXsXhXaXqX8X8X8X8XtXqX) / ~ , o o O X   X     + - a 0X0XhXPX{ 3.lXnXmXxXfXdXU e.e.R R *.e.D S O.5.&.&.r.O.&.&.&.e.O. .t.cXcXu.X.X.t.6. .-.0.cXi.y.y.&.] F F ' ^.' T ' | sXr.&.N 8.w.w.w.iXiXiXiXzXzXi.i.y.y.q.7.M w.cXq.m * & % % % ; a :.wXyX0XhXaX^ | ' /.DXW.W.$X4XGXGX%XXX].OX%X<XG.K.+XU.L.L.i t $ + ; A pXV.pXpX9XpX9X9X:.:.wXA z t K.).,X(.`.`.dXe.u.nXkX).1X3X[.[.&X&XJ.~.~.J.d.d.k.k.E.E.E.E.c.c.c.R.k.k.k.v.k.k.k.l.d $ + - f 8XMXv.h.h.e 9 r v.MXBXz.w d.J.Z.G.OX#X+XXX{.{.[.s.G.s.H p 4 L P u J W H s.s.*X3X{.{.4X3XOX{.J.{.*XG.R.NXNXNXoXc.K.c.r w k.8Xt - - - t i d r k k k.d.d.e s.A.Y.K.Q.T.tXQ.K.Y.Y.H J.2X1X6X1XD./.hXvXt.6.kXFX1X!.&X*X1XFXUX6.5 C C <.V <.9.V pXpXpXV.& + o - y i g k.+X4XJXR.G.c.XXGXGX#X%X%X4X$Xd.G.2XDXFXkX3./ wXhXLX6.; ; = = = % @ < -.cXi.y.y.o.o.i.i.i.i.i.zXbXbXiXiXi.i.zXi.8.r.e.} _.`.`.Y.^.dX} S S R S r.y.i.i.0.X.-.u.-. .X.8.u.-.&.r.r.D S &.r.e.&.xXt.O.D D &.D *.sXsX4 S t.xXcXmXnXsXaXqXSXwX4.A 2 *       + . o O & 1 ;.>.T.qX7X8XqX8X9XyXsX5.fXlX6.t.0.6.6.-.r.t.r.5.5.",
"sXe.=.-.u.u.u.-.t.aXaXqX0X7X8XA 8XeXrXtX7X0X4.5 * O o X         + * y P 3.hXnX5.3.sXnXIXnXnXsXS R sX=.L *.*.D S L t.t.6.&.e.e.D &.t.r.&.t.y.y.-.1 +.u.-. .-.y.mXi.y.&.S S : F | `.^./.`.dXdXfXe.-.w.zXiXw.iXw.iXiXbXcXi.y.y.y.y.M o.zXcXcXy.< & = = % % ; y A vXvXwX3.J | jX`.`.W.,X$X4XJXGXXXR.%X%X@X%Xg.R.CX+XU.U.b t $ X + ; rXpXpXB.<.9XuX9X:.9X9Xa 3 n SXDX1X*X=X1X`.fXlXlXlXfX).(.S.H.&X*X5X(.D.A.Y.U.K.K.K.K.K.K.d.d.d.d.c.c.k.k.k k g d t $ + - A V.v.k.E.R.d.d.E.MXBXeXk.K.Z.*X;XOXXX$XOX{.{..XF.e Z.A.H u p P L u u E K.A.e S.*X[.{.OX%XOXF.H.H.F.Z.G.%XCXGX+XR.K.d.w r K.R.d f - ; y i i i w g k.K.r d.A.A.K.K.T.Q.qXT.Y.' Y.' Y.<X(.6X2XjXkXvXlXuXsXjX2X=X=X=X5X2XFXPXvX@.+.%.Z Z <.pXB.pXpXB.y X o @ y n b d K.+X4XGXOXa.g.@X%XoX%XGX@XXXG.s.J.6X`.DXFXhXwXwXuXwXa ; = M = % % , N i.i.i.y.8.o.o.o.i.i.i.i.mXzXzXiXiXw.w.i.cXt.r.e.`.`.D.D.).' T | S R &.X.X.y.y.8.u.-.-.u.-.+.r.y.-.-.-.=.R S R e.e.e.5.sXt.Y 5 L S O.4.lXe.4 4 dXxXmXmXnXhXhXqXqX0X,.:.y @       + . O @ 1 5 ;.7XtXqXeX0XwXyXwXsXyXwXsXe.=.t.u.y.+.-.u.t.=.e.t.",
"t.5.6.6.-.0.u.t.t.t.sXsXwXsXwX7X7X8XrXeXeXqX9XL 1 , o o X       X & 2 s ;.wXhXqXqXvXnXmXnXnXt.S 4 sXfX*.#.Y D S L 6.xXr.&.t.e.D D e.-.&.&.y.y.&.D -.u.-.+.-.y.cXi.y.X.S T S } /./.Y.^.`._./.| e.-.i.zXzXiXiXiXiXbXzXcXi.i.i.i.q.B ..zXi.i.cX..& = % % ; ; ; a vXvXwXwXR | jXjX1X1XZ.F.3X4X%X%XXXGX%XXXR.g.+XGXAXE.K.g i t @ o X ; pXpXpX9X9.uX<.C <.C a 4 wXIXFX2X=X&X!.1XDXkXsXt.lXfXT.(.,X1X1X2X^.H K.Y.Q.Y.Q.Q.T.Y.G.A.d.s.d.g.c.h.g w q g t - - * y B.x.h.w R.K.k.c.CXAXNXR.G.,X{.{.[..X@X4X{.$X3X;XF.Z.G H J u J I p 4 J J ' q G S.*X>X;X.X$XOX.X{.F.F.Z.{.%XGXGXoXc.c.r d.d.A.K.E.U.t ; 3 x b j h g l.R.K.A.k.K.K.K._ _ _ I.T.[ T.[ Y.Q.Y.).FXnXnXu.-.lXFXDX1X!.~.1X`.DXFXnXnX5.6.0.C <.<.9.V y ; %   + $ $ y 7XU.K.R.$X<XGX+Xa.c.#X+Xg.XXCXXXg.g.s.3X2X).DXPXPX9XvXvX3 < % ; M = = = N X.i.y.i.i.y.i.i.o.8.cXcXi.zXcXzXi.w.q.i.w.y.u.dX`.`.!.G G ^.[ e.fXr.S S D X.y.y.y.u.-.-.t.&.&.r.r.-.r.r.*.D D R | e.sXr.e.e.*.L R 5 O.2.6.;.4 / xXlXnXPXnXaXaXqX3.:.:.a 3 O o X   . + + & 1 5 ~ 0XtXtX0X7X9XsXlXwX4.5.4.2.2.6.-.u.-.r.-.t.6.-.fX",
"2.t.t.u.X.%.t.u.t.5.e.sXsXsXhXsXwXqX8XeXtXrX4.@.5 , @ o X   X     & y ;.4.7XwXwXsXfXnXIXvXmXfXL : 5.xX2.L S L D R r.sXe.e.t.&.R S D *.r.X.-.t.u.X.-.-.t.-.u.u.y.y.r. .&.*.T | | ' } ^.' ^._./.e.t.i.zXzXiXw.w.zXzXzXcXi.i.i.8.q.q...i.i.y.cX8.< % % % ; = * 3 :.uXvXwX5.fXFXDX).JXZ.e @X].%X%X%X#X%Xm.g.g.%XJX+XQ.d.w b A t @ o % V 9X9XpX9.V V $.:.C <.:.vXPXFX2X=X=X:X=X2XkXsXu.u.lXsXjXDX2X(.Y.Y.Y.Y.T.K.T.tXQ.Q.Y.K.A.d.d.d.K.k.l r q u i u - 3 8 y z.l.r a.d.c.R.MXBXGX%XR.Z.J.[.H.F.{.%X%X{.*X[.F.Z.Z.D.' J 4 4 U u 4 J T T G 9 S.5X5X3X.X$X$X4X3XH.H.F.OX4X4X%X+Xd.R.d.A.A.A.OX4XAXb - y ` I.L.j h g k.v.U.U.K.K.K._ Y._ I.{ T.| /.T.T.W T.hXlXzXw.<.vXPXDX2X_._.jXjXkXkXnXnX5.=.lX0.V C = X X - - + t f 2 i 0XyXQ.OXOX4XJXW.d.R.%X%Xc.m.%X+XXXG.R.<XD.).DXUXPXqXIXpX2 ; % m = = = m 1 8.y.y.i.i.o.y.i.y.o.cXi.i.w.zXzX8.q.i.w.8.-.t.dXDX_.!._.Y.J F e.t.r.X.S D r.r.r.y.y.y.t.-.O.X.&.&.r.&.&.R R R R 5.R sXxXe.1.S Y *.*.2.e.Y 4 D 5.t.sXsXnXkXT.T.wX9X2.@.; @ O & X o . + % * 1 1 ~ tXyXhXtX9X4.wXwX4.4.2.1.5.t.-.-.-.-.-.&.t.t.-.r.",
"*.r.t.t.-.-.t.-.6.&.2.5.5.6.wX5.sXwX` 8XBXeX,.:.5 , & O X X X   X & 2 c 9X:.:.wXqXaXPXIXnXvXsX5.S D sX1.L 5 L O.D t.t.e.fXe.e.R R S &.r.&.r.r.8.-.-.-.r.8.u.u.i.y.-.X.S S R r.dX' ^.^.G ' _.`.jXr.xXi.w.w.w.w.lXzXcXzXi.cXi.o.8.i.q.i.cXi.i.y...m % & = m = ; 3 :.vXwXwXPXFXjX).<XG.s.G.n.%X%Xm.g.#X#Xg.s.%XGX<X+XK.U.T.) t @ * X + + ; y Z 9.9.V @.4.2.6.mXPXkXjX2X1X~.~.1XDXnXvX<.lXmXnXjX/.^.^.T.T.T.T.I.U.U.K.' K.K.K.A.d.R.U.k.g r g ( ~ t - t v B.l.r d.d.r c.c.+XCXCX4X$XF.s.F.[.;XOX$XOX.X3X{.{.Z.e G J J 4 4 L 4 4 U R T G 9 G 5X>X;X$X4X$X6X3XH.[.F.'.4X3X$X%XXXXXd.s.Z.*X,X,XAXtXt 2 z P.7XL.l g g k.U.k.U.U.U.T.I.T.` T.{ [ ] 0X3.K K 1.=.u.0.<.sXjX`.`.jXdXfXnXnXfXdXkXaXY wXwXa X X X - c n t h j u ! tXgXU.W.OXJXJXOXd.d.XXGXCXGXCX+X#XR.R.A.e ).DXSXSXPXIXbXC = = m m 1 %.o.X.i.y.o.y.i.q.o.i.i.i.zXw.7.q.i.y.o.q.i.o.o.8.fX`.`.S.~.2XG ' | T *.r.r.X.&.X.X.-.u.cXy.u.&.X.X.&.&.-.r.&.S R R R R R e.xXe.L 4 U U Y t.kXL 4 Y 2.6.t.sXkXhXI.` qX6.<.5 * O X * O + - X & < , 1 I.SXSXhXhXhXfXvXsXsXwX2.;.5.6.O.=.t.u.&.=.t.u.t.-.",
"5.t.t.-.-.r.-.-.6.t.5.*.2.5.5.6.4.qXqXtXSXyX0X:.5 1 , O X o X X * X + 2 >.4.9XwX` 3.kXnXlXlX6.5.D 4 Y t.5.R R L S 1.*.sXfX5.*.R R R &.&.X.&.&.&.&.X.&.-.y.y.cXy.y.o.X.S T r.fXr.T F G (.~.^.`.jXdXr.8.q.w.w.u.i.zXzXq.w.cXi.8.i.i.o.i.cXy.y.y.o.< m < = m = & , C LXhXsXPXFXFX).Y.<XG.G.oX%X#XXXXXNX+Xc.g.+XGX4XQ.W.Q.tXI.i 2 t - + $ o X % ; V <.wXvX1.4.nXnXnXFXFX`._.(.2XFXPXuX6.lXbXfXsX| T [ T./.T.T.Q.T.T.U.T.Y.U.K.K.U.K.g l g g ( 0X/ y 2 h tXHX+XJ.A.Z.d.d.d.oX%XGX4X$XF.[.H.{.5X$X$X3X3X5X3X*XG 9 ' } J S 4 p 4 L ] T T J : G 6X5X{.3X4X{.3X*XF.F.F.[.6X4X$X4X#X$XG.s.H.5X*X3XGXGXeXt 2 c 7Xj g l K.U.K.l l l ( ( Q ^ ` ,.1.I ;.qXwX/ 4 L =.0.-.2.hXjX/.dXjXkXxXmXnXxXfXkXkX` a 2 o   - 3 y z h g l u 4 ! qX0XW D.,X<XJX4XZ.g.XXGXGXKXHX%X+XR.d.r r T.DXgXQ.PXUX9XC 3 N m  .8.y.y.u.y.i.8.q.i.i.o.o.i.i.i.i.q.o.w.y.y.y.i.o.o.y.kX`.~.S.S.' F dXdXJ R D r.r.X.X.X.-.u.cXu.-. .D X.&.&.r.t.r.S S r.e.R L R sXe.J S U U L sXsXJ 1.6.5.lXkXhXgXgX0X,.4.<.a & ; 3 O * - o -   O , 1 5 tXSXSXhXkXPXnXmXxXvXt.sX4.6.*.L =.t.t.&.r.-.t.xXr.",
"t.t.5.&.-.r.r.+.=.6.6.*.2.6.sXsXt.xXhXSXSXSXhX3.a , < % X + + $ - X @ $ 3 :.wXwX/ _ hXhXsXwX6.1.#.5 S sXsX*.#.L S S 2.nXaXR R | R S R R r.r.r.X.&.&. .6.cXcXy.-.&.X.&.S &.r.r.S T ' ' 1X1XS._.2Xr.y.q.o.w.i.-.t.cXi.7.q.w.zXy.i.i.o.i.i.o.o.y.o.m X.B < m m = < 9XIXLXyXUXFXFXK.A.R.g.R.NXCXNXCXGXCXXXd.d.4XJXGX<XW.Q.gXqX~ s c t 2 >.s % + X % C sXvX3.aXnXdXfXnXkXkXkXjXjX`.jXsXwXuXuX;.] S F { T.T.0XI.T.I.T.I.T.I.K.K.K.K.l.g g g _ L.` c i t x.AXGX4X,XA.G A.R.R.$X%X4X%X|.F. X[.{.5X$XOX3X[.;X6X,XG 9 T R R S 4 a u P 1.T J G G J.6X6X6X6X6X3X3X;XF.[. X-X5X3X.X$X$X].G.F.{.=X1X6XGXJXSXd y :.>.p u r W Q K.W Q E E E E K { / ~ :.<.wXwX6.L D *.2.Y qXPXUXkXdXdXnXIXnXmXmXnXPXFXhX0 .   $ - A n i g Q L.p K ^ { [ W Y.<X1X4X,XJ.OXOX%XGXGXKXCXCXE.d.r q W <XQ.Q.SXIX9X< < m 1 X.y.y.y.8.8.i.i.q.q.i.i.o.y.i.i.zXw...o.y.y.y.y.o.o.y.fXDX!.G W.' ' e.T S R D X.r.-.X.X.-.y.y.u.&. .D D  .r.r.r.r.&.S R r.e.&.R 5.e.R U U R / aXR 4 sXsX0.lXfXgXgXgXtX0X:.C , @ y y & * - + $ X & , 1 a hXHXPXSXhXkXnXnXfXt.t.sXsX6.O.*.t.e.-.e.-.&.-.r.t.",
"xXt.=.&.&.u.t.&.D =.6.=.t.sXlXmXnXnXnXhXAXSXSXtXa < = % + - $ 8 @ O , * * C 9X:.{ ` aXkXfXvXsX6.2.1.4 aXfXI Y L J 4 e.fX1.U ] e.R S S r.r.y.&.r.O.X.D X.u.y.u.-.X.X.-.r.r.&.S R R kX^.G ^.G !._.dXr.o.o.q.i.8.t.y.8.o.q.i.zXi.i.o.q.cXi.8.y.y.y.u.cXy.%.M m = m >.LXUXgXQ.gXKXW 9 g K.E.+XCXHXHXGX%XoXg.A.4XJX<XW.H K.gXT.u 4 p ! 0 x z y 8 - X + i P ] kXkXdXnXnXmXPXnXkXdX| aXsX:.4.6.4.L 4 R aX0X` ` ,.0XI.( Q ^ Q E Q ( Q Q _ g g L.` c y t l.SXGXOX;X,XH.Z.s.XXOX%X%X$X4X3X}.F.F.{.3X{.4X5X*X*X6XW.9 q T U R S 4 4 4 I ] S F G 9 1X6XJX6X6X6X5X6X>XF.[.-X X}. X.X$X|.b.{.[.H.&X>X5X{.JXNXt 2 c ~ P K J q H I.Q E ( ! / / 3.0X3.;.:.<.<.0.lX$.4 D L L aXPXFXkXe.dXnXnXmXIXmXPXnXkXPXt . + - y s 7XI.T.g q H _ ^ [ /.' A.).JX6XJ.J.OXG.OXJXGXCXHXCXE.k.k.0 9 Y.W.Q.FXPX8X= = * = S y.y.r.X.-.cXi.8.o.o.i.i.i.zXq.zXq.....y.y.y.o.o.y.r.aX`.D.J.JX_.dXkXT T R r.X.-.r.X.D -.y.y.u.X.D  .S D -.r.&.R &.R R R r.fX5.R *.R R J U 3.^ S U fXsXnXvXwXgXgXtXqX9X@.N * ; V ; - % + +   X * , 1 I tXAXUXFXkXhXsXkXxXsXsXxXsX*.O.aXxX2.=.t.=.=.-.&.-.",
"8.-.-.r.=.5.sXwX#.=.2.sXlX5.sXxXxXxXkXhXgXHXUXtXL , , % X + $ - - @ 3 5 & * V 4.>.qXgXaXaXfXvXsXt.fXJ J aXU 1.*.U *.*.e.R e.*.| &.S R r.t.r.r.&.D D  . .y.i.y.r.X.D X.-.D &.R T S } | F Y.D.S.1XdXr.y.o.i.i.y.i.y.X.o.i.i.w.i.w.i.q.q.q.w.i.i.8.r.y.cXy.N m 3 , t SXUXSXQ.gX).r d g k.+XCXHXCXHXGX%X$XG.A.4XJX<X).A.Y.T.Y._ Q E E ! i x 8Xz y o   . : nXkXkXIXnXmXmXIXPXkXaXjXnXFX4.;.wX$.5  .6.6.6.4.>.~ ,.;.! p ! ! p K Q W Q E u u u P.>.y t tXKX6X6X>X=X!.H.F.G.XXXX].3X5X;X X[.F.*X5X3X6X6X3X6X6X<XG 9 F F R ] 4 4 J J D J H G S.1X1X5X1X=X5X6X6X~.H.[.-X X X;X3X3X$X|.{.'.;X:X>X=XJ.JXNXt y C qX;.U ^ J q W Q P.I.) ) ` { qX2.;.:.@.<.0.%.<.@.5 4 4 aXFXjXdXdXnXnXxXIXIXmXPXPXkXaX@ . t y 2 c ! T.T.r K.r g ' Y./.' (.<XJXOXW.<XW.*X3X4XJXGXCXBXNXE.w U.K.Q.W.Q.AXKXyXC * = < , 1 y.i...B w.i.8...y.y.o.y.cXi.i.i...o.y.cXy.o.y.y.-.sX).G Y.JX`.dXnXfX| e.t.t.xXy.r.O.=.y.lX . .&.-.&.X.&.&.R S &.R L U t.fXaX] U R J 4 ' /.[ R fXt.sXvXhXqXT.qXaXqXwX3 = C C y y y     X X + * , 5 { SXAXFXKXkXhXsXkXvXe.sXnXsX*.R fXsX1.lXu.t.&.t.-.&.",
"8.-.+.-.t.R 5.fXe.Y *.lXnXt.sXkXfXfXfXkXFXHXAXtXP 5 < = O X X + & - 3 3 * , N @.9XqXgXgXgXaXlXxXsXsX[ q T [ ] K ] R R R 1.sXe.&.R R R &.&.r.&.D D D D X.y.y.y.8.X.X.X.y.r.&.&.S } fXkX/.`.(.H.2X_.r.8.o.o.y.y.y.-.X.q.i.i.i.zXi.i.i.q.7.i.cXy...8.y.y.-.1 < & - y hXUXSXY.W.A.# g k c.MXCXCXHXGX4X].OX%XG.OXJX2X^.D.Y.Y.T.Y.Q q q p 0X7XP.z - - o . u kXkXnXmXmXmXmXmXPXkXaXkXkXPXaXP s 5 N <.6.lX9X:.@.;.3.4.3.;.` / ! Q _ I._ u E Q ! ) >.y $ qXJX,X5X5X&X&X[..X'.].$X.X.X X X;X XS.[.6X6X6XJX6X6X6X6XG 9 F ' U R J 4 u 4 J ^ e G !.1X1X1X>X*X5X6X6X,XH.&X&X[.-X;X.X3X$X'.|. X&X&X:X*X(.KXBX$ 3 a :.4.{ ] K q q l b 8X8X7X` ! 3.3.4.4.2.<.wX@.:.C I p : ' FXFXdXfXxXmXcXmXIXIXnXPXnXhX4 . y A A 4 ` _ W K.Q.H r H Y._.D.(.4X,X,X<X4XJ.J.2XJXJXAXNXCXCXMXE.+X+XQ.<XQ.Q.SXtX:., * * & , X.i.q.N q.i.q.8.y.X.X.y.i.i.i.i...y.cXcXy.y.y.y.6.aX).Z.2XDX)./.kXkXe.e.e.xXxXt.-.D D y.y.&.r.-.r.-.r.r.D D R &.R S L aX5.5.5.] J 4 T [ /.T dXnXsXqXvXhXT.gXaX3.4.C & ; V ; - ; 8 +   X % O & , 4 qXKXAXKXjXgXdXaXsXhXaXaXfXt.5.1.sXhXsXxXlXt.6.6.-.=.",
"-.-.-.-.xX5.1.kXsXL *.lXnXsXsXsXkXaXhXkXUXKXAXSX/ 4 , * + X   . X - 3 C 5 3 , 2 wXqXqXaX/.{ fXvXlXwXkX[ [ aX/ 4 S / R U e.fXsXR S R R R S &.r.O.X.X.X.X.X.u.xX-.D &.y.y.y.e.r.| e.kXkXaXDX2XA.J./.r.y.q.o.y.y.i.u.X.o.i.i.i.i.y.o.i.8.o.i.i.7.N 8.y.X.1 * < & 3 ,.yXSXAXQ.W.K.K.g w E.NXGX%XHXAXGXOXW.,X,XW.,XJX<XW.Y.Y.T.W E W H g I.I.` y 2 y -   > vXnXnXvXmXmXmXnXnXfXdXdXjXFXaXu a a @.<.V 6.2.#.:.1.4.4.;.,.>.~ ) ) ` E q q J _ _ ,.:.y 2 8XJX*X*X>X=X;X X'..X%X4X$X;X X[.-X-XH.H.1X6X6X5X1X5X5X6XD.G G ' J J u u J 4 q G e Z.1X=X>X5X>X=X6X6XJX,XH.&X&X[. X3X.X3X%X|..X X[.&X>X1X6XKXx.t 2 i 3.qX{ W W q l l.k k k n P.P.L.L.L.I.>.,.9X4.:.:./ ^ q ' DXdX/.fXxXxXmXmXmXnXIXnXkXmX5.@ a :.A u 0XW H W K.K.K.' Y.D.D.D.,XOX<XJX6X(.(.(.DXJXJXGXGXGX+XQ.g.s.r W.Q.Q.AXBX9X3 O = < <  .i.q.B 7.7...o.i.o.X.y.cXi.i.i.8.y.cXcXy.y.y.y.t.sX).W.DXJX2X^.jXkXfXr.e.xXxX&.&.D D y.xX-.-.y.-.&.&.O.S D R e.R Y 1.1.R U aXaXJ J 0XaXW W dX&.1.sXSXtXI.qXqX] 2.3 * C C * X + $ X X X & * , 5 ~ hXHXSXKXDXgXkXkXhXsX5.1.sXdXt.e.aXhXsXt.u.lXy.u.t.t.",
"-.u.-.6.mXfXaXfXaX5.5.t.sXt.wXkXsXaXsXhXFXHXGXKXqXa * & % +     o ; 2 - 3 C 3 * C wX0XqXqX{ sXhXsX5.kXdX| aX[ U 4 J 5.[ 5.aXe.R S R r.R S R r.-.-.r.r.&.X.-.y.X.D r.r.y.xXr.e.e.fXkXdX^.FXJXD.Y.e.-.y.i.y.y.i.i.y.o.q.i.cXi.cXy.o.o.8.8.w.w.o.B i.y.1 , & , O y 9XSXHXU.<X).Q.2XQ.R.NX4XGX<XJXKX6X6XJ.OXJX,X,X,X2X<X`.Q.W G q W Y.K.Q I.` i a :.y o > hXnXnXmXnXIXmXnXnXnXdXdXjXFXY.2 i a :.:.:.9X<.:.4.3.0X0X` x >.9X7XP.x i q E ^ T.qX3.c 2 2 U.KX6X*X:X*X&X[. X].].$X3X3X-X[.[.&XH.*X5X6X6X,X*X>X1X1X=XG e G K u u L [ G : 9 G H.;X=X5X5X5X5X6X6X2X=X!.:X:X&X X5X$X3X%X$X3X[.-X>X5X=X6XKXU.- y @.wX0XJ W _ g l l.x.l.k k l l g k.l k.b ( 7X,.) / ( ^ W ).).G } fXfXfXcXmXmXnXIXnXnXIXvX, 2 a a p _ g q 9 K.AXY.Q.^.G D.A.W.<XW.<XAX<X,X(.<XJXJXKXGXJXJXGXG.G W.K.).<XgXUXyX3 O = * * m ..o.o.q.7.o.y.y.y.X.-.i.i.i.8.q.8.i.cXy.o.X.y.r.aXjX,X2X6X1X!./.jXfXr.r.xXfXr.r.&.X.r.y.X.r.u.-.X.&.r.&.X.&.*.1.e.e.U J U 5.[ J [ /.T.J /.dXS R hXFXyXT.qX3.5 4 3 ; y ; * $ + X   o O @ < 5 I 0XtXAXJXSXFXDXgXFXFXhX^ aXaXe.e.3.5.kXkXlXt.y.lXu.lXcX",
"y.t.y.t.lXsXsXhXaXe.aXe.sXaX3.kXhXhXfXgXFXKXGXKXtXI 5 < * % X o + + o   * 5 a * 3 wX;.3.sXT.T.hXaX5.5.aX' T [ /.J J { e.R T 1.] S R r.R S D &.&.&.&.r.y.&.y.xX&.S X.e.t.xXr.| r.fXkX/./.JXJX1X).hXt.r.y.8.8.cXcXy.-.8.i.i.y.y.X.X.y.y.o.q.q.B M cXo.< < , & O V 9XSXNXE.).A.e A.R.Q.+X%XJX<XDXKX<X(.W.,X4X4X,X,X{.W.D.D.Y.Y.' _ H H W _ / a ;.C 2 * 9XvXnXnXIXcXmXmXmXxXxXfX_.`.`.Y.w ! :.;.>.3.9X<.` ` _ W K.L.U.L.b f k k l E g J T.qX3.s 2 - k KX6X5X5X-X}.[..X}.$X4X$X*X-X[.[.*X&X&X1X6X6X5X5X5X=X=X=X!.G 9 r i P ! W r G Z.G.[.*X-X>X5X5X5X6X6X6X=X!.&X&XH.*X6X3X{.XX$X3X.X:X>X>X*X6XUXeX@ C <.wX2.s K I.Q k l U.x.k.g r r g Q g Q ( _ ,.~ P s p W W ).).G } dXfXfXxXxXnXnXcXnXmXmXlXC , 2 a i p r H r ).AXQ./.W.H e J.4X<XA.AXgXAX`.Y.(.2XJXJX,X<X6XJX,XJ.<XW.Y.Q.AXSXSXC * & & = m ..o.q.q.q...-.y.y.r.y.y.i.i.y.y.i.i.y.r.X.r.r.r.e.).2X1X1X1X!._.dXr.r.r.xXnXxXr.&.&.t.r. .t.y.-.-.t.u.&.&.&.R Y aXaX] J ] [ J J T./._ W aXe.e.fXhXSXSXtXhX4.@ o , y ; - @ 8 -     o o * , 3 ;.I.gXAXGXAXFXgXgXFXPXaX{ 5.5.aXaX3.aXPXfXlX2.6.u.t.xXmX",
"t.u.cXu.u.lXsXkX{ aXaX5.sX5.[ gXPXFXhXjXKXHXGXHXgX3.5 3 ; @ o o X   - @ - 2 3 2 , 5 a 4.qX{ gXFXhXqXP dX[ q ' aX[ J [ /.T J ] 5.e.} | R R R &.&.X.&.r.t.&.y.xXX.R &.r.fXnXr.r.fXjXjX^.(.JX2X(.).jXr.r.r.X.y.cXcXy.8.8.q.i.y.y.X.X.y.cXo.M 7.o.o.7.B m < * & * A LXSXQ.AXOXW.Z.A.W.GXJXJXJXJXJXKX).(.).(.JX2XW.,XJ.A.D.Y.T.Y.' ).H 9 r Q ! s a C * * nXIXnXmXmXmXbXmXcXlXfXfX} F <X).Q I.;.;./ ;.,.~ ~ E W H H g k.d d l.P.U.k.q W K W { 4.$.N @ k KX6X3X5X5X;X X X$X4X4X.X>X;X[.;X:X!.!.5X6X6X5X3X6X5X=X:X!.Z.e q q s / ( W A.G.{.{.-X-X;X>X5X6X6X6X6X=X&XH.H.H.H.3X6X$X].$X.X;X-X>X-X,XJXUX8X$ 5 9.lXlX1.u P ( l k k.K.l.k.K.K.K.K.W E ^ ! / s P p K E E K.Y.Y././.dXkXkXe.t.y.mXmXmXsX9X6.3 O 2 u j K.Q.AXQ.Q.KX).Y.A.W.,X<X<XY.DXDXjXjX)./.<XDX6X,X,XJXJX3XOX(.2XD.2XGXAXUXyX3 % = m m M q.o.o.q.i.-.X.r.y.o.y.i.i.o.8.i.8.8.-.&.r.y.r.R `.2X5X=X=X=X_.e.r.r.r.fXcXxXy.r.-.-.O. .r.u.&.-.u.u.&.} R R R ] 3.] J U J J ' Y.' T.gXT.e.aXkXgXSXAXhXwXD @ * * - - % + + +   X   @ , , 5 ;.P.tXJXGXAXKXDXSXUXFXqXaX{ [ aXaXqXkXPXfXsX .&.lXu.xXnX",
"fXu.u.-.6.lXvXkXaX[ e.e.e.5.{ tXPXFXtXgXDX4XGXGXtX0X@.5 , * O   X + - - - @ 2 3 < O , :.wXtXSXSXhXhX*.sXaX' F T.' J W [ T T [ 0Xe.R R &.&.&.r.y.+.r.y.u.&.&.u.&.r.t.xXxXnXr.r.r.fX`.^.=X5X1X1X`.dXe.r.r.&.r.u.u.u.y.q.w.y.y.y.y.r.y.y.-.o.q.q.o.M m m = & @ t A LXHXtXW.D.<X,XA.GXJX4X,X1XJXDX).).).`.<XDX<XG.<XOXA.G A.(.).).FXY.e r g x i 2 2 * C vXmXmXnXmXmXmXlXmXxXdXdX/.G <X).K.P p L P / ,.~ ( Q r H A.A.d.k.k.U.k k l.U.T.^ K { t.-.5 O B.UXJX*X>X5X>X X5X$X].].;X6X;XH.&X=X&X=X5X6X6X5X*X5X5X>X&XH.H.Z.e g p ) ( K.d.G.XXH. X-X;X>X5XJX6X6X5X~.!.H.H.Z.Z.3X4X4X4XXX.X.X[.-X>X3XJXUXeXO < %.y.mXxXL p x s h j l l.K.L.Q _ ` K K P I #.L 5 5 P P J W H gXdXaXdX/./.e.e.r.cXcXlX:.:.uX:.& @ > x U.SXAXH W DXW.A.W.JX<XW.).DXjXgXjXjX`.).jX2X2X=X3X6X6X3XJ.G.2X(.DX<X+XUXLXa % = = = m i.q...w.cXcX-.X.r.X.y.cXy.X.o.y.y.o.-.&.r.r.S R `.1X1X=X=X!._.| r.y.y.fXxXfXr.r.&.r.X.X.t.6.-.-.u.t.&.R R R ] 5.{ ^ T : q ' aXW H ).aX{ e.e.jXgXAXSXhXI , , 3 3 + + $ +   X X + o * < 1 :.0XtXAXGXJX<XDXSXFXPXgX0XsXaX{ aXT.T.kXPXnXsXO.&.sXt.lXnX",
"fXfXu. .%.lXfXPXjXT.dX5.{ 5.gXgXFXFXgXkXKXAXGXGXtXI.Y 1 , * O X   + + + # $ * , * * @ 5 hXhXQ.SXgXPXfX] aXdXY./.T.[ H J T J U aX[ T R e.R *.t.u.t.X.t.y.&.D &.-.&.u.cXmXcXt.r.r.r._._.=X=X5X1X2X} } r.r.&.X.r.u.8.i.o.y.i.i.y.o.y.X.X.y.q.q.q.q.o.m m = * @ v LXSXAXKXW.,X,X,X,XJXJX6X,X,XDXDX)./.^.DXDX).<X).DX2XW.J.A.W.<X).).(.).T.l i t a @ 1 uX0.lXmXnXmXxXlXsXnXkXaXdX/.^.H K.E p u 4 P P ;.~ ! E W Q K.k.r l l.L.l.k l j _ P / sXu.%.N & t UXJX1X-X>X;X;X.X3X].{.6X6X&XH.H.&XH.!.1X5X6X6X6X6X>X-X&X&X&XJ.A.W P.P.g g w c.g.f.}..X;X;X3X6XJX6X5X&X&X!.S.G H.6X4XJXGX]..X-X&X[.>XJXJXUX>.@ < ..u.cXmX6.@.I s j j g g Q ( Q _ ` / Y / #.$.L D 5 4 L U ! K T.gXSX).^./.| e.y.u.lX0.6.@.4.<.N @ o $ b Q.AXR.K.W.K.A.,XGXJXAX).gXgXT.T.qXjXgX2X2X2X~.1X6X3X3XJ.,X6X6XDX,X<XHXUXy = % = = m 8.q... .0.y.X.X.-.X.X.y.y.-.y.y.8.r.-.&.y.r.S | 2X=X~.!._.S.| | y.r.r.xXcXy.-.&.-.t.&.D -.r.r.t.t.&.S R r.R ] aX5.K T : q /.jXY.' gX0XsXkXdXaXQ.tXUXhX, @ 1 ; ; 8 + X + + X X - O & , O.0X( tXtX+XGXAXAXJXFXSXqXaXkXdXT./.K.aXkXsXsXt.t.lXfXt.r.t.",
"sXt.t.-.-.lXnXPXjX[ /.aX[ hXgXT.gXPXFXgXDXAXJXHXHXT.4.$., , * O O X   . $ + + @ * < 3 , >.hXSXAXgXhXfXe.qX/.jXH W gXT.q F : J 0X5.[ U ] *.&.r.lXt.+.-.u.&. .-.r.6.-.xXcXxXy.y.y.e._._.=X=X=X1X2X/.T r.t.r.R X.8.i.y.X.8.cXy.X.-.r.X.-.cXzX7.q.w.q.m = = & * rXUXHX).GX2X2X,XJ.~.4XJX6X,X,X2XjX`./.gXjXjXjXAX).).W.2X<XG.A.<X<XA.K.FXgXP.( > @ @ $.uX-.-.nXxXmXlX*.e.jXgX)._.dX/.E E P P p 5 a @.;.I I s E I.L.L.K.L.Q g h z s c a a wXmXcX-.N @ z UXJX6X>X-X X;X.X|.$XJX3X5X[.Z.H.H.S.!.1X5X6XJXJX;X-X;X X[.{.G.A.k.L.P.k j.k.c.R.].XX{..X;X{.1X2X5X5X=X&XH.S.Z.,XJX4XOX4X%X3X;X-X[.*XJXKXKXP.O 1 o.8.i.cXzX<.C a ~ ( E q g E b b ) ) ,.,.;.2.$.@.5 5 I 1.U P T.qXAXAX).^.aXsX-. .0.$.6.6.uXuX9X<   $ c l.K.d.A.W.OX<XR.A.<XFXjX/.' E ^ T.jXjX).<X1X5X,X3X6X{.{.J.,X2X6X4XW.AXKXA * * = = m M 8.%.N  .&.&.X.X.&.r.y.8.-.y.y.y.o.-.-.cXr.L /.2X*X=X_.G G dXfXr.r.r.y.y.y.-.+.8.r.D  .-.r.&.=.&.D S *.5.U ] aXqX[ [ J q ' ^.Y.Q.aX{ / sXhXgXY.Q.PX/ @ < , * ; - +   X +   X @ @ , 5 6.,.tXtX+XAX+X4XAXKXKX0X4.nXkX/./.T.).gXgXt.t.t.sXxXnXfX6.D ",
"e.sXsXt.-.t.lXhXkX[ ' [ T.dXhXaXgXhXFXFXAXGXGXCXQ.tX/ #.L , @ O O X X X + . o - , < < & 2 yXKXAXtXgXsXsXaX[ `.' Y.jXT.G F S ^ { aX] U 5.5.D *.u.u.r.-.r.&.&.6.t.-.=.u.cXcXy.r.r.r.} D.!.=X!.!.2XgXJ &.y.&.&.r.8.i.i.o.-.y.y.X.X.X.X.r.i.8...7.w.M = = = * # eXUXAX<XJXDX6X1X[.{.6X4X4X,X1X<X2XjXgXjX/.T./.jXgX/.).JXJXW.A.R.OXA.R.AXeXh > @ @ a <.<.@.2.lXlXsXsX] /.).(.).DXjX{ K s P P L 4 5 @.:.#.;.~ / I._ j Q Q j j s s a c a wXmXmXy.X.m * c UXKX6X*X[.-X X.X{.$X4X5X6X*Xf.F.~.!.&X=X6X6XJX5X;X;X.X[.b.F.G.d.g l h.w h.j.c.c.c.].F.F.{.J.,X6X=X:X:X:XH.Z.Z.*XJXJX4XGX4X3X5X[.-X;XJXKXKXb @ m 8.i.zXzXlXpXV C x ! W j q i b b P.( ) ) :.:.;.#.@.I ;.4.,.{ qXQ.Q.W.)./.T.5.6.%.%.<.uXbXLXvXlXa O - t t k g R.+XQ.W.R.K.Q.FXFXjX_ J T.aX`.jXDX2X(.,X1X3X3XOXG.Z.~.2X6X3XJ.+XKXqX- * = m m ..-.u.=. .+.-.X.X.&.-.r.y.y.y.y.y.-.r.y.cXy.t./.J.~.!.^.' /.kXlXr.-.-.-.u.xXt.-.t.=.D D &.&.D D *.S L 1.3.U [ aX{ ^ J J W W W ' )./.5.1.aXgX).T.gXSX5 @ 5 ; - % +   o   X X o O , @.$.2.0XtXE.GXCX+XJXGXAXqX0XsXnXkXaX).Y.AXgXaXt.6.e.sXxXnXfXe.&.",
"e.fXnXxXu.sXfXsXhXaX[ T.aXaXFXhXqXT.FXFXAX<X+XGXQ.NX{ Y 6.5 , @ O o X o .   X * * ; < - @ n PXtXK.aXhXaX[ [ /.T.Y.).T.H q T [ { aX1.L 1.5.S S =.-.&.t.t.D D t.t.&.&.t.y.y.r.r.r.fXdX' G ~.1X*X(.gXY r.y.r.X.r.8.i.i.8.y.y.r.X.X.X.X.&.&. .N 7.q.M m = * @ > yXFX+X(.JX2X2X~.H.J.3X4X3X5X2X2X<X`.).gXT.W J ' /.gXDX).Y.W.OX+XW.d.K.L.) z @ . 2 6.uXuX<.<.6.6.&.-.t././.).<XgXgX{ ~ ;./ Y 5 5 @.:.2.;.4.>.>.,.( Q E E q p ~ a 5 C :.lXmXzXo.o.m & f HXKX6X;X[.-X X3X$X%X+X3X6X3XZ.F.&X&X!.5X6X6X5X*X;X;X.X}.].G.R.d.k.h.k.h.k.v.k.k.XXXXG.F.{.H.*X1X~.&X=X>XH.Z.Z.,XJXJXJXKX4X3X5XH.-X*X3XKXHXj @ 1 8.cXmXbXbXbXpXA A ! Q j q u h v l.P.P.7XP.>.` c c >.7XqXU.U.E.E.E.U.gXhXqX4.=.%.%.9.uXbXbXIXvXlX* o $ t z.L.R.R.R.A.+XAXQ.aXgXgX/.T.T.T./.DXDX(.J.5X6X4XOXXX{.*X1X2X6X6X6X<XKX8X3 ; = < m -.u.xXsX&.=.y.&.S &.r.8.u.y.y.8.r.X.y.i.mXxXt./.^.~.^.D.T dXmXxXr.r.-.u.y.cXu.+.-.&. .D &.R L &.&.R R 5.5.U 3.aX[ ^ J W ' W q H /.Y.[ ] aXjXgXQ.SXSXL , < * ; - + + + X   o @ * 5 <.;.) yXNXE.+XQ.OXJXJXAX_ qXsXsXsXaXT.T.AXkXqXr.=.5.fXnXfXsXt.t.",
"e.fXnXnXsX5.sX6.e.hXjXT.T.gXPXPXaXqXgXDXDXGXOXHXBXtXqX3.3.;.5 , @ X   o +   . + * & = C @ t SXgXI.gXkXe.] [ gX).Y.W W J J J [ T.aX3.U Y 5.L D O.O.D +.-. .1 +.t.&.-.r.y.y.r.-.r.r.kX_.' D.(.1X~.aXaXt.cXy.r.X.y.i.i.y.y.r.r.&.X.X.r.&. . .6.u.o.m m m % @ i SXKXW.(.6X2X1XJ.H.F.$X3X3X,X1X1X`.DX).gX/.' J [ jXFXFXU.A.R.+X+X+Xk.w d i y @ . a hXvXZXbX6.$.$. .&.sX| T.<X<XW.U.tX) 7X0X` P I ;.;.>.` ,.) x b x ( g p u Q ) c a C pXpXvXlXy.8.m @ z LXKX6X5X&X X3X4X3XGX3X5XJX5XF.S.H.!.=X=X1X5X3XH.*X[.b.].XXg.c.k.x.w h.a.h.R.c.g.R.R.G.J.J.A.J.*XH.&X>X5XH.F.F.5XJX6X4XKX4X$X XH..X{.<XKXSXi @ m ..i.bXIXbXIXpX9X9X7X( ( ( z h k b P.P.P.7X8X8Xn n z.eXP.U.U.U.K.K.K.tXSXwX4.<.<.<.bXiXpXvXvXhXLXc @ + t h t g g k.R.AXSXQ.W ' /.jXgX' H ).DXDX(.OX3X5XJXOXJ.3X,X1X2X6X6X4XAXFXb t ; = m N -.xXkXfXt.t.u.-.X.-.r.-.-.8.o.-.X.8.y.8.y.t.R ).1X~.^.} | r.cXcXy.8.0.i.u.i.-. .-.6. .D S D R 5.e.R T ] [ U { aX^ J J W [ ' q G T.T.{ 5.aXqXtXQ.hXhX$.* O & ; - + +   X o o @ 5 :.:.s 8XhXtXNXE.c.NXGXKXDXyXhXsX/ 5.T.Y.).gXgXsX=.=.e.fXxXsXt.e.t.",
"t.fXkXnXsX1.5.r.5.sXjXY.T.gXfXhXgXqXY.AXKXGXoXNXHXE.tXtX/ ;.4.a * O o X X + o . - - * 3 * y hXSXQ.gXaXaX5.R T.).K.e J T ^ J J [ aXaXU R 3.R U 1.&.D L &. .D &.-.r.r.lXy.r.-.X.8.y.xXfX| ' ^.~.(./.e.y.cXy.y.-.8.y.y.y.y.r.-.-.-. .u.6.&.5.fXxX8...< < = ; i SXKX<X<X2X2X1X(.,X{.{.3X6X3X,X~.`.DXDX).Y.T././.jXkXgXQ.AXE.A.K.E.E.k.b t - o @ wXvXIXIXbXuXwX%.%.&.=.5.aXtXQ.K.E.eX8XE.qXI.^ P ~ ~ ) ` I.P.( b k g q g j ( >.A :.<.bXbXbXcXi.8.N * t GXKX,X>X;X'.3X4X4XJXJX6X6X6XH.Z.F.&X=X*XH.,X3X{.{.F.f.].R.c.c.c.v.h.a.a.d.g.d.g.G.G.R.{.J.Z.Z.H.H.&X&X[.F.F.H.5X6X,X4XKX4X3X;X-X.X3X4XKXSX) > 1 @.6.nXIXIXIXZXpXpX9XA >.8X:.A z x n x b n P.8XP.z.L.E.E.E.E.K.K.L.( yXhXwX<.@.<.<.uXiXuXyXhXyXSXhXt @ 2 2 t h l U.U.E.T.g H W ).).).).D.W.2X6X,X,X1X3X6X3X3X6X~.J.5X6XJX2X<XAXi y 3 ; M m r.t.dXdXfXfXxXu.-.8.8.8.-.X.o.o.o.8.o.o.r.r.| dX1X(._.dXdXr.y.y.y.r.y.u.-.-.+.+.r.5.L S L R R R R R S R ] ^ [ [ ^ J W ^ ' W q G T.jXaXaXaXE [ Q.qXsX:.* * ; ; + o @ X X o O , C 4.) ,.tXSXtXNXE.c.NXAXGXAXFXhX{ [ hXT._ hXaX5.sX5.2.aXsXsXe.6.t.0.",
"e.dXfXkXfX{ &.6.lXaXhXT.T./.qXqXsXaXgXAXJXHXNXc.E.NXtXhXI.P wXC 2 * O o X + + o @ 3 * - @ c vXaXgXqXT.aXe.] [ Q.G q W ' ^ W J W 0X[ U ] 5.U U e.5.R R D D  .&.&.X.=.u.y.y.8.r.y.xXmXt.} | ^.~.(./.| t.y.y.o.y.o.o.o.o.8.t.6.-.-. .t.u.r.e.fXxXt...m < = 2 i tXJX<X6XJXDX`.=X1X{.].4X6X5X(.!.1XDXDXY.' Y./.aX/.T.K.Q.AXNXk.k.K.l j n t + @ / PXhXvXvXpXuXuX<.<.%.$.uXhXtXU.K.U.U.E.U.U.U._ ! ~ I.0XU.I.U.L.L.j h h b n A >.>.,.pXLXIXIXmXy.X.1 @ 8 NXKX(.H.*X[.[.3X%XJXJX6XJX6X].F.H.=X>X!.S.*X*XH.J.J.G.XXR.c.c.c.c.a.g.g.g.g.g.g.f.d.R.W.Z.s.s.Z.F.H.[.H.Z.H.F.{.3X$X4XKXGX6X5X&X;X6X4XJXKXhXt 1 D 5.nXIXUXUXLXpX9XV 9X>.A A A a s ~ x x ( ( ) l.l.l.P.eXNXE.U.U.Q ! >.<.0.6.V %.Z 9.bXlXpXqXAXSXKX^ @ 2 a a i d z.P.b l q H ' ).).jX<X).(.J.W.,X*X3X3XOX{.6X6X,X(.2X2X6XJXDXgXi 2 3 = <  .r.r.} | kXnXxXlXu.0.i.zXu...o.y.y.y.o.y.r.&.e.jX_._._.e.fXy.r.8.-.u.u.u.-.-. .+.6.-.D S D Y *.R R S J U [ ] 5.qX[ ^ J [ U J J W Q.gXaXaX{ J T.qXqXhX@.2 , ; O o o o o O o @ 2 I 8X7XtXtXE.NXNXE.VXNXNX<XgXFXaXT 0XaXqXaXaXsX5.Y 2.5.e.aXe.5.sXt.6.",
"e.e.aXaXdXe.&.=.t.wXgXAXY.Q.e.1.3.gXFXAXGXCXCXc.c.NXtXgXqX~ ,.:.a , % + X X @ + + - ; * * :.vX3.tX/._ e.t.e.gXQ.r e W ^ U ^ J J [ ] U ] R J U R R R R D 1 D -.t.O.O.t.u.y.u.8.y.y.xXr.r.e.`.(._.dX} X.y.r.o.y.o.-.X.X.8.0.0.9.8.-.lXxXfXdXdXfXu...m m ; 3 t tXAX,XJXJX2X1X~.1X4X3X4X6X,X=X!.(.JX1XY.^.).`.gX/.H H K.E.Q.E.L.l t t t - + t yXvXqXvXvXuXzXuX%.%.<.6.uXyXyX( Q K.K.E.E.E.U.( ( P.eX8Xn b l l b h v >.8X9X<.A <.uXpXIXIXIXcXy.X.3 - l.HXJX2X;X;X;X$X$X,XJX6X,X6X3X{.F.F.!.&X&XH.H.F.s.A.R.W.A.c.g.j.c.g.a.a.f.g.f.f.f.s.s.s.s.s.s.s.s.F.&X&X[.H.F.H.[.;X3XGXGX%X6X5X&X*XJXJXHXKXgX2 , 1 1.fXkXPXIXZXpXpXV V C C C A c c ;.>.) ,.x x ) x i h I.T.I.I._ ^ I @.<.0.0.V V V %.pXvXwXtXHX<XKXjXu @ , , 2 2 y z n ( g H H Y.).).).2X1XJ.H.{.3X5X3X{.*X5X6X1X2XDX6X2X).DXhXi * ; * m X.r.e.| /.dXe.e.u.0.w.cXcXq...X.o.i.y.y.y.y.r.fXdX_.`.e.r.fXxXy.8.X.y.u.8.-.&.X.O.6.=.L D L R e.| R S u J [ / { aXaX^ [ ^ E W [ T.T.I.^ ^ R T 0XqXeXhX@., & @ o X o   o O O @ , a qX8XtXeXE.eXeXNXHXNXtXtXSXjX/.T./.0XqXaX5.sX5.D 1.qXaXsXe.6.sX0.0.",
"t.t.5.aXgXdX=.=.=.4.aXgXT.aXhX] { hXFXAXAXGXNXMXE.BX+XtXtX0X>.,.:., O % X X + o X $ - 2 3 a sXqXtXT.J [ aXsXgXtXY.H W T ^ ^ J [ | ] [ { T J T R ] R R D S D  .t.=.+.X.-.8.y.r.-.y.r.y.fXr._._.~._.} } r.r.X.y.i.8.o.X.o.zXi.w.0.0.zXxXnXdX} e.t.-.< m < 3 - b KX<XJX2X2X_.D.6X6X4X3X;X3X1X*X,X(.,XW.(.`.DX).Q.W W q l U.I.b i z z 2 2 - ~ PXSXSXrXpXuXuX9.%.Z Z 9XuXwXqX! E l L.E.eXtXz.k n 8Xx.L.x b x x c c :.A A A V V 9XpXbXIXIXIXxXr.X.5 y eXUXJX6X6X;X X3X6XJXKX4XOX3X3X{.Z.H.S.!.&XH.F.s.Z.A.R.W.A.g.m.g.a.g.g.a.a.g.a.f.f.s.s.s.e e f.s.Z.F.[.=X-XH.'. X*X$X$X$X+XOX6X3X-X*X6XJXKXKXSXs , O.aXjXPXPXLXbXZXZXpX<.@.V :.:.@.a a s I ,.~ s s c s s ~ ! K / / >.@.$.2.0.uX<.Z Z Z uXvX9XhXAX4XDXKXqX, @ o , - t t ) Q q K.W.(.<X(.<X1X~.S.J.{.5X;X3X3X3X,X,X2X2X2X2XJX<XDX` - & m m m X.r.R /.} ^.[ 6.0.8.8.i.i.i.X.X.o.o.o.y.r.y.y.kXjX`.`.dX} r.y.y.y.-.y.y.t.-.-.=.=.5.R D R R R ] [ R S U J ^ ] { sXaX[ 3.T ^ [ { /.gX' J J J U [ ~ ,.7X,.3 & & O o   o o O @ & * a yXyXv.E.MXK.NXMXBXeXeXhXFXT.[ gXT.[ qXwXu.t.-.Y 1.aXsXfXsX2.2.6.0.",
"-.6.e.sXaXaX5.#. .t.sX3.aXaXT.3._ aXgXgXMXNXNXCXBXeXtXE.U.tXtX,.@.2 * @ O o X . o   @ * - C wXwX0XT.^ U R { [ T.T.W ' ^ ^ { [ ] e.] ^ { ^ J J T R R 5.R L D #.t.&. .O.-.-.u.u.-.o.y.y.xXr._._._.| fXr.r.8.y.i.i.i.o.m o.cXcXzXw.w.y.sXdXdX[ 5.r.%.m < < - - U.KXDX6X2X2X2X(.6XJX3X[.*X5X,X*X!.J.J.2X2X(.).W.D.K.W q j c i t 4 t y 2 @ P gXKXDXAXyX6.zXuX%.V M Z uXpX<.:.;.~ ) I.U.tX7Xl z n n z j _ ~ c >.c a :.V V 9.V B.uXpXbXLXIXFXhXr.5 , 2 eXKXJXJX6X*X.X3XJX4XGXGX4X$X.X[.H.F.[.&X&XS.Z.s.e Z.d.G.f.s.f.f.g.g.s.a.s.f.a.b.f.f.s.f.s.s.F.s.f.{.{.[.[.{.'.'..X.X$X4XOX%X6X;XH.;X6XJXKXKXHXz 3 L gXjXFXPXIXIXLXIXIX9XZ @.:.2.:.;.;.:.I @.6.C $.@.s #.I P 4 P I :.$.@.<.uXuX<.Z C 6.uXwX,.hXHXJX6XDXjXR , , - - ; t s Q k.k.Q.+X<XJX(.D.(.D.J.;X3X3XOX4X6X5X(.2X6X(.(.6XKXFXp & = m m 1 &.r.S T `.`.[ t.0.o.o.i.mXi.%.o.o.7.8.8.X.t.nXkXjX_.`.| r.r.r.y.r.o.y.cXu.X.-.6.&.=.*.L R S S | e.T L U ] { R { sXaX] 5.' W [ [ [ aX^ J S K U ^ 1.0X:.:.C , & * @ X X + + O O , a ZXyXv.HXNXoXSXHXBXE.hXPXnX{ 0XaX{ sXsX1.t.-.=.6.qXhXhXsXe.6.6.0.bX",
"u.-.2.hXhXhX4.=.D 6.t.sXqX5.[ qXaX[ gXFXSXQ.tXNXNXE.E.eXeXU.eXwXa , O O O o   o o + % * - :.wX,./ ] [ U J J U aXT.[ [ ^ T [ [ 5.sX1.^ [ _ F J S e.R ] *.L L Y =.=.&.-.-.-.u.y.-.r.y.y.cXr._.`.`.`.fXxXfXr.y.i.i.o.o...o.cXcXi.7.8.u.| | _./.e.&.-.X.1 < = - i AXAX2X2X`.2XDX<X,X3X3X{.3X,X3XH.S.J.(.).).).<XW.R.A.g x c y 2 - $ & @ , 5.DX2XGXGXyX9XvXlXA V 9.9.9.9X<.:.:.>.` / ( ` ) z p s c s ~ ` @.c A C C V V V V V pXZXbXLXIXPXPXjXt.D 2 y tXKXJXJX6X3X[.5XJXOX$X4X$X$X.X{.'.H.&X&X[.F.s.Z.Z.s.e s.s.s.f.F.s.f.f.s.s.f.f.f.f.b.n.g.s.f.F.G.F.{.$XG.'.{.{.@X|.@X].OX4XJX6X;X[.;XJXJXAXKXtXt 3 I ).jXFXPXvXIXUXLXLXvX@.<.<.C C 4.@.@.@.@.C 2.2.$.$.;.#.P s a a V $.@.:.<.<.9.<.<.0.6.wX0XNXGXKX6X2X2XfXD : 4 y a a ! U.U.c.c.Y.K.W.^.W.W.D.{.{.{.3X4X4X4X1X1X2XDX,XW.4XKXFXt O m m X.X.&.r.| T ^._./.lX0.8.o.-.y.zXw.8.o.o.o.o.-.t.fXDX_.!.^.| fXr.r.y.8.8.y.y.-.+.&.=.=.1.*.1.L S 4 | ] R ] R 0X0XU 1.sX5.{ aX[ K ' ^ W aXT.J L / { 1.{ 4.4.4.:.3 * & o X + + X X O , a yXBXBXVXMXNXHXSXNXhXPXhXaXsXsX3.aXaXt.5.8.6.=.6.sXaXe.1.6.lXuX0.i.",
"8.6.6.sXhXsXqX5.=.2.6.sX5.wXaXqXaXY T.PXFXtXtXNXHXBXeXNXBX8XtXpXa * @ O O O o o o @ * * y :.wX;./ ^ U K J J U T.[ [ T.E ^ [ [ 5.sX5.Y [ [ J T T e.] L L Y L R &.&.&.t.-.=.xXy.y.X.y.y.r.r./.`.`.`.kXkXfX-.X.q.o.o.o.o.8.cXcXw.7.q.6.| } _./.R *.-.m m 1 = * > qXKXJX2X(.`.2X2X,X6X5X3X.X3X3XJ.J.Z.W.^.).DX<XQ.W.r l l h t - @ * O , *.kXDXJXKXHXyX4.uX6.:.C <.9XuX9X<.:.:.@.I s s s ~ ~ c ;.;.:.:.:.A @.:.:.#.:.<.9XV 9XIXLXZXIXIXPXFXjXaXR 4 i AXKXKXJXJX5XH.*X6X4X$X%X$X$X|.{.'.[.-X{.{.[.F.f.f.s.a.s.f.s.f.f.s.s.f.p.f.s.b.F.'.f.f.f.f.g.g.G.G.R.OXG.f.].OX@XXX@XG.].%X4X3X-X-X>X5XJXDXSXtX$ 4 { dXjXPXkXLXIXIXIXLXIX6.$.6.<.$.<.C 4 C C 3 5 a 5 a a S s P L a C C @.@.$.<.9X9.<.<.6.wXqXtXAX6X6X=X_.FXe.4 5 3 5 u x E.R.K.k.d.K.A.K.).<X<X(.J.F.,X4XJX2X_.1X2X2X<X,XJXKXtX, % = N X.r.&.R e.T T | | u.w.q.o.%.-.i.i.q...M 7.-.X.e.dX_._.!.^.} fXy.y.r.X.&.y.u.&.&.&.O.*.*.] e.R S J 5.R J U [ 5.] L 5.e.[ 5.5.[ ^ J u J 5.hXU J U 3.{ / 3.4.wX6.a * & + + + + + X % ; C yXyXMXMXE.NXHXE.tXSXFXqXqXnXkX6.sXwX6.t.6.2.$.sXkXhX5.Y 6.lXu.0.0.",
"8.w.t.2.5.aXsXsXt.2.6.6.6.sXsX5.1.aXaXaXPXhXtXSXLXHXMXBXSXrXBXyXC * O O o o o   o & - 3 @.<.4.0X{ ] [ U U J [ aX^ ^ [ T [ e.[ [ t.5.U { aX^ T T | R L S D R *.&.&.O.&.-.-.y.y.r.r.y.y.r.fXdX_.} _.`.kXr.r.X.o.o.o.o.q.i.cXi.8.8.0.u.aX_._.' F r.r.X.X.m m & @ 7XUXJX<X(.2X2X(.1X1X6X3XOX4XOXOX*XJ.W.W.(.).T.Y.R.K.R.U.b a y 3 1 , #.dXjX6X6XKXHXyX:.6.sXuXA 9X9X6.9.$.@.@.I L p s s >.4.;.:.<.$.%.:.%.V @.$.#.I <.<.a yXIXLXUXIXnXPXFXjXaXR 2 t tXKXJXJXJX5X[.*X6X6X6X$X|.|.|..X].{.[.H.*X$XG.f.g.f.a.f.b.f.F.f.f.f.a.s.s.f.[. XF.f.a.f.m.G.g.XXc.XXXXG.G.].].n.].@Xn.|.@X.X X-X-X>X*XJXJXFX9X2 4 e.dXDXFXhXnXIXUXUXLXIXvX:.C a C 5 , , * @ & @ O @ @ @ @ @ > > 4 3 3 5 5 C V V V C C :.yXhXtX+X(.,X5X5XDXjXe.5 , = 2 i K.K.k.k.K.Q.K.K.Q.JXJXOXG.J.4XAX<X2X`.2X1X(.D.,XJXDX,.* = m  .r.r.e.5.e.&.R /.fXcXi.i.w.8.-.0.i.0.o.B B -.&.R } _.^.F F } r.xXy.y. .D y.t.&.&.&.5.] D ] e.[ S R e.R J T aXR J U e.aXe.] [ [ ^ T q J aXkXL U U U ] ] / ,.wXwXa * O * + + + + X % * V pXBXMXeXeXBXyXU.tXPXfX] 5.nXkXxX2.6.uXlX0.$.$.sXPXkXt.t.zXlX0.8.9.",
"w.w.u.2.*.sXkXsXwX2.6.uXwX6.sX6.5.nXfX1.sXPXFXtXNXHXBXeXMXBXBXyXC ; % X X O X X o @ * a <.wX4.3./ 3.3.] J J aXaXJ J ^ E [ aX[ e.e.5.I Y aX[ R S R R S 4 D 5.&.O.&.R &.=.&.6.y.r.X.X.y.y.fXdX} F _._.`.r.&.&.o...B 8.0.i.w.-.o.q.q.zXdX} ' } U e.&.X.X.X.m < O z KXKX2X,X2X`.1X_.,X1XJX4X%Xg.OXW.<X<XW.Y.Y.A.d.d.R.E.E.b a 5 3 5 1 aX`.1X1X5XJXCXyX<.6.6.<.V pX9X<.$.@.N @.N 5 5 L 5 s ;.L @.@.a 3 C N C @.$.$.O.2.:.,.mXLXLXUXIXLXSXFXDX/.R 2 > L.HXJXJX6X5X-X;X5X4X3X|.].@X@X$X{.].F.].$X{.].G.G.g.g.g.f.'.'.'.b.f.f.b.f.F. X-X'.f.f.g.XXXXg.c.oXoXoXc.XXXXg.g.m.@X@X@X$X.X[.-X:X>X*X6XUXSXz 2 4 e.jXkXkXnXPXSXSXAXUXhX>.C >.5 , * , * @ * - o o o   o   . o @ @ , 5 N N y N C C 5 y @.hXAXNX+XAX,X5X1X*XDXjX[ $.5 3 a v l.l.U.U.E.K.R.R.OX+X4XOX,XW.A.W.`.DX2X6X,XJ.).GXU.i & M m N X.r.dXdXfX&.R r.nXmXcXzXzXu.-.0.i.y.8.B  .&.R | /._.!.G } } r.r.y.y.X. .t.r.D R t.e.R S ] aX] T R [ R J qXaXJ S 5.aXaX| R ^ ' [ J : E aXhX/ 1.U J ^ ] ] 4.6.wXC , @ % O % + % X % * C 9XrXeXMXeXNXtXtXhXSXqXR e.sXfXsX$.6.uXpX<.<.qXsXkXdXt.u.y.i.8.8.w.",
"w.0.i.u.5.e.kXkXsX:.:.uXlX0.6.wXlXnXnX5.1.hXkXqXU.BXVXv.v.rXyXZXC ; % % X O o O @ @ * 5 wXwX0X{ U { ] U R J aXsXT q J J [ 5.[ [ 5.t.Y J U 5.| F T e.R S R e.5.D *.*.=.=. .r.y.X.X.r.y.y.r.} } F } _._./.&.&.o...B 8.i.u.-.%.8.0.w.zXxX/.} [ ] e.r.r.r.X.m = % 8 yXKXAXW.~._.2X_.2X2XJXJXOXG.W.OXJX<XW.A.K.R.K.K.c.v.x.h 2 4 1 1 5.jX1X1X5X3X%XNXtXwXwX<.N C <.<.C C a N a 5 4 3 3 2 > * @ * , * & = < , 3 D a L a :.vXUXIXLXUXUXvXPXFXjXdX| 4 > ( HXKXJX3X;X;X-X X;X$X].n.|.@X].XXXXG.g.XXXXc.n.].g.m.n.a.f.'.'.|.f.f.b.'.'..X;X$X.Xn.g.XXc.a.j.v.oXoXc.R.XXg.j.N.#X%X@Xb.'.&X:X:X-X,XJXUXSX$ 2 R fXdXdXkXPXIXFXgXFXvXq 2 ~ 4.>.5 4 @ : 2 i t - 2 a t 3 $ o o X o @ - 3 3 5 y N 3 y A 0XSXSXGXGXKXDX,X*X1X2X_.`.sXI 3 a v d k k w h.k.k.c.d.R.+X2X4XD.K.Y._._.1X6X<XGXKXQ.$ * 3 M 3  .&.e.fXfXfXr.&.t.xXi.i.cXzXlXu.zXi.o...B  .R R | } } _.} dX} r.r.r.-.X.&.r.&.S &.sXt.U S [ fX] R [ [ ' [ aX{ J J aXaX5.[ U [ [ [ J 4 T aXe.] 5.3.U ^ U / 3.sX2.a , * O X % + X X % & 3 A B.BXBXNXU.T.tXFXhXaXaXe.aXfX6.%.-.8.0.6.wXsXhXe.5.t.t.u.i.8.%.u.",
"8.0.cXy.r.e.fXnXhXqX:.<.zX0.6.6.lXfXsXt.R aXkXtXeXNXNXeXrXeXrXyXy ; % X X O O O @ & , a wXwX4./ ] / U K ] U aXhXU : J ^ T [ [ 1.e.sX5.J J /.aXJ S | R J R e.e.J L e.e.5.L &.fX&.S -.y.r.r.| } } D.^.} } R &.X.m o.o.i.y.8.-.i.zXzXzXxXxXe.R e.aXr.r.r.X. .m 3 - z.SXGXW.D.1X6X2X2X2XW.OXW.OXW.4X<X+XR.K.R.U.E.K.v.l.v i , 5 L R jX2X1X=X>X3X4XNXtXgXvXA 3 m N C y C N 5 5 , @ * o .     . . . . * * * @ , , , 4 I @.4.vXPXFXLXUXPXnXFXjXjXe.L 2 i SXKXJX,X;X>X-X[..X.X@X@X@Xn.g.c.XXR.c.R.oXoXc.c.g.XXc.a.f.b.}..X'.b.b.b.}. X.X4X%XN.g.g.c.c.a.j.M.M.c.c.v.c.m.@X#X@Xb.f.Z.[.>X;X*X3XGXKX8X, 1 &.t.dXdXsXnXPXSXFXKX_ . s wX>.s P P > : > 4 u x i 9X~ a 5 ; * % O o o O & * * * 2 3 ,.hXKXAXGXKXKXKXGXJXJX6X!._.FXT.P ~ v v d h d k k.k.c.k.R.R.OXDXDXDXT.W.D.(.J.(.KXUXz.$ 3 ..< <  .X.t.fXdXfXxX-.-.u.8.i.zXu.u.xXy.y... . .&.| R } } } } } | r.r.&.X.X.t.t.-.R S *.dX| 4 J [ dXT T /.[ T T /.T J ' /.[ [ R [ [ [ [ J J ^ 3.3.1.aX3.U / U L 1.sXY , , & @ O + % + O % % y A 8XyXBXNX7XtXtXhXkXaXaXe.sXt.=.%.%.%.9.wXwXhXfXe.e.u.-.t.i.u.-.-.",
"%.8.i.u.y.&.aXaXhXhXwX6.0.0.%.+.t.lXt.5.5.aXhXSXgXeXeXNXBXeX8XB.y * % % X O o o o & , C <.wXqX] ] / K R e.U 5.aX' 4 J [ [ [ [ R aXsXsXU J T./.[ T | | R ] aXe.S S e.t.e.O. .r.&.X.-.u.r.r.r.r.} } _._.} | &.+...o.o.8.i.y.8.zXcXcXi.y.cX6.*.sXfXdXdXr.S m B N - $ L.AXAX,X6X1X2X_.^.A.r Q.4X+X+Xc.R.k.c.k.g r k h.d f a 4 U e.).DX1X=X=X,X6XHXGXNXNXSX;.a m 3 N m N C y 3 * o o o o @ @ 2 2 * @ 3 4 , @ , > 4 ;.4.c 2 s SXUXAXhXPXnXkXjXdXdX#.2 - yXUXKX{.;X>X-X;X'.'.].$X%XN.c.d.c.E.v.E.oXoXc.d.d.oXM.n.n.|.;X;X}.b.b.b.}.b.b.$X4X@Xm.p.g.g.j.c.v.M.v.m.oXm.c.n.b.f.f.'.F.H.&X;X3X%XCXBXt 5 D R fXfXt.vXkXhXAXFXAX> # x 0X` I.q q q J ^ E K K ! wX:.c C 3 3 * & * O O O X o O @ 2 c gXUXDXJXKXUXUXKXKXJXJX,X1XJXT.K p a a y y A n l K.U.L.K.W K.Y.gX).Y.).^.J.Z.+XUXtXy 3  .m < <  .X.t.sXe.fXxX%.+.w.-.8.u.&.t.cXxXy.-. . .R ' T T T ' } e.e.&.&.&.S X.y.xXt.&.L L e.] S J sXaX4 J [ ' J H T.W J [ _ [ [ J ' ' [ W J T ^ U ] wXaX] U { ^ K / wXC 3 @ o O % O + % % O O <.pXrX8XeXeXAXhXgXgXaX5.R aX5.6.-.%...7.wXhXhXsXsXe.y.r.X.8.zXu.6.&.",
"6.-.y.8.-.t.5.aXhXhXsXwX%.%.%.$.2.sXt.5.sXhXSXFXtXT.U.tXSXyX8Xz.y % % X X % O X o & * 5 I hXwXp ^ ^ U ] aX] ] aXU J J W [ [ [ [ { 5.gXT.u ' /.T.' ' /.[ J aXfXJ 4 [ fXe.D R &.r.r.r.-.&.r.r.e.| } ' } | | 5.=. .....8.y.y.cXi.cXcX8.q.i...t.nXaXdXdX&.-.m = Z B * $ hXUX4X,X,X,X^.^.Y.jXjXDXQ.W.k.d.k.l.k.g 0 d d f a a 4 { jX(.1X5X6X6X2XJXUXKXGXJXJXgX@.5 3 3 ; ; * * O X o @ @ - 2 A c :.4 2 u q : : q x x >.:.9Xs . E PXSXDXPXxXdXdXdXfX6.y @ A UXHX,X*X-X:X&X[.s.f.N.@X#Xc.c.c.v.c.v.oXM.j.g.a.c.m.m.$X3X3X}.}.b.b.b.|.b.b.|.$X%X%Xg.g.XXM.M.oXv.c.a.g.f.a.p.f.f.f.[.'.F.[.3X4XHXMXf a  .X.r.xXfXnXnXIXSXFXUXI.. # u E T.T.H H Y./.).T.J K P sXa a :.:.>.3 3 y 2 3 y y , , @ @ # u gXAXQ.GXKXKXDXDXJXJX1X1XJX6XT.u @ @ @ @ @ 2 u p j j _ K F J [ /.' T.AXY.+XAXP.y 3 V %.m m < X.-.r.t.sXfXlX0...y.y.o.8.o.y.xXcXnXxX5.5.] T J R /.e.R R R &.r.&.X.&.=.u.t.t.&.R R ] S J aXR : F [ J H ' /.Y.T.T.W W W T ' [ /.' ^ [ [ ] ] aX5.! ] ^ U ] 3.4.5 , * % O O % + % % % O 3 yXrXP.eXtXhXFXaXqX0XU e.aX2.<.6.%.%.6.0.wXhXsXsXcXy.u.O.r.xXcX-.6.",
"6.xXcX-.-.t.sXaXgXsXsXwX6.%.%.-.-.6.sXwX3.qXgXgXgXtXgXeXrXeXeXyXV % X % X % % O O @ * , C wX] P / / ] / 5.aX] R ^ ^ J J [ [ ' J [ ^ [ [ J W T._ J ' [ T F | hXJ : R e.&.D O.&.y.y.-.X.X.&.r.e.} } } ' ' T [ 2.O.X. .-.y.cXy.u.8.8.8.8.q...u.xXfXdXr.y.X.m = < B N 2 z UXKXW.F.,XW.)./.jXaXY.W K.K.L.l.l h j h i z a C a P dX6X1X,X6XJXKXUXUXUXJXGXJXKXgXU , @ O X + O o O O * @ y 2 y >.>.wXa a s q l K : u ! ) 7X,.~ # 0 SXSXSXnXnXfXdXdXsX2.N 5 y eXHX4X3X;X*X[.'.F.b.f.b.n.g.m.v.R.v.v.E.c.a.j.m.j.a.m.%X3X.X}.}.b.b.|.@Xn.p.b.].@X%X@Xn.g.g.g.a.g.f.s.f.G.g.f.f.f.b.}.;X'.].XX#XVX8 @ O. .r.xXxXt.xXmXIXPXFXPXg . > { aX).Y.H Y.)./.' { 5.u P 1.#.#.$.Y s s / s c :.9X:.~ a u 2 : > 0 0 q Q.KXKXDXDXJXJX*X;X6XJXJXT., @ 3 3 3 I / ^ ! J P J J T | T.W W K.W.DXhX$ ; C M m o.m m X.y.r.r.fXlXmXu...o.8.X.X.o.r.y.kXnXnXdX/.T T J U [ 5.] R &.r.-.&.&.-.-.=.=.5.O.Y 1.R 4 L [ T J T | F q Y./.' Y.W ' ' T.' ' T.gX/.[ [ ^ R aXaX3.^ ^ K ^ 4.sXI 4 , * O X X X + - % + ; :.wX8XeXtXtXT.qX{ T.{ ] sX4.I $.8.-.6.6.sXfXqXt.nXcXy.u.=.&.-.xXt.D ",
"t.mXy.+.X.u.xXxXsXaXsXlX6.-.%.%.-.2.6.qX{ T.aXaXhXSXgXqXI.7X8XZXV + % % % + % O @ o * , a 6.] ] ^ ^ { U 3.sX] K [ [ W [ [ /.' ^ ' W W T.Y.' T.Y.G W ' T 4 T dX/ 4 R 5.O.L =.r.t.r.-. .X.X.r.r.R ' } | ' J U ] *.=.6.u.cXmXcX-.-.8.8.i.8.%.u.fXdXt.t.y.o.m m m B Z C ; x AX+XA.+X).Y.' aX/.T q H L.( ! x u t 2 $ > @ 2 s T.DX5X>X*XJXKXKXKXKXKXJX%XGXDXu : @ : - - ; 3 ; , , 2 2 a I ;.s ;.4.I L ! I.T.Q.K.r H T.T.I.E @ . 8XUXSXvXnXnXkXkXhXr.X. .3 k NXGX3X.X[.'.F.}.'.f.f.f.a.g.g.c.c.XXm.R.m.m.m.a.m.$X4X$Xb.b.n.b.b.b.@X#Xn.b.f.].%X%X{.'.f.f.f.F.].f.s.f.f.g.].n.b.b.$X|.XXv.h.f $ @ 5 R &.nXmXfXxXPXnXvXUXtX# . > qX/.^.D.D.^.(.).T.[ qX*.L L 1.Y ] ^ K ^ ^ u x ` >.,.>.I u 4 i i > 0 > : q H Y._.DX6X,X1XJX5X<X2Xu @ 1 N C 5 L 4 U J 4 D R 5.dX^ E Q K.tXUX,.2 C m < ..o...X. .X.u.-.6.lXmXzXX.X.o.o.o.y.r.fXkXDXDXY.).[ [ U U R R R D O.-.-.-.-.+. .&.&.=.O.&.=.L L ] 5.R T R ' J G Y.).T.K.' K.T.T.' T.' T.T././.^ [ aX{ { / _ ^ ^ qXsX5 , , ; & O % X % % + O 3 pXyX7XtXtXqXT.{ { / 3.5.sX6.#.-.6.0.u.t.xXsXR t.mXcXu.u.t.r.=.fX5.L ",
"fXxXt.&.-.u.xXnXxXsXe.sXsX6.<.6.=.=.#.5.sX3.{ 0XT.aXgXqX0X7X7XyXC % % % % O O O o O * , 3 2.qXqX^ P / ^ { aXaX{ [ { [ T./.T.[ ' W ' W _ [ K.).T.H H ' ^ F J T.^ S S *.Y O.r.-.&.+.&.&.&.-.&.R R R ] | T T J ] [ aXsXPXnXxXy.8.-.X.o.q.-.%.lXxXsXfXt.8.8...< B X.Z C 3 - b KX+X+XQ._ T | [ F W _ ^ p P ) I 4 2 , , o , T.DXJX6X;X3XJXJXDXKXUXKX+Xr k.( > @ , 2 t A A :.V a a I a s ;.;.s I 1.I p ^ T.Y.).).D.H T.gXqXE 0 . h LXPXvXPXPXnXfXfXy.r.X...- d CX%X{.{.'.'.{.b.f.b.b.f.n.f.a.s.g.g.g.].m.n.n.%X$X|.b.f.f.|.|.|.|.@X%Xn.f.].].|.$X$X].F.f.G.G.{.'.f.s.g.].@XN.n.$X%XXXj.7 7 - y , @ S U FXPXnXfXnXhXUXHX0 . . J /.^.~.D.~.).(./.gXaXaXqX;.L 1.J J J F J W J E _ E j ~ ` I.! h t t 9Xn $ . . # F Y.2X2X6XKX1X1XDX[ 4 m N 5 5 s S 4 L L *.e.1.5./ ( b g tXtX- %.B = < o.o.q.8.1  .6.=.-.9.cXcXo.X.o.y.y.o.-.y.jX_.(.D.)./.qX5.5.*.R L R  .=.+.-.8.=. .O.&.=.O.*.=.*.#.e.e.] U R ' G J ' /.Y.[ T.T._ ' [ T.Y.' ' gXgX[ U / [ ^ _ [ 3.3.wXwX, * & * % X X X + X X * :.vXqXwXhXqX0XT.] qX1.1.1.2.<.2.:.0.lX6.t.lXe.&.t.u.zXlXt.sXt.t.O.O.lX",
"e.sXr.5.6.u.lXcXxXt.2.sXlXt.6.uX6.$.$.6.sX5.Y / { 0XaXqXqXqX7X8X9XC O X % % X X X * * , 2 5 4.sX^ ^ / ` / 5.aXaXT T.T./.T.T.' ' ' T.' ' ' _ /.T.J F W T T S e.] J S #.O.O.&.&.&.&.X.&.=.-.r.&.R R R R T T T [ T./.gXFXkXkXt.-.y.o.o.8.o.-.mXmXsX6.6.8.8.m m o.X.m m m 3 t LXHXY.E E U e.e.[ ^ ^ K a p Y ~ a 5  .1 @ J gX2X6X6X;X<XJXJX2X`.^.W 9 0 $ - 3 2 5 t c 9X:.7X;.c L I Y P U 1./ 5.U L Y 3.I.T.`.(.Y.D.D.Y.).T.u # # yXUXSXPXIXnXfXkXxXr.X.O.@ $ j.E.c.XXG.$X].f.b.n.n.n.n.a.s.s.f.f.f.f.n.n.@X%X|.].'.f.|.%X].|.|.].XXR.g.m.g.a.].{.{.[.H.H.F.'..XG.a.a.XX@XCXCX#XR.w 7 # - , 2 4 > g W ).jXkXdXhXPXUXeX# # > I.AX(.1X2X2X).)./.jXhX0X0XP u P J q J J H J W _ W j u E I.tX) h b rXLX9Xy @ @ : @ # q W /.DX2X*X1XDXsX6.N N 5 P p L I I @.2.Y / ~ ) 7X>.8Xy = B m < m X.o.i.i.N  .6.<.9.M zXzXy...X.o.o.o.-.sX(.*X*X3X).' | 5.e.5.R &.D &. .+.-.0.t.+. .O.&.=.&.&.=.*.5.t.R R [ ] T J T./.Q E ^ T.[ ' _ T.T.' T.gXaX_ K K _ ' _ / ` ,.wX4.2 , @ & X X % X + X & < uXsXqXwXtX0X3.] U 5.4.;.=.$.$.=.=.6.sXt.t.=.6.lXu.-.0.lXt.e.t.t.D =.xX",
"] 5.t.sXsXu.i.cXcX-.=.sXvXsX6.sX6.+.+.6.6.*.5.] qX] I.qXgXqXwXwXlX<.* X % + X X o & * ; - , ,.sX` { ` [ ^ [ T.^ ^ aXgXT.[ Y.Y.[ ' T.[ [ _ ' Q.).H J T T T R aX5.Y Y =.&.+.&.&.&. .=.-.-.-.+.&.D R R R &.R ] { jXY.D.1X`.kXr.X.o.y.o.o.X.0.mXcX-.-.0.0.N  .8.X.o.m = m Z 3 0XSX( x p p { aXaX/ s 5 D J p s a 5 N 1 4 [ 2X<X6XJX<X<XDX).F 9 # # # 8Xv 8 y 4 P ~ 7X~ x ~ ! P P P K K J P U / L Y 5.4.aXaX^.(.(.^.D.^.^.).u . . i UXLXPXnXfXkXnXnXe.S , @ 2 8 7 h.d.R.4XXXm.@X].].b.f.f.f.].{.G.f.F.b.N.4X3X].'.n.f.#X%Xb.'..X'.g.%XXX#Xg.p.s.{.;X;X[.F.F.F.F.g.XXc.XXoXMXMXj.7 7 - - - @ @ a ( K.A.H ).jXkXkXUXUXt . q I./.`.D.1X2X2X/.`.).gXjX[ ^ ^ K U ^ W J ' [ J ^ E g l g j T.gXL.g x.BXyX9XA * * 3 2 : : > : G ^.~.(.dXfXnX0.@.5 4 4 4 P @.a a :.:.A A 9X<.3 C m m = m m X.8.u.lX+...w.uX9.9.w.zXi.o.o.o.o.X.=.dX1X>X[.,XY.T R R ] R R R &.&.=.&.=.=.6.t.=.+.O.&.O.=.6.*.O.5.*.R 1.U W [ T.T.{ ^ ] 5.0X{ ^ ' [ E W T.T.I.` ^ [ T.T.{ _ / wX:.5 * & O X X X % % % = 5 wXlXwXqXhX] 3.aX=.L $.$.=.6.=.+.6.6.6.vXt.O.t.y.8.-.6.lXvX2.5.2.2.sX-.",
"R R aXsXt.lXi.y.8.u.t.t.e.wXsXsX6.%.+.=.O.&.5.*.qX^ { 0XqXwXwXqXwX6.3 % X X X X X O O * * , *.sXI.` { ^ { _ ^ J _ gXgXT.' T.T.' W ' [ [ T W T.T.W F [ R R R sX5.*.*.&.O.+.&.&. .D =.t.0.-. .D L U *.&.e.e.e.T.^.1X!.~.(.jXr.o.y.o.o.X.o.0.cXu.%.-.t.6.1 X.cXr.o...< = Z C 3 :.>.s >.! 0X` ` ;.@.L Y U K p 5 5  .X.*.`.2X5X6XDX).^.W : # : # # 4 wXyX>.z i P.tX7XQ p K E E J J J J J J J K L R 5.2.kXgX^.1X(._.1X`.(.jXQ : . # qXUXIXxXfXkXFX).Y.p > 2 y * $ 8 7 j.c.oX%X#X#X].g.a.F.G.J.J.F.F.F.]..X$X].n.G.g.m.@X@X}..X X'.f.%XVXVXm.p.s.G.{.5X{.F.F.J.G.R.#XNXE.k.d $ $ $ - - 2 - u ` P.K.+X4XZ.D.`.kXkXLXSX6 # r gXgX^.!.~.1X_.`.jX`./.gX' q T.' I.T.` ! ,.T.[ { ` ( b l ( T.T.g k.eXBXrX8XC @ 2 5 D , 2 a 4 # : 9 : : L $.@.C $.L S L 5 a $.:.:.@.C 5 3 < 3 m m m m m X.X.r.-.lX-.%.zXuXM 9.q.q.q.o.8.y.o.S 5.`.=X-XF.J./.| | R S R &.&.&.&.&.&.O.O.-.u.-.+. . .O.6.t.&.&.&.&.*.L J U qXaXT.aXe.5.{ 5.] U ' _ W E W W ( { ! K W { T./ 0XwXa 3 & % O X X X % % = N %.6.2.4.4.qX1.5.sXsXL @.-.&.-.+.+.6.5.5.5.5.-.0.8.-.8.6.vXnXe.*.*.t.lX+.",
"2.*.sX5.5.t.0.8...u.zX2.#.sXlXsX2.6.+.X.-.&.&.&.Y / qXqX` qXsX4.vX0.C & % O % X X X & % * 3 ;.wX3.^ I.{ _ [ K W _ aXgXI.W Y.' ' [ [ /.[ J ^ { T.[ T T R 5.S 5.1.R =.t.O. .=.=. .-.t.-.-.+.&.&.=.O.&.R R *.R T ' ,X*X*X=X_.r.X.o.o.o...8.zXzX%.Z 0.0.6.#.-.y.y.8.m m = m 5 5 N a :.9X>.7X) ,.I @.D a 4 u p a +.8.xXnXDX2X,X<XY.J : : : : : @ @ C 9XZXyXl.k P.AXI.g g j E K K ' W ^ J q E K 4 U 1.5.sX/./._._.2X2X(.^.)./.^ > . 0 UXPXfXr.kXjXY.d.K.j z , % % - 8 8 7 E.NXCX%XoXg.f.g.].G.F.s.H.{.;X3X'.9 s.R.g.#X@X'. X X[.'.f.%XHXHXoXa.9 s.[.3X4X4X3X<XOXQ.oXMXd $ $ + + ; - ; - x ! SXKXc.OXJX,XS.H ^.gXSXE.# 6 r jX`.~.1X1X^./.jXjXDXDXY.G K.).Q.T.I.j ! ( E U ! { I.j g Q l g r k.NXSXP.8Xf a 3 3 C a a $.a @ . . . . , :.:.@.4.U ^ sXa 3 3 3 , , & * = = < m < o.m m o.X.X.-.6.%.9.iXiXZ 9.q.7.7.q.8.y.X.X.e._.!.[.[.D.aXe.r.| R R r.&.&.O.R R O.R 6.u.6.+. .D &.t.6.=.t.O.Y R L S K 3.aXqXsXsXe.Y ] / U ^ ^ W Y._ u E 0X0XW W [ I._ 4.:.4 ; & % % % % % X % = Z lX6.+.#.4.] aX5.=.u.-.-.-.-. .-.-.r.lXsX5 $.lX8.%.7.-.wXsXlXsXD =.t.-.6.",
"lX6.*.3.e.nXlX-.%.8.i.-.&.sXfX4.2.6.+.-.-.-.+.L I sXaX0X3.qXqX6.6.6.$.< * % X + X X O % * 3 a qXwXx ` T.[ W W [ _ ( _ E E ' W W { e.3.[ 0Xe.T.aX[ ^ J R *.&.&.&.O.-.-.=.O. .&.-.u.-.+.&. .&.-.&.=.=.R R R R R [ Y.S.&X1X(.dX .X.o.q.q.q.q.q.i.%.9.iXw.%.0.0.6.-.X.m m < < m N 3 y :.C :.,.4.:.@.#.5 p 5 L 5 N 6.t.] F H 9 9 # 2 4 , : 5 4 , @ A 9XrXBXP.l.k.tXQ.k.j E ! P ^ { T.` ^ ^ qX` E [ W [ aXe.dX`._.`.1X!.!.^.`.aXJ . # SXUXjXkXjXY.G.OX+Xv.l.i 3 2 ; 8 + $ $ 0 x.j.E.oX+XXXg.].Z.s.H.3X3X{.s.e d.E.VXCX@X'. X[.[.F.f.%XHXHXVXd.9 s.F.*X6X6XGXGXNXl g d $ t @ & & * 2 - t Q.K.).<XOX%X4X6X(.D.e L.E.d 7 6 Y.(.(.=X1X_._.`.jXjXjX`.s.G.,X<XDXAXT.Q Q q J K q u K u q g Q l L.BXSXk.z.B.t ~ a 2 a a 8Xv f - - 2 o . $ hXqXx / T.hXIX$.3 * * , * = * , * m M M o.M 7.7.7.%.@.%.w.iXiXiXV 9.9.q.7.w.w.8.-.r.e.^.=X=X~.<XjXe.e.r.r.r.e.r.S S D &.&.&.=.t.=. .5 O.=.t.u.6.=.L O.2.*.Y 1.1./ ;.6.6.sX4.Y Y / ^ J J ' [ ^ u ` 0X[ [ [ ^ ,.wXI y * @ O O % % % X < %.0.t.t.6.1.5.5.=.=.+.-.8.9.%.@.@.lXt.e.xXt.O.0.0.7.8.<.#.e.aXe.*.&.6.=.+.8.",
"t.6.=.L sXmXlX0.8.%.o.u.0.O.#.5.sXt.2.-.%.%.6.%.=.sX5.5.5.5.4.2.#.6.-. .< % X + + + % O & < 3 :.qX>.T.[ ' H W [ E K E Q W ^ _ ^ ] *.1.5.aXaXe.qX5.U S L *.L *.-.&.6.t.=.O.D O.=.t.t.X. .&.*.&.&.=.=.&.R R e.e.dXY.S.H.&X~.`.&.X.y.q.o.o.o.8.-.%.9.iXiXZ 8.-.-.X.8...m m m m m < = ; & , 3 a 4 5 1 a ;.I / 5.O.L L @ . . . . : a ;.2 1 @.3 , 4 A z.E.HXeXk.g g L.L.Q ! ` 3.3./ _ _ ! { _ _ ).W.H H ).jXjXjX`.} !.=X=X(.2XjXu # # E.KXFXgX^.G W.HX%XXXQ.yX` 3 2 - ; 2 @ # $ 7 x.eXMXoXXX$XOX{.3X5X.X'.s.9 x.NXHXCX].f.}.[. Xf.'.4XGXHXHXv.6 a.Z.{.{.$X<XHXQ.0 7 $ $ 2 , & * 5 A x I.AX<X+X<XXXOX4X<XJXJXQ.NXU.$ # q K.=X=X1X!.^.`.`.`.`._.G J.3X{.4XJXAXQ.T.W q 0 J u q E E ( U.L.U.L.U.U.E.z.k z.n ,.z f 8XrXB.BX9Xz C @ o # k tXSXQ.).jXhX5 < < , , , m m m < ..o.M 7.o.Z 7.<.Z Z Z zXbXiX9.9.M 9.Z %.w.zX8.r.r.} !.=X=X~.).kXfXfXr.fXr.e.R R R L *.&.e.t.-.+.L D =.-.6.t.=.O.O.#.#.=.2.4.2.;.#.6.e.5.*.I / 3.^ W J W ^ _ { wXqXT._ ^ / qXwXC 2 , o O & % % % = < -.u.6.=.=.e.1.=.=.%.-.0.0.%.+.$.$.t.5.D &.r.-.-.8.8.0.6.6.sXsX5.&.O.6.%.+.0.",
"+.-.t.L 5.sXwX6.%.-.%.0.u.+.L sXnXe.sX6. . .-.6.6.6.$.2.5.6.4.*.=.t.u.6.N & X O + % % O & * 3 / qX,.^ [ T _ T.{ E K { [ K W ^ [ Y Y ;.e.sXsX3.] 5.] U L #.#.O.=.r.6.t.-.O.5  .=.6.t.&. .&.L D R =.&.5.e.e.e.e.aX`.W.H.*X~.`.e.X.o.o.i.q.7.q.0.9.9.ZXiXq.6.-.+. .-...B m B M M = * = % < < , = , , wXvX,.( I.! wX4.> . # $ $ - z :.~ a a 2 a c i 8X8XeXBXtXg l E q q u j ( l E ' q K K K.Q.DX<XJ.G G `.jXDX`._._.1X1X=X(.).W 0 7 k Q.T.G G Y.4XJX4XXX<XAXT._ i $ - - , # # 7 8 z L.K.oX4X6X4X5X3X}.F.6 9 E.HXHXGX'.f.[.[.'.F.{.3XGXCXHXNXa.a.f.'.3X4XJXNXL.t - - - * * , $.wXvXhXr K.W.OXOXOXXXOXW.<XJXKXFX( # u q W.1X=X=X!.^.`.`._.D.S.S.~.{.*X4X4X,XY.K.W K.g g Q ( I.T.eXI.l L.Q l 7XSXtXn eXl eXb b eXBXeXLXBXf a + # $ 0 CXAXQ.gXkXD 5 -.=.-.r.t.i.zXq...o.9.M Z 9.B Z Z Z V M iXbXiX9.9.9.9.M B q.y.r.R e._.(.=XJ.G ^.jXfXr.fXxXxXr.R R &.R &.&.=.5.&.&.+.=.6.6.6.6.*.L  .O.$.2.6.2.2.2.2.#.*.#.;.Y 1.] U J J W T U 0XsXhXaXT.E ` qXwXc 2 , @ O * % % % = * X.u.6.*.e.t.6.-.-.%.%.0.6.-.+.6.6.5.-.D  .+.-.%.8.6.0.6.2.1.] *.&.&.=.+.%.-.",
"X.+.6.=.5.5.sXsX$.6.0.-.-.-.-.t.t.L 6.t.$.@.+.0.8.6.$.$.6.2.2.2.5.2.6.u.-.< % O + % % O O , 3 I wXqX^ _ [ T.qX0X^ ^ _ ^ J K ^ / #.L *.5.sXqX1.Y 3.4.2.1.2.#.O.O.-.r.t.6.*. .D O.=.u.6.&.&.O.D Y 5.e.t.dXr.fXe.dXjX(.=X;X,X^.dXr.X.y.i.o.B 9.Z V 9.iXiXiX0.Z N %.o.8...o.o.M M M m = = < & & , & 5 9XIXFXtXT.T.tXc @ . @ C z v n n rXn y y >.c z v P.k eXeXb I.Q j W Q g r u q q F W W ).AXJX6X(.W.Z.D.2XDX`.`._.~.~.5X=X_.Y.w 7 7 l T.W ).GX4X4X%X@X,X(.Y.jXT.t i 2 $ @ 2 - @ > $ d E.GX4X4X3X$X].f.p.p.VXHXGXGX].F.H.[.F.H.3X$X4XNXVXCXR.a.f.].%XKXHXU.d - $ - - O & 5 wXmXPXhXK.G A.W.4XGXOX+X4XW.W.AXgXu $ # q +X6X{.!.=X1X`.DX_.G S.=X&XH.3X3X{.W.A.e Q.U.K.l U.U.U.tX8XL.l g j L.T.hXI.u 0 l.k.l.eXMXBXoXVXx.8Xc # + # 0 AXNX+XgX3.D xXnXnXy.r.xXmXmXzX7.Z 9.9.Z M M M V 9.Z V 9.bXpX9.9.iX9.m B 8.o.r.| `.`.D.S.e G ' | e.r.dXfXnXfXe.R D S 5.*.*.O.O.6.2.5.6.2.=.$.D @.+.=.2.6.=.$.6.6.#.D L L Y ] / ^ J J K ^ u J 0XwXkXgXaX_ 0XqX4.5 2 ; & O O % = < < *  .-.r.=.6.6.6.0.9.%.7.8.6.-.5.-.=.+.&.-.&.X.+.+.-.u.6.6.1.] 1.e.&.+.-.-.%.7.",
"X.X.-.$.2.e.aX5.sX6.0.8.8.-.X.&.D D 5.t.6.&. .-.-.0.9.%.-.$.5.6.6.=.-.u.X.< * & % % % % O * , 5 sXyX_ [ ^ T.aXhX3.K W J J J ^ ^ *.Y *.2.2.2.2.:.#.4.6.4.2.#.O.O.O.-.t.6.2.=.O.O.=.-.6.5.*.*.R R | e.fXxXfXfXfXfX_.Y.~.1X(.(._.e.&.y.i.q.M 7.7.M 9.9.ZXZXiXV Z M 7...Z 9.9.M q.M B 7.8.-.N N  .D 5 a qXSXQ.tXUXQ.0 o @ - A B.yXLXeXrXeXh z.8Xb 8Xb tXBXz.h ) ( ( T.T.U.U.K.Q H : r W Q.W.<XJX3X*X*XH.S.!._._._.`.!.!.=X=X2XW.w d # Q AXFXJXJX<X@X@XXX{.W.W.W.L.T.hX0Xa * , , * @ $ 0 P.GXGX4X$X{.G.s.6 c.HXHXCX4X{.F.H.{.H.*X3X4X6X%XCXHXM.a.a.].%XKXNX7 t y y a a a <.lXvXvXsXT.AXA.W.,XJXKX4XXX4X+XK.).gXqX#.@ q U.,X{.*X5X2X2X1XS.G =X=X&X=X>X;X$X$XOXD.Q.k.w K.E.U.l.L.l.b ( ( E I._ I.( j 0 E.k.k.CXCXoXVXVXeXeXz.$ # # k UXGXd.J 3.nXIXPXFXdXdXfXnXIXmXiXZ 9.9.M M Z M M iXiXV 9.pXiX9.7.q.w.m m X.X.r.} _.(.S.A.G F R R } fXr.fXxXkXfXe.U Y r.*.1.5.&.6.2.O.=.#.O.5 5 =.6.6.6.=.$.2.6.6.@.Y L L Y ] U J ^ U ^ K > K aXsXhXSXgXT.qXwX;.2 2 @ o % X % = m ..X.u.u.&.=.-.=.8.7.7.7.7.0.6.=.&.&. . . .-.8.-.-.-.=.6.t.5.1.1.6.6.-.+.-.-.8.8.",
"+.-.+.+.2.1.Y ] 3.6.wX0.8.%.X.X.+.2.5.*.5.6.+.+.0.q.7.%.7.-.6.6.=.5.-.r. .& = < = % % % @ , 3 5 5.qX{ ^ { aXhXsXqXK J T J J K / Y *.O.L L I #.4.4.2.2.6.2.$.#.@.D +.6.2.6.5.2.2.=.O.&.=.*.R Y R R e.fXkXfXr.r.dX| G G F.~.^.`.e.r.-.i.7.M M q.iX9.pXpXpXZ M 9.M B N M 9.Z 9.9.V 8.cXmXmXcXxXxXlXlX1.L hXgXW.+XE.6 . @ $ a v eXNXMXMXBXx.l eXz.g b tXLXqXx j p E I.U.Q.U.I.I.W q Y.K.d.G.OX$X3X;XH.&X=XS.G _.jXDX2X1XH.:X5XW.d t $ j gXDXDXW.+X+XR.$X,X(.D.G l yXPXPXlX5 @ @ @ , * $ f U.GXKX4X.Xf.a.a.oXHXCX3X4X;XF.F.H.F.;X;X5X$X3X#XCXoXg.g.g.%XKXE.0 n 8XrXhXsXhXIXIXnXmXhXQ.DX,X(.(.2XJXGX+XGXKXDXDXhXaX5.4 # d.OX{.*X5X2X1X!.G =X1X!.:X=X&X X$X{.4X<Xd.r K.U.Q.Q.U.L.g l Q ( Q Q g K.T.L.Y.+XQ.R.GXHX%XCXHXVXd 8X2   n FXSXd.# [ mXnXnXKXDXDXjXFXnXmXIXbXuX9.pX9.V Z V M 9.iXZ 9.ZX9.Z q.9.w... . .&.} (._.(.J.Y./.e.r.} R r.dXe.dXfXfXdXU e.aX6.t.t.6.2.O.D L L #.+.@.-.$.%.$.%.6.-.$.@.L #.I Y Y U J 4 J { { P 4 ~ qXwXhXgX/.{ sXwXC 2 , * X X X % & =  .8.cXy.&.-.-.6.0.%.7.7.7.8.-.=.&.r.r.-. .%.-.%.-.u.6.=.5.5.2.2.6.6.-.-.%.%.7...",
"%.8.-.X.-.5.R ] ] 5.sX0.-.%.X.o.-.-.O.D &.5.6.-.8.q...%.9.0.0.6.2.2.&.u.X.1 m M = % + X o @ , 3 ;.0XqX{ aXkXhXsXaXP J J U J J U L *.Y L D L @.2.uX$.@.6.6.2.-.O.5 L O.#.=.2.5.6.=.#.*.=.2.*.L R e.fXkXkXfXr.| } | ' 9 G A.(.(.`.} r.%.%.M M iX9.9.iXpX9.V Z 9.9.m Z V V 9.9.M M w.cXmXxXfXfXkXnXnXmX5.Y I.Q.FXAX0 . . 2 8XP.MXNXoXMXHXoXg k.L.0 g U.eXT.I.j ! b ( U.U.P.( ( W W Y.W.c.OX$X{.3X5X-X&X=X!.G D.jXDX2X5X&X&X1X,Xw # t _ ).).Y.W.+X%X+XJXJX*XD.A.Q.gXqXPXvX$.a , , , 2 - t t +XKX4XOXs.a.c.CXCX%X3X6X3X3XG.F.[.{.}.3X.X$X@XCX#Xg.f.].4XNXl.h 8XtXyXhXgXdXnXmXvXnXhXtXDX(.J.S.^.<XGXGX+XKXKXFXaXaXsXqX# l +XOX*X1X1X(.G S.1X=X=X1X&X&X X;X$X4XOXe A.+XQ.Y.U.U.l g j u g g 0 9 d.K.r K.R.+X+X+XCX%XGXGXE.d rX> > LXSX# # ^ kXnXnXPXKXJX)./.kXkXkXbXbXiX9.pX9.M Z Z Z Z Z M 9.pXpX7.q.q.8.o. . .1.T.Y.(.D.D.dXnXxXr.e.| e.dX| e.sXfXaXR e.t.fXlXxXt.*.L D L O.2.$.2.=.@.@.+.2.-.+.5 5 O.O.@.Y U U F 4 J 3./ / ;.3.3.3.] T.L._ wX4.2 * * - X X % % & & m u.zXu.0.6.6.w.7.7.o.q.7.%.-.t.&.-.u.8.%.%.%.7.-.6.t.*.&.2.6.6.6.-.8.0.%...7...",
"8...%.&.-.t.e.R 1.5.6.6.-.8.8.X.-.-. .+.-.-.-.+.-.q.7.7.7.%.%.6.6.5.&.y.y.8.B m = % X X   O , 2 ~ qXhX[ qXhXhXhXsXs 4 u U [ ^ 4 J R ] I #.@.@.$.6.$.2.6.$.$.6.=. . .O.D O.L O.2.2.t.t.5.5.e.R | r.dXfXr.dXfXr.R R } ' Y.D.D.(._.} | <.Z M 9.iX9.M 9.iXpX9.9.pX9.M Z Z V 9.pX9.9.mXIXnXkXdXjXjXkXkXnXnXsXq : tXKXU.# . > 8X8XNXCXCX#XCXCXR.k.R.U.K.U.Q.j L.` ( ( l l l U.U.T.Q r r R.%X$X{.$X;X X-X:X:X=X!.G _.2X2X1X&X[.J.K.$ $ 7XkXgX2XW.GXHXoXGXJX6X1X,XW.gXqXhXvXmXmXmXaX5.qX:.8XA 7 K.HXGXXXf.p.c.CXCX%X3X3X3X4XZ.G.J.f.f..X.X.Xn.%X%Xg.g.$XGXeXd h b U.AXtX)./.PXPXIXmXvXAXJX2X~.(.`.).DXHXCX%XKXKXkXPXnXhX$ r W.W.,X*X=XS.S.=X1X1X5X>X=X;X.X;X6X$XG.OXOXZ.W.K.H g q j Q j q q 0 r r k.w e +XOXoXCXCX%X%XCXg.x.eXt yXwX: > /.kXfXfXkXFX,XW.' ' kXkXhXwXiXiXiXiX9.V M Z Z Z Z 9.9.9.9.9.7.9.y.-. .+.qXT.D.A.G 9 ' fXxXfXxXfXe.e.R e.dXdXaX*.U aXxXfXlXsX$.u L ] 1.1.L O.2.<.$.$.+.C +.@.D L L #./ J 4 4 J ^ 1./ 3.wXsX6.qXp E _ / aX@., O ; + X + X % * = ..i.u.u.cXuX8.zXM 7.7.q.q.8.-.u.-.+.0.%...7.7.0.8.+.6.&.O.R  .2.+. .<.u.7.%.0.7.",
"7.7.7.7.-.&.e.e.*.5.=.=.6.u.8.o...%...0.u.2.6.u.-.8.%.%.%.7.7.uXuX2.6.u.y.u.m % = % % X X @ ; @ 2 4.hX_ [ 0X3.qX,.,.~ P { { U 4 4 J T Y Y #.L 5 C @.-.6.$.@.O.+.-.=.=.O.5 D L *.2.sXlXsXfXt.e.e.fXdXr.dXaXfXe.R r.dXkXFXY.D.(.~.} [ *.+.B 0.w.q.7.7.i.iXZ Z 9.Z M 9.M V 9.uX9.uXIXvXkXkXjXjX2XFXFXnXPXPXwX: # ( UXqX$ t B.l.CXCX%X%XNX%XCX+XR.E.R.K.g q g Q Q g q l Q I.tXQ.Q.W.d.e W.4X4X.X X X;X>X=X=X1XG S._.1X1X=X[.,XW # c hXI.).FXKXKXJX+XGXJXJ.~.H.!.DXQ.hXvXLXIXIXPXhXjXyX9X9Xv v NXGX].f.g.m.CX#X3X.X.X;X{.OXG.g.G.f.b.|.@X@X@Xn.n.G.OXGXE.d f 8XtXGX<X^.gXUXmXIXbXhXSXJX2X2X`.jXDXUXUXNX+XHXKXFXPXPXqX# 0 K.).2X,XZ.&X=X5X1X1X5X6X5X-X{.6X6X].F.4XJ.Z.(.W.9 9 9 p T.Q l g r k.K.R.h.c.GX+XR.CXoXXXHXCXc.tX8Xn hX> : sXPXFXdXjXDXFX).' F J dXfXe.nXuXiXiXiXq.M M V Z N 7.i.7.N %.0.6.6.lX5.:.:.0XQ.Y.D.' ^.| e. .t.nXxXfXfX} | dXe.] R T sXfXxXfXt.Y S J 5.5.Y L #.2.2.6.2.@.+.@.@. .@.#.L a J J J U ] / I wXvXwX4.4.u K p { sX@.* X * + - + X O = B 8.u.0.u.zXzX6.7.7.8.i.q.8.8.%.-.8.8.0.B %.0.9.w.6.-.6.=.+.-.=. .%.<.%.0.%.B 0.%.",
"7.Z 8.0.-.-.-.t.&.*.*.=.2.-...8.o.%.%.8.0.%.-.0.-.8.7.8.7.%.9.iX6.6.lXu.u.i.m = % % % X X + ; * - c hX` W ^ K qXwXwXqX,./ { ' J q J U U Y Y @.D  .+.@.+.+.+.+.=.O.O.=.2.#.L 5 L t.xXxXfXsX1.] e.dXr.e.| e.e.5.t.r.fXkXdXH G D.W.T.[ ,.$.@.6.u.%.8.o.q.q.Z 7.9.Z V 9.M V iXiXuXzXvXvXkXkXdX} W.(.FXFXkXPXPX3.> # 8XLXz v BXh.c.CXCX%XCX%X+XAXR.e r g r 9 q 0 0 r Q j g L.K.K.W.R.W.G.G.,X3X.X.X-X*X5X1X=X=XS.S.!._.=X3XJ.W.r : lXnXhXDXJXKXJXNXAXAX<X~.~.D.~.2XgXhXLXbXIXPXaXQ.Q.AX8XB.v d E.GX$XG.g.@XCX@X@X$X.X].f.OXW.G.].@X].|.@X|.n.f.b.].@XHXeXf v eXgXJXQ.).FXLXIXmXIXLXHX<X<XDXDXkXnXUXUXNXGXKXKXSXFXPX0X# q Y.Q.2X,XS.H.=X5X1X!.1X5X=X[.[.4X3XF.{.OXH.H.J.D.G H H r K.Q r q g R.E.R.R.R.%XGX#XCXXXXXGX%XR.oXP.) :.2 ~ UXFXDX`.DXKXKXQ.U 1 S r.fXdXnXlXq.q.q.iX7.N C %.%.7.q.B B +.&.&.e.fX5.3.{ I.T.Y.G G } | fXR r.xXxXfXe.R R aXaX| R e.e.fXfX5.*.U L J U ] ] ] #.;.#.$.$.2.+.O. .O.O.@.L L D L U ] I s 4.sXwX3.4.#.K 0X/ wXsX .& O X ; ; % % % = N q.8.-.0.w.9.7.9.w.w.i.8.8.8.....q.0.%.Z 9.q.0.zX0.%.%.+.-.-.X. .-.w.8.9.Z %.0.0.",
"9.7.0.9.+.+. . .+.&.O.&.-.-.8.0.q.o.....7.-.9.0.-.8.0.u.0.7.9.9.0.lXcXu.u.i.q.m = % X X + + * * * c hX4.K W u 3.qXwXsXwX/ ^ / K J J J L Y Y L @.@.@.+.@.+.=.=.=.#.L O.2.5.U 4 L 5.sXfXxXsX] U [ | r.e.] aXsXfXnXr.r.r.| J H G D.Y.T.,.;.#.u.t.&.8.o.B Z 9.0.Z B M M M M q.iXiXuXbXvXhXkXdXF Y.Y.(.KXDXDXFXPXhXu . 9XyXz rXE.c.GX%X#X%X+XR.+XoX9 r K.K.r r r g K.L.r q q r Y.,Xd.{.,XG.J.6X5X X;X5X5X1X1X1X=X~.S.S.(.<XOXQ.q @ hXPXPXFXKXKX+XQ.HXUXSX).DX`.).DXFXhXbXbXLXPXgX).<XHXtXA A y x.GX<X].b.XX@X@X].$X.XF.f.R.R.g.R.@X@Xn.@XXXf.f.n.|.@XHXMXf A yXAXJX<XNXUXIXIXmXIXIXUXAX<XFXkXnXPXIXSXNXNXHXKXSXSXSXj # : j K.Y.J.J.H.!.:X=X!.=X=XF.F.3X3X{.F.;X[.[.1XJ.Z.A.A.Y.K.d.K.L.K.Q.SXNXE.eXE.oX#XNX#XoX#XGX#X#XE.l.) wXqXqXgXKXDX(.2XDX(.J : S S X.xXnXxXzX9.7.o.q.%.C C N ..M N m X.-.&.] dX/.[ _ ! ^ W F F F F J fX5.&.t.xXnXe.| R e.e.| | | aXhXaX] T J U ] J U U U Y I L L O.@.$.=.=.$.@.@.I L s U / Y p Y wXsX4.,.;.Y / 4.3.wX2.3 * 3 O + % X % % = B 8.7.8.7.9.9.0.w.0.w.8.o.7.8.8.o.w.9.Z B 9.iXzXiX6.%...%.-.-.%.-.-.0.9.%.Z %.0.lX",
"7.Z %.<.0.-.+...-.+.&.&.=.-.0.iX8.q.7.Z 9.0.0.Z +.-.8.8.w.iXq.7.9.0.uXi.8.8.q...= % % X - - + + ; y hXqXJ { K ! 4.9XhXsX{ P ^ { K K J P P #.@.$.@. .+.$.=.=.=.$.$.#.#.;.4.Y L R Y sXxXfXfXe.R R | fXaXR e.nXnXxXxXR &.e./.Y.H A.T.T.{ ;.1.fXt.&.-.%.B B 9.0.Z Z Z Z M 7.iXq.w.0.vXsXsXfX&.S E L.<XKXKXDXAXDXKXkX> t 9Xv eXMXoXGXGXXXOX%XoX4XGXR.g.E.K.d.w r Q K.W.H 9 9 e W.,XF.J.3XF.F.6X6X[.[.5X2X1X=X5X5X>X~.S.,X6XW.K.q @ ,.UXPXFXKXJXAXNXUXUXUXFXDXDX`.AXSXvXLXIXIXLXSX<X<XJXNX8XA f l.NX%X].f.n.n.XX|.|.|.g.n.g.g.XXXXn.n.m.@XXXn.b.b.$X%XLXrXf B.tXgXAX<XSXUXLXIXmXIXUXUXAXQ.SXfXxXmXLXLXeXMXBXSXAXSXeXd # 0 p _ K.W.,X{.S.!.!.=X5X*XF.F.6X,XOX3X{.F.*X3X{.Z.Z.G.+X+XK.K.E.E.tXNXeXU.v.c.M.c.M.VXCX#X#XXXVXHXeXz.sXyXqXgXDX2X,X2X2X: : : S X.r.xXnXvXcXi.q.7.%...Z +.N N  .m 5 -.t.[ | /.Y.' W W _ _ F F F F : [ dX&.&.fXfXfXe.e.] [ ] R 5.fXaXR U u J qXkXJ S K U Y J 5 L a L $.2.2.+.L #.Y I L a L I @.4.4.;.;.I ;./ P ;.wXwXI @ , 3 O + + X % % m 7.q.8.9.%.7.q.w.q.0.0.w.8.7.7.q.q.q.7.9.Z q.iXzX0.%. .%.%.%.%.%.0.9.%.%.<.%.<.0.0.",
"q.Z %.<.0.0.9.%.-.X.&.-. .%.0.zXw.i.9.Z 7.w.q.9.%.8.8.o.q.i.w.q.0.8.9.q.7.7.8.B < % % % - - + * ; 2 wXyX/ qX] I 4.,.wXaXqXP P / / / P p a Y $.$.O.+.$.$.#.#.Y Y I *.] I Y ] U J L ] sXfXdXe.[ e.e.e.e.U [ xXmXxXt.R r.e.T ' q G ' [ ^ ^ ] e.e.e.&.6.-.@.N %.%.%.B B B 7.q.7.o.8.cXvXkXfXS S S S _.DXJX2X2X2XDXjXT.,.7Xz.l.E.+X#XGXoXXXCX+XCXoXE.oXE.tX+XK.g k.K.K.K.A.K.A.A.J.3X{.;X{.F.{.3X[.F.~.1X2X!.5X=X*XH.S.,X,XK.K.0 # s PXSXSXKXJXNXNXLXUXIXPXhXPXgXgXUXLXIXIXIXIXUXGXOXGXFXyX9Xf z.HXGXn.].f.f.XXXX].].%X@Xg.g.c.g.m.XXoXXXn.].}..X%XGXHXMXf n U.gX+X+XtXtXpXvXbXlXPXUXAXk.hXvX6.lXrXHXBXtXBXBXtXeXz.d 0 0 ( gXQ.Q.<XJ.Z.H.S.=X1XH.F.3XJX3X6X6X'.F.[.'.G.{.XXOX4XNXR.k.K.k.E.x.E.eXx.v.MXC.oXVXHXoXXXoXCXGXeXx sXqXaXFXgX).2XDX} : S S S X.y.fXdXt.y.cXi.-.-. .+.%.N 5 1 1 @.1.{ [ | /./.' W J [ 5.T S S F J R e.t.&.r.r.fXkX5.U U T U aXdX5.T W J _ jXaXJ K ] / ] u 4 L L #.2.#.N 5 D L @.#.I 5 5 #.4.4.2./ 4 a Y ;.s ~ :.@.3 - ; * X + % + X % B q.7.8.q.7.%.7.9.0.q.q.q.7.M 7.iXq.9.7.Z 9.bXw.9.%.%.8.0.%. .%.0.0.7.7.Z 7.<.-.0.6.",
"0.%.%.9.9.7.9.9...%.%.X. . .-.w.zXiX9.Z V 9.9.9.q.8.7.8.q.0.w.i.q.8.7.7.9.q.8.%.m % % X X + O 3 < O C lXqX3.P Y ;.;./ 3.sX3.P s Y I I L O.#.@.@.=.2.=.#.L D L P L / P K K { { J J J ] aXaXe.[ [ e.e.R e.aXfXnXt.&.r.r.R : F J F ' ' J U ^ [ [ aXR 5.6.$.1 5  ...B B B %.7.%.8.u.nXnXnXnX&.S S : : ' 2X`.(.6XDXT.[ fXwXb E.NX%XoX#XoX#X+XoXoXc.c.E.E.NXSXNXT.U.K.d.R.W.R.Z.s.J.5X{.F.$X{.J.3X1XZ.Z.;X5X~.=X[.H.H.J.W.W.K.l 0 # d rXSXSXAXHXNXE.BXUXIXIXvXPXgXAXUXIXIXIXIXIXIXKXAX4XDXtX>.f eXHXGX|.|.f.f.].@Xm.m.XXXXR.XXc.g.c.a.XXR.f.].{..X3XGXUXrXv P.Q.DX+XR.L.L.9XwX6.4.gXFXAXK.hXIXlXzX9XZXHXBXyXeXz.d h.x.w 0 ( tXgXQ.+XOXG.G.s.Z.Z.Z..XJX4XGXJX3XZ.F.f.F.{.4X4X4XOX+XQ.c.c.K.E.E.NXNXx.E.MXVXMXMXMX+XoX+XE.K.j I.hXaXqXaXjXjXDXjXF 1 D X.X.R kXfXe.r.y.y.u.r... ...+.1 1 D D U 5.[ ' Y.' } ' F J R ] R L S S R 1.1.sXt.*.R fXdX5.^ T U aXaX[ ' ' W W T.gX{ J ] { ^ U J L P Y ;.L 4 5 O.@.C L a 5 a :.4.2.;.wX;.s P I I 4.6.a , - - ; % % % % % % m o.q.o.o.q.q.7.7.8.0.w.q.M Z 7.9.9.iX9.7.Z q.zXiX%.m ..w.u.N N 0.iX0.9.<.Z %.6.0.u.-.",
"-.%.%.%.Z 9.9.9.-.%...X.8.%.%.<.w.w.uX9.Z 9.9.iXq.q.o.o.8.8.8.8.8.8.o.7.9.q.0.%.m & % X X % X ; 3 & 5 :.4.I a Y ;.P K ] 5.4.;.@.L a a #.$.O. .D $.$.=.Y L p J u ^ ^ E J J qXdX/ J J T 5.dXaX[ T [ J U aXxXfXt.t.&.e.e.F : S T J [ [ J U J [ /./.[ ] sX=.N 5 N 1 ..+.Z Z 7.0.i.cXxXsXkXxX} X.S : : 1 jXDX`.(.`.gXaXe.qXW NXHX#X%XE.CXHXoXM.M.v.M.k.eXMXE.E.Q.K.k.K.AXAXXXG.g.J.{.J.f.{.6X3X6XJX*XF.{.1X=X&X[.F.{.,XW.W.Q.K.0 7 d B.yXBXNXAXNXQ.LXZXpXvXvXkX_ W.FXUXmXvXbXbXvXSX<X<XAX0XA f V.HXGX%X.Xf.b.g.#XXXm.g.g.c.XXc.a.a.g.@X].s.F. X;X3XJXUXtX! tXAXAX<X+XQ.T.0X9X6.sXsXT.AXK.I.nXmXmXLXLXLXBXyXz.k d x.V.x.d t k.K.E.oXoXR.d.9 a.a.G.4XJX4XJX4XJ.Z.F.F.{.$XJXJXGX+XoX+XE.E.E.E.E.MXeXV.v.V.MXE.v.v.K.R.R.R.g _ hXvXaXdXkXkXkX/.T F S X.X.S } kXjXdXdXkXxXt.t.-. . .N N D Y ^ { gXT.' ' W /.| T S R 1.&.&.&.O.&.t.*.*.=.#.R e.e.e.] ^ /.gX/.W J W H ' ).aX^ / ] K 4 J K Y / I L 5 1 5 +.C D 5 5 @.<.6.2.a ;.4.3.1.;.s ~ wXwX3 - @ % - X + % % = m o.q.q.q.q.o.o.o.8.w.0.q.q.7.M 9.9.9.9.iXZ 9.iXiXzX7.<  .6.0.N Z w.uXuXq.7.%.9.w.lX6.-.",
"u.X.0.7.Z uX9.uXu.%.N ..0.8.%.B <.zXbX9.Z 9.9.iXw.7.B B 8.q.w.8.o.o.7.q.w.7.7.q.B = % % % % O X ; 3 , 2 :.;.#./ ;.4 4 ] 3.:.qX4.@.a 5 @.$.5 5 @.5 L ;.#.I L K 4 ^ ^ { [ E T.jXqXJ J W [ | gX/.^ J ^ [ fXxXe.&.5.r.e.*.R T T S T R | U J J Y.^./.Y.T.qX] L 5 N 1 N %.Z @.9.u.y.y.xXe.dXy.r.X.S S D : jXFXDX2XjXjX5.5.aX^ Q Q.CXc.oXVXCXVXMXMXC.v.E.VXeXx.U.l.g K.Q.Q.+X+X<X$X{.F.'.F.F.6XJX4XJX4XF.H.~.=XZ.F.F.W.<XQ.<XQ.K.0 w d v x.E.tXNXBXBXLXyXwXvXnXkXW ).KXjXsXuXpXuX9XE.R.OX<XT.n V B.HXKX4X.X].].g.XX#XN.m.XXa.g.k.a.a.c.+X].s.f.[.3X6X4XHXT.u jXDX).%X%X<XQ.qX;.$.lXlXgXQ.K.g hXsXvXIXUXZXBXrXv v A V.eXrXd 7 # 6 d r d.k w h.c.g.GXGX<X4X4XOXd.G.f.'..X3XGXJXGXGXGXKXCXoXc.v.eXE.v.MXrXMXMXeXeXE.K.R.K.U._ { kXfXaXdXkXnXdXS : S X.S X.S } FXjX_.jXnXkXkXfXe. . .1 N L / ! T././.Y.Y.T.[ R R J R R *.-.r.X.&.=.e.=.#.5.1.5.4.3.K U aX{ ^ [ W W _ T.Q._ ^ { ^ J 4 u / 1.1.P a @.L C a 3 1 4 a 6.uX6.@.I #.;.3.4.I ;.;.C C * 3 + X X X X % = < Z q.o.o.q.q.o...o.0.q.7.7.7.9.q.9.9.9.9.9.Z 9.iXw.w.0...N -.-.+.0.zX0.9.7.%.8.0.lX6.=.=.",
"y.8.w.0.Z 7.9.iXlX0.N N 0.8.B m 9.iXw.9.M 9.iX9.9.q.7.7.7.7.iXq.q.8.o.7.q.q.o.q.q.B = % = % +   * < O @ 5 9XsX:.;.I K 1.5.4.I :.6.:.5 5 @.C L $.a 4 1 L #.Y L J p P U ^ ^ ^ T.gXY.H J ' J [ dXT.^ [ [ e.e.e.*.*.&.e.5.&.L R R L &.*.J S ' /./.H H Y.qXqXL @.+.1 N N  .D -.6.lXxXfXdX/.dXr.&.X.X.S S S } jXDXFXgXsXsXfX5.K Q R.oXE.E.v.v.MXMXV.v.oXVXeXeXE.E.k.U.Q.K.Q.GXGX4X$XF.].F.F.$XJX4X4XJX4Xs.s.s.s.g.XX+X+XQ.tXE.x.d d x.v.f d eXBXBXLXLXyXvXIXIXtXW Q.gXgX4.6.wX6.8XeXR.<XJXAXtX8X8XUXKX3X.X.X].f.a.@X@Xp.g.k.R.c.h.w g.GXW.s.s.s.f.3X4XAXL.K dX`.(.4X$XG.Q.gXqX6.lXvXsXqXQ.U.Q 7XhXLXIXrXZX9Xy c A A 8XeXB.v.7 7 0 t t k eXV.E.oXNX+XQ.+XW.G.G.f.'.].3XOX4X4X4XJXJXKXCX+XoXv.oXeXE.E.BXMXE.U.k.k.Q.R.K.Q _ e.nXnXxXkXnXnXT : 1 S S X.X.} dXjX_._.dXkXDX`.`.aX#.@.@.L / { T.Q Y.T././.).dXe.R 5.U L 2.6.=.-.&. .&.2.5.1.Y *.Y U [ 5.aXT.T.W g T.FXSXQ W _ _ _ E J W 0XaX5 4 L @.;.@.3 , 5 @.#.2.$.$.6.:.a @.@.a I 6.:.* * , * X   X X X m m M 7.o.o.7.o.q.q.o.w.i.7.7.o.9.9.9.M 9.iXq.9.9.w.iXw.Z B -.%.<.@.@.0.iX%.7.7.0.i.0.-.6.<.6.",
"-.u.0.7.9.9.w.9.iXuX+.+.0.-.N N q.w.iXiX9.M 9.9.9.9.7.9.7.9.q.q.w.q.B o.o.q.q.7.q.q.7.= % % X X X o @ 3 * :.uXs a #.4.6.4.;.I Y 4.wX<.C 4 5 5 a C 5 a P L Y 1.J J 4 u U [ [ I.gXQ.W H W ' ' 0X/.^ U [ e.sX*.R 5.&.O.r.5.D *.r.*.e.&.S T [ /.Y.Y.K.T./.qX/ I @.N N  .X.O.r.fXnXPXfXdXe.kXr.R S S S S : S | jXkXkXaXt.xXsX^ K.K.R.R.E.v.x.V.MXC.E.MXE.MXv.v.E.oX+XGX+X4XGXJX4X$X{.F.F.F.s.3XGXGX4XJX+XZ.s.e 9 c.E.k.h.g w 7 w eXeXB.f d n MXHXLXLXIXvXnXvXI.W Y.).sXhXwX:.,.qXNX+X+XJXAXtXc >.UXKX6X;X*X'.f.f.#Xm.a.w a.c.6 p.a.6 NXk.w d a.g.@X+XNXtX{ aXjX2X,X3XJ.W.tXhXvXuXwX<.7XE.NXMXeXtXvXLXrXyX8X- 2 a y z l.k BXBXd # 2 2 f v d h.k.x.k.K.k.k.g.G.$X$X[.{.6XGXOX4XKXGXGX%XoXCXCXCXMXE.k.g x.h.w k.+XQ.k.K.E ! *.u.nXxXfXe.R 4 , D X.X.} X.r.| /.} } `.DXDX!._./.3.O.@.P ! I.T.I.Q ' _ ' /.| | T aXe.L O.6.-.&.&.O.&.5.6.2.1.a 4 J 5.aX[ [ ' E K.AXFXtXT._ ( E E q K { 3.;.4 > a 2.I a 4 a ;.:.$.6.$.L @.;.I a a <.:.C 1 @ & O o o X % < = < B o.q.o.o.7.q.q.o.7.q.q.7.7.7.9.9.9.9.9.9.7.9.iXw.9.q.B M %.%.N %.6.zXw.7.7.7.i.cXu.-.-.6.sX",
"+.t.0.0.q.9.9.Z w.lX6.+.-.......7.7.iXiXiX9.Z iX9.9.7.q.q.9.q.M q.i.o.8.8.8.q.o.o.q.o.m = = % X   X O * ; 3 5 @.;.#.I ~ #.a I 2.$.6.6.#.5 1 2 5 I I O.L 4 L e.5.J u J K { _ W K.gX).Y.W W ' { aX[ [ U ] 1.R R =.=.&.&.&.5.&.-.r.&.S R R R /./././.Q.Q.T.` 1.#.I 5  .D R aXkXFXFXkXdX} dXjX| S X.X.S S : S e.PXkXfXxXnXfX] _ K.K.R.R.E.E.MXrXMXNXeXv.E.oXv.c.+XGXHXJXKXJXJX4XOX3XF.f.G.G.XX%XGXoXCXNXE.E.c.h.k 0 t t $ # 7 v rX8XB.v c f V.pXZXLXIXvXwXqXE L.T.tXvXvX6.;.qXgX<XOXJ.,X).AXL.L.NXGX4XOXG.f.s.g.CX+Xa.w d.v.d j.x.8 d 8 - f t v.oXE.Q.gXaXaXFXDX,XJ.W.Q.gX0XI a @.7X7XtXBXAXtXqXyXhXz.n i y a z t g w R.<XNXE.0 # .   . . 6 d k.k.k.r R.+X].f.OXOX].GX6XOXGXJX+X%XoXCXCX%X+XE.U.h.w k.E.R.R.R.c.K.k / Y O.r.xXcXe.D 1 R sXxXr.S S } jXjX_.} `.jX2X,X!.D.T.5.1.1.] { _ ^ E ^ _ [ ' W ] ] R e.sXO.L =.r.+.O. .=.2.t.4.I a 4 L 3.0XW W W W T.FXAXT.qXT.Q q q J { qXqXP 4 a I #.4 , 5 @.@.$.@.$.$.5 5 5 5 c <.wX@., @ @ % O X X X = N B  .o.8.q.7.7.7.7.8.8.7.o.7.7.7.7.9.9.M 7.9.M 9.iXw.9.7.7.B m Z %.%.@.wXbXuX%...7.i.cXu.=.6.2.5.",
"+.-.-.i.zX9.%.%.%.uXuX%. ...%.%.B Z iXiX9.q.9.q.9.9.9.9.q.q.M 7.7.q.q.q.q.q.q.o.B o.q.o.M M * % + + X X , @ o C $.;.@.s a L #.<.@.:.<.<.@.C 5 3 C @.;.L 4 4 / sX[ U K E _ E _ ' gXFXDXK.H ^ T.{ aX5.Y u L Y &.2.5.=.O.O.r.-.=.5.D D *.R [ aX/.).).Y.Y.W _ ` / I #.D L | ).`.DXFXdX`.} ^.DXdXr.} X.X.S 1 ,  .fXfXkXnXnXt./ ^ Q A.K.OXR.k.k.x.E.8Xv.E.eXNX+XoXoXGXJXGXHX4X4X4X3X$X{.F.{.].s.A.+XQ.oXE.E.E.l.eXk t t $ # j tXP.) B.A f y y B.yXyXLXIXwX7X` I.T.Q.qXhXvXlXpXyXT.J.J.1X,X2XDXT.U.NXGX4XG.s.9 a.k.GXoX6 w h.w 7 x.V.A C y V A A t P.E.Q.T.gXkXkXjX`.Y.<XAXT.q 2 u x x x Q.HXFXQ.Q.Q.I.g t t z n B.k.K.e OXOXs.U.tXt o o $ # 7 k h.k.d.R.%XGXXXf.].4X%X%X+X%XGX%XXX%X+XGX%XOXR.G.R.k.k.g U.oXE.k.v.tX,.;.t.xXxXfX5.5 1 &.mXmXkX} T } } _._.} /.jXjX2X(.J.D.).gXqX3.] J W q p K ^ { { K R | R 2.sXe.2.O.6.+.+.O.=.=.2.*.4 L Y ] ^ [ E E Q U.Q.AXQ.qXhXT.W q > ^ qXT.^ J P / I s a @.#.L 5 @.@.a  .a 5 y a C 9X:.2 & & * X % X % % < o.y.y.y.8.8.7.7.q.7.o.7.q.7.7.q.q.7.7.9.9.7.7.q.q.iX9.9.Z Z ..B ..%.%.%.0.zX0.%.Z 0.lXu.t.6.6.=.*.",
"-.-.=.cXcXw.%.%.%.zXbX9.N %.-.B m Z 8.9.q.iXq.9.9.M 9.9.7.9.7.q.q.q.7.7.q.8.8.o.7.o.q.8.B m = N * X X X % % O , 2 @.wX#.a 5 I 5 5 $.=.$.$.:.@.1 4 5 #.#.u 2 p 1.aX^ q u E E W T.T.jXSXQ.W W _ ^ qXqX] 4 4 Y 2.6.t.O.=.=.O.=.t.*.D *.sXe.R aX[ W ' K.T.W W K._ { Y U R /.^.Y.(.2XdXjX} } `.dXr.} S X.r.&.X.S S R fXxXxXe.Y P ~ Q d.W.E.k.k.K.k w l.U.Q.CXAX%X%X+X4XGXJX%X%XJXJX].].{.G.G.G.R.e R.k.w d 7 # > @ @ $ $ l AXAXK.k v t y y 2 a 8X9XvXZXqXtXyXyXtX0X0X3.1.4.hXgXY.J.~.=X2XFXjXtXtXNXoXoXA.r w 0 t V.h.w d w w d V.yXB.; V Z :.5 - v tXtXQ.jXkXqXkXUXDXAXU.j j ` qX>.x z tXHXAXQ r W W g r h h d l.R.R.XX,X%XZ.r Q.P.$ O O - d j.w k.R.G.OXXXc.$XXXW.JX<XXXCXGX+XoX+X%XOX3X4X,XW.R.k.L.l r K.k.eXeX9X:.0.u.y.&.D , : S r.fXxXkX^.' _.jX_._.} _.jXDX6X1X,XW.W.Q./.| R T T J J J L ] 4.5.L &.*.Y 2.t.sX=.=.&.-.O.O.O.I a S ;.1./ ^ K p g K.Q.E.Q.I.tXgXT.K u W _ E u q p qXqXa 5 4.1.O.5 @.@.C N a 5 C $.C a y y ; O @ ; % X X % < 1 o.y.y.y.X.-.8.7.7.7.Z 9.9.7.7.9.9.M q.q.q.M q.w.q.w.9.Z B Z %.B B %.N 9.lX9.%.+.%.lXcX6.5.6.=.*.2.",
"5.6.6.t.xXi.-.%.%.iXbX0.Z %.%. .N %.%.%.9.iXiX9.7.7.9.M 7.9.7.M q.7.o.q.7...8.8.o.o.8.8.o.8.o...3 X % X X % ; % * 3 :.4.@.5 5 5 5 @.@.@.a @.@.a 5 4 5 Y Y S J Y aXqX! q q g T.qXtX).AXAXU.g J ^ ^ ,./ U S a O.4.6.=.$.+.O.=.6. .&.e.t.5.R 5.U J { ' _ W W W ' _ / { aXgXW.F.*X(.`.jXjX^._._.} } F T r.y.y.r.1 S r.nXxXfX6.1.~ b K.g.K.R.Q.U.k g K.k.R.R.OXGXGX#X%X@XGXGX%X4XGX{.OXG.s.W.AX+Xa.d.k.L.k $ . . . . # P.tXA.W.R.r d d v n i t t h tXtX0XtXSXHXNXP.P.x 2 2 u T.<X,XJ.^.DXFXFXgXgXNXE.oXg h n z 8 y x.f v.7 7 j.rXB.3 m C V N * - t U.Y.W.gXgXPXIXPXkX0Xj u P 7X~ >.7XhXUXUXyXr k.K.K.W Q L.g k v.oXCXGXGX%XQ.d.k.8Xt o - y f d 7 w k.w g.R.XXCXoXE.GXGXCXGX+Xc.#X+X$X].3X3X3X,X+XE.k.tXT.eXU.SX9Xa C N 5 1 1 1 1 , S &.| dXFX`._.2X2X`.} } _.2XJX<X,XOXOX<X(.H J ' [ ^ T J U Y #.5.5.O.R 2.*.#.2.lXt.6.5.=.O.D 5 #.I / ] ] U K u g E T.tXU.U.Q.Q.T.I.r I.T.Q q : E _ aXqXP I 2.5 , 5 #.$.5 5 5 O.$.$.C 3 * * * @ O + % X % = m o.y.-.X.o.X. .%.%.7.Z 9.9.iX9.7.9.9.9.M q.7.7.q.w.q.7.7.Z C B %.B N Z 7.iX0.%.+.+.-.xXnX5.t.e.L Y 2.",
"1.5.5.-.t.xX8. .%.9.iXuX%.%.%.....Z B Z Z 9.iX9.iX9.9.7.q.9.7.7.q.M 7.w.7...7.7.-.8.8.o.i.i.cX8.m * % X O % % - & * 5 <.$.C C C 5 a 5 @.O.5 D #.#.:.L u / ,.K K K T.T.j q u T.Q.gXQ.Q.tXQ.Q p E K ! / 3./ 4 5 #.$.2.O.D -.6.$.=.6.t.e.*.*.R *.] aX^ J q q J W W { aX).2XJ.{.,X,X`.FXjX^._._.`.| } F } fXxXxXe.1 1 O.r.t.mXvXwX9XtXU.k.K.U.k.g l.K.R.R.R.OX4X4X$X%XXX#XJX%XXX%X4X4XG.G.R.%X+XR.k.d.k.h $ @ @ @ $ k tXK.s.,XOXg.R.E.U.b i h i g k.U.U.E.GXHXrXz.i >.>.x u E tX).).DXFXhXkXhXT.Q.NXU.0 2 :.<.C ; V V.rXw 6 V.x.f V C * * 5 5 y k NX+X).).gXhXvXhXqXx u t a 5 2 I 9XhXLXSXqXL.U.L.k.K.K.E.E.oXMXNXHXCXCX+XE.E.v.E.k   + 8 y f d d d.k.R.CXGX+XNXNXGXGXHXHX#XoXoXXXG..X{.;X5X6XGXNXL.8XtXyX8X>.y 5 1 1 , 1 , 1 1 1 r.r.} ^._.1X2XJX2X`.} _._.2X2X{.].].$X6X1X!.' T T [ T R ] 2.*.L *.O.L 5.6.*.$.t.sX6.2.=.L L a ;.4./ ^ ! K E x _ U.0XU.L.U.U.T.K.L._ qXgXE 0 u I.I.K ( ,.1.I 4 , O.a C C 5 N $.@.1 , * % O + + X X O % = 1 -.i.mXu.y.y.X.X.....o.q.9.iX9.9.M 9.9.7.q.q.q.q.w.9.7.7.%.Z %.%.%.%.B Z zXw.%.%.%.@.5.mXfXsXsX3.Y Y L ",
"Y 1.t.5.r.xXu.%.+.Z 9.iX9.%.N  .%.Z Z B M 9.q.9.iXq.M 9.q.9.M q.q.q.7.w.q.Z 7.7.8.o.o.o.8.y.y.r.N N ; O X X % % @ @ * 2 3 C <.@.5 @.@.a $.$.5 5 L 6.I 4 ,.aX` u : u E _ W g Q gXgXQ.U.L.tXQ.j u u p / 4.4./ L I D @.L $.2.=.=.sXt.5.Y O.*.O.R e.1.U U ^ J J T ^ [ ' Y.<XOXOX$X6XDXDXDX_.^._.dX`.} } _.fXdXr.O., , 1 1  .t.2.:.8X8XNXtXL.l K.L.k.k.Q.OX,X6X$XXX%X%X#XXXCXGXXXGXGXXX+X4Xd.R.R.c.k.k.0 k h y $   - eXk.s.G.%X%XGXoXc.c.g g l g k.K.K.k.r NXUXSXtXn n wX9Xa i ) ).DXPXUXlXhXjX/.T.Q.h t 3 N Z 7.; 8 8XrXh.h.v.d f A 3 & 3 4 y z tXAX,X<XJXUXvX7X2 > 2 2 5 5 2 a :.s 9XyXyXeXU.E.E.U.K.Q.oXR.MXHXVXVXNXNXNXoXE.c.v.eXd # + y B.8XU.eX+XoXMXCXoXE.oXCXGXGXMXVXCXXXa.F.*X[.{.6XKXKXgXeX>.s :.A $ O a , , 1 m < 1 D X.y._.} ^._.2XJXDXKXdX_.`._.(.,XJ.OX3X3X*X!.(.jX).[ | e.] 5.*.D D *.L D 6.5.2.#.2.6.5.O.I #.;.;.1.3.^ K u u ` 0X0X0XU.E ( K.Q L.Q Q T.gXqXE q Q _ W u ! 0XL 2 D @.a 5 a :.:.@.3 3 * & & % X X X + + % * &  .y.mXnXmXcXmXy.X.....Z 7.9.9.q.M 9.M q.7.7.q.q.q.9.7.%.Z Z %.7.%.B B Z 7.iXw.Z 7.-.@.t.nXhXhXaX/ ] 2.L ",
"P ;.5.sXt.xXxX+.@.7.Z 9.iX0.N N %.B Z %.Z 7.7.q.q.q.q.9.q.9.7.7.7.7.q.q.iX9.7.9.M 9.M Z -.-.r.y.y...< & % % % + % + O * 2 3 C <.@.C 4 5 C @.@., 4 Y #.;./ ` 0X_ p 0 q aXgX_ g T.U.Q.Q.L.L.qXU.j p K P ^ / 3.1.;.I 4 5 2.6.2.6.lXsXL *.6.&.D O.=.&.Y 1.] J ] [ T J W D.6X3X{.{.{.<XDX2X`.`._.dXjX`.2X`.`./.e.t.@.1 , 1 , 1 1 a c y B.8X8XyXtXeXK.+X4X4X3X3XOX].OX%XoXc.#XKXHXGXHX%X+X%XCXQ.g.a.h.h.w k f t - X 8 eXk.R.W.%XGXGXHX%XoXK.k.U.K.k.K.K.E.K.Q.UXUXvXwX>.A a a a y ^ hXPXIXvXwXT./.Y.Q.x.- 3 m C m M y i 8XU.j.d 8 V f ; ; V y y B.Q.+X,X4XJXKXT.K > 4 a a a 5 5 @.:.wXLXSXP.eX8XeXeXeXE.Q.MXoXMXHXVXVXCXHXBXCXoXk.c.MXBX7 . d B.B.A z.v.l.h.c.v.E.#XGXGXGXoXM.VX%X%X'.;X;X[.6XKXKXUXtXi , , @     > 2 & , m m 1 X.r.dXjX^.^._.6XJXDXDXjX`._._.1X,XOX4X3X;X&X&X!._._.dXdXdXe.R *.5.Y &.5.=.*.2.*.#.*.*.1.L #.1.2.3.;.P p p j ! ` { ` ) ) ( _ I.l r k.Q.gX_ ( E I.Q g j Q _ ^ P L 5 5 1 a C :.C 3 * O + o O & X   X X % * * 1 &.y.mXnXIXmXmXi...B o.7.9.9.7.M Z 7.7.q.7.q.q.q.7...7.7.B B 7.7.7.Z N 7.w.7.7.7.%.@.$.sXnXhXaX0X3.] ;.Y ",
";.U R sXsXxXnX-.%.<.<.%.zXiXZ N Z B %.7.%.B 7.7.7.9.w.q.q.7.q.7.M 7.Z 9.9.q.9.M Z 7.%.w.cXnXxXxXcXu.m * % X X X + + + + & * 3 5 C @.@.@.@.5 a L 5 5 s qX3.u j T.L.u u T.gXqXK.L.U.U.L._ ( I.T.tXI.^ K K p I 3.4.L Y #.L *.6.sX6.5.#.*.6.O.D O.O.S O.5.&.U R R | ^.^.(.3X3X3XOXG.OX,X(._._.^.`.DX2X2X`.`.^.T.aXt.S 1 1 1 1 1 3 3 V 3 f 9XyXE.E.E.AXJXJX6X{.{.{.G.w #XCXNXCXHXHXCXoX+X+XCXCXoXE.E.x.j.k 8 $ X + B.8Xc.XXoXoX%XCXCXCXCXoXE.E.E.k.E.E.K.k.E.SXBX7XC y a , 3 5 4 4 : P qXvXFXDX`.(.Q.V.x.y y ; % % A c z.x.V.d f V y y ; V V A V.E.+X,X2XDXDXW q u ` ,.x ~ >.c a ~ ) tXeXk.v.E.x.B.eXeXE.eXVXVXVXVXMXMXoXMXoXv.c.c.oXHXl.$   + 8 y f k x.k h.E.MXHXHXCXoXoXMXMXoXOX5X*X;X,X6XKXUXSX( @ @ o O , , @ , O = ..m , R jXjX`.(._.`.DX2X)._.`.`._.!.*X3X$X$X3X>X:X&X!.D./.dXe.e.| ] e.sXR *.sX2.P L I Y #.1.Y ;.qXwX/ Y / P K g ( qXtX{ K ! ` 0XI.( u k.Q.tXg u E ( 0XL.E E I.W ^ / L a 5 @.$.C 3 , - @ + +   O O X X O O % = , m &.sXnXnXnXwXu.w.o.o.7.9.9.9.M M 7.q.q.q.7.o.q.7.7.B Z Z B Z 7.7.Z Z %.w.q.Z 7.7.B @.sXxXsXhXaX{ / P 4 L ",
"3.] 1.aXaXxXnXt.@.%.%.%.9.iX7.%.B B %.7.%.B Z Z 7.7.q.q.q.7.q.9.7.7.M 7.9.9.9.9.Z B ..u.mXmXnXnXcXcXX., & = O X X X X X + & & & , a @.:.a , 5 @.5 4 4 ,.` u j Q Q j p E qXgXQ.g l k.L.( ! ( U.I.qX{ K u u P / { 1.3.3.L L #.4.2.#.;.6.5. .D &.O.D 5.*.5.e.fXe.| `.2X~.H.{.3X3X{.J.,X1X`.`.`.2XDXJXDXDX).^.).kXdXS X.D  .m = = 3 ; O O y a t l.tXHXKXKX6X{.{.{.F.R.+X%XoXoXCXCXVXoXR.R.E.E.E.E.eXV.yXrXf + + B.ZXk.k.R.oXCXVXVXNXCXCXVXE.Q.eXE.U.E.tXE.U.eXSXvX:.9X4.a 5 5 4 4 : > u hXUXKXJX(.+XNXV.y ; V ; ; V y 8 t B.f V ; ; M V V B.B.B.v.d.K.W.).jXY.E _ tXtXL.n 7XI.I.tXT.E.Q.k.E.v.j.x.x.x.x.V.MXVXVXMXVXCXoXE.oXoXoXW.XXNXMXd   + y y v z.8Xv B.MXMXGXGX+XXXCXHX#XXXG.;X*X;X6XJXUXUXI.$ @ @ @ , 5 D 1 1 1 , m <.;.L.(.,X(.(._.`.`._.Y.`._.^.^.J.OX$XOX{.-X&X:X=X!.!.`.jXkXdXR [ fXaX| e.e.] L L Y Y #.3.3.4.wX0X/ ^ Y p j _ I.tXqX` ! ^ ! { _ u g L.E.L.0 q ( ( b Q L.I.aX_ ^ 3.I 5 5 @.C 1 - @ @ + + X X X   X o O & < N m -.sXe.sXhXsX6.0.w.q.q.7.Z Z 7.7.q.q.q.q.7.q.7.7.7.o.%.%.%.%.B 7.Z 7.Z 9.q.9.7.B Z %.6.lXsXwXhXaX` 3.Y s #.",
"P ;.{ 1.qXkXxXsX2.@.%.%.%.7.w.8.Z Z 7.7.7.B B Z Z %.7.q.9.q.q.q.q.9.Z Z Z 9.7.9.9.7.%.uXxXxXxXnXxXy.-.1 * * & X X X   + O X o O @ ; 3 C @.@.C 1 5 I Y ! E _ ( u b I.I.K E T.tXU.g l b _ I.I.( ( I.T.` E K u K P 3.3.4.3./ I #.1.;.#.*.#.*.2.r.R 5.e.R R e.dXe.dX_.^.!.&X;X5X3X3X{.3X1X`.`.jX`.`.2XJXDX_.Y.).DXkXr.D < m m = = = & X O O @ $ f tXKXKXJX6XOX*X3X{.%X+XoXoXoXVXHXHXCXoXv.h.h.k.j.x.f f t -   y BXeXg d.oXVXHXVXCXVXVXCXNXeXtXeXeXeXeXP.P.U.z.tXyXwX@.c 5 a a 5 s K 4 q Q DXKXDX,XQ.+XE.v y C y ; 8 A y 8 8 f V ; V ; V V V B.B.h.w r r Y.tXT._ ( P.U.k.k.Q.gXAXJX+XA.oX+XR.c.j.x.V.V.x.z.x.v.oXVXVXCX#XoX%X%X+X+XoXXXHXeX$ - ; 3 v v f 8 x.eXv.+XCXNXoXCXCX+XG.{.F.F.,X4XKXUXhXt > * , N -.&.&.r.sXt.a 5 0XtXg.s.F.*X,X^.Y.' } D.`.`.2X<XOXOX$X4X$X&X&X&X&X!.~.`.dXdX| ' [ /.T.e.aX3.U L Y 1.2.4.5.4.,./ / / ` / ^ I.tXgXqX_ j E x u u u j L.P.j 0 p j _ j q p T.T.T._ T.3.P 5 @.Z 5 < * * + + +       X O & , ,  .8.-.6.sXfXkXnXmXu.-.w.iXw.9.9.9.9.7.7.q.q.7.7.q.7.%.Z B Z %.%.B B B B 7.9.7.%.7.<.%.%.6.0.wXwXaXwX3.P u p I 1.",
"s / 1.` sXkXsXhXsX$...%.Z Z iXq.Z Z 7.7.Z 7.B 7.%.B 7.7.7.q.9.q.q.q.7.7.7.9.Z 7.7.9.0.w.t.6.sXlXxXt.6.+.< , < @ O X   X X   X O o * - 2 N @.$.5 5 #.3.,._ 0XT.l L.I.` ( q q Q tXU.g h I.qXI.( _ ( T.gXT.K u p P / / 3.wXqX1.;.;.#.I L L Y e.e.1.e.fX{ T | e.e.dX} S.!.:X>X>X.X3X{.3XJ.W.^.).`.^._.`.DX2X(.^.(.DXgXP 5 +.1 & = * , 1 , & @ @ $ i SXUXKX4X4X3X;X3XW.R.%XCXoX+XCXHXHXVXE.v.x.x.z.k y 2 + . # 8XBXE.K.R.c.oXM.MX#XMXMXVXNXBXMXeXx.8Xv k l.x.l.K.tXT.7X>.c ,.,.~ ,.0XW q H <XJXAX,XOXR.E.z.A V V 8 V ; f f f f f ; 8 3 y ; f B.x.k k.K.k Q g u h b k l.k.d.Q.GXJXJX<XW.4X<X+XR.v.R.E.8XrXeXv.x.E.oXCXCXVXCXCX+XoXXXR.oXGXBX- - % + 8 t d t d k E.oX+XCXoX+XJX4XOX{.3X{.<XGXUXUXz @ , < < X.y.r.dXkXjXgXAXQ.E.oXR.f.J.W.~.D.G G ^._.2XJXJX2X,X%X6XGX,XH.&XH.H.!.~._.jX' F ' Y.G ' T./.5.1.] 5.4.5.4.4.;.s x ~ ` / / { qXqXtXqXI.Q p u > : u ` 7Xj t 0 l p x j j j Q W q W qX0XP @.:.C = < * O   X X X X @ < 1  . . .X.+.+.=.wXhXfXt.cXu...7.7.uXw.iXiXq.9.Z 7.9.9.7.Z 7...Z N Z %.%.B B B Z 7.9.7.%.%.%.0.lXu.6.4.wXsX3.U p 4 4 ;.1.",
"I I P ` yXhXqXwXsX6.+.N %.q.Z 9.7.7.7.B Z %...%.7...B 7.7.7.7.q.q.9.q.7.9.7.7.B 7.q.u.i.6.6.xXxXxXt.t.t.=.%.N , O @ o     X X O X % & * ; 5 :.#.5 u / 3.I.0XQ.U.( h j ( j q q j I.l h h b ( ! ^ K I.qXqXI.` ` ^ ! ~ ,.;.4.wXwX4.;.#.I L J Y aXaXqXjX/.[ | jXdX/.^.!.!.&X&X-X X3X3XOXW.OX<X2X2X_.} ^._._._.(.J.Z.H T.qX,., 1 <.$.L &. .1 < & O @ 8XUXUXJX4X,XH.{.G.G.+X4X+XoXoXCXVXNXMXx.l.z.z.n a t # + x.BX+XR.%X%X%XVXMXoXCXCXVXMXeXE.E.l.l.v.k b x.U.R.E.Q.K.gXqXtX7Xl.k P.yXI.Y.Y.<XAXW.A.d.k.U.b c V V ; V ; V V 8 8 8 ; 8 - 8 ; 8 A f k U.U.U.L.7 7 k z.x.v.oXR.XX4X3X,X3X6X<X<X+XAXtXE.v.v.v.eXBXMXE.E.MXCXoXMXCXCX+X+XXX$XoXVX8 % + + $ t f x.f v eXE.E.eXR.+XOX3X3XH.J.4XGXKXUXqX$ - = m X.u.fXdX/.Y.).+X+XXXG.G.J.A.G.S.J._././.dX`.DXDX4X%X%XGX4X3X{.*X=XH.H.~.(._._.W G ' H G Y.T.[ gXqXaXhXfXwXI a a i c 0XqXI./ / T.` _ L.P.U.b q > p L.0X! u u x i 0 x b ( j u p ^ _ [ ] ` wX@.3 & - &     X X O O * @. .-.-.-.+. .O.$.6.xXlX-.t.8.-.%.Z Z w.iXzXw.q.9.7.7.7.9.Z Z Z Z N ..7.7...B %.q.Z Z Z Z %. .zXIXsX4.qXhXwXP 5 P S D 5.*.",
"L 2 4 x P.tXqXwX5.t.u.+.%.0.7.Z 7.q.7.B B B B Z %.B B ..Z Z 7.7.7.7.7.7.7.9.9.q.q.q.w.0.-.u.mXmXlXsXlX6.6.6.%.1 < , = O X       + X + * 3 5 @.@.5 a 4.0XE Q U.T.x i p l _ Q q : E P.P.g t u u u p _ I.qXsXtX0X! ` ,.` I I ,.wX4.4.4.Y P R [ qX/.[ ' ^.} } } _.`._.!.S.&X-X-X[.3XGX%X+XGXJXJXDXjX} F G G ~.`.W.F.s.R.NXW K aXhXfXfXr.6.6. .< , , 2 yXUXKXGX,XF.[.{.OXOX4X%X+XCXHXeXE.x.k 8 t y y $ $ + $ BXHX+XXXXX+XVXVXVXM.CXVXVXM.v.x.x.v.v.v.eXv.v.E.+XoXR.W.KXKXFXNXk.w x.v ( _ W ' Q h.r p.d n A z y V ; V V V f f j.f 8 $ + y 8 8 8 7 8 h.x.P.8Xd 8 v.rXE.v.oXoXOX3X3X*X,X6X).).AXKXDX+XQ.R.k.k.E.BXBXeXeXeXv.E.MXVXCXVX#XoXoXBX8   X 8 f d d f v z.x.U.oXVXE.XXOX,X1XF.OXJXHXUXSXt , C < m t.kXkX).Y.A.R.+XR.F.G.5X3XG.Z.A.D.`.jXjXdXY.W.AX+X4X4X6X;X*X&X=X~.H.J.1X`.(.D.F F ^.^.(.2XY.T.hXdXfXhXsX;.a a ~ c ) 9XyX0X~ P I / ! u l L.L.g Q I.I.^ t 4 i s u 0 j x x t q Q T.[ W / 4.,.3 & O - + X o O & < < 1  .X. . .&.=. .N D D =.6.-.y.0.8.0.%.9.w.i.w.9.9.9.9.Z Z V Z B N M B B B %.B m q.w.%.B B Z %.+.lXnXxXsXwXwX4.L 4 L 5 S U Y ",
"*.4 P s s 0XhXsXsX5.lXmX0.B Z 7.7.7.7.Z B B B 7.%...B B 7.7.9.Z 7.q.7.7.7.q.w.zXw.-.%.....8.zXt.sXxXsX#. .@.X.-.-.-. .5 * X X + X   X * - & 3 @.2.@.qXqX_ E g l x x j j j u u 0 u ) qXz.0 > > u j _ T.0XqXqX0X` ,.~ ,.,.s i ~ ;.5.wXsXqX5.T.aXT.Y.G Y.' G G } `._.!.S.!.[.&X[.;XGX4X4X+X4XJXFX`.`._.} G D.(.G.G.f.G.G.A.).AXQ.kXfXdXt.xXX.1 < , . x SXUXGX4X3X.X{.4X4XGX%XE.#XMXMXv.h.z f f t $ # + 8 8 VXNX+Xf.XX@XCXCXCXVXVXVXoXv.E.E.E.eXMXU.U.U.R.oXGX6X4X3X4X6X6X$XG.v.E.x.k j 0 0 h l.E.E.x.f f C ; 8 ; 8 8 8 8 f rXV.p.8 7 8 8 8 8 # 7 6 t j.eXd w h.MXBXoXMX#XXX3X6X6X6X2X2XDXFXFXAXQ.Q.+XE.U.k f B.9XyXMXV.E.oXoXoXoXoXR.XXHXV.+ @ y v t t d z.B.x.k.x.x.k.A.3X5X[.F.<XJXUXUXP.$ * 5 < S e.kXDXW.W.Q.+XW.+Xg.s.1X6XJ.~.Z.G A.Y.).).T.Q.R.4XGX6X$XH.&X5X~.S.A.(.(.D.G G 9 G 2XD.D.(.Y.jXgXhXsXqX/ 4 p ;.:.,.>.4.qX4.P P s E j p g h K.L.tXqX! > > p I t > t i 0 u u u Q { _ ` qX9X5 @ % ; ; % X O O *  .X.1 X.X.D N +.u.=. .N  ...-.8.lX0.%.<.0.zXbXw.7.7.7.9.Z 7.Z Z Z B m V Z Z %.7...%.7.q.%.Z %.C @.t.sXsXsXhXsX,.a L D L Y L D L ",
";.P 4 L 4 *.sXwX5.5.xXIXlX@.B 7.Z N Z iX7.M Z 7.o.B B N V M Z Z Z 7.Z 7.w.w.w.zX0.%.B 8.0.%.u.-.t.t.5.D O.O.O.+.-.X.+. .< & , O X X   + * % * 5 t.#.3.! L.T.Q q u x ) ) u 4 x u 0 u ~ 7X( i q E _ K.E E ` ,.` ~ :.wXqX~ s s ( s #.sXsXhXaXhXgXW /./.G H G G Y._._._.~.S.H.>X&X&X5X4XGX4XOX<X2X)./.dX/.jX`.D.G.Z.G.XXW.G.W.W.+XW.Y.T.dXnXt.X.1 < 5 > U.HXHXJX4XOX].3XOXR.R.U.NXE.eXl.v x.f f y t $ . # 8 oX+X+XXX%XCXCXNXoXoXMXV.MXMXBXBXeXj.x.E.R.GXKXAX).,X6X,X*X,X3X.Xn.#XV.j.eXl.0 7 b E.C.V.x.f f 8 - f 8 $ 8 8 8 d ZXHXMXE.8Xx.V.V.v.7 # 7 7 7 8 h.7 h.MXCXVXoX#XXXOX4XKXKXOX2XFXKXKX2X<X).).Q.tXl.z c A 9XBXV.x.j.x.c.oXM.c.g.BXBX- - C a f n d d b l.l.l.x.k.d.J..XH.~.,XFXUXyX8 * 1 D S S r.jX(.<XJX2XY.A.W.W.A.J.{.H.S.D.D.D.W.W.Q.Q.R.<X4X4XJX6X[.1X1X!.D.(.).(.G G G Y.).W.G e D.).DXkXaX[ ] u u P ` / I / 4.4.4.,.s x h h g h g I.hXtX( u i x 7Xa t c v t t t > u s u ~ sX4.C < % % ; % % & , & , -.-. .-.u.%.N %.i.8.....%.....%.-.8.B %.zXzXzXzX7.Z M Z iXZ V 9.V V Z Z Z %.9.9.%...%.7.8.9.-.$.6.vXsXaXsXfXqXL D D L =.L L L D ",
"L P P D 5 L $.4.sXhXhXkXsX+.N B %.Z Z w.9.Z Z ..%.B N B M M Z Z 7.Z 9.9.7.8.0.w.zXi.<.<.8.u.zX0.-.-. .5 D  .-.&. . .X.N 1 m 1 , o X X X ; * & & 5 $.4.` ( T.T.p i p u u > > i ~ i 2 t ~ 8X7X( E Q W u p ~ ~ s s ;.wXwX4.~ ( ` p u ] sXsXdXsXgX^.(.).^.(.^.e G ' Y._.~.D.S.&X5X,X;X{.3X6XJX<X+XQ.Y.gXgX_.D.Z.G.J.OX6XOXe d.OX<XR.R.W./.kXnX-.1 , C @ - HXUXKXGX,XF.3X6X4XA.K.Q.U.b l.z.v f t 8 z - @   d BX+XoXoXVXCXVXVXE.E.eXMXNXrX8Xl.l.E.oXE.W.<XJXKXDX2X6X1X,X5X>X.X@XVXC.C.MXv.t 0 l.V.h.p.8 $ + - - 8 8 $ 7 j.V.V.VXVXoXBXNXeXMXMXC.j.7 d 7 7 7 $ 7 p.M.CXCX#XVXCX+X4XGXJXW.6XKXKX2X2X2XDX).Q.tXyX8X) ) n 9X9X8Xl.k.E.oXoXoXoXBXBX8 y c y a A l t h l k l l.E.A.Z.,X6X,X<XFXLXB.@ * m X.X.&.dXgX<X4X4X(.W.D.W.W.D.D.S.S.!.(.<XQ.R.+XoXE.<XQ.<X<X4X6X5X5X~.~.2XDX(.D.G H Y.`.W.G e G W.DXFXjX5.[ W E ^ ^ ^ 3.! I ;.;.I I c ( h u h ( I.0XtXqXl x ) s i t c qXx i z 0 4 p p I :.:.y * % * % % & < m  . . .-.X. ...-.8.%...%.....8.i.%.....N 7.%.%.8.q.i.zXq.M M 7.9.9.M V 9.Z Z 7.9.9.7.%.Z %.%.%.%.8.-.6.6.sXgXhXhXsX5. . .O.O.2. .L O.R ",
"L U *.L D 5 5 #.wXfXsXsXlXsX%...%.7.7.8.7.7.7.7.7.Z %.Z M V Z Z Z 9.9.9.Z Z 9.w.zXzXi.%...0.u.%.-. .X.%. .%.u.-. . .-.-.N -.-., O * X O % ; & o , :.wXwX/ K ( u 0 u t > i t 2 s ,.a 0 t I.tXtXI.r g l l j i s ;.,.4.4.;.I P / ^ u L Y aXaXaXjXgXY.D.Z.W.(.G G G G W.).(.Z.S.,X5XH.{.3XJX4X+XW.R.Q.+XW.D.G G S.{.*X5XJ.Z.A.W.W.W.GX<XW.Q.kXt.S 1 N ; + z.UXUXKX<X'.[.3X,XG.r k.l.k P.z.k f t t A y $   BXHXv.c.XXM.M.MXv.v.eXBXBXz.x i u k.+XNXQ.AX<XSXKXDX).1XJXJXJX3XOX%XVXMXVXMXl.0 t n v 7 7 . # 8 f y $ 8 d f rXVXVXv.M.j.m.j.j.j.M.V.v.h.j.oXV.h.# # 7 c.VXHXVXVXHX4XGXGXKX{.5XKXKXJXJXJXKXPXhX0XwX0X) I.P.v eXtXE.k.v.oXMXoXMXNXE.0 2 y 2 u u q t h 0 t b l K.W.OX4X6X4XJXUXeX- * 3 1 X.y.t.qXQ.GX4X~.!.~.(.(.^.' G D.~.1X<XOXXXoXCXGXNXQ.AXDX2X*X1X1X6X6X(.2XDXY.H H (.).Q.A.e H (.<XDXAXgXT.^ _ T.T.E E P ^ P L a u 4 2 t u b ( ) L.) P.b ) tX7Xt 2 t ~ 8Xz i s u s a s 4.c 2 , @ O & & & 5 C -.8.0.u.-.....N ..-.8.....7...8.i.%.....N %.9.7.%.%.9.zXw.9.7.V 9.9.9.V 9.Z 7.9.%.Z Z %.%.0.8.%.%.-.0.sX6.qXaXhXhXsX1.L O.O.+.-.D D O.*.",
"Y L *.*.D L D #.aXhXgXaXhXlX6.%.-.8.8.7...B %.7.7.%.7.Z Z M V Z V Z 9.7.N N q.i.zXzXw.%. .%.o...7.B 7.-...%.0.8. ...u.-.D -.0.1 < < , O % & O & @ y @.wX:.u K p > t u > x >.i t 8X>.x i j qXgXtXL.k.g i h x c x ,.4.4.,.U P ] / p u K ^ 0XaXjXFXW.G 9 G W._.' G 9 Y.).2X(.W.J.1X~.,X6X6X<X<XNXR.R.W.W.Y.(.J.~.S.Z.J.J.D.(.D.A.W.GXJX<X+XDXdXX.D  .m - - yXUXGX<X3X3X{.F.d.R.K.K.L.x.z d z v z s A $ $ ZXBXc.c.oXoXv.j.j.v.MXeXeXn s a ~ qXQ.tXNX2X2XDXFXFXAX<XJXKXJXOXXX#X#XVXCXMXl.- $ t $ # 6 6 t f rXBXV.BXVXC.VXZXHXoXc.n.a.j.j.C.M.M.j.h.d.c.oXC.7 # # w MXCXVXVXCX4X%X%XGX{.{.,XJX<X2XFXUXIXmXlXyXyXqXtXI.l.P.8X8XeXE.E.MXv.R.x.P.x > u s i u q j ( E x 7XU.Q.+XGX4XOXCXHXBX8 & <  .D -.xXaXQ.+XGX,X*X(.1X2X_.} H D.).DX6XW.R.+X+X+XNXAX+X<X2XJX2X_.~.~.2X(.~.(.Y.(.(.).Y.H H H W.).).<X)./.Q E W T.U.j E ^ ` / u 4 4 u u u x 7X) x j b z h 7XyX>.t i a p u u u a u a t c :.2 @ * * O o * @.5  .%.%.8.i.%.......%.%.%.8...B ....8.8.%.....%.0.8...B 7.q.9.7.9.9.9.9.9.9.9.pXZ %.Z N B %.%.-.-.%.-.6.0.sXwX5.aXaXqX1.I O.+.=.=.=.D  .D *.",
"R 5 R &.D O.O.I e.hXhXdXaXsX6.6.8...%.%.%.-...Z 7.%.9.Z Z 9.9.V M 9.9.7.Z %.q.zXw.7.8.%.%.%. .....B w.q.o.o.....%.-.8. .N +.-.-.%.%.%.N , & @ - - + * C :.#.I s u t p t s 0XA i t z ) P.( L.Q.T.U.P.b h t i s s s I ~ / / P U P Q T.^ ^ [ aXkXDX2XW.A.G A.(.^.Y.' H W <XJX2X(.1X6X1X1X,X<X4XAXNXoXCX+XW.Q.2X,X!.H.D.D.D.(.^.S.~.W.4XGX4X<XdXe.&.X.< < * b HXHX4X3X6X3XG.A.K.K.g g 0 t i i c ~ 2 y - 8 rXBXVXoXoXMXj.x.V.eXeXE.l.>.>.:.wXqXtXhXFXDXJXDXKXKXJXW.6XGXCX%XCXVXVXCXHXoXk $ + $ t d d 8 j.B.v.eXv.C.C.M.MXCXMXoXm.@Xm.g.M.VXN.M.j.a.p.g.%XGXx.7 # 6 j.MXVXVXCX%XoXm.#X$XF.G.4X,X<XDXPXIXmXmXnXPXSXQ.U.yX) z n tXeXeXz.U.d.g I.wX4 4 a ~ ;.) ` ) I.) x Q.AX+X4XGXGXHXV.8 ; N  .X.X.r.dXQ.DXJX4X1X1X1X^.`././.| } _.).W.Q.NXNXQ.+XQ.Q.<X<X2X2X2X1X!.S.~.1XD.J.(.DX<XW.A.G A.W.Q.).).Q.K.K.Q g r L.K.E ( I.^ ! ^ ] u u ^ / ~ s i t i h h i f v >.>.7Xx 2 s 4 s I 4 y a a a 3 @ O O o O C lX=.D N  .-.i.8.8.7.7.w.8.8.8.%...B ....8.8.7.%.7.8...7.%.B Z %.Z Z q.9.Z 9.pXpXuXV Z Z Z B +.%.%.$.-.6.6.6.5.4.qXhXaX{ P L O.$.&.&.+. .O. .&.",
"D S R &.D &.O.O.1.qXaXhXaXqXsXlXu.%.X.-.8.0.%.%.Z Z Z 9.9.9.9.9.9.pX9.7.7.q.0.iX7.B Z 8.8.7...m o.7.w.q.o.%.B ..8.....N ....%.i.u.0.-.X.1 1 & o - % * = 5 :.a 4 s u x p t x x z 2 $ c yX8XQ Q I.b z.7X7Xx t 2 u u 4 u P ^ / ! u I.gXT.W ' T.jXAX<X<XW.Z.G A.Y.`.^.D.H ).gXW.2X6X5X1X=X1XJX2XNX+XCXGXVXQ.E.W.,X6X1X~.D.H ^.).(._.~.*X+X<X+X).e.y.X.1 1 , $ L.KXHX4X,X4X<XQ.R.U.k.l.h x j 2 2 4 - y - f B.eXE.oXMXeXx.z.eX8X8XP.U.) ,.4.wXwXhXPXUXDXJXJXJXKX2X{.4XKXCXGXHXVXVXCXCXK.0 . # d eXE.v.h.j.MXv.j.j.j.m.h.c.E.c.CX@X@XN.n.#X#XVXVX#Xc.a.].$X@XVXj.6 7 h.NXCXVXVX%XoXXX%XOXF.W.6XOXW.W.tXnXxXnXIXUXSXT.NXhXqXc z P.8Xz.v U.Q u ! 9X#.a , 2 4 ~ 0XqXyXyX7XtXAXSXNXNXyXz.- - N X.X.r.r.fX_.(.6X,X*X1X1X^.^.| aXdXdX/.T.Q.tXAXtXtXT.U.Q.U.Y.W.(.(.~.!.,X{.*X2X,X<X2X2XQ.K.H d.W.<X).AXtXK.q g K.L.g Q L.K._ W E K _ { _ ! _ ` s t 4 y t $ > 2 t i ) >.` s 4 P u 4 a y a 4 C y ; & O O O & 6.mXlXt.&. .%.i.w.8.0.7.8.i.8.-.8.0.7.8.7.7.8.8.o.7...B 7.7.m M Z 7.7.9.9.9.pXpXpX9.Z Z 7.%.%.6.-.6.-.-.2.$.2.4.4.aXqX>.P L #.-.+.O.O.X.&.&.D &.",
"D S &.&.X.&.-.@.#./ 0XaXaX0XwXwXlX-.-.-.+.+.+.Z Z Z Z 9.V 9.pX9.9.9.9.Z 7.7.7.q.7...%.%.8.8.o...7.q.....m m o.8.q...8.7.%.7.7.w.8.X.X.D  .2.3 o X % * % * C #.i s t ! x t u u i c x ) 8X7Xb j b z i z >.` ! i u u s K ! ! _ { E Q K.W u J ' /.).).).W.Y.A.H H Y.)._.^.W.W.J.6X,X!.=X5X6X6XDXAXgXNXNXeXNXeXE.W.4X2XW.Y.Y./._._.1X=X(.<X4XGX)./.kXX.D X.1 @ t eXHXGX<XAXQ.U.Q.Q.L.Q l ( x a a @.C a - ,.tXk.h.E.E.eXeX8X8X) ( P.eXU.AXSXvXvXmXmXPXKX6X<X6X4XJ.OX4X4X#X%XCXVXN.CXoXp.# . 6 oXVXg.g.p.j.v.c.oX#Xc.a.m.v.m.+XKX%X@Xn.n.#X#XCXVX#XM.a.f.].g.oXC.d $ 7 oXHX#X#XoX%XCXHX4XOXGXKX4XJ.W.).hXvXnXIXPXtXtXhXvXlXwX:.a z c a j ! s 4 I <.uXC O O @ y y i y i i j k h t t 3 < X.X.X.X.r.dX).W.6X1XJ.~.2X`./.e.e.fXkXgXT.Q.AXSXI.! qXqX` T.Y.K.K.W.(.J.D.5X3X,X,X<X2X6X2XW.K.K.W.<XAX).Q.T.Q r g g l.K.K.U.U.l j j Q ` I.T.I.E j ! i u s 2 @ 2 t a a x u u p u u P 4 u I a ; C 3 O O O * , 5 6.fXxXcXxX-.-.i.0.7.9.0.7.7.-...8.i.8.8.......o.B o...B %.Z M V V 9.9.9.9.9.pXpX9.V 9.9.<.0.6.6.+.6.2.$.;.2.6.wXwXqXs s L *.6.=. . .X.+.X.&.X.-.",
"O.X.D X.&.+.+.+.a I 3.qXaXqX,.4.6.6.6.6.=.-.%.+.%.Z Z Z V pXpXpX9.9.9.9.Z Z %.B B %.7.%.%.o.-.%.8.q...8.....8.8.8.w.w.7.8.0.9.i.7.X. .D =.mX$.@ X X % % * 3 a a 4 4 c P u p i p 7X7X) x i t t i t 4 t i s ) ` ! p _ ` _ W _ I.L.Q Q g r Q W W W Q.AX<XW.W.A.r G ^.DX2XY.(.(.,X*XH.!.=X1X2X(.Q.Q.Q.T.8XrXyXNXQ.Q.(.)././.aX)._._._.1X1X2XJX4X<XgXr.r.X.X.+.3 # z.BXAXHXtXNXSXtXU.U.7X0X7X7X:.A C 3 D wXT.r k.L.E.B.rXwXs i ,.yXtXQ.HXUXIXbXmXmXnX2X,X4X3X].f.OX$Xn.N.%XCXCXMXVXE.6 # 7 j.%XGX].a.p.c.M.#X#X#Xm.c.XXc.R.GXGXGX|.a.@XGXGXCXVXVXM.n.f.f.$X%XHXV.. 7 v.VXMXMXVXHXHXHXKX+XGXKXKX,X<X<XPXnXUXUXgXQ.SXIXIXbXvXuX:.c :.A x x a u 3 C 0.lXN - @ O o O @ o o & @ - , , 5 1 S X.S r.dXDX,X$X6X*X=X1X(./.fXfXr.nXkXaXT.yXSXtXt u T.{ ^ I.Y.Q.Y.D.D.(.(.3X3X3X,X,X4X2XAXW.A.R.AXJXHXAXQ.Q r Q l r g l.L.L.Q j l q j I.T.U.l q g ) x t t t 2 a :.c a 2 > 2 p K 4 U P ;.a y ; ; * % O O * 1 @.1 &.xXxXcXu.8.zX0.%.7.9.Z B ......7.8.7.B ..B B B 7.7.7.7.7.Z 7.Z Z 9.9.9.pXpXiXpXpXZ <.iXzX6. . .Y 2.2.2.wXwXwX,.P a P 4.2.=. . . .+.+.X.&.&.-.",
" .&.&. . .+.%.-.-.@.s U qXqXwX0X:.4.2.$.6.6.-.0.<.%.9.Z 9.9.pXpXpX9.9.9.9.M M M M Z 9.M Z 7.o.o.8.%.-.o.8.w.q.o.8.w.7.0.q.7.q.i.-. .&.u.xXnXlX1 & % X % * 3 a y a a a 2 K P u u ! ! ~ c t 2 - @ @ s s 2 p ) ) _ ( _ I.L.Q Q E Q T.K.j Q K.g r r Q.).Q.<X<XW.r A.Y.(.DX2X,X1X,X~.1X*XH.(.1XY.Y.K.T.T.7XqXeXeXSX<XQ.T.).hXfXsXqXT.^.=X1X!.=X6X<XW.jXr.r.X.m N 5 * z 8Xz.tXyXeX8X7XqXqX8X7Xy 2 @ - a 6.4.u g L.l.v A c A a I wXvXyXW.<XUXUXmXzXxXe.W.G.3XGX4XXX#XCX#X#X%X%X#XVXVXB.7 # j.#X@X@X|.f.c.N.VXCX#X#Xm.n.XX#X%XKX%X$X].n.4XGXKXKXVXMXVXMXg.f.$X%XCXBX7 $ v E.C.VXCXHXHXUXHXNXGXUXJXG.W._.kXnXUXUXT.SXIXvXbXbXbXvX4.>.7X>.A n c y y 3 a <.C C 5 , & * = % = 1 , , 1 1 5 &.6.&.| dXDX<X$X6X5X1X1X2XjXdXr.fXfXdXgXhXhXI.z.t 0 i p { aXU.W Q.W.).2XDX,XW.OXOXOX<X2X4X<XK.R.+XJXGXHXAXE.( K.E b l l k l b j g g 0 w Q l g g j b l k i i i a a a 5 5 4 4 s s ^ K / 3.c 5 3 * % % % X * 5 N 1  .O.r.u.t.u.cXmXmX0.Z 7.Z Z Z B B 9.7.Z Z B M B o.7.9.q.9.9.9.V 9.Z 9.9.9.pXpXV 9.pX<.9.zXmX6.@.#.2.4.4.wXqX4.@.;.;.;.1.#.O.O. . . .&.X.&.-.&.+.",
"-.+.X.X.X. .+.-.-.2.#.p p 1.wXwXyX4.:.:.2.=.+.$.0.uX9.Z V 9.9.pXpXpX9.Z 9.9.9.M M 9.Z Z Z 7...B ..X.%.%.8.u.8.B 7.%.%.9.9.%.8.w.8.-.xXmXxXxX&.1 , = % % % - 3 3 3 a I s K K q J u 4 u a a c a - > t t i x j j Q I.I.T.( g E Q E ( U.L.l g g g k.K.T.Q.AXAX<XE.K.A.Q.JX2X,X,X,X~.5X,XJ.W.W.A.W.Y.K._ I.qXqXk U.SXAXY.[ dXkXfXsXsX`._._.=X~.,X6XW.).kXy.r.X.X.N 3 3 2 2 2 t - t t 2 > $ 2 o o , <.lX=.a u j x z z c a @.2.wXlXmXvXtX<XDXUXIXmXnXfX(.OXJXKXGX%XCXHXGX%X%XoXoXVXBXd . 7 MXCX].}.'.a.m.VXCXCXCX%Xm.g.XX%XGXJXG.n.n.|.4XGXGXJXHXCXVXC.m.g.@X].oXE.7 - d f V.MXNXUXUXHXKXNXCXHX4XW.(.DXjXPXUXPXtXPXnXvXbXbXbXvXhX9XA v f f A y i 3 2 @.C @.:.C < 5 N N %.%.m ..-.X.#.xXnXfXaXW.OXOX3X3X,X2XDXjXdXnXxXxXdX_.jX/.b t 2 i h ( E E T.Y.Y.W.).Q.).).).Y.R.OX+X<X<XW.R.W.NXSXKXGXAXQ.U.l.U.Q ( P.) b j b b k h k l.L.k h k l k d t h i a a a 5 2 4 s s u p ! I P wX:.2 & % % % * = m  . . .1  .=.5.6.lXlXzXzXbXZ N V Z 7.7.Z M 7.q.7.7.B B 7.M 7.9.M 9.9.9.9.9.Z Z pXpX9.V 9.9.uX6.mXmX4.t.2.wXsXwX4.I a ~ 4.2.;.$.O. . .X.&. .&.O.&.&.X.&.",
"-.&.&.-.+. . .%.$.=.2.Y s I ,.qXyXwXwX4.2.2.@. .6.cXpX9.V pXpX9XpXpX9.9.Z 9.Z Z 9.M 9.M 7.7.o.B ..m ......o.B B %.N Z 9.7.Z w.cXzXt.xXxXxXr.D  .1 1 & X X O & 2 3 a C ;.P K J u 4 : 2 t a C C y t t t j P.l i g Q L.I.j 0 q p g E I.L.d d k.l.g g K.Q.FXKXHXNXR.R.W.GXJX2X,X,X,X,X).<X).W.W.W.Y.Y._ T.W ^ i t eXSXtX/.gXfXfXxXsXdX`._.2X~.,XJX,X4XJXjXe.D X. .1 5 3 , * * * O   o @ o @ , 2 C uX2.5 2 4 a c A 8X>.A :.uXbXbXbXnXnXgXtXUXUXIXkXjX~.J.HXUXGX%XCXUXHXHXVXVXMXMXrX8 X B.HXGX$X].s.a.M.MXVXCXHXGXCXn.n.4X4X4Xn.b.|.}.4X6XGXHXHXHXVXVX#Xg.].G.G.R.v f 8 8 B.M.CXKXCXCXHXCXCXGXKX4X(.dXkXPXUXhXtXsXsXcXbXIXIXUXSXQ.U.eX9XA c t 2 2 4 a L @.$.@.a +.<.$.<.zX0.lXmX6.a qXsXhXtXW.R..X3X$X,X6XFXdXy.nXnXnXdX_.e.4 + o > x U.Q E H W Y.Y.Q.<XQ.Y.).).Y.U.<XJX<XR.R.+XNXGXGXGX+XQ.E.E.U.U.L.b I.) i t h h h l.eXeXx.l.l.z.l.h.k d h i t 4 5 D 4 4 Y #.i 4 y ~ ,.:.2 * * % % = < N %.%. . .D O.6.6.u.cXlX-.<.lX0.V Z 9.Z 9.9.Z 7.9.9.B B B M 7.q.9.9.V 9.9.9.iX9.9.pXpXV 9.V uX<.6.IXlXt.lX5.sXsXI s a a 4.2.$.O.D D  .X.&.-.&.&.&.&.&.&.O.",
"-.-.+.=.+. . .-. .C O.2.2.Y s :.7XqXyXwX4.6.$.O.t.cXpX9.9.pX9.9.9.9.9.9.9.9.Z 9.9.9.9.9.7.7.7.B B B 7.7.o.%.B B Z Z %.C Z 0.cXmXcXlXwXt.6.*.1 D  .N < % O O O & , 3 a 4.3.P / P K u 4 4 y a A a s z d i k b k k g g l g 0 u u u ( b j l l.l.L.L.L.Q Q.SXSXKXGX+XQ.R.+X<X<X(.W.W.Y.W.AXGXAX).+XW.K.Q.T.H J p t y n 7XaXdXdXfXfXxXr.fX`.2X2X2X<X4XOX4X2X} &.&.u.6.N 5 5 , , Z 5 & , , , , @.#.I a 5 2 3 a y C A A >.0XwXpXbXbXbXvXmXkXT.FXIXPXdX/.,XJ.GXKXGX+XHXUXUXUXCXCXVXv.v 8 $ MXCX%X$X|.a.E.VXMXMXHXKXJXJX@Xb.@X|.$Xb.b.|.b.$XGXJXGXHXHXVXVX#Xg.g.OX+X+XeXz.y 8 B.C.CXHXoX#XHXCX+XCXJXGX(.`.kXmXPXqXhXaX6.xXmXIXUXUXAXQ.MXLXyX9XA a y y a a c @.:.2.;.:.2.4.;.sXhXqXqX>.c I ,.I.T.E.XXOX3X*X,X,XjXkXxXmXPXkXjX/.J @ O * ~ 0X_ q q W A.Y.W.).<X).Y.Q.NXQ.W.+XAX+XR.R.+XHXAXNXE.R.oXE.Q.BXeX( I.7Xb i i j v k x.8Xx.x.x.z.k d b z.b i t 4 4 4 4 5 5 a 4 3 c :.:.c - O & & & = N N ..%.-.X.&.+.=.t.-.+.0.0.%.C <.w.7.9.9.Z Z q.9.Z M Z Z 7.B 7.q.9.9.9.V 9.9.9.9.9.9.9.9.9.pX9.6.6.lXnXkXnXsXqXwX9Xa L #.#.4.*.a D  .O.&.&.r.&.*.&.&.&.&.&.&.",
"+.=.=.=.&.&.-.X.X.D D &.*.1.2.:.K s #.4.lXwX2.sXt.nXnX6.0.9.9.V 9.pXpX9.9.9.9.9.9.9.9.9.7.Z 7.Z B 7.7.q.7.o.7.Z Z Z Z V Z zXzX0.u.cXt.6.6. .1 5  .+.N 3 = * O % ; , a <.:.P ~ u 4 I Y a 2 4 s s z c h t t d k.l.k d l.l.l.l.h j j h h b U.P.l.L.L.L.U.Q.NXGXHXAXNX+XR.W.<X<XW.W.K.Q.AXQ.).+X+XW.Y.W.Y.H J p z y @ > J | /.dXdXnXxXxXfXjXDX2XW.4X3X{.~.W.dXhXnXlX .-.lX-.@.uX<.Z C N 1 5 $.a 5 s 5 2 3 a C C f C b 0XhXvXIXbXbXmXmXlXqXSXUXPXkXjX1X{.AXHXGX+XHXHXUXUXCXMXV.h.8 8 8 j.oXXXF.g.c.oXCXCXHXHXGXGXJX$X|.}.b.b.}.|.}.}.OX4XGXGXCXHXCX#XM.g.G.4XJXJXHXB.y V V.C.HXCX#XCX%X%XXX@X4XOXD.).kXIXFX0XhXsXt.lXmXPXKXAXW.W.SXUXyXwX<.A a a a 3 a a :.qX,.~ ,.qX( ` I.7XtXyXyX9X:.,.yXtXQ.{..X*X=X(.dXnXmXPXPXKXgX[ : @ 3 a 0X{ J 9 ' Q.Y.Y.W.(.DXAX).<XAXAXR.E.E.Q.E.R.Q.HXNXc.v.E.NXQ.tXSX0XL.7X) j i h b z.eXv.V.x.j.x.z.f t t t t t i u u u 4 4 5 a A <.:.A y & O O X & m N %.%...%.+.+.-.=.+.=.-. .+.8.0...Z iX9.9.9.Z M 9.9.Z M 9.M 9.V pX9.9.9.9.9.9.9.9.9.V Z 9.9.9.V 9.6.6.nXfXnXnXsX5.1.#.Y #.&.*.&.O.D D R &.&.r.r.R R R L R &.=.5.",
"$.=.&.*.&.&.&.-.&.X.D S L *.2.4.a P a I wXwX6.xXsXnXnXlXuXZ <.9.9.9.9.9.9.9.9.9.9.M 9.9.9.7.7.M B 7.Z 7.7.M q.7.Z Z 9.Z <.zX0. .6.xX6.6.-.&.+. . .-.-.N 5 3 % % & & * a :.@.>.4 2 a I a 4 a 4 4 u t d h k b v l.z.l.l.B.8XP.z k h i t b 8XP.b L.U.Q.E.E.E.+XCXHXCXCXE.R.Q.JXAXQ.Y.Q.Q.Q.Q.).<XW.Q.K.r F G J 7XA - o . q | dXkXkXmXxXfXjXDX2X*X*X3X{.J.W.).aX6.$.L 2.lXvXlXlX<.$.+.@. .@.=.#.#.C t 4 2 3 V <.9XrXI.qXSXUXIXIXmXmXu.t.qXhXIXIXkX`.,X3XJXGX%X%XHXGXMXHXHX#Xv.d 8 f z.x.c.XX].f.m.MXVXHXHXHXGX4X4X|.}.b.b.}.}.}.|..X|.4XHXCXCX%X#X#Xm.d.G.4XJXKXLXrXf B.VXVXM.MXCX#XoX#Xg.XXXXJ.J._.FXkXaXT.aXaXxXxXnXnXFX,XA.Q.SXLXvXuXwX4.a c a z y i c :.7X( ( I.I.g K.SXUXSXSX7X>.,.0XtXR.W.{.H.!.^.jXnXnXPXFXFXQ.q @ , s P u K q T `.).Y.(.W.^.AX<X+XQ.CXAXQ.Q.+XAXNXMXeX+XE.c.R.oXCXNXNXNXNXtXk i i h b l.8XMXC.V.x.v.B.x.f f 0 - 2 z s a u s s i a >.9X<.y % O O X O = C %.Z %.-.-.-.-. .+.+.-.%.-.%.-.-.8.%.9.9.q.9.Z V V Z 9.M 9.M 9.9.9.9.q.9.9.9.9.9.9.9.9.Z 9.9.V 9.V 9.t.sXfXsXkXkXhXaX#.#.=.1.&.&.L D D D X.&.R &.r.R R R *.5.e.e.5.",
"=.2.] *.&.R -.&.&.&.D D D S Y 2.Y Y I I $.wXwXsXnXkXnXfX9X9.9.9.9.9.V 9.9.9.9.9.9.V 9.9.q.9.9.Z Z 7.Z Z 7.7.q.Z Z 9.9.uXw.9.B %.0.6.-.+.-.=.-.$.$.+.-.+.N B m = * X X * y :.:.:.a a s s u 4 4 4 u 2 u z c b f f x.v.x.x.x.V.x.l.l.b i h 7X8X7XP.tXNXQ.Q.Q.W.E.NXHXSXE.K.W.+XQ.W.Q.<XQ.Q.W.<X2X).W.Y.Y.' q q ` 7XA 2 o @ u tXFXKXnXnXnXkX2X1X:X*X;XJ.K.T.qX7X,.:.~ I qXwXqX9X;.4.;.;.:.,.:.:.c y y c c y C 9XZXLXtXQ.gXFXUXIXmXvX6.wXgXyXPXIXfXaX,X4XJXCX@X%XGXCXoXCXCXVXv.f 8 A BXVX%X$X{.f.m.VXVXHXHXGXJXJX$X].b.}.b.}.}.}.}. X|.%XHXHX#XN.@X#XXXg.G.4XJXJXHXBXx.B.HXVXv.M.CX#XCXoXg.].'.].*X2XDX/.[ dXaXsXfXmXnXFXgXW.W.OXgXnXZXbXbX9XA A c s z s a c ,.,.~ ~ ,.x P.SXSXgXwXqX! ) I.U.Y.R.A.D.' dXkXnXvXKXKXQ.j $ > > ^ q : H H ' DX).J.2X6X<X(.).Q.W.OXQ.+XQ.AXSXSXBXE.h.k.NXv.v.E.GXCXNXNXeXh h k ( P.U.eXeXv.V.V.V.f d f f 2 3 a >.~ s h ! ) ` >.C ; * % X % % % < <.<.%.%.-.0.0.u.-.+.+.-.6.$.$.%...o.7.7.9.q.pX9.9.V Z 9.9.9.M 9.9.9.9.9.9.9.9.9.9.9.9.9.Z uXiXuXZ Z V 9.t.xXaXfXkXaXhX{ *.*.*.O.&.R X.R D X.D &.&.R R | R e.5.5.5.5.1.",
"5.=.R R R R &.r.&.&.&.R D D L *.2.O.=.$.@.$.qXsXnXkXkXvX9X9.9.M pX9.9.V 9.9.9.9.9.9.9.9.9.9.q.q.9.7.o.M M q.9.M V 9.9.9.9.9.B 8.6.+.X.+.X.-.%.-.$.+.-.@...%.Z Z = % & X o * 3 V wX:.a 5 u 4 4 K 4 p i 2 $ 7 d f h.V.V.j.V.eXv.eXl.b h i h ) P.tXtXSXQ.oXCXE.d.R.NXNXE.E.+XQ.R.W.Q.GXAX<X).DX<XY.W.K.W.).' H u ,.4.a , > > ( SXFXPXnXmXkXjX~.;X-X*XW.Q.yXeX7X9X7XhXhXwX7X) ( ) wX` ~ ;.wX) c z t v c i >.9XuXyXIXSXW.W.<XFXUXmXvXfXqXhX0XvXPXkX`.J.{.$XXXN.#XCXCXCX#XVXVXC.B.f B.LXHXKXJX].s.N.N.VXCX%XGXGXGX$X|..X|.b.}.'.}.}.}.$X#XHXCX#X#X@X@X@Xg.].JXJXGXHXBXf V.HXVXMX#XVXVXoX@X@X|.F.{.~.2XDX/./.jXaXaXsXfXnXkXY.D.<XDXkXIXIXvXpXpX>.>.>.c a ~ ~ s ) ,.>.) :.,.tXgXqXT.jXhXtXqXU.U.U.W A.D.} dXnXkXgXFXAXK.> # # g Y.e e ' /./.(.J.J.6XJX6X<X<XQ.+XQ.Q.Q.Q.AXE.E.U.E.E.R.E.oXk.j.NXHXAXtXl.l l ( U.eXE.eXv.j.V.MXv.f f z i a c C ~ n 7X,.) >.>.y - % X % = X = C %.Z %.0.%.%.0.-.8.$.N  .$.%.-.-.8.q.7.B M 7.9.q.9.pX9.9.9.9.9.9.pXpXM 9.9.9.9.9.9.9.9.9.Z Z 9.Z 7.<.Z 9.9.t.fXsXfXaX5.qXY #.&.Y &.&.S &.S X.S R r.R R T R ] aXe.e.1.R R ",
"6.t.2.1.R T *.e.&.&.R S &.R D R &.=.*.=.=.#.1.hXkXkXkXsXxX6.-.%.%.9.9.iXZ Z 9.9.iX9.9.9.iX9.9.9.9.9.M V 9.M M V V Z 9.9.iX9...7.8.%.-.%.+.-.-.+.%.+.6.0.0.8.Z %.<.N % O O O % % C 9X<.A a s p p u a ~ i > $ t v x.j.B.V.V.v.eXeXl.l.b h i u Q tXtXNXNXNXoXE.v.E.v.E.eXNXSXAX+XQ.Q.<X<XQ.).<X<XW.<XQ.Y.DX`.H J q q K u $ > u tXSXFXPXnXnXdX).*X[.F.J.U.U.0X>.~ ;.hXSXPXhXj h 7XI.x >.7X>.x x i i x a y 9XbXuXvXvXDXW.G.,X<XFXnXxXxXfXsXqXqXvXFX).&X[.].].m.M.#XMX#X%XM.MXVXV.f rXZXHXKXJXJ.s.m.#XVX@X%XCXGXGX$X|..X}.}.'.'.}.}.b.$X@X#X#X#X#X#X#X@X'.$X4XJXJXAXAXeXV.CXCXCXCXVXVX#X%X$X$X;X*X2X2X`.[ dXkXsXsXfXPXkX/.T.^.jXDXkXnXIXLXpXpX9XV A y A C s u p / ` ,.>.,.0XtXQ.T.FXgXT.I.` ~ ~ ~ ~ P Y 5.kXjXgXKXNX0 6 6 e J.J.~.A.W.)./.J.~.*X*X&X3X6XJXGXAXAXNXAXAXtXU.l.E.tXeXv.U.c.c.c.E.+XNXoXU.L.l U.U.eXE.x.v.E.V.V.V.d d z t i x x ) L.n 7X>.A 3 = = % = % = = N %.Z  .%.%.0.0.0.%.Z +.N N 8.6.%.7.0.6.%.%.%.%.9.9.w.iX9.Z 9.9.9.M 9.9.9.V 9.9.Z q.q.9.q.q.%.B Z %.7.%.-.6.6.sX6.fXsXaXsXU #.6.*.*.*.O.X.&. .O.&.R R R R ] 5.5.&.Y ] [ { [ ",
"2.6.5.5.e.] R R R &.&.&.D D S R  .&.=.#.$.#.1.sXaXdXaXsXsXt.-.%.%.Z 9.9.9.9.9.Z 9.9.9.9.9.9.9.9.9.9.9.9.9.9.9.9.9.9.9.iX9.7.7.7.-.%.-.-.%.+.-. .+.-.0.u.6.<.<.<.0.%.N ; % X X % X * 3 a :.>.I P ! c ~ s a t y a f d B.V.V.j.E.E.eXU.l.L.j u Q Q.NXBXHXVXv.v.E.oXk.v.MXNXCXNXtXQ.Q.Q.W.W.W.OX<X2XJX2XW._.).[ ' F : H Q 9 # 7 E tXFXFXfXxXkXdXY.J.G.R.Q.T.7X~ ,.wXsXtXhXhX7XL.( x ) 7X>.~ c s z s ~ c A pXpXzXmXnXFX<XJ.J.<XkXnXnXfXaXdXhX{ qXFX2X=XH.'.n.N.N.VXoXVXM.c.VXHXrXB.rXLXGXJX6XOXs.c.#X#XN.#XCXHX4X$X|.}.'.[.}.[. X}.|.$X%X#X@X#X%X#X#X@X|.3X4XJXKXGX+XBXBXVX%XCXCXCXHXCX%X$X*X1X2XDXDX).T./.aXkXkXkXPXkXT.T./.gXjXkXnXIXIXbXZXpXB.A C :.C c s p K ~ ~ a ~ ;.T.T.gXgXQ.Q ! / 3.wX9X@.C O.*.aX/.DXW.7 6 0 9 F.*X*X1X,X(.(.W.~.*X;X:X*X*XOX+XgXAXKXHX<X<XNXE.U.8XtXtXE.v.E.NXE.k.c.E.E.NXE.8XI.Q.tXU.k.E.NXx.x.eX8Xn x s z i i b I.8X9XA ; = % % = % % ; M M %.N N B %.0.uX0.Z N Z %...%.8.%.%.w.8.%.%.0.9.9.9.9.iX9.9.V V 9.V 9.9.9.V 9.9.q.iX9.7.7.7.7.%.7.%.8.9.-.-.-.2.sXnXsXe.4.Y 1.5.1.*.&.&.D X.&.&.R R R R ] 5.=.*.*.U R ' ' W ",
"1.3.5.5.5.e.R R R &.&.&.X.S D X.O.&.=.O.*.*.R 5.sXaXsXfXlXsX6.-.7.<.Z <.Z 9.Z 9.9.9.9.9.9.V Z 9.9.9.9.9.9.9.9.9.9.9.uX9.7.7.7.B 7.-.8.-.%.-.-. .N +.7.<.%.6.7.9.%...C %.m % % * X % * 2 a :.:.:.7XI.) ) ) s i t f f x.V.V.v.v.k.eXeXU.I.l g Q U.tXAXHXE.j.c.eXE.R.E.E.E.E.tXNXAXtXQ.Q.Q.<X<X<X6X5X5XJ.D.^.).T.W 9 G W.A.6 # > U.KXKXjXfXfXt.] ( Q L.Q L.L.[ qXSXhXT.qXtXtX0XP.) 7X>.c x c c a c A A B.9XpXbXmXmXkXDX).W.Q.AXkXnXdX| e.fXaXaXDX2X1XJ.[..X@X#X#XCXCXoXVXCXHXBXV.MXGXGX6X6X$Xf.m.VXN.#X#X#XGX@X$X|.'.'.'.'.'.}. X|.@X%X@X@X#XVX#X@X@X].{.OXGXKXJX+XUXUXHXVXVXVXHXCXCX$X].{.1XDXFXDXgXgX' } dXkXFXPXgXQ T.gX/.jXkXPXIXIXUXLXpXuX9XC C c a L s P I ~ u E { T.T.Y.Y.gXT.T.3.wXwX6.~ #.4 U aXT.tX9 . d d.9 F.&X:X:X1X1X(.1X1X1X5X5X6XOXW.Q.NXAXKXSXQ.Q.tXtXtXQ.U.eXE.U.k.U.c.k.R.+XAXNXtXtXT.E.E.l.E.E.h.h.x.eX8X>.x s i j i v 8X7XA y % % % = = m ; 9.<.Z B %...+.-.0.8.9.%.B %.8.8...%.B 7.q.0.9.%.iX7.9.iXuX9.pX9.V 9.9.9.9.9.9.9.9.9.9.7...7.7.7.8.%.7.-.8.-.-.=.*.5.sXsXaX] U *.5.5.*.&.&.&.X.&.-.&.&.R R R *.*.1.] U [ ' G H D.",
"[ [ ] [ ] 5.5.R R R R R R X.&.X.O.&.O.*.=.1.R U aXaXsXfXsXt.0.<.<.9.9.%.Z Z 9.9.9.9.iX9.9.9.9.9.9.9.V 9.V V 9.9.9.pXiX9.9.7.Z o.%.8.0.8.%.0.8. .N  .+.B 9.w.iX-...N  .%.Z ; = = % * & % ; y V 9Xn P.x j ! i u z f f z.B.v.V.E.v.x.eXtXU.( K.K.U.+XMXoXv.c.E.E.j.E.tXNXU.l.E.NXSXNXAXAXGXJXJX2X,X{.;X&XJ.^.(.).D.!.J.{.W.e # $ 0 +XKXAXaXfX6.D L ) ` ( _ _ _ Q.gXDXgXT.Q.qXP.P.8X) c s s c C A C C A 9XuXpXIXIXnXkXkXDXQ.U.tXkXPXfXdXdXdXgX/.).jX`.2X,XOX%X#XCXCXVXVXHXVXVXMXV.MXNXJXJX4X3Xn.|.#X#X#X@XXX%X$X4X|.'.}.[.'.'.'..X.X@X|.|.#XCX#Xm.#Xg.'.{.4XJXKXGXoXHXHXVXCXVXVXHXVXCXXXA.D.DXFXjXgXgXtX^.^.`.gXFXPXT.K 0XwX5.aXhXIXIXIXIXIXvXhXwXa C L C a a 5 P I U J _ T.Y.K.).DXjXqXqX1.3.Y a ~ U { tXT.g . 6 R.d.f.*X-X>X>X=X=X=X1X5X2X6XJXJXKXGXGXQ.Q.AXAX).Q.AXSXgX0XP.( ) U.L.k.k.R.E.NXNX+XAXtXU.U.k.U.eXv.d k.x.L.x i i p i h h P.9X8Xy * = % % 3 Z Z Z Z 7.Z %.%.<.0.9.9.<.%.7.<.9.7.%.7...7.0.9.7.w.%.%.<.9.pX9.9.9X9.9.V 9.9.9.9.9.9.9.0.9.7.8.9.q.8.%.%.%.-.%.-.+.=.2.5.sXe.3.Y L Y Y *.R *.&.&.&.&.X.&.&.&.R 1.R R L R q T /.^.G 9 ",
"G ' ' U L 1.5.*.1.R R R &.&.&.X.O.&.R &.r.&.*.R 1.aXsXnXsX6.6.%.-.8.8.7.8.%.%.7.9.9.9.9.9.9.9.9.9.9.9.Z V V 9.V 9.pXuX9.0.q.7.7.Z 7.0.8.%.%.8.%.%...N B -.w.w.0. ... .B Z Z C * = % % = % ; y V 8XI.b h h i p ( x P.8XE.x.v.MXv.k.E.tXeXU.tXtXNX+XE.c.c.E.E.E.U.Q.tXtXE.E.eXNXtXAXKXKXAXW.).(.{.;X>X*X=X~.W.(.,X5X>X*X*Xs.6 w # w E.AX).aXR 5 5 <.wXwXqX] ^ K.Y.).).T.qXI.x x c ~ ~ s a I @.C C V V pXZXIXUXIXmXfXdXdXgXQ.U.gXPXnXnXfX| /.T.).FXjXDX<X,X$X%X%XCXVXVXVX+XVXMXHXNXGXJXJX5X3X|.@X#X#X#X#X@X@X%X$X|.}.}.|.[.'.'.}..X$X|.|.%XCXM.#X#Xf.].,XJXKXJXNX+XHXHXVXVXVXHXVXHXCXG.(.Y.DXkXjXgXtXI.^._.`.`.FXhXp P 4.#.Y sXvXvXbXbXIXIXLXPXwX:.@.$.@.C 5 @.a K P ^ [ T.Y.T.DXFXaX^ / ;.I D P Y sXqX0Xg 6 # d.W.F.[.:X:X>X>X>X1X=X=X1X6XJXJXJXUXUXKXGX).<XAXAXDXKXFXFXtX_ _ j ( Q U.K.k.E.+XtXNXgXNXT.U.E.U.v.g k.k.k._ ( p 4 s x b v 8X9Xc - % O & < Z Z Z M V 9.<.7.%.9.w.%.%.9.9.9.9.7.Z 9.9.Z 9.9.9.9.iX%.Z w.<.9.<.0.uX9.uX9.q.9.q.9.9.q.9.8.0.0.0.-.8.8.%.-.+.+.-.-.2.2.6.] 5.3.^ J L L R &.&.&.&.&.-.&. .*.*.*.1.5.*.R U J ' T 9 9 D.G ",
"G ' [ U L *.=.R R R R R &.&.X.X.&.&.&.&.&.R *.R U ] aXsXwX2.6.+.%.-.7.-.-.7.%.8.9.7.%.7.9.9.9.<.pX9.9.9.9.9.V 9.iX9X9.iX9.9.9.9.0.7.9.8.%.B %.7.7.%...%.7.%.9.8.%...B ..%.Z Z M m m ; % % % ; y 8X8XP.h h p u p ! ) 7XP.x.d v.oXv.U.U.U.Q.tXtXAXNXE.K.k.v.k.L.E.U.U.E.eXtXAXtXQ.<XHXGX<XR.W.<X4X6X5X>X1X1X,X,X1X>X>X-X&XZ.e d.0 . 0 E.).aXU 5 @.:.6.6.6.5.0XQ.).^.Y.Y.Q.I.x x c P c s 4 L C N C <.uXvXLXIXLXIXPXkXe.aXgX7XQ gXFXnXkXdX| ' T.AXhXkXkX2XW.].$XCXCXHXHXVXCXHXHXUXCXAXKXJX6X$X.Xn.@X@X#X%X#XXX@X@X.X.X}.'.'.{.}.|.$X$Xn.@X#X#X#X#XXXb.{.3X6XKXKXGXVXVXVXMXMXj.v.M.CX%X+XgX' dXkXhXhX8XK.~.=X1X2XKXT.u ,.sXwXsXvXvXpXZXZXIXIXPXvXwX;.L D C 5 5 C O.P 4 J E /.Q.).FXFXW 4 4 D L s L s ! s d 0 9 e W.1X*X:X-X:X>X>X>X5X5X=X*X,XKXKXKXKXKXUXKX4X<X<X<XAXKXFXFXgX0X` ! ( ( L.L.g K.Q.AXAXQ.AXtXeXtXv.d h.l.L.U.I.I.~ s i i 7X9X8Xi - * O O = N Z 9.V 9.q.iX9.Z V <.9.%.9.9.9.9.9.9.Z <.9.9.Z 9.Z 9.9.9.%.w.%.<.%.6.0.6.0.w.8.7.8.9.9.9.9.0.-.%.%...-.0.-.+.-.-.6.-.2.2.2.1.^ U S L U Y R R R &.&.&.&.&.*.e.*.*.2.5.1.R S F J G q G ' G ",
"' G W ^ L L #.R R 5.| R &.&.X.&.&.&.&.&.&.R R R S ^ ] aXwX4.2.-.-.-.-.%.%.%.%.8.q.8.8.8.w.8.7.7.9.9.q.9.9.9.9.9.pXZ <.uXuX9.9.%.w.9.9.w.7.Z %.7.7.7.7.9.8.7.7.9.0.-.%.7.%.Z Z Z M Z M = % % = ; A 8X8XL.h p g u u E ( ) l.d j.E.E.U.x.U.tXNXNX+XNX+Xc.c.K.k.k.I.P.L.U.tXSXFXAX+XAXAX<X+X<XJXKXKXJX6X5X5X5X1X3X5X5X>X-X:X[.F.G.K.# # q T.tX0X/ Y s @.@.$.6.6.hXDX).' ' T._ ! ! P s P a a a @.@.@.lXlXLXIXLXLXIXIXfXaX[ qXqXl W kXFXdXdX).(.Q.gXgXdXFXjX^.J.].%XCXCXHXCXCXVXHXLXMX+XJXJX6XOX|.f.|.#Xm.CX%X#X@X@X$X.X}.'.].]..X@X$X|.N.#X#Xm.#X#Xf.b.].{.JXUXUXMXv.BXVXVXv.j.M.CXCXQ.AXgXdXdXaXFXtXL.K.!.&X=X1X<Xg p qXhXnXPXvXbXbXbXLXLXhX3.~ a 3 , 4 , , < 3 5 5 P p u { hXgX0XK : @ : 4 4 4 4 u i s g g A.D.,X5X*X=X:X>X5X5X5X6X5X5X1X1XJXKXKXKXJXGX4XAXAX4X<XQ.DXDXSXgXaX3.` / ` ! Q Q K.Q.+X+XQ.AXNXtXrXE.k U.U.U.T.I._ _ s a z 8X9Xy * O & O O 3 m Z Z 9.iXbXbXiXZ Z 9.0.9.9.iX9.9.9.9.9.9.Z 9.9.9.V %.9.9.%.<.<.<.<.<.0.lXu.0.%.%.0.9.-.7.8.6.-.+. .+.-.-.-.-.-.2.=.2.2.1.1.Y U J 5 R &.O.L D &.=.&.+.O.&.&.&.R 1.5.*.R R J J E W F H H A.",
"G F F J K S L *.5.5.R R R &.&.X.&.X.&.&.&.&.O.D L U L 1.5.1.2.6.-.-.-.-.+.X.-.-.%.7.8.8.8.7.8.8.q.9.9.9.9.9.9.9.9.iX9X<.9.uX9.Z w.9.0.9.7.9.9.7.%.7.7.9.9.9.7.%.7.0.7.%.%.9.7.Z V Z V m = % % = y A 9X8Xv l b i u ! ` ( b h.d h.P.U.E.Q.tXCXAXNX+XoXK.k.L.U.( l ) ) T.hXKXKXDXAX<X<XQ.<XJXKXUXKXKXJX6X1X>X5X3X5X>X>X>X:X&XH.*XJ.e # : r ` tXtX{ / I O.@.C L qXFXDX^.Y.T.[ P P s a P L L #.#.@.O.sXvXIXIXUXZXLXvXsXsX] { qXK F gXFXFX2X2X,XY.Q.qXkXkXjX/.Y.OX%XCXCXMXMXVXoXHXHXBXNXHXJXJX3X$Xf.n.#Xm.VX%X@Xn.|.$X}.|.}.F.'.].].g.].@X@Xm.a.#XN.a.'.|.{.JXUXUXv.d LXHXVXj.v.CXHXc.E.gX[ kXkXaXgXT.k A.*X:X>X,XY.r W 0XaXhXLXvXLXLXvXhXPXPX,.2 , 5 5 4 1 , * * 2 5 5 / Y / qXT.> . @ > , 4 5 s 4 3.hXqXT.Y.Y.D.1X*X=X=X1X6X5X5X4X5X6X5X6X6XJXKXKX4XW.J.<X6XJXGXAX<X<XAXgXgXgXqX,./ ! ! j L.T.K.U.AXNX+XSXNXv.eXeXeXL.Q Q T.qXI.) c 7XA ; - - = * O * C C V 9.9.9.iXbXpXuXZ <.zXiX9.pX9.9.V 9.9.uX9.9.uX9.9.Z 9.uX<.%.0.0.-.6.u.lX6.0.%.-.0.6.$.-.6.6.t.-.=.6.6.6.lXsX6.2.=.2.6.2.1.Y / K L L R &.&.&.&.-.-.-.+.R *.R L 5.e.L J T S J K W E q Q Y.",
"D.9 : T J S L R *.3.1.] 5.5.&.&.X.&.X.&.&.O.*.R R J 4 L Y 1.2.2.-.6.-.=.+.-.-.-.-.%...%.-.8.8.8.7.q.8.%.7.0.w.0.uX9.<.$.9.<.Z <.9.9.9.Z 9.Z 9.V Z 9.9.9.9.9.9.9.9.7.Z Z Z pXiX9.7.Z Z B m & O * * - C 9X8XA x i E ` _ ( I.U.l.g d U.AXeXAXNXE.GXNXU.k.K.L.L._ ! ! ` hXFXSXKXJXAX<X<X<XGXKXKXKXKXDXKX6X=X=X5X6X6X>X;X>X-X:X=X*X5XJ.r > > t s E p u K 5 5 5 2 K hXFXT./.{ R K 4 L #.a 5 a 5 L D L 2.sXvXUXLXLXbXvXwXvXvXsXaX7X4 ' DX6X=X*X~.J.K.gXkXjXdX/.).AXOXCX#XM.h.M.MXVXVXVXHXHXKXKXOX$X'.b.%X#X#X#X#XXX].$X$X|.|.'.$X].].XXXXXXc.a.m.#Xg.b..X3X4XKXUXZX8 V.LXHXNXE.GXMXGXk.g aXaXdXFXaXgXL.d K.J.J.{.OXU.g K K dXkXbXLXLXvXvXPXUXqX2 - 5 C 5 5 4 , , 3 4 4 , 4 5 i > : # > P L 4 2 u P ^ ^ aXgXgX/.).<X,X(.(.1X5X1X6X5X5X6X6X6X6X6X6XJX4X+XOX,XJX4XOX4XJX%X<XAXJXgXgXqX3./ p P _ T.tXK.Q E.+XAXMXE.x.eXBX0XQ E _ { _ ` 7X) <.y * * & & = , 5 5 L C $.9.0.uXpX9.uX9.0.bXbX9.pX9.9.Z 9.pX9.V Z 9.9.9.Z 9.9.<.<.0.6.6.6.6.t.2.6.6.0.t.6.6.t.sX6.5.6.sX6.2.2.6.6.2.2.4.6.4.2.;.P ;.1.L D L &.&.X.&.-.=.+.&.*.L S R 5.] S J T q J _ p g g g g ",
"G J H T J J U ] ] 5.5.5.R *.R &.O.&.-.&.&.D O.*.*.L J L U U *.1.2.2.2.=.2.6.u.6.-.-.+.+.6.0.-.%.B 7.8.%.%.-.lXuXlX6.<.<.6.0.%.9.9.9.M 9.9.9.9.9.9.9.9.9.9.pX9.9.pX9.Z 9.9.bXbXiX9.<.%.C N = O & % & ; a 9XB.z h ) ` 0XT._ ( U.l.l.U.tXNXNXNXtXNX+XU.K.Q E ( ^ ` 3.qXhXhXgXDX).<XQ.2X4X2XAX<XGXUXKXKXJX=X1X5X6X6X5X5X5X5X>X=X*X5X,XJ.W p s c ! j u 4 4 > : , > u { aXkX/ 4 L 5 a a 2 , * , 4 , , a I 7XvXIXLXbXbXbXLXIXvXsXwXE q (.1X>X*XJ.A.A.T.jXaXgXjX{ hXNXoXCXMXc.c.MXVXZXj.rXUXUXUXOX].].f.m.CXXXc.#X@X@X@X@X|.{.G.4XXXXXOXoXc.c.c.c.n.f.b.}.$XJXKXUXyX8 V.HXVXVXMXHXNXBXl t gXdX/.gXgXtXd f k k.A.R.Y.j t q J aXkXvXvXLXPXSXUXPXx $ y <.9XC 4 4 , 2 4 u a 5 4 a ! s u u ! 3.;./ P ;./ ^ W /.aXgX).`.).2X2X2X1X2X1X~.=X6X6X6X6X3X{.4X6X,X<X6XJX4XJ.G.+X4X<X4XJXAXgXqXqX3.3./ P p _ T.U.Q r +XCXoXR.v.BXBXU.W _ W _ ) x rXrX8 & % % % ; 3 < 5 N @. .N @.9.0.<.<.<.<.uXbXbXuX9.9.pX9.9.9.9.9.9.7.<.Z 9.9X0.uX6.wXwX6.4.2.wXwXsX6.2.2.*.1.4.t.5.2.5.2.1.2.4.2.3.3.4.1.;.I #.4.Y *.1.#.D D  .X.&.+. . .+.2.&.D R 5.5.R J T S F J Q Q Q Q l g ",
"g q J W K J J T L Y 5.5.R U R *.&.&.&.-.X.O.O.&.Y D L U L R ] 5.4.qX4.4.6.t.wX6.2.6.2.6.0.t.0.6.-.6.u.-.-.0.0.lXlXwX6.<.0.<.+.8.9.V 9.9.9.9.9.9.9.9.9.V 9.iXiX9.bXiXZ 9.iXbXbX9.<.7.%.N C 3 & * * * * ; f :.A c ` I.` I.( Q U.I.E.U.U.NXNXNXNXQ.K.U.T.Q E ! ! 3.0XaXgXgXAXAX).+XJX4X4XGX4XW.W.JXKXKX6X6X5X6X6X6X6X5X5X5X1X1X~.(.~.W.T.` 0XwXqXT.J p 4 , 4 > @ # $ P 3.U L L 5 4 3 , - , 3 5 5 5 , 2 ) SXUXvXvXbXbXbXvXIXsX0X( u R.,X;X*XJ.D.Q Y.AXgXkXkX3.aXQ.R.HXVXMXc.VXBXLXV.f HXUXHX4XOX{.f.f.CXXXa.m.oXXX].].XX].OXGXOX$XGX+Xc.c.c.c.a.f.'.'.;XGXHXUXrXt eXVXMXBXVXHXBXeXi ^ T.aX).gXtXNXz v A i 0 u j i i U R T e.fXvXvXUXUXUXtX0 @ A <.:.#.a 4 4 u a p ! / / qXvXhXqXI.qXqXwXqXqXaXT.T._ T.T./.dXaXgXgXgX`.2X`.1X=X1X6X5X1X{.J.F.3XGXOX+XGXJX<XOX%X3XOXXXOXJXAXQ.T.qXqXsXqX3./ _ _ L.K.U.E.oXoXE.oXNXtXT.Q p E 0X` ) rXy + X * + & 5 1 @ , 4 L @.+.%.$.%.%.<.<.7.w.bXzX9.pXiXpX9.9.9.V 9.7.%.<.7.0.0.6.6.wX6.qXwXhXwXqXwXwX2.;.Y I L Y *.1./ ;./ 1.3.4.3.3.qXqXt.4.1.2.5.4.2.O.O.D S D X.X.&.+.+.=.=.5.5.5.e.] R ] T J H W g g K.K.k 0 ",
"K p H W W F q J J J #.5.*.S U R &.+. .+.&.&.&.&.Y L Y *.Y Y Y Y 3.4.0X4.qXwX4.4.2.6.6.6.6.wXt.wXwXu.6.6.6.wX6.6.6.6.6.6.6.-.-.0.9.9.V 9.9.V V 9.9.9.V 9.9.pX9.ZXbXiX9XuXuX9.uX9.<.%.@.N C a 2 2 * O & % * a 9X4.) ` ( _ _ Q ( tXtXE.k.Q.NXAXQ.K.K.U.tXI.p s P 3.{ aXaXgXDXAX<X<XGXOXOX4XJX<XOX+X6X4X5X5X6X6XJXJX6X5X5X5X6X1X_.^.2X`.gXqXhXgXQ.Q K U S 4 u P x 4 : $ 2 2 4 4 , 5 5 2 3 2 3 5 5 C C - 8 qXIXvXvXvXLXIXZXvXwXP p 0 K.+XOXJ.W.K.u j gXgXjXkXhXtXL.c.CXVXVXMXVXVXLXVX7 rXUXUXJX4X$X'.f.m.oXd.d.XXN.XX].].].4XJX4X%XJXGXGX+XXXg.s.s.'.}.$XGXHXZXB.x.rXHXHXHXMXHXHX8Xb ` u H T.AXAXyXv y a a a p i 2 , J [ } } kXkXjXDXFXgXp $ 8 :.A A :.I s P K E ! ` 4.qXaXhXhXT.aXhXkXhXaXqXT.T.T.T.)./.T.{ aXsXaXqXQ.2X1X1X=X1X1X,XF.s.H.J.5XJX$X<XJXJX%X,X6X3X{.F.4XJXGXgXT.gXqX6.wXqX0X_ j l Q.SXk.h.R.oXoXE.E.AXT.q ( ` 7X9XA + % * @ O , a a 5 2 5 I @.:.-.+.N C @.6.6.uXbXbXbXZXiXpXiX9.pX9.V %.8.w.0.6.0.<.0X4.,.9XwXhXhXwXqX3.;./ Y Y Y P I 1.1.1.1.3.5.wX3.3.5.5.qX6.4.2.*.2.Y L *.O. .O.&.+.&.=.*.O.*.6.e.*.R U U J J F Y.Y.r r g k.h.0 ",
"j Q Q Q A.H r W U L R &.r.Y U 1.=.&. . .&.O. .D  .L #.1.*.*.Y Y ;.,.0X0X3.3.3.3.3.1.4.4.4.4.4.4.2.$.$.:.6.wX6.4.4.wXwX2.6.6.0.6.9.<.%.<.9.9.9.9.9.9.9.iXpX9.9.ZXmXiX9.9.<.%.<.uX+.@.C  .C 5 2 3 a & @ & @ & a 9X,.c P.L.( K.L.Q.HXNXk.E.NXCXU.k K.U.0X( ! ;.;.5.[ aXQ.gXAXAX<X4X<XOXG.OX6XJX4X4X%X4XOX*X3X6X6X6X6X5X=X1X<X`._.jX/.aXgXaXgXgXT.W _ ] / ~ / 0X0X) j i ,.` u 5 5 4 a 4 3 2 , 5 a $.9Xt + i SXPXnXkXvXvXvXvXaX! p 0 k.E.R.r g E u t 8XAXtXgXhXhXQ g MXCXHXVXCXMXBXrX8 V.UXUXKX4X.X'.f.a.R.g.g.c.XX%XXXXXOXJX4XJX4X%XGXKXJXGX4X{.{.OX.X4XHXHXBXv U.NXHXUXHXMXMXBXx.z.d q I.U.k.l.b t - t y x s ! x $ : [ ^.} /.).).Q.gX0 . # i 8X7XwX4.;.! ` _ _ _ _ qXqX0XT.T.T.gXFXFXhXaXT.[ _ ' T.gXgX0X] 3.5.gX).Y.2X1X~.!.~.,X,XF.Z.{.4X6XJX4X%XGX4X3X4X4X3X.X{.<XJXAXgXT.hXaXhXsX3.` L.E L.eXAXU.w c.E.E.R.+XNXE.` _ c ,.>.- * * y * > a #.1.wX5.4.~ @.;.2.$.+.N $.-.6.0.lXpXbXZXbXpXuX9.9.9.Z 8.0.0.-.-.wXwXsXwXwXqX0X7X,.7X0X/ Y ;.1.;.Y 1.1.1.Y ] 1.1.3.[ ] { { ] #.*.*.2.2.*.L O.2.&.&.+.&.+.O.&.&.&.5.e.=.*.L L T J T W W K.K.K.w k.U.l.",
"l L.K.r A.W W F T R R &.&.5.5.5.&.*.O.*.&.&.&.D 5 D L #.*.2.5.5.1.0XqX6.5.3.4.4.4.1./ ,.,./ / Y I I I ;.4.4.wXwXyXsXwXwX4.2.6.6.<.9.9.9.V 9.9X9.9.9.pXpXpXpXpXpXIXuX<.<.%.C +.-.$.+.$.@.4 2 > 2 s 3 O o & o @ ;.wXn qXU.g Q T.tXNXMXoXR.R.E.R.E.U.L.( ` / qXwXqX0X/.T.).JXGXW.W.3X4X$XOX4XJX4XOX3XJX{.F.J.J.1X6X5X=X1X1X2X).).gXaXgXgX).T././.T.[ 0XqXyXqXaXaXqXU.0XPXvX4.3.3.a u u u 2 a a #.:.:.y - 2 tXFXKXFXPXhXkXdXaX_ ~ u t l.k u t a y a tXSXgX/.T.qXL.k.E.BXHXVXCXVXBXMX8 x.UXHXGX4X'.b.b.a.a.G.R.R.#XGX%XOXGXJXOXJX+XG.,XJXJXJX6X<X{.*X3X4XKXUXrXk.oXQ.NXUXKXU.j.v.d j.b U.tXV.d 0 t 2 t $ $ 2 t ) >.t > T.^.^.Y.D.J.<XK.#   $ ) qX7X0XqX,./ ` T.T.K.U.T.0XQ.U.T.Q.tXgXhXsXaXqXaX{ { T.T.gXqXqX] 3.gXgX).(.(.^.D.~.6X,XS.F.6XJXJXKX<X4X4X%X%X4X4X.XOX3X4XDXAXtXT.qXhXPXhXqX` 0XI.P.n l.8Xk.x.c.c.R.+XQ.W.tX0X,.@.* % O - A a t P P ,.qX0X,.@.I $.$.=.-.=.$.2.<.0.lXuXiXbXbXiX9.pXiX9.pX0.0.<.$.6.6.sXsXhXsX0X~ s s c ~ ;.;.;.4.2.1.;.;.Y Y 1.] ] R R R [ R U L *.*.2.2.2.O.Y *.=.=.=.$.&.&.&.e.e.e.5.R 2.R R J E [ T.H r K.K.U.K.k.w ",
"L.k.r r A.K.K.J J L S D &.2.t.6.O.&.&.&.&.&.&.O.#.=.$.O.O.2.=.*.1.5.4.5.5.1.5.5.e.1.] 1./ ] / I / Y ;.;.;.;.qXqXsXhXqXqX4.:.wX<.6.0.0.<.9.9.9.9.9.pXiXpXpXbXpXiXzXzX6.0.<. .N @.$.$.$.I a a a s i i @ o , & @ , :.7X8XU.g K.Q.AXc.oXMXE.c.h.E.AXU.l ( ` 0XwXsXwXwXqXI.).JXJX{.F..X4X5X$X4XJXJXOX4XKX,XJ.F.Z.[.3X5X=X1X2X2X`.Q./.gXaXaXT.T.aXaX{ T.I.tXqXqXhXkXFXtXQ.tXhXqXqXqX/ K E _ E ! / #.#.:.~ ; $ i ).JX2XDXDXjX' ' T.Y $ t v z u 4 5 3 y eXyXtXQ.W E n b l.BXHXNXSXHXHXSXk v BXHXGX4X}..Xf.f.g.OX%XGXGXGX4X%XJX6XG.4X4XG.{.4XJX6XOXS.Z.Z.3XJXKXUXBXU.+XXX<XKXUXE.w h.h.v.eXv.j.B.B.z.a 2 y - $ - t a y - 2 ( Q.<XOXA.R.Q.7 . # i 0XqXaX0XwX4.` { [ T.U.U.tXtXtXT.Q.Q.Q.tXT.qXaXsXsXaXT.{ I.qXqXaXT.[ /.gX).Y.D.(.,X,X4X{.G.{.JXJXKXJX<X%XJX4X4X$X].F.].,XKXJXFXgXqX{ 3.hXsXqX7X7XP.l h d I.tXU.g a.R.+XR.+XtXyX:.3 O * & :.:.a 4 > u _ T.! x s c C L @.-.$.O.=.-.6.vXzXuXiXbXuX9.iXmXiXzX0.6.<.6.wXsXwX5.aX3.^ ! I P >.I ;.:.;.:.;.;.$.Y #.*.1.*.R ] ] [ T J J L &.e.&.&.&.Y #.2.2.2.#.L *.5.e.e.5.| 5.*.O.Y L R ' T.W q H K.K.Q.L.0 6 ",
"L.r k.K.K.K.D.' T J S R D &.5.2.5.5.&.R O.&.&.O.$.2.2.#.O.=.2.$.*.*.R R *.] ] ] 1.] 1.1.] 1.1./ ;.1.;.Y / ;.;.` ) ` ,.qXyXwXhXuXuX<.-.0.pX9.9.9.9.V pXiXbXZXZXiXuXiX6.<.+.@.+.+.-.O.O.I ` wXwXyX) ) 2 2 3 , @ & 3 qX) L.tXE.E.NXoXE.m.E.k.w NXBXE.j ( 3.,.wXsXhXtXaXtXAXDXJXOX{.;X3X6X4X%X4XGX4XGXJX4X4XOXZ.F.=X=X!.D.~.2XAX(.).aX{ T.{ qXaXe.] ' _ T.qXtXkXkXhXAXQ.Y.T.qXqXT._ W _ T.^ ^ ;.,.6.,.wXa o   w W.,X(._._.' _.[ > , c >.a a 5 4 $ t v k g U.T.g d z.k.eXBXMXHXUXKXNXeXl.8XHXKX4X$X.X.X{.4XGXGXKXGX4X+X4XJX,XZ.OXGXJ.G.*X6X5XJ.Z.Z.H.1XJXKXUXBXQ.GXOX+XKXUXNXw h.v.eXv.v.h.f B.y t 2 - t 8 7 y t - 3 v 7XU.E.K.k.E.l.# . 0 x tXgXhXaXaXqX0X` Q Y.T.).T.T.tXNXtX).T.gXqXsXwXaXwXqX3.0X0XT._ { T._ T.Q.).).Y.`.DXW.J.J.{.4XJX6XJXJXOXGXGX4X4X$X$XOXOX<XKXFXFXAXaXK U 0XhXyX0X) P.n b P.tXyXl.w d.R.XXoXBXtXwX2 O , N $.:.z i > > J qXaXwX7Xc s a 5 D $.O.O.2.=.2.lXbXuXpXpXpX9.zXmXbXbXuXwXwXuXwXhXqXU K P J / / I ;.2.;.@.I L L @.2.2.L ;.1.U J R ] R U R R R *.*.5.5.5.*.1.1.1.5.2.$.6.e.r.| R R [ R L L R { aX_ q W K.Y.Q r w 0 0 ",
"k.K.K.d.r H r /.[ ^ J R 5.*.D 5.5.r.e.&.O.O.O.+.2.2.1.O.L *.5.r.&.*.R S U R R T ] U ] ] L Y *.Y #.2.4.2.:.~ I / P K s ] hXvXhXwXsX6.%.%.-.uXlX0.w.w.9.pXiXZXbXuXuX6.6.6.4.<.6.-.=.#.I Y ~ ,.0X7X! p i i >.a & O & 3 ,.8XtXtXR.+X+Xc.h.c.v.P.x.l.P.U.7X{ ,.qXvXPXaXqXT.jXJXAX4X3X|..X3X6X4X%X4X%X4XJXJXJX3XG.{.1X1X~.D.Y.W.^.).aXaX] { qXaXqXT./ _ 0XaXaXaXgX/.aX).Q.Q.T.T.T.E._ _ K.I.T./ 3.qX4.,.yXA 2 . # A.<XJ.S.,X(.).W : 2 v c y - - - - 3 f f f E.eXeXz.k.h.k x.v.SXUXGXR.BXf z.UXUXJX3X*X*X[.JX6XJXJX4XXXOX4X4XG.A.G.AX+XOX*X5X5X(.S.Z.*X5X3XKXUXMXeX+XOXW.AXUXE.d x.eXV.h.l.x.8 y f 8 ; - 8 f f t $ d 8XrXh d k d d x.# . # t L.U.tX).gX/.T.tXK.K.Y.T.T.U.T.I.Q.qXqXT.gXaXhXhXsXqX4.4.{ I.T.L._ T.T.Y.T.).).).Q.<X(.A.Z.W.6X6X6XJX4X<X6X4X4X4X%X@XG.4XJXJXKXPXFXaXQ Q U.gXtX7X8X7XqX9XP.P.8XqXQ g W R.+XVXBXA % = C 6.<.A z b p p 3.5.4.4.,.s s I #.#.O.$.2.5.3.] 3.sXlXiXbX9.<.i.mXmXlXvXvXsX4.4.1.L P U / / / P ,.,.1.a L I Y Y U Y *.Y Y ] Y J U R T ^ ^ [ U [ 5.1.] 1.1.;.#.#.2.wXe.sX2.5.e.| ' ' [ ^ / 4.3./ U K _ W r r r 6 q L.",
"q K.T.T.U.q H W T.[ ^ T R R *.e.5.5.e.e.t.$.O.$.2.2.1.Y 1.*.*.=.e.R U S J T R [ e.R R 5.#.Y =.=.#.#.#.;.4.4.~ P p / / P / qXwXqXsXwX6.6.<.6.vXzXbXbX9.pXZXbX6.uXbXu.2.2.1.+.+.+.O.D s u p ~ ` 3.P u > i >.>.3 * & * y 9XBXtXQ.R.+Xd.w g 8XtXP.d h P.I.I.0XaXhXtX{ T.aXAXDXKXJX$X'.].{.$X4X4XGX%X4XJXJXJX6XJ.F.*X,X,X2X).Y.T.).gX{ ] { qXqXqXT.qX{ aXhXaXqXaX{ gXQ.Q.Q.Q.tXQ.Q.tXqXT.{ _ { 0XqXqXhXyX7Xz # . 0 W.OXG.W.+XQ._ , - y v y $ @ t 8 8 f V B.B.d x.eXE.j.d d v.UXKX4XW.AXv.eXUXUXJX5XF.Z.Z.*X3X6XJXOXd.OXGXG.s.G.K.Q.Q.J.,X;X=X1XJ.Z.H.*X;XGXUXLXyX+X<X<XKXKXl.h.V.j.x.z.f d t 8 8 A f t t t f B.8XP.P.k d d d d 8 f 7   # t b U.AXgXQ./.T.Q.U.L.U.T.tXqXeXeX7XqXT.T.qXqXaXaXhXsX3.3.qXqXtX_ K.T.K.T.gXgXAXgX).W.W.A.K.<X6XGXJXJX4XJXJX4X4X4X@X].G.JXKXFXFXPXPXaXK.K.W.K.E.tX9X9XqX8XI.) 7X7XE p r U.+XNXyX- & C @.wX0Xz b U.L.s / #.=.;.~ x x s #.2.6.=.5.] [ e.e.5.<.uXzX0.0.cXmXvXkXIXnXvX6.$.L L L / 3.{ 3.I / #.1.L Y Y #.L L ;.] 5.] Y U ^ U ^ [ ^ [ [ [ [ 0X3.3.4.qX4.4.4.wXaXwXe.] T [ } ' ' [ [ 0X0X` ! { { [ Y.K.g r r Q I.",
"w r g K.K.W W u ' 3.qX] J U [ [ R R 5.e.t.=.#.=.1.1.;.1.1.1.*.5.*.] ] R R T U R T J R ] R L #.*.#.L L I ;.;.1.,.Y / / P P K ~ 0XyXuXu.6.6.6.lXbXIXcX9.9.iXpXuXlXlX6.2.1.2.$.+.@.5 5 P ! ) 0XwXsXI 4 2 t v >.>.A 5 * - :.yXBX+XE.R.k.r l.tXtXU.l.n P.) ` 0XhXhXI.E { aXFXKXKXKX3X$X{.OX3X4XJXGX%X<XJXKX6XJX3XG.G.J.<X2X(.Y.).).Q.[ [ T.{ I.{ I.qX3.aXqXsXaXaXqXqXqXT.tXtXtXtXqXQ.Q.K.W T.T.qXgXaXhXtXqXI $ . . u U.l K.U.( >.:.y $ 2 t t - 8 8 2 y f v f d f eXeXv.j.0 v.UXUX<XW.CXBXeXHXKXJX6X;XF.S.S.=X6X5XJ.G.4X4XG.s.W.R.K.W.OX,X*X*X5XJ.Z.F.[.3XHXUXLXMX%XJXAXUXNXk j.f 8 f B.8 - t t v v d d $ 0 P.8Xb d f v x.h.f l.l.l.t . $ k l.Q.AXgXtXQ.U.Q.tXE.Q.U.T.U.8XqXqXqXI.` T.qXqXtXhXhXtXqXqXQ.U.L.( L.L.U.tXqXtXgXQ.Q.Y.W.W.<XAXJXGX4X4XKXJXJX4X$X].].OXJXKXFXKXUXUXgXT.K.Q.K.tXPXhX,.~ ,.0X( ( p j Q j U.eXyXf O 3 V 2.` ) d g eXU.j L D #.4.0XqX0X~ Y 4.$.6.t.qXT./.5.t.wXzXbXlX0.cXnXnXvXPXnXxXsX*.L #.*.I 1.3.3.Y Y Y 1.Y Y Y Y 1.1.1.;.1.I P P ^ ^ [ T.qXqXqXaXaXwXqX4.wXaX6.qXwXwX4.5.3.^ ^ ' [ [ ' ^ ^ ` ` ` Q Q U.T.K.E q q E _ / ",
"w w g r H W ^ { ^ Y 3.5.^ T [ ' } | e.| e.5.e.5.5./ / ] 1.1.2.*.3.1.] ] U U ^ [ J U R Y Y *.*.O.L L Y L 5 P ,.5.3.Y U / / P P I 2.2.6.wXvXvXvXmXmXzX0.0.iXiXu.0.6.6.5.3.#.:.+.+.$.L s p ~ 7XqXwX5.L u n f z 9XwX$.3 * - 8XSXtXE.k.k K.U.tX7X( 8XtX7X,.` I.qXtXL.Q { gXFXFXKXKXJXOX].].4X6X4XGXGXOXJXJX4XJX6XJ.Z.A.(.).(.).gXAXQ.T.Y._ T._ T.{ { 3.qX5.sXsXwXhXqXqXtXqXtXI.I.I.tXU.Q K.T.Q./.tXgXgXqXT.! > @   $ z f f d i x :.>.v 7 t h i t $ 8 t t t d f x.f x.eXv.k x.UXUXOXOXNXAXeXHXKX<X3X=XH.H.!.5X5X*XJ.W.+XW.A.K.A.A.A.Y.J.G.J.*X*X,XJ.H.G.,XKXUXtXeXHXJXKXKXl.l.j.7 8 V f 8 $ 0 x.z.d k 0 t h l k h d z z.eXx.x.x.z.x.d # - n P.eXtXQ.E.Q.tXNXSXNXtXQ.eXI.tXtX7XI.0X` _ qXqXgXgXgXtXgXtXU.qXU.U.I.U.0XT.Q.U.Q.Q.Q.).AX<XDX<X<X%X%XJXKXJX4XOXXX].@X4XKXJXKXUXKXFXAXAXQ.Q.NXFXPXwX/ I / ~ j ! j ! j x 7XyXA * % 3 @.>.q r 0 g U.I._ P #.2.wXwXhXqX/ Y 6.O.6.sXsXkXkXsXsXmXbXbX0.<.lXnXhXFXPXvXsX2.*.O.O.#.L *.4.1.Y / Y I Y #.1.Y ;.1.1.;.I / ^ / { 3.0XI.T.I.U.qXtXwXhXhXwXqXwXwXqX4.4.0X{ T.[ [ /.[ ^ ^ ^ ` I.T.T.K.K.Y.q q q u ^ ] K ",
"d.r k.H W Y.[ ^ U P I 3.3.{ T.' T } [ T R e.sXaXsXqX0X4.5.1.;.1.3.{ { { { [ [ _ ^ ^ U Y ] ] 1.Y O.L Y O.P L ] Y U Y / ;.3.4.;.I a @.6.sXmXPXvXnXIXmX-.0.bXlX$.u.2.1.3.U ;.4.6.6.2.#.s s ! ~ ;.Y *.S I 8Xl.f U.qXwX@.2 O v ZXtXU.K.k l ( I.` ( 0XqX0XqXwX0XI.U.Q.K.I.hXPXFXDXJXKX%XG.].OX4X4X6XJXGX6XJXJXJXJXOXJ.D.W.).<XAX<XgX).Q.U.I.K.T.qXT.qX{ aXsXhXsXqXqXqXI.0X0XqXqXI.Q.tXQ.L.K.Y.Q.T.tXNX<XAXI.j u @   + f f 8 f t 8 v P.P.P.7Xb t 0 t k v z t 8 f f f x.x.v.l.k SXKX<X<XAXNXNXUXUX,X{.{.Z.H.*X*X*X=X*XJ.W.A.R.K.e d.A.A.Z.G.J.{.J.5X{.OX{.+XAXrXz.eXJXJXUXNXd k f y y f - y t d L.l.k.E.g g k d d f z.B.x.V.V.rXx.x.eXB.# 8 8XrXBXNXtXE.NXNXNXSXSXNXtXNXtXyX8X8X7X0XU.0XT.tXtXAXNXtXNXNXtXtXeXtXtXtXtXyXgXtXQ.Q.Q.AXAXAXGX+XR.XX4XGXJX4X<X3X$X$X%X4XJXKXJXKXAXQ.Q.KXAXU.SXFXkXsX] ] ` ! ! Q ) ) n 8XA A 3 ; * C A z g d.Q.U.Q.Q._ U *.4.;.wXtX) ` 3.sXt.t.t.aXkXFXkXnXIXmXpX6.2.lXhXSXFXkXsX*.L Y  .D &.=.2.6.1.] Y Y L / 1.3.1.Y / ;.4.3.4.qXwXqXqXI._ ( b x ( ` I.0XqX,.,.4.0X3.7X3.` 0X{ ^ J [ R U T [ { _ _ K.Y.K.9 : u u P 3./ P ",
"U.Q q q W Y.T.W ^ ` ,.` ( ^ ' ^ T ' T U U ] 3.4.aXwXqXqXqXsXwXwXsXqXqXqXqXqXI.[ _ U K U U Y Y 1.*.*.R Y Y Y / ;.P L 1.5.;.Y / ;.D #.6.lXPXIXvXvXmXxX0.6.cXzX0.6.6.5.e.e.sX6.2.2.Y U { qXwXwX;.#.1 4 / 8Xx.d k P.) :.a * - 8XBX8Xn b j p ( _ _ I.( ^ wXkXhXT.U.Q.T.Q.FXUXUXFXKXKXJXOXG.G.OX4XJXKXKX4X4XJXGX4X<XW.W.W.Q.gXQ.Q.Q.Q.T.U.K.l.Q I.qXqXqXqXsXhXgXqXqX{ { I.0X0XtX0X8XI.U.Q.Q.tXE.Q.Q.Q.NX).U.L.j $ . 7 B.x.d d j.x.k.d d P.eXP.0 $ 0 k k k d 7 $ 8 A f d d f d eXUXJX4XGXE.AXUXKXGX$XH.F.J.1X=X&X,X,XW.W.U.U.Y.e G e A.D.,XW.H.G.6X,XOXGX4Xv.d A BXHXKXKXk k z.f f f - 8 t v 8Xl.k.k.R.k.k.d g k k l.x.x.x.V.C.x.x.eXV.- 8 z c 8XyXSXNXMXtXeXBXBXtXNXyXyXyX8XqX8XqXqXtXtXU.U.gXSXAXAXNXBXtXeXyXeXP.8XqXyXyXyXtXtXtXtXNXQ.Q.R.+XGXOX].OX,X%X%X$X$XOX6XJXAXAXQ.d.R.Q.Q.tXUXPXFXgX{ ] 3.{ ! _ qX9X9X<.5 ; = = C <.c L.W.G.AXtXtXQ.! K L =.4.qX0X` 0X] t.sXsXt.3.aXkXhXmXIXzX0.-.6.sXFXKXFXhXqX] Y *.O.O.6.=.$.*.#.2.Y Y R 5.;.;./ ;.4.qX4.qX0XqXwXqXI.~ _ I.P.P.( j i p ! ` >.` 3.0XqX0X_ 0XT.[ ^ R ] [ e./.| _ H r r 9 9 r P ~ ^ / P a ",
"` _ q q 9 q Y.U.Q T.I.I._ ^ ^ ^ [ [ [ [ 1.3.3.0X4.qXwXwXyXwXsXyXhXyXqXI.I.T.T.0X{ I.^ / ] #.1.5.#.*.#.Y ] Y Y ] Y L #.5.1.L I #.O.$.2.sXhXPXFXhXnXfXt.-.i.bXmXxXsXfXkXhXsXwX$.:.2./ I.hXhXqX1.1.L L 0X8Xl.w r g i ) A - + y 9X9X>.x c p p j E ` ^ P 5.kXPXSXE.E.NXAXAXFXFXFXKXKX4X$X].].OX4XGXJXKX4X+X4X4X<XAXNX<XQ.Q.Q.Q.Q.Q.eXE.U.E.U.U.I.tXtXwXqXhXgXqXgXqXL.{ 0XI.0X0XtXT.E.tXtXAXNXtXQ.tXE.tXNXQ.U.P.7 + x.V.v.j.M.eXoXE.k t t d v l.d 0 w k k z.f - 8 f f 8 8 f h k.SXKXHXKXE.NXHXKX4XOXs.G.{.3X*X&XH.J.G.A.K.K.r r A.e A.W.(.OXF.{.4X,X4XGXBXd - A SXHXKXNXl.z.B.f f f 8 f f P.E.U.k.g h.x.P.x.k k z.h.8 f j.j.B.x.x.x.f 7 +   @ $ n 8XE.eXMXeX8XtX9XtXeXyXrX8X8XqXqX7XtXgX7XU.NXHXHXHXBXMX8Xz.z.n k l.b P.eXtXtXtXE.U.U.K.E.+XGXGXR.A.W.J.XX].G.G.G.OX<X+X+XR.R.W.R.k.NXUXPXkXaXT.T.0XI.` qXhX9Xa 3 3 3 = & <.A h E.R.R.Q.Q.Q.Q._ U 2.5.wXwXhXtXaX/ 5.5.t.t.aXgXjXhXhXlX6.-.$.$.hXFXKXSXgX^ 5.sX5.&.6.t.=. .#.=.5.Y ] [ 3.] / ;.4.4.wX4.3.,.,.0X7X) ( P.U.E.P.L.L.Q ! E ` 0XI.I.T.tXtXT.T.eXqXT.T.T./.T.[ ' ' W H r d.k.j ! ! s u a s ",
"/ ~ ` g q 9 q A.K.K.K.T.aX{ U T ^ ^ ^ ^ 3.qX3.` ,.7XqX7X,.7X7XqXP.I.( j x _ I.` qXaXqXqX3.3.;.;./ 1.;.1.3.;.U I 1.Y $.2.=.2.$.O. .L L #.qXnXUXFXhXsX6.+.zXcXmXnXkXFXkXaXaXsXsXlXwX/ ^ qXqX4.1.2.R L 3.tXeX+XK.r g ) >.3 ; 3 3 :.:.A >.>.( E E _ ^ ^ 3.sXPXFXNX+XHXAXU.gXFXKXKXKXKX4X4X$X$X3XOX4XJXJXOXG.Q.+XJXAXAXtXtXQ.tXtXtXtXyXrXrXBXyXyXtXtXtXtXgXgXQ.qXT.T.T.0X` I.7XqXyXtXtXBXBXSXNXBXeXE.NXtXBXtXv.8 # V.MXx.C.MXoXk.v.v.U.l.k d k g k L.l.l.z.f t 8 8 y f t f n 0 U.KXKXHXAXL.L.HX+XOXOXOX6X,XH.~.F.G.A.A.r H r r d.w A.A.s.W.G.{.4XGXGXHXMXf - c BXUXNXP.B.v l.B.8 f f v 8X8XP.eXE.w k.MXU.h.k.x.V.x.d 8 j.f x.x.x.x.B.B.@   # $ t f v eXtXI.eXtXtX8X8X8X9X8Xz.z.8X8XtXtXtXtXNXHXHXGXBXz.eXeXz.k l.z.d k l.z.P.U.eXU.E.Q.NX+X+X4X+X+XG.G.G.G.OX%X<XGXAXQ.<X<X+XGX+Xc.E.AXSXhXjX/.T.qXqXtX9XA 3 + O < ; - C A t l.+XW.4X<X<X<XAXT.{ t.wXqXqXFXSXaX] sX6.t.dXaXT.).tXqX1.2.u.-.2.hXUXKXSXgX^ qXkX5.Y 6.-.+.+.2.6.5.] R ^ [ / 3.qX,.>.~ ,.>.>.>.P.) I.7X8Xz.l.l.P.qXtXI.E E ( E j E U.T.K.Q.U.Q.L.j E H q H G H H r K.x.x.h x z t y z ~ ",
"#.#.I ~ ( r 6 9 r d.H Y.T.aXaX0XT._ ! I.0XT.7X0XqXyX0X) I.P.j z j x b I.I.P.P.I.L.qXwXqXwX4.4.qX,.4.;.~ 3.3.{ 1.I *.=.*.O.-.-.=.O.=.*.U { gXPXFXFXgX5.-.6.lXbXIXnXkXaX/.qXsXsXsX1./ T.0XqX4.1.I L J 0XQ.tXGXQ.R.K.P.B.9X; * = 3 C 9X<.wX7XE ! T.{ { 5.aXPXUXKX+XoXQ.d.K.T.AXAXGX4XXXXX$X4X$X3XOX].%XGXOXK.Q.Q.E.tXtXtXtXSXyXyXeXB.z.8XrXrXBXBXBXNXBXSXNXK.T.)./.I.7X8XqX7XtXBXyXtXtXNXBXNXeXyXBXBXyXB.f f 8 $ V.eXv.x.E.v.x.j.V.x.f h.f k k.k.k.l.k.l.z.n f t 8 f V j.f f k SXUXKXNXeXd d NXHX+XOX,X,XF.;X,XJ.R.d.r H H A.R.d.W.R.e R.OX<XJXGXHXeXB.8 V A pXeXE.8Xz.v v k f x.z.8Xz.8XeXx.k.eXeXv.v.eXeXj.k x.E.v.E.v.v.x.x.v.8XeXt   . @ 2 l.x.B.eXtXyX8XtXeXP.l.z.8X8X) z b 8XtXyXtXtXNXMXeXMXeXeXeXl.f k d b x.l.k.k l.z.U.l.NXNXE.R.GXGX+XW.s.d.G.4XGXGXAXGX<X+XOX+XGX+Xk.E.U.l T.gXQ.T.T.yXvXy O O + O O 2 v rXBXE.MXNX<X<X<XOX<XgXT.] 5.5.4.yXSXhXgXsXfXt.sXe.aX/.gXgX0X6.sXu.6.lXPXUXHXSXT.W [ 5.Y #.#.=.#.=.6.6.3.Y U ^ ^ { qXqX,.I c c a ~ ) ) ) ) ) P.8XtXE.l q q r q u Q _ r q W T.K.K.K.w w g g W W H A.Y.W K.U.P.d t t t z A >.c ",
"5 4 a A v l.l.r r A.A.D.Y.' | [ qXqXI.T.T.I.I.tXtXI.I.I.qX0X( E l ( P.L.P.7XP.( ) 7X8X0X4.7X4.4.wX4.,.` 3.0X3.1.#.2.6.$.D =.6.r.=.2.aX5.T.qXSXSXPXhX2.+.-.0.sXhXhXgX/.aXaXsX6.2.3.{ gXhXyXwX6.5.U ^ T.Q.Q.+XW.K.Q.k.v B.y ; 3 3 3 a A yXhX7X! 0X0XaXaXgXFXUXHXR.g.OXR.R.Q.Q.Q.AXOXG.].].].].OXR.G.OX4X4XoXR.E.U.E.eXtXrX9XeXP.b l.v B.x.x.x.eXHXHXHXHXNXU.Q.tXtXqXqXtX8X8XrXyXeXeXtXtXeXE.eXeXeXB.A $ - % X y f f l.k.k.x.h.d 8 f z.z.k l.x.x.k l.k l.8X8Xz.y 8 8 f V v n d 8XHXUXSX8Xt d tXHXCX,X6X,XF.{.$XOXG.A.e H e <XQ.K.Q.W.K.Q.<XGXGXAXE.j.A V B.pXyXtXx.d v k x.x.E.eXeXrXv.x.eXU.x.eXv.j.eXMXeXk.x.E.E.E.oXE.E.E.x.j.h.k t #   . t z.B.V.eXeXeXP.L.E.P.k v n k h d i h U.eXtXeXtXeXeXNXE.eXtX8Xl.h.d b z.8X8Xz.k k.l.U.E.tXQ.R.+X<X+XW.R.G.OX%XGXGXAX+XNX+X+X%X%Xc.d.oXR.K.d.Y.<XtXU.yXyXt O & % & ; z yXLXLXMXNX+X+X<X<X<X<XAXaXqX5.sXhXhXSXgXaXaXsXr.e.aXjXAXAXgXaXwXcXxX6.sXvXPXPXSX0X_ _ ^ J P Y #.2.2.6.wX1.K K T.T.qX{ x i >.:.c i x ) x i i b I.E.l g q 0 q j T._ Y.Q.U.K.K.K.K.K.K.q w L.T.U.K.Q W K.Q.I.l i i t z n 7X8Xc y ",
"a 4 4 a y z z.L.K.A.H H G F q H E E ( T.Q.T.Y.T.I.E W L.Q Q Q T.qXeXP.b l.P.P.7XI.I.>.,.~ c ;.:.>.,.qX7X` ^ ` / Y 5.6.=.O.O.=.6.*.1.fXaX3.qXhXUXUXSXqX6.6.<.0XqXT.gX/.aXsXsXwX6.5.qXhXhXhXqXwXsX0XT.gXAX+X4X<X+XE.E.k z.B.3 ; = & X @ a :.yXtX0XT.[ aXhXgXAXSXR.c.GXGX+X+X+XQ.JX4X<X$X$XG.f.G.J.OX4X<X+X+X+XE.U.U.8XeXB.z.z.v z n v v x.eXeXeXVXHXHXHXNXMXtXtXqX8X8XB.z.8XrXeXz.eXtXtXeX8XeXeXb f t + $ X % V A v b l.l.k.x.f d j.x.x.k.h.eXE.l.d x.eXeXx.8Xz.f f f y n b n 8XeXLXSX8Xt 0 z.HXHXGX4X,XJ.G.G.A.G.e e A.G Q.K.Q.E.K.K.U.E.Q.k.k.h d rXpXuX9X8XyXeXz.8X8XeXE.E.MXE.NXMXx.eXx.x.x.x.MXMXE.oXQ.E.R.R.Q.R.R.K.c.U.x.U.x.h.b # . # f z.B.v.B.v.v.l.x.z.l.z.k h h z d h l z.8XeXeXv.eXeXeXeXeXE.U.U.d k k l.U.U.l.U.eXeXQ.NXQ.E.Q.R.A.d.R.OX+XGXGXGXAXAX<X+X+XCX+Xc.c.GXHX+XR.+XHXNXU.SXyX3 % % ; y A yXeXVXCXE.+XoX+XGX<X<XGXDXgXsX6.5.qXhXSXT.[ R fXfXfXsXaX).gXAXhXsXxXu.6.uXPXLXyXqX^ E _ W K ^ ^ Y ;.2.5.qX/ K _ aXqXqX_ i i ~ c i s z i u j z j z 0 0 q Q K.L._ W g g W Y.T.Q.Y.W.K.Q.Q.U.Q.eXI.L.q g q u u p ! >.>.>.~ a y t t ",
"I ! a t t t h U.U.W K.Y.W H E E g q 0 r K.K.K.K.W r q W W J r r g g j I.I.U.U.P.) n ) ` c a a >.c >.qXwX0X_ ` ^ / 3.6.t.=.=.*.*.#.Y 5.{ ! I.hXSXUXPXhX0.lXlXsXqXqX/.gX/.aXsXsXsXhXaXjXAXhXqXqX5.3.T.).<X).<X<X<X+XBXv.E.ZX8Xy & % X O o * 9XPX0XI.T./.).L.K.E.R.XXCXGXoX+X+X<XGX4XGX4X%XF.g.G.+XGXGX+XR.E.tXQ.U.x.l.b k l.v v v d z k U.tXMXE.eXMXMXNXNXNXyXtXP.x.z.n B.8XB.l.z.rXeXeXtXNXeXU.k b t $ +   y B.A n l.l.L.x.v.v.v.V.x.x.E.eXv.v.eXv.x.E.E.eXz.x.z.B.f d n h B.x.B.eXBX8Xc t v rXNXJXGX4X4XJ.d.r W.A.A.D.A.e g U.l.0 d l.g t t $ y 8XZXpXA c >.yXeXeXeXv.E.eXoXE.oXE.NXeXv.x.h.x.eXE.oXR.E.oXW.W.R.K.R.g.K.k.c.R.U.x.k.v.z.# . 7 f V.v.x.x.eXE.z.E.P.P.b k k b l.L.l.P.eXeX8Xl.l.P.E.P.E.U.tXeXL.l.d d d d l.l.P.U.E.U.L.K.U.E.K.R.E.AXJXGXAXAXAXAX+X+XGXGXoXc.NXKXKX+X+XHXAXQ.eXSXpX; % * 3 <.BXBXE.HXNXR.oXQ.AXGX<X,X<X<XqXaX5.2.qXhXFXtXT.e.t.xXfXaXgXjXAXFXPXvXlX6.2.lXLXIXyX~ ! K W _ _ ' ^ ^ 1.sXsXqX/ / T.T.T.L.E ! ) >.>.a s u t p 7X) t > u ! I.( E Y.U.Q K._ Q l U.Q.K.U.Y.A.K.L.E.P.l d b P.b u x I.0X,.a y 2 $ 2 a I ",
"! 7X,.z a i t u l I.T.Q g Q I.I.U.( r r k.K.A.K.K.Y.T.T.Y.Y._ W q 0 q g l P.U.( h i x n x a s c c a x ` 0XqXT.^ 4 1.6.6.1.2.] L / K J ^ J ` yXSXUXPXyX0.lXzXsXqXgXgXgXaXaXsXt.sXfXaXgXgXSXhXwX6.aXqXAX<X<XOX<X+XNXNXNXBXUXyX9Xy * & * & O C LX7XT.AXQ.W H K.E.c.d.oX%X+X+X+X+X<X<XJX4X4XXXG.A.R.W.+XQ.K.Q.AXQ.P.U.l.l.x.eXU.b h t l l.U.eXeXE.NXMXMXMXMXeXeXP.v t f v z.z.f v V.eXl.U.eXtXE.v.z.l.7 # . . f f k l.k.U.E.E.oXE.E.E.U.c.E.MXMXE.c.eXE.x.E.E.E.E.eXeXV.x.z.k x.f x.yXyXrX9XB.A f x.Q.GXJXAXW.U.K.W.R.W.).).9 0 8 8 + $ - . @ 2 3 A pXZX9Xc z A v.v.eXeXv.MXNXoXoXE.E.MXv.x.V.x.x.j.c.oX+XR.R.R.W.+XR.W.R.E.R.E.U.E.v.k.j.BXj.+ + 8 z.x.x.x.v.P.x.x.L.l.h g h h k.l.l.l.eXeXtXP.z.L.I.U.U.U.eXE.L.L.g w 7 w k l.x.P.U.l.k k.K.K.E.Q.+XGXHXGXGX<XQ.Q.Q.%XHXCXc.oXCXGXOXXX%XGXCXtXyXyXA & = = ; 9XLXeXoXGXoXd.R.Q.AX4XOXOX+X).T.e.sXxXwXhXFXgX| 5.r.t.t.e.kXPXgXgXkXnXxXu.4.vXLXLX9XP ` p u W W q q J _ sXhX3.^ { T.W T.L.( ( c n x a 4 t u j ~ i > > u x ! _ I.T.T.T.L.T.U.L.k.L.L.Q.W.K.K.c.E.j.w 7 z.rXeXrX0XP.t > @ @ @ $ a :.4.",
"i i c c c >.>.i u j j q g h l U.Q.Q.E.U.Q.W.Y.K.Y.U.T.W u g _ K.U._ g q 0 q h ( x h i i a s a c >.i u E T.qXT.[ K / qX5.1.1.R U / K J [ U P yXhXHXUXvX<.0.cXvXaXFXjXgXgXsXfXxXlX5.{ Q.gXSXsXqXwXsXhXDXDX4X<XJXGX+XE.Q.+XHXeXeX9Xf , * & % C LXrXU.AXAXW.Q.GXHXNXk.R.NXGX#X+XAXAXGXGXGX4X+X+XK.A.R.Q.R.Q.tXQ.Q.eXE.v.x.E.U.x.b k k E.U.eXeXU.eXMXv.V.eXeXeXP.v h d k k k v x.z.P.x.l.x.l.x.x.U.V.d . . # k l.k x.v.E.R.c.R.E.R.R.R.oXoXE.E.oXeXv.h.v.eXv.x.eXNXMXMXeXE.E.x.V.B.V.BXqX9XwXpX9Xv f d L.U.E.U.Q.K.L.K.Y.Q.tX0 $   ; + @ X O @ & 3 <.pXyXn n z z.l.v.E.VXVXCXNXNXoXx.v.eXeXv.E.j.c.k.c.oX+X+X+X+X+X+X+XoXQ.oXE.E.oXMX+XoXj.eXBX8 + $ 8 f j.f x.h.l.l.b b k k g d d d d d k L.E.eXU.l.U.L.l.l.U.L.k.l.k d k l.z.x.x.eXU.P.L.L.l.k.K.E.tXGXAXDXAXQ.Y.K.R.+X+XR.R.VXGXR.OX%XCXCXCXHXyX7X- & < ; % B.HXoXoXGX+XR.<XAXGXKX4X4X<XDXjXkXnXvXqXhXKXjXaX*.t.r.t.sXkXPXgXT.hXxXt.6.6.lXIXLXC a 3.E p E H q J E ^ ^ / U ! { T.L.T.T.T.` c c i 2 $ > u K u u u s ! P / I.0XT.L.Q eXU.L.k i w g k.k.d.R.U.x.7 $ $ t d v ) n i t > i 4 4 2 s I c ",
"y - - i a ~ 7X0Xj p u E _ h i l.U.E.R.K.R.W.Q.W.Q.L.E j Q ( Q W W Q K.T.Q 0 > 0 P.7Xx t a a a ;.;.~ ! ! { T.T.T.{ _ 3.sXsX] U ] ( E W U J a s 8XLXLXvX6.0.i.fXkXAXgXjXjXaXsXxXxX5.T./.gXSXqX,.qXwXqX).<X<X<XGXGX+X+XR.R.GXNXv.HXpXC = & % V ZXyXE.AXAX4X<XGXHXHX+Xc.CXHXNX+XNX<X<XAXAXGXGX<XW.K.U.K.K.Q Q K.U.E.U.x.k.h.d w d k.U.eXeXeXU.P.U.L.x.U.eXeX8Xz.z h l.l k k x.eX8XE.U.P.E.x.l.x.B.f $   # v E.k.c.E.R.v.R.c.k.R.R.Y.OXE.oXQ.E.E.E.eXx.h.h.x.E.MXeXE.oXE.E.eXU.eXrXrXyXP.n 8XrXZXrXA 8 t t t h i 0 h U.l.0 k > - ; ; ; % * M m = M 9.pXyX8Xn n z.v.v.M.CXoXoXoXoXNXeXeXeXeXv.E.x.c.h.d.g.XXAXHXGXNXNX+XMXE.v.v.v.E.E.NXNXeXeXrXf 8 + $ t z.x.x.B.P.P.( I.P.P.L.x.k.g k.l.k.k.L.L.k.g l.l g g l.U.U.U.L.L.x.U.P.z.x.U.z.U.U.8XL.P.eXNXNXAXGXAXQ.W.Y.A.R.R.c.E.CXGXGXXXXX%XCX#XHXUXqXa @ & = * * 9XUXVXGXGXGX<XAXJXGXKXJX<X<XKXPXkXfXt.kXFXSXgXaXsXxXt.y.fXfXkXkXhXhX2.-.t.wXyXLXLXy 5 ,.^ ^ Y.T.' ' ' [ [ ^ ^ _ { T.T.K.K.I.I.8XqX7X) i u p p u s ` ,.I / / K u p L.T.l u 0 t d d h d w w g l x.k 0 $ $ - t i z n 7X8X7X:.C I s 5 > ",
"V y @ o $ $ > p I.0X7X8XtXx $ 0 k.L.R.K.U.R.E.U.L.Q l I.I.I.U.T.T.T._ _ E u 0 > i ` ! t i t t s c ~ ! _ _ _ ' { { ^ ` aXsX{ W u u E W J 4 ;.~ A LXUXbX6.0.u.nXPXgXgXFXFXsXe.t.6.e.[ aXgXFXhXsXvXt.aXT.<XOXOX4XNX+XoXK.G.GXCXc.BXvX3 = * & 3 wXBXtX+XGX<XoXXXGXCX+Xk.oXGXCX+XQ.Q.<X<XDXAXDXNXQ.U.U.L.Q l j Q ( l k.k.k.w 0 w k U.x.eXQ.E.L.U.eXl.L.eXeXeXE.l.b l.k.g g k d k L.x.x.E.B.x.z.eXx.8 $   z yXU.k.k.XXXXv.R.R.W.R.R.Q.W.XXR.R.Q.oXc.k.v.v.v.v.E.E.oXv.v.VXNX+XE.MXeXV.E.z.v a 9XpXZXB.y 8 - @ $ $ # - t h # A $ 3 V M V ; ; m = Z <.9XZXLXvXP.P.x.eXoXoXMX#XMX#XNXNXMXVXBXeXE.v.R.c.c.g.g.+XCXAXHXHXE.NXMXoXMXeXeXv.x.E.v.MXtXB.B.y @ - - v eXrXeXrX8XI.tXtXqXeXtXE.l.E.E.E.L.L.U.L.L.U.Q.l.g l L.eXtXeXU.P.b U.eXtX8XeX8X8XI.8XtXtXAXAXtXQ.Q.).Q.Q.Y.R.c.g.oXGXNXNX<XXX+X#XVXUXUX) o * * ; * y ZXUXNX%XGXGX).AXJXGXJXGXOXJXKXFXsXt.fXPXFXFXaX| e.t.u.cXxXsXsXaXaXqX*.6.t.<.wXLXpX2 2 a ! E W ' Y.Y.' [ ' W E ^ I.T._ T.W g ( eX8X9XqXqX{ / ^ p / 0X;.;.I u 4 u j j t d t d b b ( g 0 0 w g 0 0 g q i t $ t A >.A :.,.>.~ i i s u t ",
">.5 4 t a i t t d z.z.k h d # 6 w K.k.K.k.k.L.g 0 g g L.0XI.L.I.7XI._ _ ! x s i p q j p $ $ 2 p ! x I.U.T.T.{ { [ ^ U ] ] T J K q E ' u ! qXA a vXIXvX6.-.6.lXPXT.aXFXnXfXt.t.r.e.aX).FXFXaXsXmXnXhXjXAX<X+XJXHXGXAXW.R.GXAXoXVXZX2 & ; * & y yXSXSXNX+XGX+XXX+XHX+Xk.oXGXE.R.K.Q.Q.<XKXGXAXtXE.U.l.l.L.I.I.I.U.U.l.v.k.k k g k.k.E.U.l.g L.L.l U.U.E.l.g d g w q w g k b b v l.l.x.d k k t 8 $ @ t BXeXk.E.MXMX%Xv.c.E.NXQ.E.+XCX+X<X+X+XoXc.h.k.v.v.E.eXoXv.x.E.MXMXVXCXMXoXx.k.v n v A 8XpXuXV * % % % % X * @ @ $ v 8 8 V V 9.9.V V B.pXZXLXSXLXyXeX8Xx.v.v.MXNXMX+XE.NXGXBXNXNXMXE.E.c.c.R.XX+XCX+X+XAXCXNXNXVXoXc.j.x.E.E.E.eXeXrXrXrXV - & * - f 8XrXeXV.P.P.U.eXeXeXU.E.x.E.E.I.U.0X7XI.7XI.( l ( P.8XyXyXyX8X) b b P.U.z.U.8Xz.eXtXyXNXtXSXQ.U.Q.Y.Q.Q.g.a.oXGX%XR.+X+X+XNXVXHXUXBX$ o = % % 2 wXLXAX+X+XJXGXW.R.<XGXGX4X,X<XDXkXnXxXfXkXkXDX| e.xXlXlXcXlX5.^ I.T.qXsXuX2.$.t.bXa * 5 u J K E q J U ' [ [ [ ' W T.Q.0XQ.K.l.eXx.L.I.T.qXT.{ K u Y ~ 4.~ P u u ! j > t h h n j E W H K.9 9 9 H > 6 u ( 7Xt t s c C a t ` j > > ^ 0XI.",
"4 p I I 7X7X8X9XA v b t $ # # 0 g K.k.g w 0 w h k 0 w t 0 k 7XI.j p K ^ ~ ~ :.,.p u j j i s ~ ,.0X7X0XL.U.I._ T.T.^ T ^ [ [ W ' ' [ [ E _ 7Xa a pXIXhX2.u.-.;.sXgXgXkXkXsXlXy.u.t.dXgXgXFXPXhXsXsXkXKXKX<X4XKXGXAXHXAX<XGXGXGXHXLXt O 3 = O = >.LXHXGX#X%X%XXX+XGXGXoXd.E.Q.U.K.Y.Q.<XgXgXAXtXQ.E.E.8XU.P.L.P.P.8XE.U.x.l.L.P.E.E.K.g g g L.L.l ( L.( l k.l.k.k l L.P.P.8XP.z.x.x.l.l.8Xz.- - $ # v rXMXeXCXCXE.v.oXE.E.v.E.NXNXNXAXHXGXXXR.d.a.k.v.v.E.eXeXeXv.MXBXv.MXVXMXoXv.E.U.z.v <.pXpX9XV m ; ; ; % * ; = * % 8 + + y m V pXpX9X9XpXyXeXBXHXBXrXV.v.MXeXMXeXMXNXNXNXBXE.v.E.MXoXoXR.R.E.CX%XCX+XoXNXHXHXCXNXv.c.MXVXeXv.V.MXMXBXBXrXyXA @ ; 3 2 f B.v.x.z.z.z.P.7XE.x.l.L.U.7XeX7X8XtXqX0XI.I.P.7X7X) qXyXhXyXP.( P.b h l.P.x.l.P.8X8XtXtXQ.U.K.U.E.T.K.c.E.%XGX4X<XE.+XCXCXUXUXeX8 o O = & 3 rXLXNX+XAX+XKXAXA.A.W.<XJXJXOXD.`.kXfXfXnXFXFXjX/.e.r.lX0.$.6.4.R { T.qXhX2.$.-.u.lX4 , a 4 p ' E H ' J U R [ T.' K.T.eXeXeXL.k.eXeXU.Q K.K.T.W u L ;.` ~ s P P P j g h b > i ) u : q G e 9 : e q 9 9 r r q 0 h c ~ ;.;.P E _ E u E _ ` ",
"q u u u ,.,.>.,.) c c y $ t i t u w 0 w 0 0 r g ( l b 0 0 u k b i q u p I ;.,.,.` E Q I.7X7X0XqX0XeXU.g K.E.I.K.T._ W U ^ [ T._ { _ W ' E j 4 - 8XvXwX2.6.u.;.qXFXgXsXsXlXxXu.u.t.e./.jXFXPXfXsXsXkXFXKX<X4XJXGXGXJX<XGXGXCXGXBXLX8X- * = * & - yXUXHX%X%XXX+X%X%XCX%XR.a.K.R.R.Q.Q.Q.).).NXAXAXtXtXU.U.I.8XI.I.8Xz.z.z.x.eXqXqXtXL.g k L.I.U.b P.L.L.L.U.U.E.L.E.eXeXtXtXeX8XeXrXeXrXeXf t - @ t B.v rXrXv.E.v.v.eXMXE.MXNXNXE.GXHXGXCXE.g.c.c.c.c.v.E.eXVXBXMXVXNXMXoXoXoXoXE.eXv.n 8XyXLXvX9X:.V N m ; ; ; M V ; ; ; - - C ; * C uXV A V.BXNXBXUXZX8X8X8XeXz.U.tXBXAXNXAXBXoXE.MX+X+XNXGXGXCXCXCXoXv.E.MXMXVXVXVXMXVXMXC.v.C.v.eXMXeX8XrX9X9X; - - y f b x.8XeXz.z.eXeXU.P.x.P.x.b P.8X8X8X7XtX7X7XqX0X7X) I.0XeXyXtXP.l.h d k x.l.d f x.P.P.U.eXNXtXK.K.d.k.E.+XNX4X4XR.R.oXQ.HXUXBX7 + @ * 3 <.9XSXSXtXQ.Q.<XKX<XW.W.).JXKXJX<XW.aXdXsXfXnXkXDXdXaXe.+.0.6.-.6.qXqXgXgXqX5.lX6.<.6.6., @ 2 > K T.H W T.U U T T ' W W Q T.E.E.U.l.eXBXtXE H U.W j u ! 3.,.` u x _ I.w w w i > u p q J /.Y.G e G G A.H A.H r L._ W E _ ` ` _ E L.I.j j _ _ ",
"{ E : > s ~ u i >.~ c 2 2 ) P.u 9 q e r 9 0 g g j j Q ! j t 0 0 j j p p p I :.;.` j K I.qXtXqXI.L.eXE.k.l.Q.T.T.U.K._ _ [ [ _ ^ W K J W J u a & C vXsX=.X.6.t.qXT.{ ^ 3.sXcXlXlXxXaXT.jXFXkXnXxXnXkXFX<XOX,XGXGX<XQ.R.<XKX4X+XNXHXSXA @ % * & + f LXUXHXNX+X%X+X+XW.GXNXc.d.K.+XQ.Y.Y.U.Q.tXtXSXNXeXU.L.U.U.U.P.P.z.z.B.eXyXyXtXU.L.l.L.U.8XqX7X7X7XP.I.0XeXU.l.U.eXeX8XeXB.B.eXeXeX8Xf - - % - A rXrXtXMXeXv.eXE.x.j.j.V.NXVXMXNXCXNXCXGX+XoXR.v.k.v.C.eXNXCXBXNXCXCXMX+XNXE.E.v.z.v 8XrXLXLXZXvXpXA C Z Z 9.9.M C % - - + O ; * , C V A z.eXeXHXUXBXv z >.P.( E.gXtXtXAXNXAX+XGXGXCX+X+XCXCXVXNXNXMXMXVXMXeXMXMXNXVXeXv.v.v.V.MXBXMXyXrX8XrX9XA % O 8 y f v z.8Xz.z.B.8XeXeXz.z.l.k P.eX7X7X8XyX7XqXeXI.I.L.( L.L.tXBXeXx.h.d d f f d d f l.z.b l.Q.U.k.l l.E.BXAXk.K.R.R.Q.NXCXUXrX8 + O & Z pXLXvXyXtXQ.AXK.).AXW.T.AXKXKXKX%XAXgXjXfXxXnXPXdX`.jXe.e.r.u.u.t.lXfXjXDXaXqXwX6.6.6.u.=.* @ @ : E _ q E 3.] 2.*.Y ^ J E Y.T.Q.tXQ.E.U.P.U.I.I.W T.E : s ` 7XL.g Q T.U.g d g g _ u J K T [ Y.G G G A.D.Y.A.K.H K.K.g W I.T.Q p E _ I.) I.0X0X",
"U.j u Q ( ! ~ ` s ! i u p j u r 9 9 e e 9 9 e W W q 4 ^ u 0 j u u g ! E i I ;.,.` K u E 7XI.I.Q l.eXNXc.E.E.Q.Q.T.K._ T.[ / ^ ^ E q W [ J u ~ - * uXvX2. .6.sXaX0XT.{ 3.6.6.0.u.lXsXT.jXFXkXnXfXfXkXjXW.W.4XKXJX<XK.G.+XKXGX+XAXNXLXvXA ; & % % + B.HXLXHXCX+XoXW.%XGXGX+XK.k.E.R.U.Y.T.Q.tXtXE.tXU.L.l P.L.l.b b x.z.eXyXyXyX0X8XU.7XI.P.I.qXeX7XqX8X8XP.P.l.z.x.eXV.V.x.x.z.z.8Xz.v t 8 * O V rXrXBXrXMXeXeXV.v.MXMXv.v.VXHXHXHXVXE.oXNXCXGXE.R.oXoXMXE.E.v.oXNXNXNXMXMXNXeXE.P.eX8XrXyXLXHXeXBXyX9X<.uXiX9.V C ; + + f + % ; 5 3 3 a ) 8XE.h.E.rXyXrX9X8XL.L.U.AXAX+X+XW.W.4XJXJXGXGXCXNXVXBXBXBXBXVXMXoXM.MXVXE.E.MXMXMXVXMXMXMXoXMXeXeX9X9Xf + + - t i s c z n n z.B.eX8X8Xz.b k n >.n 7X) 7X>.7XP.) I.U.L.U.L.E.BXeXv.x.h.d k.z.z.B.z.B.P.8XP.l.P.U.tXNXU.E.U.r d.E.+XoX+XHXHXv o @ % = <.ZXhXtXhXgXT.).AXQ.T.K.Y.AXDXKXFXAXAXgXhXxXnXnXPXkXjXkXdXu.xXcXu.t.xXhXdXDXjXaXaX#.$.<.0.C , @ @ q Q r u Q / 1.2.5.*.] [ [ T.gXtXgXE.E.eXL.l._ L.W L.j > u ) P.g Q U.U.k.h.d.w W gXJ U [ F F T.H H e r K.Q.Q.tXtXyXhXtX0XT.,.0X0XqXqXqXqX3./ ~ ",
"l g ( I.x s ` 0X` 0X! _ I.Q r r H A.Z.G G G ' ^.[ J : J 4 4 i j 0 g I.I.p s ~ 0XqXW q E _ Q W g T.eXeXE.K.Q.U.U.K.Q E { ] U ^ ] I.E J T.J q t * & <.wX-.6.t.aXqX/.tXqXaXwX6.6.u.2.5.aXjXjXkXkXkXt.dXgXQ.+X4XKXKX<XQ.R.+XKXJXU.Q.+XSXSXyX9XC 3 O + + j.HXUXGX+X+XR.+XGX+XNX+XR.d.g K.U.tXtXE.U.L.L.k d d l.l.d d f x.8XtXtX0X` _ ) 7XqX7X7X9XqX9X8XtXtXP.z.x.x.U.U.eXeXeX8XV.B.B.B.v t y ; - 3 9XrXrXeXrXrXv.v.E.x.eXeXMXMXVXVXMXCXNXE.c.E.+XCXCXCXNXMXoXCX+XE.+XNXNXSXNXNXtXeXz.8X8XeXU.BXUXHXeXBX8XA :.9XB.; ; V - - 8 V.8 8 ; ; 3 5 y ( I.Q.eXv.eXZXLXLXyX8XL.l.Q.R.Y.W.J.{.4X4XJXKXGXCXNXBXVXeXeXeXMXMXMXMXVXE.k.MXHXVXoXCXCXCXVXMXeXyXrX8X9XV + X y y i u s z B.B.n P.rXeXeXz.B.B.z.v n A 8Xn >.8XI.( L.( K.L.K.K.U.h.x.eXV.eX8XB.B.B.n v n 8X8XI.eXtXtXeXg r r L.K.E.Q.E.HXUX8Xt O 3 3 N 9XhXSXgXtXQ.tXAXgXW T.T.gXAXAXKXAXJXAXfXfXsXsXhXgXjXDXdXkXlXxXcX6.wXkXkXgX/.jXhXe.2.-.%.%.< * @ > q W H W ^ ! 4.2.=.*.] T.T.T.T.T.T.k.NXeXl.l.( j Q q 0 i ,.I.L.l K.E.E.k.c.h.0 g ' ' H F F q W _ L.q : > u 2 t t t A 8X7XyXyXyXyXwXwXwX:.a 2 - ",
"I.I.I.I.( x x ! I.I.g q K.K.k.K.K.D.D.Z.Z.9 q ^.' ^ J 4 J p > u 0 g L.T.( i s ` ` K q u I.Q K.T.tXP.E.E.E.BXgXQ.U.E E ^ L R *.1.T.Q H J H : @ O 3 V 0.-.u.6.aX[ SXFXhXkXvXt.0.6.lXe.e.hXdX/.kXnXkXfXjXFXAX+XJXKXKXGX+XW.NXGXY.U.Q.tXtXyXvXLXuX3 % + $ z.SXHX+X+Xc.R.R.R.R.AXNXU.k.l ( 8X7Xl.b z.f d d f k d d t l.8XtXyXtX( Q _ ` ` 7XqX0XqX7X,.n 8X8Xb l.l.z.v.V.eXV.B.B.P.z.B.n v y 8 @ % y pXB.rXBXrXMXMXNXoXE.v.v.E.VXNXCXoXoXoXNXoX+XNXVXCXHXCX+X+XGXGXGX4X<X+XAXAXtXNX7Xz.8Xz.z.f eXUXUXHXMXeXv A V 3 % - - + 7 8 V.B.; ; * ; a a ! Q E.AXBXBXBXyXwXyXqXeXL.g r d.R.W.OXJ.4X4XJXGXNXMXBXBXBXtXMXVXVXMXj.h.j.oXVXMXoXHXHX#XCXCXMXMXeX8X8XrXA $ + t y 2 > u c n 8Xn 8X8XeX9X8X8X8X7X>.) >.>.8X7X7XI.b Q g q l k.k.k.k.v.NXBXtX8Xk h f i i y i x j j i j l g L.Q L.l.k.E.SXUXBX- X & 3 N 9XZXSXHXSXQ.Q.gXSX/.W Y.T.gXAXAXAX<XAXSXgXt.t.sXyXtXgXjXaXfXr.lXxX6.] fXkXdX' ' aX5.$.+.-.%.1 < @ 2 K r g W _ { 5.#.*.1.^ [ T.Q.U.tXU.L.MXx.d l I._ T.> > I.qXI.L.k.k.E.k.c.c.h.r g W jX' F T J J ^ i > . # # . o o     o o - 2 y 2 y 2 3 3 @ O & ",
"0XqXqXwXqXaX0X` 0XqXI.tXgXtXtXQ./.Q.K.H H G G Y.F F | J J gX( g K.d.k.E.U.x x 7X) u : g _ Q W I.L.h U.eXQ.tXtXtXQ.T.' ] R &.&.*.U ' q q W J @ * & 5 0.-. .D sXgXgXDXkXhXfXt.lXcXlXt.fXkXkXjXFXFXfXkXhXDXAX).JXKXJXGXAXW.K.).Q.gXgXQ.NXgXyXvXpXV % % - + rXUXNXoX+XR.R.w E.MXl.E.tXU.P.n P.) z.>.A 8XB.z.x.f k h.j.eXeXNX0XQ _ _ ` ) ) ,.;.` >.) ) 7Xz.b v z.v.8XeXeXB.v v z.b v d t y y + + V 9XrXrXeXeXMXMXv.MXoXVXCXoXE.oX#XCXE.oXVXNXNXVXNXVXNXCXGXGX4XGXJX4X+XQ.+XQ.AXSXtXP.n z.8XrXMXBXMXj.h.tX7Xa y y C y + . 7 j.V.V.f ; ; C y a ( g d.E.E.E.rXrXA 8X9XyXb i h L.g K.+XR.<X%X4XNXHXBXZXBXBXVXMXMXMXM.M.c.MXMXoXMXCXCXCXCXNX+XE.E.eXx.B.rXB.y - 8 i c ! s s z c x x x x n 7Xn z x n n ~ c c P.) c b b 0 g w l l.v.x.l.E.eXE.U.j i x c s i s p p p j ( u Q K.E.K.h d eXUXSXt $ & % 3 V yXLXUXAXAXAXDXSXgXT.Q.qXgXQ.AXSX<X<X).tX5.t.sXhXhX).`.jXfXkX&.sXxXfXe.aXaX/.' [ aX5.O.+.0.8.3 , @ u E r W [ ^ 0X5.D Y U J E _ K.K.Q.k.k.eXv.k i j T.I.q > / >.) b r d.U.a.h.v.d g E G W F G T.e.qX4 @ o @ * & o O * * X o o @ @ . @ O X o O X O % ",
"4 S 1.3.qXwXwXhXhX7X>.) x t 0 t 2 4 > : u Q [ J q J q W T.I.r 6 a.k.c.U.Q.l.h ( ` 0X! > q Q E L.( l E.NXL.T.tXI.Q.tXT.[ &.&.&.5./ E W H J q 2 , & 3 N 8.+.-.aXqXDXgXaXjXkXt.t.lXmXxXfXdXjXFXgXgXnXsXhXhXjXFXGXKXJXAXAXQ.Y.K.T.FXgXQ.Q.AXhXSXyX<.3 ; ; % y SXUXoXE.Q.Q.K.w d.k.K.eXtX8X8X7X8X8Xc v v A 8X8XE.eXeXv.j.l.U.U.L.Q L.( ! ( ` ,.` ) 7X) c b I.P.l.x.eXrX9X8X8Xz.b v b i t y t + + A 9X8XeXtXNXMXVXVXCXCXoXoXCXVXc.c.CXVXoXeXMXMXeXVXBXVXNXCXGXJXJX4X6XOXG.OXR.R.Q.L.n n rXLXLXLXMXE.E.tX7X( a 5 3 ; & - 7 C.C.V.C.V.8 % = A >.g 6 d.XXc.v.MXrX>.a y s ~ 4 a t 8 v z.U.Q.NXGXHXCXHXHXVXMXMXv.C.MXeXMXMXM.eXC.eXVXNXNX+XE.R.E.E.eXNXBXB.yXy 2 2 i c i ) x s c ~ ) ) x x ) x s x s s i u u b 7XP.P.b j k b l.U.tXtXk.k k.U.U.T.b j ) x s P i p u j E g g k.K.l.d l.ZXeX$ + @ * 3 C yXLXSXAXGXAXHXKX).K.T.gXT.T.tXAXAX<X+XQ.T.5.aXsXqXtXAX`.).kXfX5.5.fXxXkX] [ /./.dXaX&. .N 6.0.* o o i j E Q T.[ { ] L ] R q Q Y.k.U.tXl.E.MXv.U.h u ` ! E ~ qXyX0X( w d.c.w 6 h.8 q : : G G Y.T.aXvXa @ O * % X X % * O   X X o @   @ O X X X O X X ",
"@ @ 2 3 4 a t 2 t - $ @ o @ @ . o O @ o $ 4 P U S J T /.gXY.E d.w c.d.R.E.L.g b 7X7X` > q _ _ L.l g l.eXk.l.Q.U.T.T.[ ^ R R &.*.] _ W H q K 2 @ ; <  .-. .O.5.gXT.H /.kXfX&.5.y.xXt.sXdXjXgXgXtXsXsXsXsXgXhXAX+XGXAXAXQ.T.' Y.gXSXaXQ.tXAXKXLXyXV M = % X f UXUXNXU.k.R.E.L.k.k b j i x c i i t i i z k x.eXBXVXeXl.h.k k.L.g r l b P.P.8X7X7X` ) c ) 8X8X8XqXeX8X7Xn n ) P.b t i t y - $ $ A 9X8XeXeXeXNXNXCXCXHXCXMXVXCXMXc.h.h.oXBXBXMXMXrXVXBXMXGXGXGX4X4XW.<XOXW.A.d.g l.tXrXyXrXrXBXNXBXBXeXl ( P 3 a = ; % f j.N.C.VXV.f y V uX>.j g k.R.E.v.eX8Xz t i A 7X,.t @ y y f rXeXE.+XGXHXCXMXVXMXMXeXMXoXMXM.v.MXMXVXMXMXoXE.c.Q.E.Q.NXNXNXNX8X8Xa t y 2 i ) ) s p P ~ / ,.) :.,.s a ~ ) c s i u h x ( I.8Xn b U.8XeXL.g g K.k.U.Q.Q.U.x j i u u u p u p ! E Q k.k.k P.yXv + - y @ & 3 9XLXUXQ.GXGXKXUXAXT.I.L.T.tXNXAXAXNX<XAXtXT.e.e.sXaXgXAX/./.jXkXkXsXkXkXkXaX^ [ e.kXsXt.-.-.w.0.< o o t i q W Y._ ' [ T [ [ W Y.Q.U.U.x.k eXMXE.E.L.j q _ ! a 0XvX0Xj 0 k.c.6 # 6 # # : ' Y.Y.Y.T.3.#., , ; O % X X ; ; + X X X X o     X X X % ; ; 3 ",
"o o O X o O + + * + + X o O * @ O & & O O @ L qX| T.T G W W K r d.c.j.h.c.k.g L.b >./ > q ` T.L.0 d x.E.l.l.Q.U.U.E.Q K T R Y *.3.[ T.W J E y * 3 < X.y.-. .5.aXT.Y.aXdX| r.t.xXsXr.fXkXjXgXAXAXhXlXt.5.qXaXAX+XKXGXgXQ.T.T.T.gXgXhXAXAXAXHXUXvXA M = % * $ eXUXUXw w K.K.K.K.g Q ! j j s x x i j x k h l U.tXoXE.v.E.l.k k d 0 w k k b P.P.n ) ~ ~ ~ c z ~ ) ~ c >.~ x x h s i s z y 2 - t 8X9X8X8XeXoXoXMXVXVXVXHXVXMXM.MXMXE.j.v.V.eXrXBXZXZXVXBXVXCX+X<X<XQ.R.T.g l ) i z 9XwX9XA 8XrXeXE.MXK.g ( h a V % ; 8 V.M.j.C.C.V.V M V 0.,./ T.Q.E.v.c.MXeXl.d f eXtXyXl.b 8Xz.eXHXNXc.+XCX%X%X%X%XCXNXNX+XE.oXNXNXMXMXMXeXv.K.E.U.Q.Q.Q.+XNXtXE.P.z t , 4 t u n x i t s c a I s I x s I >.~ s u c i l x x x z h z l.b ( ( g g L.Q.AXNXU.U.U.8X7X,.` ~ ~ x j ( l L.L.l.8XrXy X * 3 % * V yXvXLXGXR.AXKXKXGXT.T.T.T.U.gXSXAXAX+XQ.W.T.qXaXaXhXkXhXDX/.Y.aXdXfXaXgXdXPXdXP P aXnXsXu.u.u.i.<.& X o x ( j W _ ' [ [ R ^ ' W Y.R.E.eXk k.E.V.x.k P.I.E _ j i qXwXs 0 w k.E.h.d 8 7 > u ' T.9 9 Q 3.3 & ; ; + X ; V B.V y y ; $ * - - ; O , 5 :.uXuXuX",
"X X X O + O + % + X O O X % & o X % - * O & a sXaXaXT q q 9 9 > w h.p.w k.g w L.7XyXqXi p T.Q E d l.E.MXx.z.eXU.R.U.K.E ^ R U R { [ _ K.q j y - X & -.-...5 +.5.dXaXaX| R dXkXfXt.e.dXkXgXgXAXgXyXsX4.sX5.T.gXAXAXAXAXT.T.aXT.Y.T.FXKXDX<XGXSXSXLX<.m ; * + + h SXtXl 0 k.K.g l g ( x p s p s u ~ x ( L.E.E.k.k.k x.tXeXx.x.k k k U.U.U.7X( t u u s a i u s I s c s c ~ x x c ) c c z t - v rXeXeXeXeXeXE.E.oXoXVXVXVXMXv.MXoXM.MXE.MXeXV.rXC.VXVXHXHXHXHXNXW.U.( ~ > t s i c n A c A eXMXE.k.k.d.w w b 8XC % ; V V.C.m.N.C.eXA M M w.6.sX0XI.L.k.k.E.oXE.v.E.MXNXMXE.NX+X+XAXAXE.E.NXCX#X+X4X4X%XGXJXGX+X+X+XNXMXE.x.x.l.U.tXAXAXAXAXNX+XE.U.U.h a 2 2 a a c 7X~ ~ ;.;.;.a u a 5 a s ~ a 4 2 4 2 u x x b h i i i h h L.T.L.g T.AXtXE.gXLXqXc s c c x s x ( P.8XeXeXz.- X O = & & Z bXvXSXHXAXE.GXKXFXT.K.Q.tXgXtXBXtXE.Q.AXQ.K.{ aXqXaXqXqXaXqX/.aX/.aXhXjXaXaXjXsX] Y 6.xX6.-.-.-.0.%.O   @ A 7X( Q _ W ' [ T ' ' W Q.E.Q.eXz l.V.j.x.k l Q T.I.u u 7X` t i g h.h.d f 8 t a K T T.r w ) qX, * 3 % % % V pX9XA B.V A V y A :.<.4.uXpXlXlX6.6.",
"; % % % X X X X + X       + - *     o & * * 2 3.T.[ ' ^./.W : # # 6 # 6 v.k.r l eXhXyXj E I.E Q U.v.E.MXV.l.P.U.U.Q.U.W [ { ^ ] [ ^ Y.W q u y * X & -.8.-.-.uXsXnXaXR T | kXkXkXsXaXfXkXaX/.gXAXqXhXaX6.3.[ tX<XW.CXAXtXqXqXT.L.Q gXKXKXKXGXNXNXUXwXV 3 O * - - 8 8XtXb g l r g ( j u p s u a s p j l U.Q.Q.U.K.k.g l.L.eX8XP.x.P.E.P.P.U.j t p s P I I I ~ ;.,.:.;.>.~ ! i s ~ ~ a 2 t > n 8XP.BXNXeXNXtXoXE.E.v.E.NXVXVXMXMXv.MXMXoXE.eXMXeXMXVXHXCXCXCXQ.E.eXx s 2 $ 2 c :.A y y d 8XeXv.k.oXc.d.g P.rXV ; y B.rXC.N.#X#XeXy y M 0.cXxXt.qX~ l g k.K.E.E.XX+XCX#XG.J.,X,XW.).Q.HXSXE.NXGX$X3X6XJX6X4X4X4XAX+XQ.L.I.qXtXhXgXAXgXAX).Q.Q.T.K.( ! ,.;.2 3 s c 7X>.~ 4.7X9X<.:.:.:.4.9X<.,.@.C s y i i z x z i i h ( b ( T.I.l L.tXNXBXyXqXt + O o @ @ 2 > t x z t v -   O < < = N uXZXvXLXSXeX+XKXKX<XK.Y.tXtXhXhXyXU.L.l K.T.gXhXsXaXT.U U aX5.{ aXdXgXkXkXgXaXaXaXsX4.<.6.-.%.8.-.u.%.% O - t x E _ T.W W [ [ W ' K.Q.U.U.8Xd v x.d j.k.l j qXtXg t ) x t w d d d w d h 2 : S T [ H k.qXyX< = = % % O 3 B.9X9XA z y A f y @.<.wXwX9X:.#.C a ",
"pXpXV y ; * - ; 3 % @ ; y y V 8Xv - X O ; < * 2 qXW : 9 W ' K 4 6 w 8 h.x.k.0 0 n wXqXp p W E K.U.k.x.eXeXb k eXE.R.W.K.Q [ ^ [ [ R Q W W ) A $ o O X.u.8.u.0.lXvXfXR J e.kXkXhXdXhXaXdX/./.gXSXkXhXsXwX5.T.Y.Q.AXAXBXSXSXT.T.T.U.Q.Q.JXKXJXQ.Q.UXLXpX9Xy * ; - + - n tX( b _ b E x u a s a ;.~ 7X7X7XL.U.NX+XU.K.g l Q l.L.b g b k h j c i i s a a ~ ;.a a s a a ~ / ~ u i t a A 2 2 a $ t l P.U.E.Q.tX+XE.Q.U.K.x.U.E.MXMXVXVXoXR.E.MXNXNXCXCXVXCXCXHXMXE.tXSX7Xn ) ! ) eXyXrXv d d P.eXE.k.E.E.E.0X>.9.pXV f B.C.N.n.#XCXeXf ; m i.mXmXxXlXqXx g g A.W.+X+X%X%XOX'.{.6X*XD.2XgXKXAXk.R.AX4X4X6XJX6X4X<X4X4XAXtXtXqXhXFXkXgXgXAXAX+X).Q.Q.[ E { ;.6.#.5 5 , , @ @ - 2 4 a a :.<.9X6.>.C c A I ;.>.~ c x z h j ( Q b l g l U.8XSXyX( $ + X X X X & O     o @ @ @ X @ & O * m < Z uXvXLXUXBXtXKXKXgXQ./.T.gXgXhXSX0XI.I.) _ qXfXsX5.[ _ ^ 3.sXt.] sXhXgXhXFXgXgXqXsXvX6.%.C -.8.-.-.lX%.O X - y i j ( T.[ [ [ [ T W K.Q.U.eXb t z.x.7 d k L.Q Q.Q.l t k b t 7 w l.h.8 x.8X4 @ : J 4 0 g qXyX3 & = % X X & y 8XrX8Xz y c :.V :.<.:.:.C a a I s ",
"zXvXuXuX6.<.:.$.3 3 a A 9XV v B.ZXA % % % = % 2 T.W G e ' ^ U 5 8 d h.f k d g j i 7X7Xp q [ I.Q l g k.x.eXv h E.E.U.T.K.E T ^ ] R ^ _ I.Q ) A 8     1 r.8.0.<.6.lXlX5.L T.kXgXgXSXkXdX/.| } T.aXqXqXaXaXgXaXY.K.AX+XU.tXyXtXtXtXQ.T.K.).KXKX+XR.NXUXZXLXpX; O % ; % + y tX8Xb 7Xx ) ~ @.:.;.>.a ,.yXSXtXQ.NXtXW.K.Q I.( j i d d h h x ~ ~ u 2 4 2 4 a a s a i a 4 i p ! ~ ) ~ c c 5 a t t u j U.U.+XNXAXAXAXAXAXgXE.g g k.oXMXCX+X+XGXGXGXCX4X4X4X%X#X%XNXE.E.tXHX+X+X+XE.+X+XNXE.E.E.eXE.L.k.k.E.0X4.sX9.Z ; V B.VXm.n.@XCXv.f 2 N 0.mXmXmXlXvXwX( W H ' (.).<X].G.J.6XJX_.`.DXFXkXhXU.r R.+X<X,X2X6XJX4X4X<XAXSXhXhXhXhXhXsXgXKXGXGXFXAXgXgXaXqX1.wXsX2.$.1 @     o o X o + * * 2 2 * O O & - 2 y @.7X7X` ) I.L.g l b g k U.tXtXp #   o * < * = = * & O O @ O X X & * , < N B Z %.y 9XBXyXSXUXAXY.).jXgXhXgXgXI.p x 0XwXaXsXe.5.D U { hXkXt.-.5.e.aXhXhXjXgXgXgXsXvX<.%.B 8.8.-.-.6.< O & - v c Q Q W { [ ] ^ E ^ T.T.Y.tXi t rXx.8 j.k k.g r r 0 t x.8Xd d v.U.h.d f f $ @ 1 4 J J K.yX4., & = = % O @ y 9X8X7Xz s a :.2.C 5 5 y 3 5 @.:.2.",
"a :.<.wXt.<.+.D 4 @.C 2 y B.rX9XV ; % % = = = 5 hXU.H T /.W 4 2 8 f 8 8 d g d w t t ) i q tXtXQ k.k.x.8 k b z L.tXU.Q.T.W T [ [ U T K.T.( v v ; o o  .y.8.8.%.-.6.=.5.5.aXgXtXSXhXFXaXaXdXe.aXaX_ _ T.aXaXgXgX).K.K.K.U.gXtXhXgXtXQ.R.Q.DXKXGXQ.NXSXSXLXZXuX= = ; * + + 2 z i 8Xc i - - * @ @ O o n hXBXtXAXQ.K.K.K.T.Q j j u u u p P s t 2 a a a c ;.wX9X>.>.A :.:.9XwX9X:.:.wX#.@.a , ~ ,._ _ E.E.Q.+XgX<XgXhXgXgXtXtXU.x.oXCXCXGX<X4XJXJX4X%X4X4X%XXXGXHXtXtX+X<X+XOX].oX%X#XR.oXoXR.U.k.k.L.7XwXt.cXi.Z m V B.MXN.#X#XCXC.d t N 2.sXmXxXuXIXPX0XT J G ' ^.).,XW.J.2XDX/.kXnXdXsXhXFXT.K.A.W.2X2X2X6X6X4XAXgXhXPXmXlXsXsXaXgXtX).AXgX/./.gXfXaXhX3.4.wXsXwX@.> - - * O X X O o O * ; - @ o o o O @ y ~ >.I.7X8XT.I.tX8XP.z.8Xi O     & 3 m N m N m C N = = * m m N 5 < < < m < 3 & t 2 # a >.Q T.gXaXgXhX! 2 > 2 2 s ;.4.2.5 1 2 u E 0X#., ,  .Y 1.sXhXhXgXhXnXkXuX%.Z 7.%.-.u.0. .O % 2 y v ~ _ E J W W ^ [ T.[ U.Y.U.yXt t B.8 d f 0 g l g r 6 k BXrXh.x.E.eXd d x.$ # 4 : S ^ E E wX:., = < % % O O a 4.:.>.c A a @.<.1 * 5 a C :.4.:.C ",
"c y a @.:.$.6.@.a @.a i c 8X8X8Xy & % % % = & 3 yXqXr : q J 4 : 8 B.v 8 k z.d 6 0 b v t t tXgXK.c.k h.0 k B.f b U.T.T.T.J E / { ] [ [ T.Q g t - + %  .i.8...u.%.+.+.$.lXkXT.tXAXSXSXhXdXdXe.{ sX5.Y K [ qXaXhXaX[ W _ _ qXqXSXSX).Q.Q.W.+XJXKXGXAXKXUXvXpXuXN < = = O & @ + + $ $ + X + O O X O o . $ i I.BXtXU.K.Q Q L.j j ( E 4 u p ! ~ >.>.>.@.A @.:.9XwX9X9X:.>.a y 3 - * 3 3 < 3 $.1.{ [ E W Q.Q.Q.Q.AXAX).gXkXPXvXqXqXNXNXAX4X<X5X6X6XJXGX%XGXR.d.CXKXDX`.J.W.6X,XG.@X%X%X+XoXQ.A.r q E ` wXvXmXcXcX..= y x.VXCX#X#XCXMX7 - :.wXlXnXaXt.nXmXxXfXe.[ T ^.`.2X,XD.`.jXkXfXnXr.fXkXIXFXL.W A.<XJX6X6X2XDXFXhXvXcXIXnXPXPXkXgXQ.W.gXaX[ 5.sXt.wXaXtXtXI.0X3./ s z a C N < * , & , 3 A :.3 O X o o o o o @ $ s c i s n v y - * O % % O < C Z C C %.B C %.-.=.=.pX0.@.3 & & & & = & * = - O - 8 t > a s a a , o o @ - @ ; ; O O @ @ @ @ @ @ @ & , , 4 R hXPXhXhXvXuX0.6.%.%.%.lXcX@.O   , y A ~ ! ^ ^ [ T.' W ' Y.Y.T._ b I.t d z.d d d 0 l L.b l.w k BXeXx.j.U.z.t t y @ 4 4 : : H W ! ,.C , , ; ; O O & 1 @.I a 9X:.A wXuX#., t s c :.4.2 @ ",
"~ ~ a 5 2 5 C C <.:.@.a z 7XtX9Xy O X % % = * , wXtX^ q J U 2 : $ f v d v v.l.g k h.z.k 0 d l g k.a.h.8 x.rXd t yXT.K.T.' ^ [ ] ] ^ W Q ( L.v t * X * 0.u.%.-.8.....<.sXhXhXgXgXFXhXhXhXaX[ 5.sXsXnXe.Y I ;.aXkXhXqXT._ W ` tXhXPXhXgXSX).).KXKXtXyXyX>.<.<.Z B 1 < = * X X & O % + + + * * * , * @ . . > U.yXtXU.l r l Q j ( ) ~ 3.wX,.c i 2 * @ @ & , 3 3 * - @ o o o + X X & 5 @.2.5.5.{ aXT.aXgXAXDXKXJXDXgXgXfXsXsXhXhXhXNXNX<X3X6X6X6X<X<XAXW.A.R.<XFXjXDXDX(.2X2X].F.|.%X4XW.K.A.H J [ wXvXlXmXmXy.@.; 8 k.CX#Xm.#XHXoX7 t >.sXhXsXaX| e.dXr.xXnXfX} } ^.1X(.' _.jXkXxXxXr.fXnXmXsXqXgXY.Y.,X<XDXQ./.kXlXxXlXnXnXPXdXaXgXgXgXgXsXt.sXxXaXgXhXFXgXQ.T._ E s p a @.$.@.@.C C lXvXvXyXwXa * O @ @ X   O O o o . o o + % + % = m N M C %.V C C V N < +.lXmXmXmX%.& X O % % = & = = < ; , y V y y 5 2 * , ; @ O @ * @ - * O X O o @ @ @ @ * 3 & O , , U vXPXhXwX<.uXzX9.%.u.0.N & . O 2 z >.>.3.[ ] [ /.| T ^.[ Y.Y.T.tXtXt f V.h.v t t h ` b z 0 d eXk d d z.f # - 2 $ s S q : : q ` vX@.& = m 3 O O @ 5 O.a 4.:.4.wXvXwXc 3 5 s 4.;.y * , ",
":.wXa a 3 4 , 5 $.C c A c >.qX8X3 * O % * < = , ,.0XE W J J 4 > . $ f d d eXU.h.l.8XyXv $ d r l g r d d d B.f t tXI.Q Y.' ' [ ' T T J g Q L.z t 2 % O m 0.0.8.-.%.%.%.wXvXPXhXqXhXhXhXsX] Y L , @.wX$.5 a 5 a I wXwX` s > 2 t a qXhXgXhXqXL.Q L.t t 3 , = m m < m = < C 1 < < O & < N 5 1 N , 1 5 ; o     $ z 8X8XP.P.qX7X7X8XqX>.,.c y - + @ o o & @ @ , O X O   . @ @ @ O , a wXlXwX6.5.aXdXdXaX/.Q.DXAX).).gX/.sXt.fXmXIXhXhXgXAX6X5X5X6X1XW.K.d.W.SXhXhXkXkXFXgX`.DX*XJ.,X,X2XY.W J J R aXIXlXsXmXcX6.@.3 y c.CX#XM.VXHXV.8 3 $.wXqX[ [ F F } } dXnXnXvXdXjX`.`.^._.jXkXmXcXt.y.mXmXsXwXFXgXK.r K.Q.gXqXvXvXxXvXnXPXvXaXwXsXhXvXsXlXsX5.sXjXgX`.DX<XQ.Q.T.Q ^ ~ I I @.$.$.;.qXvXPXhXhXhX6.#.5 = = * * * * X   o     X % ; ; Z 9.9.Z Z 9.<.Z Z Z N C 6.lXnXmXuX, X X + % % * = 3 3 3 3 y 9XB.A A y + O 2 ; @ - - t 3 V y * * & O O @ @ , 3 V 5 < , @ @ 5.nXwX4.uX<.uXbXu.8.5 @ o & a a a ~ ^ Y R | | e.[ ' /.Y.' T.T.tXtXt x.V.j.v f h x b j 0 7 d U.k w d x.d $ 8 @ @ u u J q : q ! vXC & * * ; % @ , +.6.$.:.4.wXyXwXc i s ~ @.9XI 4 3 2 ",
"I :.$.:.a 5 , :.wX:.:.,.>.s c c y * O O = < * , >.0XE W J : : 4 > $ y t 8 z.eXk l.eXBXk 7 n ( Q Q w w d 8 x.f t P.L.W T.Y.[ Y.T T [ ' T _ ` ) c y 3 O O N zXzX-.Z 7.9.9.uXnXhXhXkXkXqXp 4 , @ o @ , @ @ , @ O & 2 3 - 2 + o + @ 3 ;.a s s u 2 2 @ O ; = % % * = % = & m %.0.-. . . .X.N N @.N N Z 5 = & O O - ; y z B.A c v v v 2 @ + X o X   . o 4 @.5 2 & @ * * 2 5 a a 4 s / qXqX{ T.qXhXaXaXgX{ T.gX).Q.T.gXkXkXnXnXnXnXvXhXSXJX6X6X6X6X2XW.H K.hXIXnXsXt.xXsXfXjX`.J.*X5X1X^.' T | sXsXnXIXfXt.xXmX6.<.; 8 k.GX%XXX#XVXx.y , #.qX/.T.^.F ' } _./.fXmXxXnXkXjX2X`./.dXfXxXmXlXr.xXIXvXsXIXUXFXtX_ _ yXhXlXxXlXkXhXkXkXkXnXsX0.zX0.xXxX5.dXFXDX<X,X<X).Q.T.[ { 3.1.I a I :.,.0XI.tXgXhXvXsX4.+.3 5 5 N 5 3 * O , * * ; ; N Z 9.9.uXiX9.<.%.<.$.<.$.:.vXnXkX5., X o O % * 3 3 N C C C y A 9XA A B.y % - , * @ y C v f A A y y 3 * O O @ , y V A C 3 * @ 4 6.2.6.lXuXxXmX6.3     @ 5 4./ P ] { T R e.e.| [ | /.' T.' L.tXeXf 8XrXB.x.d P.( ! t $ t h k t 8 k B.v t f $ 2 4 q W ' q p ! yXa * & % = O * 5 2.2.;.4.wXwXqXn x ~ ;.4.qX) y a c a ",
", a 4.@.a 5 a ~ vXwXqX:.4./ a >.3 & X & = m * & a wXI.p : : q K x $ t 7 # f x.d d x.eXf t k ( L.Q 0 0 v f B.A 8 8XQ.L.Y.' ^.^.F ' /.| [ ^ ` ` ` a 3 % X & C 0.zX%.7.uX0.0.wXwXnXnXaXS @ @ & * , @ o o @ O O X O O - + + * + + * 3 , , 3 2 2 C C ; ; 3 ; = = = % % % % % 3 zXmXxXxXr.D 1 N @.V Z %.Z m 3 m ; % X X % - + + $ + + + X X O % O O * y 4.wXhXlXwXa a C A :.@.P p p W L.U.Q.gXSXgXqXaXkXaXaXaXaXhXhXgXhXfXnXmXnXxXxXvXFXAX<X<X6X,XW.Y.T.T.hXIXnXxXy.y.mXfXfXdXD.!.1X_.| } r.xXnXnXdX_.R e.sXsXlXwX3 t k.GX#X#XVXMXd 2 5 O.jXDX).T.} G } 1X_.e.y.xXxXkXkXjX`./.fXnXnXcXlXt.cXmXvXlXIXIXIXUXPX` 3.sXvXlXsXhXkXgXdXkXnXxXzXcX-.sXnXgXjX<X,X,X2X<X).Q.T.0X/ L L L a / >.` T.L._ T.qXsXaX*.2.+.@.5 $.@.C 5 D @.<.u.0.<.Z w.V 9.9.rXZ V 9.0.0.<.:.6.vXvX~ @     + - - y A a C C @.:.A A 8Xz.f B.B.y V y 8 - f A n f f A y t ; * + X % * ; ; V V A 3 * & 5 -.0.vXmXIX6., o X & 3 I ] R U U R T &.e.e.e.e.e.| T [ [ T.tXyXx.rXrXeXB.d b I.P.t 7 t h d t d b z.t 7 f y s s : J H W { 0X6.a = & & = & 5 -.sXwX5.sXqX0X` ! ~ / s ` wX>.a c a y ",
", 5 :.4.;.a a i ,.wXwX4.4.:.#.6.@., O & < = & * c hX_ : : : J u p $ @ $ 7 d x.w 0 d A f $ t h Q Q g d k x.V.V.8 tXtXT.Y.Y.Y./.' } | | [ [ R / / x 5 y ; X O 1 <.uXzXzX0.6.6.6.nXhX4 @ @ , 3 C a 2 @ * & O % & % ; A y ; ; * & & 3 @ & 2 3 C V V V m ; m ; < = % ; % % % o #.nXmXmXsXI 5 @.V V V Z 7.7.7.9.Z V * % O X   X X   + * & % * = = 3 $.wXhXhXPXPXvX9X:.:.:.:.c P ^ W K.W.).Q.AXAXAXSXsXsX6.sXvXsXhXwXsX3.aXnXPXkXlXnXlXhXtX).Q.Y.H W T.nXhXwXnXnXxXr.cXmXfXdX`.^._.`._.dXr.xXmXxXe.[ F F | 1.4.wXwXy y l.HX%X#XVXrXt 2 D e.FXJX2X^.^.} !._.`.dXfXy.nXnXjX`.jXdXnXnXnXmXcXcXcXmXcXlXxXnXPXkXPX0Xa 2.vXlXvXdXgXjXaX| fXy.cXcXt.sXhXFXDX<XW.,X2XDXgXgXsXwXL 5 a @.;.;.) ` T.L._ _ / 5.5.*.-.6.=. .%.-.-.6.<.-.6.bXzX%.Z uX9.9XV 9.V 9.uXuX9.C 5 C :.4 . .     * 3 y :.:.C a A :.8X>.P.8Xx.v 8X9XA 9XA y t f n n d l.8Xv t y 3 * O % % 8 y y B.V y 3 & , 1 6.mXvX$.@   X 3 c #.U T J T L R R e.e.R e.e.| ] { [ { T.tXNXU.eXMXeXU.0 d ( P.x > t z t t h n v $ $ y v ~ u q H J _ qXwX:.3 & % & = N wXlXwXwXsX0X! I ~ ~ P P P ,.0X>.,.a a :.",
"I t 5 ,.0X,.I ~ p 4.wXwXwX4.:.2.wXa & O = & & * C wX! q J H F q u 2 - y t f 8Xh.d d z f $ t u j ( ( h f B.V.rXj.tXNXI.Y.' ' /.} | | e.e.] R ] ] P ~ 4.C &   o , 6.zXlXsX0.6.6.6.#., @ ; 3 V >.a 3 @ O O % = y ; C V A f A y - & , * O & A A A :.A V y C V y 3 3 ; % O O   @ / hXnXnX4.#.C :.9.<.9.9.uXuX9.9.<.M 3 = * % & & O * , 3 1 1 1 5  .4.sXkXkXgXtXI.,.qX;.C a I 1.3.[ _ T.Q.Y.<XgXAXDXFXsX5.xXxXsXlXsXsXnXkXkXhXhXlXxXvXlXsXaXqXI.T.gXPXmXxXnXnXcXt.t.mXxXfXdX} _.2XjXdXxXy.cXxXfXdX_.} F } [ T.qX3.2 ; f VX#XXXVXV.t ,  .fX`.2XJXAXaXjX^._._.`.fXxXxXfXdXjX_./.kXmXcXmXmXlXzXmXmXuXu.mXkXgXgX3.4 y A 4.sXqXT./.[ [ e.fXt.xXsXsXgXgX<X).AX<XAXgXgXsX4.6.#.$.$.2.:.:.7X,.) ) ` 0X,.;.*.=.6.=.$.-.%.$.%.0.-.<.8.w.0.%.%.uXpX9.pXpXuXuX9.C 3 = * o . o @ o . @ 3 C C @.C C a 2.,.,.) P.E.x.x.8XB.v rXB.f 8 7 f l.d f 8Xz.v y f y % X X ; y f f A V C = & & :.lXa . o o - a I U J S S R R &.&.&.&.&.r.e.e.e.aX[ 5.tXtXeXL.8XBXV.l.k g x b ( t h v t t t n z.7 $ y i 2 > u W G { qXyXC * & % % = <.uX4.~ s / ! ! { 3./ / ] 3.0X7X) >.c >.7X",
"a s a qX9X,.s / ~ I / qXwXwXqXwXwX@.3 & = & * = a wX~ _ ' J q q p i t f d d B.k d t d v t $ t ( I.L.k v V.rXBXz.tXtX_ T.' ' [ /.| e.e.e.R R R T ^ ;.4.~ a @   o @ wXnXnXxXlX-.@.* @ , N Z V y 2 2 O O O & ; ; ; y B.f f B.n 2 $ 3 y f y 9Xn z n 8Xv A >.>.C C C V 3 % @ . . . 2 hXLXlX9X<.<.uX9.V V B.9.9XZ 9.7.Z %.%.%.+.@.1 N 5 +.+.m N  .$.2.hXgXgXT._ I.,.>.@.@.L @.Y Y / { T.T.gXDX<XQ.).DXhXsXmXlX6.lXxXvXnXkXaXhXkXkXhXlXxXsX4.` yXUXUXIXIXlXnXmXnXr.y.xXnXxXfX^._.DXDXnXxXxXfXdX/.jX_.} } /._ FXjXT.5 y t eXNXoXVXx.2 2 *.e.^.DXJXgXdXkX_.} _.`.fXxXfXfXkXjX^.} kXIXIXIXmXzXzXcXzX0.<.u.aXfXkXhX) a 2 a ~ U ^ J U | t.t.fXfXkXSXgXQ.R.Q.).W.T.gXaX1.2.sX6.2.O.$.6.6.4.>.~ ` >./ ;.$.=.6.$.-.<.0.@.%.@.%.%.Z %.9.9.7.w.iXpXV.pX9.C * % O % O O * , * - @ , 2 a a a C @.~ a 4.,.( ( P.E.E.B.rXV.x.rXB.v d t k x.d d h.x.V.f A V ; % O $ t y 8 f A V N < < @.I o   $ @ a ~ K q T T F S R &.R &.O.O.r.&.&.e.e.1.qXkXhXtXl.E.rXv.x.x.P.eXP.h i v 7Xv z t i n t f t $ # q T.J q T.sXwXC * = & * * y <.a i u p _ 0XqXI.` 3.0X{ 0XI.! x >.qXs ",
"s x ,.7X0X,.! ! P / ~ ~ ,.wXsXwXwXwX6.3 * & & < 3 @.qXqX_ K H q u p c y $ $ x.x.d d t f t $ i 8Xb k t v.eXrXBXE.tXgXQ.{ [ [ [ e.r.r.R r.r.R R T U J P P I @.2     @ / kXxXsX@.< * = 3 V V V y 2 - X X % ; C ; y B.B.k x.v v t t V B.V.A 8XB.k v.U.l.P.P.>.@.~ a @.C 1 * o .     2 A wXC C <.0.uXpXB.V 9X9.Z 9.iXZ 7.zXzX0.-.-.%.$.$. . ...-.2.*.aX{ _ _ K.I.7X;.;.L #.L C I L 4.sXT.gXjX2X(.(.).FXkXhX5.t.xXnXfXfXaXaXjXdXhXkXsXlX5.L >.PXUXIXIXbXzXmXmXnXxXxXcXcXnXkXjX`.`.FXnXcXxXkX/._.dX_.S.} ' T.FXDXjXU 5 2 B.CXoXMXV.- ; e.sXjXJXKX).T.dXdX`._.} dXxXfXfXFXjX_._.kXIXIXmXmXIXzXzXzXuXq.%.R | FXPXhXn z A a 5 Y Y / t.5.6.fXhXnXSXtXtXAXtXQ.T.T.5.3.5.*.6.lX2.$.+.@.2.:.I :.4.@.a 2.$.$.0.6.<.$.<.C %.@.Z <.9.<.9.9.<.<.0.V M 3 ; O X X % & * ; 3 < 2 3 5 5 a 5 5 5 5 a #.#.,.,.I.I.Q.Q.eXeXrXl.v rXeXx.f d l.x.l.8 l.V.x.d B.9XV ; * + 8 t x A B.V C Z , * * o & - y x E [ T F F S S D D O.+.=.-.6.&.*.*.5.5.hXhXtXtXtXE.eXBXeXE.U.8XeXP.t z.8Xz t y z f y v v y t u _ W _ qXhX4.3 , = = % % 3 A :.9XqXP.0XtXqXqXqXtXqXI._ _ ( ( ` ) s ",
") n ) ` 0XI.` / _ ] / ~ ~ ) >.>.:.wXlXC = & % & * @.sXqX^ H J q 4 2 i t $ 7 B.x.8 f t v z t h n n b t x.v.rXMXx.E.tXqX{ 5.qXe.6.-.r.&.&.R R &.} R J T W P ! a 2 X X @ 4 t.t.1 & = 3 V V A y y t @ + % ; 3 y y f B.z.d k k d t f f 9X9Xn 8Xv.l.U.E.U.U.0X,.a a @.$.L a 5 , o X X + % * O = 3 a <.9XpXpXpX9.uXiX9.7.7.w.i.-...-.0.6.-.$.%.-.-.6.4.3./ ` I.` / >.,.#.5.2.@.<.@.C sXwXaXaXgXgX<X<X+X<XgXgXsXsXfXfXt.aX| [ [ qXaXsXwX2.N 5 ;.hXkXnXnXlXw.zXmXcXlXxXmXmXIXnXdX_._.kXxXxXxXkX`._._.^.} `.gXFXJX`.jXe.2 2 v NX+XC.x.- A hXFXPXKXUXT.[ fXdXdX} } } fXy.fXkX`.^._.kXIXPXvXbXmXcXzXiXuXiXu.=.U gXFXKXE.) >.a a 5 a L 2.6.wXvXsXyXqXtXBXFXyXqXT.qX5.1.2.5.t.lXt.lX<.@.$.=.6.$.2.@.C C $.$.<.6.<.C @.@.:.<.9.Z Z C N N m = < % % X o X O & * ; 3 3 5 5 C N C N  .5 D #.$.L 5 ;.;.>.I.tXeXE.E.eXeXk.x.rXeXx.k d l.l.k w h.l.x.f j.rXV y - @ t i x v >.<.V V = O @ O X - i E J W T T S D L R  .O.-.6.-.-.-.-.2.sXqX0XT.I.L.E.E.NXeXeXE.E.l.x.l.b B.n z z A n v 8 v B.t > t E W T.gXvXwX3 = = * % * <.wX7X7XI.qXtXyXgXtXqXI.I.I.I.E j E ! p i ",
"7XP.( ( ` qX0XT.` ` I.qX7X! s i u C <.5 * & & & * 5 sXwX_ W W ' : $ $ y t 8 z.v t i v A n y z I.P.x.x.x.E.MXE.v.eXAXhXaX3.5.5.6.-.6.&.&.R X.&.R R S T J J p I a * X o . a 2.3 = 3 V V V y 8 y - + % - y V f A B.B.f d x.h.d 8 d A rXrXf rXeXE.E.E.U.K.) ,.#.N #.D 5 a 5 4 2 * * ; O O % @ & & * ; M V 9.9.9.iXiX9.9.9.9.Z %.<.<.%.<.<.6.6.$.2.6.#.,.;./ ;.I @.;.;.4.6.:.:.:.6.wX*.e.dXaX).).<XOXW.W.AXkXkXnXfXfXaXe.[ U / ;.c a 3 5 x qXFXjXsXsX0.0.zXbXbXlXcXmXmXIXkX/.^._.kXxXy.xXkX`._._.} _.jXQ.DXKX(.).e.4 * f MXMXv.h.v hXtXFXPXUXUXQ.[ kXr.fXdX} } r.fXfXjX`.!._.kXnXnXmXbXzXzXmXbXuX0.zXt.U /.FXFXAXtXtX~ ;.Y 5 @.:.@.$.4.,.;.0XwXqX0X) 3.3.aXsX3.1.2.;.4.6.vXxX2.O.2.t.2.2.2.6.6.<.<.<.:.wXwXwXuX2.C a * * O O O & @ @ ; < * ; * * 3 C a C C a C $.@.O.L D 5 D O.$.#.I ;.;.~ ( I.U.eXtXMXP.d x.MXeXx.d k k k.b k x.l.h.h.j.V.V.A 2 $ > u x ( >.9X9XV ; , % % X t 0 q G G F U R R &.&.&.=.=.-.-.6.-.2.$.;.sXhXqXtXtXtXtXeXE.x.x.U.E.x.k f 7XA n z f f f y f f 2 $ 0 E E { qXwXwX3 & * & O * @.wX:.~ ~ ` 7XI.0XeXeXL.l L._ W E ! ! ! x ",
"U.` L.( ` I.T.qX0XT.qXqXqXI.I.I.,.~ L 3 O X = < , 5 wXwXqXQ _ _ p 2 t v A y f h d d z 8XP.t b eXP.P.eXeXMXVXE.E.U.tXhXaX5.6.4.$.-.-.&.r.X.T D S S F F S J ^ ~ c y - -   , , < C C V B.A f y t - + - 8 B.B.y j.B.x.d w l.x.k d h.V.9XB.v rXMXE.eXE.T.L.! ,.2.@.5 5 4 5 L 5 5 5 3 3 , 3 3 * & O O % X = C Z V 7.iX9.9.9.<.9.<.<.V C C $.<.%.<.<.6.$.2.$.C :.<.:.@.<.4.:.<.@.<.vX6.R [ aXT.Y.U.Q.NXGXQ.NXhXvXxXt.t.e.e.1.P Y a 5 N 3 c tXFXFXgX[ 1.0.w.zXzXzXcXmXmXmXIXfX/._.`.kXnXxXxXdX_.} _._.dXjX' AXKX`.aXaXP * C MXCXv.h.B.LXgXFXUXIXUXtX[ kXr.r.fXr.e.r.r.r.dX_.~._.kXnXmXIXIXbXzXzXzXbXuXzXt.] T.gXAXDXFXPXwX2.I L 5 a C a a c @.4.qX,.,.qXwXqXsXwXwX6.wXwX4.sXsXnX6.#.6.6.6.C 5 @.C C @.:.:.:.4.2.A 2 @ * * O X o @ - 2 2 y a C C N y C V C $.@.@.O.@.O.$.a L a L O.I @.;.c i i x tXBXhXNX8Xl.l.v.eX8Xk d d k l b k.x.x.k.h.h.B.B.B.y t > t j ( ( 8X9Xy y V m - $ i q q G F F J Y R O.R *.6.<.$.6.2.2.#.I ^ wXhXT.tXtXNXyXE.l.h.U.eXE.x.k k rX8XB.v f n f t t t i h u p E ^ yXsXuX5 = * & @ , $.:.~ P ! p j ! x _ U.L.K.K._ E _ _ / ,.3.",
"E E E E E I.I.I.qXqXqXgXqXqXqX0XqX4.4.@.& O * < * 1 6.lXyXT._ E u 0 t A v y z n h t i n 8Xd v 8XP.U.E.E.NXBXE.tXeX{ 0XaXsXwX5.2.-.-.6.-.2.*.D D S S F S T ' _ j z ; * o % O % C V A A B.n z t $ + y f 9XV.f j.j.x.g d l.k.v f x.B.rX9Xf 8XrXE.U.Q.Q.tXI.,.;.$.5 @.@.a 5 5 C  .5 3 5 5 3 ; , ; * X X X % % = 3 m N N V Z Z <.%.<.<.<.C :.:.<.6.6.@.<.+.C $.<.$.$.2.<.@.$.0.6.sXt.5.*.| ] { 0XtXtXSXNXtXqXsXsXsX6.2.6.1.a I 5 a :.>.I.hXKXjX[ R t.uXi.zXzXbXzXcXcXmXmXnX_._.`.kXxXy.fXdX} } dX_.e./.W SXKXFXkXfX;.- V V.MXMXd 0 gXFXDXkXPXUXT.T fXfXy.cXnXr.r.r.dXdX`._._.`.fXxXmXmXzXcXi.mXIXcXzXlX] /.jX).Q.jXPXkXL u 5 4 a :.:.C :.:.4.4.;.4.sXsXsXwX4.<.wXuXwX4.wXsXvXhXsX$.4 , , , @ @ @ 4 4 2 2 2 @ . o @ @ 2 * * 2 3 i a I a 5 @.a C :.<.$.$.#.#.#.#.#.O.#.O.I ;.2.4.a a c a >.7XyXBXyXeXP.k l.V.eXeXx.k d k L.( l g L.k.l.h.k.v.z.f f B.h 0 p j g 8X9Xf - ; V - $ u q H G F T L R L L Y ] 5.6.4.:.;.2.4.qXsXqXI.( E.tXeXNXP.d d E.E.U.k f v 9XA f f v 9Xz.t - t f s i x ! ` wXuX<.3 & = & ,  .sX2.I P P p ! ! _ ` I.I.U.T._ K ^ 3.] Y #.",
"K K W E W L.Q Q U.U.tXqXqXT.` ! c ,.wX:., O * * & m wXlXwXI.! q > $ t y f f f c h x z 8X8Xv k b U.x.U.x.eXMXeXeXtXI.0XaXsX1.;.1.6.=.6.6.<.2.O.*.&.R R T J F W q j 2 + O * * ; ; A 9X8Xn ( x t @ - y B.rXB.8 j.x.L.g g k k j.d h.B.rXrXd h.eXBXeXtXI.I.` ! ~ ,.@.:.$.O.5 5 D L L +.O.N 5 5 a 3 y ; * % & % & * % & * = & * ; N C Z :.<.wXwX4.<.<.<.%.%.%.%.2.4.6.2.Y @.lXcXt.6.6.5.R ] e.aXaX4.,.tXtXyXqX4.wX6.2.$.:.I 5 C @.:.wXtXtXDXDX/.' 5.xX0.0.iXbXbXbXzXzXxXmXkX`.!._.jXfXy.r.} } /.fXdXfX/.H FXUXUXUXhXqXA f x.C.BXj.> tXDX(./.kXUXqX^ nXy.r.xXcXxXy.y.y.kX`.!._.dXy.xXxXzXi.y.y.mXmXmXmXmXt.aXaX/.T.aXkXsX#.5 4 2 0XLXsXc 2.4.:.2.5.;.#.lXlX6.$.$.<.lXvX4.4.vXhX,.~ @ . . . . @ @ @ , , 2 > - > @ 2 a 3 - 3 3 y i P / ! ! p ~ a a :.#.@.$.#.#.*.2.#.@.I Y ,.4.qX,.s s ;.9XyXSXrX8Xi h v v x.8X8X8Xx.f 0 g ( Q l r l L.K.k.x.eXx.f f z.v u j W E 8XB.B.; ; y + $ q H T F T T S S D J Y ] 4.4.;.Y ;.wXhXhXtX0XQ L.yXSXtX8Xh l l l.U.U.k k z.8XA y t A 8Xn y y 2 t y c ) ! ~ qXwX:.= & @ , , R 6.1.Y / / L U 1.5.5.{ ' I.T.[ ^ ^ Y Y #.$.",
"J T _ ^ W L.K.Q T.U.L.Q ( K P P ` ,.:.@., O * & , 1 6.wXqX` ! p p t i y f y y z i x ) 8X8Xz k k.P.U.U.h.v.E.NXtXyXtXqXsXaX] U ] 2.=.<.2.<.6.=.&.R R R T J F H H q q @ + ; m N y >.9XP.x x u > 2 t f z.V.j.h.j.l.L.l g j b b d d x.eXMXx.k z.tXyXyX0XU.j j ! ) >.c #.@.I D L #.$.@.@.@.I @.@.a @.a 3 3 a C 3 y ; * * @ o   O * , , N <.wX4.:.:.#.$. . .@.@.O.4.sXqXR 6.mXvX6.<.2.4.4.5.hXsXwX4.4.4.,.qX:.@.O.5 a a a a a >.,.wXvXFXAXDXjXT.1.6.zXuXlXzXbXmXbXmXcXmXnXdX_.!.=XdXfXr.r.r.e.fXxXr.kXdXH SXUXUXUXaXhXrXd x.MXVXrXt I.DX).| kXUXgX^ fXy.r.y.y.y.y.y.cXkX`._._.fXy.xXxXi.cXy.r.t.nXmXmXmXnXfX3.aXaX5.5.6.#.c a s yXIXyX;.:.0X@.2.6.6.$.wXuX@.a $.6.lXmXvX;.x 2 . . . @ $ @ @ 2 2 2 4 s 4 2 4 2 4 u a a 4 y s s p K W K E K E P a I $.#.&.#.#.&.2.=.#.@.` 7X0X,.7X7X8XqXyXrXA f d t v 8X8Xv z.z.x.z.h d g ( Q _ Q Q K.U.L.x.eXx.f x.f d d g W L.qXz.B.V V ; . 0 W W ' T J T T T U K / 3./ Y Y ;.qXwXhXqXI._ ( ( I.tXeXk 0 L.U.l.x.U.l.l.8X8X8Xz y A v y y y 2 y n 7XI.p ~ :.uX:.& * * & 5 P 4 U ] 3.1.L D R 5.R ] [ [ [ [ [ R D I 5.t.",
"^ [ [ _ E _ L.T.U.U._ _ E J u J x / qX6.a * * , = < 2.lXhXP.j ! p j v t t 8 v 9Xc y i 8XeXb d k L.7XeXg d v.NXBXtXI.! 3.aXqX^ ] 1.=.6.2.6.0.2.&.R S D T T 4 G G G r $ % V 3 ; y 9XtXP.l E q t c z v z.V.k.d j.l.K.Q g j b l.d k x.k.eXeXx.x.8XeXBXSXhXI.x x ~ ~ a ;.2.#.@.a @.2.O.=.$.@.$.:.@.$.2.c c C c a a a a y , @ @ * * @ o o @ 2 3 4 4 5 3 * , , & 2 s ~ 0XwXkXvXlXwX<.4.uXwX4.wXwXwXwXsX5.2.2.2.;.I a #.#.s a a c ;.sXUXFX).).).aX=.0.zXlXmXbXvXbXbXmXmXcXnXdX`.1X1X`.| r.r.dXr.mXxXfXfX| J FXUXIXPX).FXP.0 V.VXVXBX$ 0 ).^.| jXFXDX' sXxXy.y.y.y.y.y.mXkX`._._.fXxXxXxXcXcXy.r.t.e.t.sXfXPXPXaXaXsXwX6.4.C a a >.wXLXwX:.:.wX6.<.2.$.-.<.6.$.%.6.<.L 5 5 $ . . . . > $ 2 > 2 2 a 4 > > 2 u q 4 u u 4 u u 4 4 u u u W J W W K U Y Y 2.#.D &.O.L #.;.;.,.7X0X( b 8XvXyXrXA v d y v v c A v f f z.x.f t ( ( _ E Q Q Q l Q.L.U.tXv.j.j.f x.k q H Q T.z B.y 8 -   > E _ ' T T T R T R ] { { ^ P ` aXyXI.! L.L.P.Q.U.b h h t j I.tXU.eXL.h B.rX9X8Xy f v f 2 i y t y A >.>.x >.4.uXC O = , , aXY 4 J 1.] Y Y O.*.&.&.r.e.R R ] 5.5.5.6.2.+.",
"R [ [ E _ T.T.T.L.I.{ T.] U K / ` ~ 1.wX;., = & & < <.wXqXI.b L.s i u > i y c 9Xa 3 y A 8Xz.h.l.x.qXl.l g g Q.BXtXtXI.( I.sXhXaXaX#.I 1.4.4.1.Y L L S S T F F ' H q > + 3 3 * y 8XeXL.L.j q i ( k d x.V.x.h.l.U.g l r L.( l.d 0 z.v.8XeXV.v f f z.8XwXyXyXwX8Xc s ~ ,.qX4.;.Y Y #.=.$.+.#.$.$.;.2.@.c I s s ! ) ~ x i 4 2 2 2 3 , @ @ , , $ , 3 , o @ @ o o o o 2 ,.sXvXhX4.4.lXvX6.<.@.<.lXlX2.*.2.5.;.4.;.s wXvX) t 3 3 @.sXPXgX/./.gXsXt.zXmXcXmXmXmXmXzXcXcXy.xXfX`.1X1XjXdXy.y.y.y.mXy.r.nXqXJ FXUX)./.DXDXt t eXeXVXBX$ ! jX| dXkXKXjXJ U y.X.X.r.y.y.y.xXfX_.!.} dXy.fXfXcXy.y.xXy.fXe./.).KXFXgXaX1.2.2.$.:.a a >.0X7X>.,.:.4.wX<.$.$.%.%.+.@.8.=.< @ & * % @ @ - 4 2 i i p p u q q 0 u q j ^ q g W q q u q u K u J ^ W K K ! / ;.#.#.#.O.L  .O.1.5.qXqX0XK.L.eXyXrXeXB.f f f f V y y V v v f y t t i x ) ` _ ! E L.U.U.l U.tXeXj.j.k.h q q H K.tX8XB.A 8 $ + t u ' ' ' T J S U [ J I.T.3.3._ I.) d x.x.K.k.L.l h i i ) j E E U.U.l.z B.9XV.V.B.z.f 8 V A c A A A n >.>.<.wXuXa * * @ , qX1.1.1.#.*.=.-.-.+.-.X.X.&.&.&.&.&.&.-.&.D  .",
"&.L L ] T.I._ T.[ { 1.] ] I U 1.3.{ / P L 5 & = & * $.wX,.b b 8X7Xs t t i z y A V y y A rXV.x.j.P.) l P.l.d l U.yXeXU.P.L.,.aXhXhX3./ Y / ] 1.{ L U S S R T F W Y.Q t . % m 3 A x.eXU.L.j u i k f h.j.V.E.l.U.K.l l Q L.l.Q g d z.P.x.B.z.x.B.v y t y >.wXyX9X>.) ~ ,.0X0X/ L L O.#.=.=.+.#.#.$.O.C I I P p E ! ! p p a u 3 4 a a y 2 2 3 2 4 a 2 > 2 $ @ o o o o @ > a ] 3.hXnXvX<.Z C $.uXuX@.6.6.2.1.4.,.~ yXUXwXC a C :.4.sXqXT.T.qXwXcXmXmXmXmXfXt.i.i.u.y.t.fXfX_._._.jXfXxXy.y.y.i.y.r.fXaX_ FXKX).Y.DXSXh z ZXVXVXMX# qXkXkXfXkXFXDXY.T r.y.y.r.y.y.y.r.kX_.} F T } r.fXxXy.cXy.xXxX| ' D.W.DXjXkX5.@.$.$.#.@.a c x I.qX,.~ @.@.5 5 3 5 < 1 m 1 3 1 , 3 3 a C y a ~ s u s u p u u u J E K E E q q q q J W K K K K ^ [ _ { ^ P Y / / @.#.#.$.*.1.5.0X{ I.L.U.tXBXeXx.f x.B.f f 8 8 8 y 8 y f 8 8 t f x s ` { ^ j Q I.tXT.L.U.E.x.x.k.k.g 0 G J g L.x.8XA ; - - C p ^ T T T T T J J W T.T.T.7Xx h d d V.eXj.h.d 0 g 7X) c s K Q Q l h n 9XrXB.V.B.B.B.y V 9Xc y i n 7X>.9X:.9XlX3 @ @ & :.6.5.5.5.O.$.-.+.X.X.%.-.-.-.-.+. .&.&.&.=.=.=.",
"6.&.*.*.5.] ] 5.t.5.6.=.$.O.@.#.;.U P 4 I $.* , = * C sXwXx x ) >.a y y t t 8 y f y f B.rXeXx.l.L.U.U.eXU.k h d P.P.P.P.I.I.I.I.,.qXwX{ P K { 3.^ U R T T T ' ' Y.( i o + 3 y A n E.U.Q g u g d f j.x.eXE.x.E.U.Q K.Q ( Q ( l z t l.B.n v v B.B.v a y y i A 9XyXhXtXI.) ,.0X` ;.Y #.=.#.O.O.#.$.#.Y P P p E E Q E K p P u u u p u p u 4 4 u > 2 > 4 4 2 > > : @ +   . . @ : R ,.4.<.0.%.$.0.<.-.$.2.2.:.4.:.8XwXIXwX>.I a a 4.4.aXaXaX/.kXPXnXfXsXt.r.r.y.cXcXcXxXnXfXdX^._.kXnXcXy.y.8.y.y.xXfX[ T.UXFX/.Y.`.T.> i LXMXVXeXt wXdXfXfXsXjX/.[ T y.y.X.S r.r.r.&.dX_.} } } r.} r.r.-.t.-.u.fXsXjXW.G.Y.T.vXsXL #.2.I L s a s I ,.,.A y 3 3 , < < < 1 3 < < @.:.<.C C a a 4 s p p s u K ! ! K u W K P J u J E q K _ ^ ! ^ ` ` { { ^ U J P P I I ;.#.$.2.4.3.` ! j U.gXSXtXx.v x.B.f f V B.8 - 8 8 t y f y z n x i ! ) ! ! E I.tXQ.tXtXU.x.x.k.k h u u _ ( k k 8Xz y y y A ! K G } T T T ^ ' r T.T.Q T.b w d v.8Xk.k w g l P.7X>.~ ` _ I.j x x 8XB.V B.f B.f B.B.9XA c a x ) ! s ) 9XyXwX; O & * 6.6.1.*.=.O.=.=...N ..8.0.-.-.-.$.t.6.-.5.lX2.D ",
" .=.6.5.=.2.&.&.6.=.+.=.-.$.-.2.2.L Y L 2.4., & < & C wXwX,.>.>.A :.a A y v y 8 A f z.8X8X9X8Xv l T.T.U.b l v i t h z.P.L.l.l.l h ) 0X{ _ I.qXI.^ ] [ T T F T ' ' E t @ X - y A P.U.U.l j u g k j.x.x.BXeXk.K.U._ Q Q _ _ ) b x t f t d v A B.z y f f y t d z.8XyXyXeXU.( I.qXqX2.;.#.O.@.O.+.O.1.#.Y U J K J ^ ^ u J u 4 4 4 > 4 p u u P p q q 4 q u q t u u t 4 > @ o . @ , , * 3 0.<.%.%.+.-.$.<.2.wXwX:.<.:.qX7X/ P a I 2.2.5.e.aXjXFXFXdX/.aXfXfXy.cXy.xXfXxXxXfX_.} _.kXfXy.y.y.y.8.y.xXr.T /.KXFXdX/.gXT.$ z.HXMXVXeXc ~ *.fXsXxXdX^.| ] y.r.r.R &.r.&.} e.| } } } r.} r.fXt.r.&.-.6.5.jX<XD.A.T.PXPXsX2.2.;.a i P I c s 7X:.A c a a 5 a 3 - 2 , 5 :.:.:.4.:.a 4 4 a P / P p P / / ^ K K U L P K ^ ^ E K ~ ] U / ] ` / P U J J K / Y 1.4.1.1.;.~ x E L.E.NXNXeXv.z.V.B.B.f 8 f f 8 8 8 V y v n z f i z s s ! ! ( T.I.U.L.Q.T.U.l.x.x.b x J J _ _ k.l 8Xy 3 C C A ^ ' F F } ' ' aXT.W U.R.L.eXl.t k P.x.d h g l I.I.x i x p i x x P.9X9Xa y 8 f f f f V B.c y c ! ! K ! ` qXpX<.* @ = m -.6.O. .&.&.+.X...%.-.%.<.-.2.6.6.wXlXwX;., @ . ",
"&.&.&.R &.&.&.-.X.X.+.-.+.+.-.2.&.&.5.5.4.4.a @ @ @ 5 wXwX:.9X>.>.:.a c A B.A f B.B.B.B.B.rX8Xn l Q ( b x x ` 7Xc i t d k.l.v.eXh i j ( I.T.tXT.W K T J T T ' ' ' K a - % - y 8XE.U.U.Q u q d g h.x.x.MXtXk.E.tXT.Q E ! 7X` ! x z d 8 t t f f y 8 8 8 f v A x.f x.E.yXtXE.L.I.7XqX4.2.$.#.O.O.O.L U R U W T ^ ^ [ K K K u u K q q u q J K K p E q u u u u E j u a a 3 2 5 4 2 , 3 < 5 5 N N N @.N C @.:.@.:.<.A 7X) K K P ;.:.;.O.1.aXjXDX<X^.Y.] u.xXcXy.y.xXy.r.r.| } } _.`.r.r.y.y.y.r.-.y.| F `.jXFXdXfXkXgX0 z.HXMXVXx.>.1  .xXmXmXdX' | e.S S R r.r.r.r.r.| } } } | r._.} fXr.r.t.t.6.{ jX6XW.W.Q.FXjXsXe.2.4.#.a K I I a A >.9X>.>.A a c ;.5 a I >.:.a i :.4.;.L s Y ] / U P / / / / P P L L L J U K K ^ P ] ^ I / ^ P K W T ^ ^ ^ Y ;.4.4.;.s s b U.NXSXtXx.k x.8Xx.B.f f f f 8 8 y f f f v v z y t z ) ) ! p I.tXtXU.Q L.E.U.k k v v ! J L U _ ( h 8Xc - 5 3 I P [ ' F /.| [ T.K.Y.Q.E.E.U.x.h.x.k d z.b I.` j p p p i t t s c :.pX9Xz f i t B.B.f B.V.A i s ! E ^ T.{ 7XyXV 2 % = %.u.-.-.-.-.X. .X.-.-.-.0.$.O.2.wXwXwX4.@.@ . . @ ",
"*.e.&.&.&.=.+.-.-.-.8.-. .N O.+. .&.&.=.2.6.<.* O O 3 wXwX7X,.I a ;.a y C B.9Xv x.z.B.v v A A A l.g j ( ( ! ~ ) qX) d t d h.v.E.x.t t ( U.L.K.tXg W [ T J T ' F J P I a 3 3 y B.x.l Q E u u q k k l.x.U.E.Q.T.Q.T.Q E E ` ~ x i x z i y t 2 y y 8 ; f f f f j.B.f l.eXBXSXT.k.( ` 3.4.4.=.$.#.$.Y U P U J U ^ [ ] ^ U U J P ^ K J J q q J E K ^ u E E E p u E p s >.i 5 C C a C a 5 , 3 5 < , , , < 3 2 a A 9X9X~ ~ K J P #.$.$.O.5.fX).Y.D.J.(.aXt.y.y.y.r.r.r.} } } } } _.dXr.r.r.y.r.r.y.y.| W /./.kXfXfXkXhXa d HX#XMXl.C N -.y.cXxXaX' e.xXr.&.r.dXr.} r.r.kXdX} } dXe.} } } e.5.u.nXlXaXDX2X(.W.DXDX/./.[ 2.$.O.a u K s @.a ) 7X8XP.b z i i t s x ~ 0X7X,.;.2./ L P U U P Y Y ;./ / / L P J S u J J J J J K ^ U U U / ^ ' J J J J K s ~ ` >.~ ! P.eXtXeXeXx.k.l.eXV.z.f f f V y 8 A B.v y y i z z z z a ~ A ~ c I.qXI.L.K.K.Q.U.l.k z c u L U / _ ( d b z * * & a K ' ' ' ^.' ' Y.W K.Q.oXoXx.x.eXeXf d b ( tXI.E j j x i i ~ >.:.A :.z.v n A z A A A V B.>.a ! _ ' [ { _ wXrXC * % < 8.8...-.8.......-.6. .-.6.<.2.wX6.I 3 o . o O 2 a ",
", L 6.sXsX6.=.=.-.-.-.-.+. .+.X.&.X.&.+.+.6.6., & O 3 <.uXqX>.x ! ~ A a y V 9XB.y j.h.f y f A :.7Xl.( ! ! P s u E I.I.b d d j.j.V.z t k E.U.K.Q.K.K.T.' T } T T J L C v V y y z.l.g ( _ K K j ( l.k k.L.eXQ.U.T.Q.` _ K ! ! c x c z i z v y y t ; 8 f V f 8 f V.V.x.x.eXNXtXQ.P.b ! ) ;.:.$.2.2.*.U P J J J ^ R / ] / / ] ^ ^ E W J W J E ^ K K K ! ! / K p E E P s 3 4 a A <.<.6.$.2 , , , 3 5 a 3 a u a :.A >.s P p 4 a L :.6.2.sXnX).A.J.,X2XaX6.-.X.r.r.r.r.r.} } } } _.} X.X.X.X.S X.r.xXe.} /./.fXt.xX6.:.~ v CXVXVXi 5 %.i.i.i.sX/.Y.dXmX-.R } dX| r.r.xXdX`.} _.e.} } } | } R r.t.5.[ ^.^.J.W.JX2X(.' [ 5.=.@.5 S p s x x ) ) 7XI.( j g j Q _ ! J _ aXqX,.1.Y / Y U Y Y Y ;.4.1.#.I s S J J q J J J W J J ^ R U ^ ^ _ U J q J u K s ! ~ ) P.8XeXtXE.x.h.k h.B.x.f f f f 8 y 8 f A B.A v v z y f v A A A a c c ) ( l L.U.K.l L.L.x ) ,.P R R ] I.l d v y @ % @ a u J F } | ' ' T.K.Q.+XE.MXE.v.V.eXx.v k j I.I._ E u h h z ;.:.A a y z n b P.a y C V V y ) j E W W _ I.9XyXB.* % = N y.X...7.o.X.%.-.-.%.-.$.-.wXsX4.4 . . . , L @.I 4.",
". @ 4 1.sXsX6.6.2.+.-.-.-.-.-... .X.&.-.+.6.uX@.= & 3 <.wX,.7XI.( ( x a y V 9XB.f B.A f t y A 8XyX7Xc i > 2 u j p i j L.8Xz.x.x.j.x.k d U.U.E.Q.K.K./.[ ' /.' F [ Y a V y y f 8Xb g _ ^ J K E l z.k l.l.Q.U.K.U.T.qX0X! x c >.n t z z v v f z f f ; ; f f f f B.V.8Xv.x.v.eXNXBXU.( x P / 2.4.;.Y / / P L P P J L Y ] Y / { ^ E E W ^ E E ^ / K / ;.~ ,./ s ^ ^ 1.P s a :.<.4.C a :.P L p 4 a @.C C >.~ ;.9Xc a ~ P J 5 #.$.2.6.lXnXPX).A.D.1XDX] r.8.r.r.r.r.r.dXe.} } } } } } r.r.r.r.r.S D e.' ' /.kXmXy.X.5 a n #XVXBX2 5 8.y.cXmXsX/.T.fXnXr.R T } e.dXr.} dX} !.F | _.} } } R &.r.5.R } ^.).W.<X2X,X~.S.} 2.6.-.D L J P E ! p ! ( ( Q Q j r E ' _ E T.aXqX;.4.2.1.*.1.5.;.1.#.2.$.Y s L U J T J J W W _ T U { { _ ^ ^ ^ q J u p E ( ` ) 7X9XqXeX8Xf d k x.x.V.V.B.z.f 8 y 8 f A A f f v f y f c A 9XA A V y a a s x P.U.U.L.g b ( l ( ` Y L J ^ _ t d eXx.% - - A u q H ' ' ' T.T.H Q.NXeXMXV.x.rXMXx.x.k P.0X_ j j i h j ~ ~ C a a t i b k t - C V y y f i p u E I.Y._ wX9Xm = % < 8.i.8...%.-.-.-.+.+.+.6.<.u.vX6.: . . . , U 1.#.Y I ",
"@ o o o 4 L 4.sX:.$.$.<.%.%.-...X.X.-.-.-.-.8.0.m % & V 9X9XU.T.U.Y.) s s :.V A A f B.B.A f v >.rX>.>.@.s u t ! j r p I.tX7X8Xh.j.eXV.b U.E.oXQ.Q.K.Y.[ T } /.T ] U I 3 - - t B.l j _ ^ R U J g j j l L.U.U.U.Q I.tXqX( c >.A A f y f f f y f 8 A f y 8 y V B.f B.B.V.v.h.x.eXNXNX8X) x s ~ 3.,.! P ! / P J / U U Y / U U _ E E K u K J u P U P I #.,.:.;.I P Y ] P L I @.:.2.c ~ { ` ^ p i a i y n ) 7X7X~ s ~ I L u a $.$.&.1.qXgXFXgXW.).1XDXaXt.cXy.=.e.r.} } e.dX_.} _.fXr.y.r.r.r.| T  .sXdXW [ nXcXcXy. .a f MXVXeX2 1 8.y.y.mXFXDX`.gXnX&.| } | dXdX`.} _._.F F _._.} } } e.r.r.O.R G _.DX(.,X,XZ.H.S._.e.t.lXt.U J p P / u u ( E Q g H p W W W [ [ T.{ / 6.4.#.;.5.2.*.#.L #.2.;.L L P j W q r J W T.T.E _ { ^ ^ E E E W L.qXT.qXtX9X8X8Xn d t d k V.v.x.x.x.x.x.y y y V f v A f y f 8 f v A f A V ; f V :.a y A 7XL.P.L.b j j ( _ ^ U J R J Q k x.rX8 X % A s u q G ' ' [ /.T.Q Q.Q.x.eXz.l.rXeXj.x.f z.T.I.j j u x ) ,.~ @.u y 0 u l.d t y V ; - 2 c p p q Q Q.tXyXwXN % = m m 8.-.X.X.-.-.6.-.&.$.-.6.lX6.@.@ @ 4 2 : T R S T F : ",
"5 3 3 . . . 2 ~ wXwXuX6.-.-.-.-.-.&.X.-...8.7.8.m = % < <.yXqXU.T.Q Y.! ~ c C A V A A f B.B.z n a i >.2.;.c i h j L._ _ T.( k h.h.eXeXh.x.Q.E.Q.Q.K.Y.[ W [ [ T J J s 2 + + t f h g ^ Y R R J E P.l l L.U.( L.K.Q ) I.) n c v A c v f f f f A V A A f y y 8 8 B.f f B.V.h.h.k.k eXtXtX7X) ! ! ( ! P J u K K K P Y U / P ^ ^ E E W K K q J J P P a I #.#.*.#.Y Y U Y P L :.4.;.4.qX` E Q K j x j z ( ) I.I.j j P p P 5 5 @.-.5.1.T.Y.`.2X(.W.(.^.aX5.lXt.*.e.} &.} } } _._._.kXxXy.r.} r.r.&.5.xXkX[ [ fXy.y.i.-.N t MXBXB.@ 1 8.y.cXkXFXJX`.).dXe.R } dXdX| } } _.!.!._._.} } } dXkXxX&.R | ' `.DXY.W.{.&XS.G /.e.e.5.] [ ' U ! Y P K ! _ _ I.W W Q W W [ [ [ ] ;.6.wX4.2.2.2.6.$.a O.;.;.I s K q W Q r r K.L.L.j E E ! E ! _ T.tXQ.U.b b n n v i f t d f x.x.f x.B.x.f f v v v A f A A v 8 y v V y ; - - % % ; V C y y y z z b h j ( ( ( W E J [ J W l j.MXrX+ X X y i u H J J T [ { ' W U.tXx.tX8Xv eXB.j.h.d k L.L.I.( Q P.P.,.2.;.p ( ( k.g d t V a 3 3 4 p p E j U.tXyXyXC % % = M o.8.-.-.-.=.5.6.6.=.6.wXlX<., o @ 4 D , : T T : : : : ",
"#.Y ;.4 . . . # c lXzX<.+.-.-.X.X.-.-.%.X...8.q.o.= % % C yXtXL.Y.K.Q K u a 5 3 y A y y f n v i i i s c @.n z h d ( j ^ 0X( g l.j.V.BXx.U.+XE.NXQ.K.Y.T.[ } ' T q 4 s 2 $ + t 8Xh i ! ^ L L R [ _ Q b ( l h L.U.( b z v y f A B.A 8XB.A f f f f f A A a f y 8 f y f z.B.B.x.j.x.d l P.eXtX8XI.I.! ! j u J q q K ^ U ^ ^ { T.W W W ^ J J J J K U L I #.2.1.*.R Y R 5.Y Y 4.3./ qXsXI.J W _ l j h l ( I.I.( E ^ ! u L a a $.2.=.[ D.~.`.<X2XW.^.^.| ] 6.5.| | R } } e._.} ^._.dXdXr.dXr.} } F r.xXkXT.[ e.xXcXi.8.Z 2 rXHXv 2 1 6.y.xXjXDX1X1X`.kX} F } /.} F S.^._.!.F _.^.' } _.fXr.r.D D [ G 2X(.D.4XJ.=X!.!.^.' [ ' ' ' /.] L P P P ! ` I.I.( _ ! ! { T.5.0X] 3.;.:.6.sXwX6.wX6.;.@.$.2.Y L p L.U.U.Q.Q.Q.T.tXI.I.P.` 7XI.7XtXtXU.l h t h t 8 8 f f d f d v v f f f 8 f v B.8XB.f f A f y f A f y ; ; - ; 3 ; ; ; * @ 2 t f A n I.( p p K W J T W g 0 rXLXv.+ $ - f t q J ' W E K [ _ W U.eXI.yXtXz.8XV.j.V.h.k.L.I.T.L.( P.( ~ ;.,.x U.U.k.k.x.B.A C 3 a 4 4 E _ I.7XrXpXA = % = m o.8.8.-.-.5.4.6.wX2.6.sXuX$.3 O @ 5 I 4 : J T T F S F : ",
"U R ] 3.S @ @ , o C wXsX6.-.&.X.+.-.6.<.%...o.y.8.M = = ; A yXtXQ.U.K.u q s a 2 ; y V a 8 t z.d 0 u a s >.:.n v h k u ^ T.I.g l.j.rXBXl.l.eXU.E.+XL.I.T.[ ' ' ' q u ) c - X - 8Xz.d p / J S U ^ _ ( j j l ( P.) ) >.c y A B.A f C A A A A A A 8 y y V f V y f y y f B.B.B.x.x.z.k k d d P.8X8X8XqXtXT.T.L.W p J ^ ^ ^ ^ { _ _ T.T.Q r J E K J ^ U L #.2.#.Y *.*.*.5.1.1.sX4./ 0XT.[ _ { K.j j g j Q Q E p p ^ K J K O.6.wXsXe.`.S.J.S.~.DX).(.(.T T R e.e.e.} } } e._.} !._.`.} r.dXdX| } F | xXFXgX`.kXnXcXy.-.+.; B.BXy C 5 6.xXkXDX_.D.D.^./.} T T _.} } } !.=X!.!.} } } } | nXt.-.6.T ^._.).W.,X6X*X*X!.!.D.' /.Y.Y./.jXaXD L P / 3.qX7X` ( ` ! _ 3.3.qXqX1.:.$.#.2.uXnXsX6.wX6.;.;.4.;.I ` tXeXeXE.eXeXeXtXeXqX7X8X7XP.( b l.k h d i d t f B.A x.f 8 $ 7 0 7 8 t f v v n 9X9XA y y A f A A y V y y ; y ; % O O O O @ - 2 y >.) p t 0 q K W ^ ^ 0 0 VXMX+ + + f 8Xi q W ' J U U ^ [ _ T.0XeXtXyXP.V.v.V.V.h.x.U.L.L.l j l.) 4.,.! ( U.L.k k B.A A y a u u u K ` ( 7XrXB.3 % < m ..8.y.-.-.=.2.6.wX6.:.4.4.<.a 2 5 #.2.u @ : T J J T T } F ",
": F F ] T : 1 L - o @ @.vX6.5.6.6.6.<.6.-.-.-.-.8...m = O ; A hXyXtX( j p ! s 5 2 , y A y 7 k l g j s ~ 4.9X7Xz.k b Q T.( j d d j.V.rXj.L.tXl.U.Q.l._ T.[ T J G q E p z + . + f yXx.h ! U L ^ J ! ( ( ( j b c v z A A y A <.v * + - y - f V B.8 8 f A A f f V f y f f v B.x.j.V.x.x.t 8 f d z n eXI.U.I.T.tXT._ W E K ^ _ E E L.L.K.q r H J q J P P #.;.L D Y 1.1.2.1.1.qX5.1.{ T.[ [ I.E j Q ( ( Q ( E u ! ! U U J ] aXaXaX| _.!.G S.J.W.W.DX1XG } ] 5.r.fXe.| } } _._.} } _.} } `.dX_.} } T aXgX).DXFXnXxXxXy. .& z rX3 V C wXkXjX^.D.S.J.^.} } ' | dXdX_._.~.!.~._.^.^./.dXe.sXu.r.*.T ^.`.~.<X,XJ.*X~.H.!.G ' ^.(._.jXjXdX5.L ] 3.0XqXqX7X) ,.! ) 3.,.3.qX3.;.;.:.4.wXlXsXwX4.wX<.4.0X,.~ I.U.U.U.U.K.l.U.8X8XeX7X7XP.b h k k l.k b h t d f f 8 8 8 7 $ $ $ 8 t d v n v v >.A c y A A A V f C C ; y ; & & O & & , ; 3 ; 2 t t i i x l j j E u u b tXrXt   $ - f t > q T.' W U ] ] [ T.T.qXeXyXyX8XV.V.v.V.h.k.U.b l l h l 7XwX) h z.tXU.d d y - t a x P q q p ! c >.4.3 % = m ..o.8.-.-.2.2.4.<.wX:.:.9X<.:.C a A >.P / J K J S S R R | R ",
": : : T T 4 @ 4 :.,   o a sXlX4.4.6.6.6.2.=.-.-.8.8...m % % 3 9XyXqX( ) _ K u t 2 3 a V 8Xz h k.E.0XP s ;.>.P.z.L.( I.I.! d d j.j.V.rXz.eXyXU.Q.U.Q _ T.' T F T W q > i t + + f HXrXd i ! ] ^ W K j b ( ) v v c y y 2 - ; y 3 * * * - ; ; 8 f V 8 y A A V f B.A v z i f f f z.x.f f f f f f d t k t t l l.T.tXtXI.` ( _ _ j L.7XU.U.Q K.K.W J q K I ;.2.O.@.5.6.6.6.6.4.5.3.] ] 3.qXT.[ _ E ` _ I.` T.^ E ^ ~ ! [ [ [ T [ | } } !.S.&X~.W.Y.2X`.' ' R R r.fXdX| } T } _.!.S.!.!.} F } _._.T ' jXgX^.2X2XjXkXfXy.N * y 9X3 a @.hXqXD.G S.~.)./._./.} aXdXjXjX_.~.^.G _.^./._.dX| xXlX6.R T ).W.+X<X<XJ.[.H.H.!.D.~.^.^.(.2X`.hXfXU ] qXqXqXqX7X) ) c ~ ,.,.,.4.0X` ;.;.4.wXsXvXwX4.wXvXsXwX,.! ~ l l.k.k.g w k ( U.8XP.n b d k P.l.l.h d d - - $ 7 $ # 7 8 d t h d h v v z b z y f v A B.A f y y y y ; ; ; & & & O & < 3 y y y y t i s ) ) j i j p ( eXSXx.. + 2 v f # : W ' W [ ^ 1.{ { T.T.tX8XtXyXz.eXC.V.x.x.k 7X( E Q i d P.8X>.k k U.eXf f t @ 2 c _ W J W x x :.9X3 O = m ..8.8.-.6.6.2.>.wX4.:.:.:.<.>.C C y C s P 3.3.U 4 J U Y R &.R ",
"} F F J S S : : a ;.c - ; :.pX<.<.9XwX6.5.=.r.r.t.8.7.M = = % m <.wX7XI.I.E u u y c C a A 8Xk k I.8X! I 1.,.) L.K.l L._ P.l.j.V.v.V.V.b eXyXI.eXeXL.I.[ ^ J J W W r 0 ! A - + # eXBXz.t p ( _ E g q 0 j P.8Xv y - - O O O O & * N ; - 3 V y f A A f f y f A 9X8Xn n d t 8 d 8 8 f 8 f f v f f d d d d k k l.U.I.I.0XI.I.7X7X0XtXNXeXQ.Q.Q.T.I._ P ;.4.:.:.2.6.t.sXlXsX6.#.] { { { qX{ { ^ ~ ` ! / ` T./ ~ I s I qX/.} ' ' ^.^.D.!.~.~.*X<X+X^.(.Y.^.U R r.t.fXe.} } ' ^.!.!.!.} } G } `.} F ' dXjXW.~._.2XkXfXfXD N 8 A 3 , a qXK.H G S.(.Y.' } /.| aXfXdXjX2X_.!.G ^.^.} /._.R xXxX6.#.T.).W.+X+X).J.&XH.&X!.^.`._.~.`.`.).jXhX[ T.aXT.0XtXqX7X>.` ,.7X0XI.I.3.` P / 3.qXsXwX6.uXvXvXLXwX7X` ! r g g l w 0 w g l x b h h g g l.l.k d t t $ $ # $ $ 8 d z h t t i h z h t z v i z A A A A f 8 ; 3 3 ; * ; ; * = , < 3 5 y N C y y i i i x h h z 0X8X) f + . - A s i 0 Q W W W [ ] ] ] [ T.T.0XeXtXtXx.V.eXV.x.l.k P.L.I.U.h d x.8X8Xl.x.j.x.y V 3 $ u _ Q _ T.I.) 0X:.C * & m B 8.8.-.<.6.lX:.;.4.4.@.a A C y y y y a :.;.! P J U R R R &.r.R ",
"R } S S F S S 4 I A >.A y V B.pX:.4.6.wX4.5.*.&.&.8.q.o.B m = = N 9X:.x Q Q q u s i y 3 t f h k l.Q.~ ! 7X7XP.( g W L.j P.b h.V.V.v.8Xz.tXyX7XtXT.I.T._ T T T ' Y.W q t n - $   7 yXeXd j E E W q K j p j c y t - * * * * O X % * = 3 y y y f V B.A A f y A 8X8Xz n v d d 8 7 8 $ $ 8 8 f v v f t f f d l.k h g k ( ) 8XqX8XqXeXU.E.U.E.E.U.T.` ` 7X:.:.6.6.4.wXlXbXwX1.Y ;.] { e.3.3.` / ! ` ~ / 0XaX0X3./ P / hXjX_.} ^.^.^.G S.!.&X*XOX<X(.(.`.).{ 1.r.t.r.| | } } } } } !.!.^.} /.jX} T } /._.G S.D.(.`.fXfXO.<.; V 3 3 ~ I.r K.D.Z.H ' } /.aXaXaXdX/.jX2X`.!._.^.' } _.} e.u.cX6.5./.).NXE.Q.A.H.H.!.&XS.G (._.D.(.).`.FXjXaX/.qXtXQ.0X0XP.yXqXqX0XqX,.~ ! / ~ 4.3.3.wXwX>.sXhXvXhXwX7XI.( Q Q Q g g g 0 q 0 k k g g l.k.k d t 0 $ $ > t t 8 d x.f t t 7 t d t z v t f n A z A A y a V y % * & O - * O ; C C N C C C y C a s z a z 8X8X8XA 8Xy $   . $ 2 y 2 0 p T.W T ' { ] ] [ [ T.I.I.7XyXBXV.V.MXV.v.l.0 j _ qX7Xb k z.z.l.x.V.V.B.y y & @ s [ K.T.).qX7XyXC & = m ..o.u.-.t.lXsXwX7XwX>.A c A s - @ ; ; a C a s y 4 / R R S S R R D ",
"&.R R S S u / qX,.~ a a a a A 9X4.A :.,.4.4.1.2.2.6.-.-.8.B m = % M 9XA p j W E E ! a 3 @ t f k V.B.l.z n 8XU.l 0 g Q Q I.k l.V.V.C.eXB.tXqXtXeXT.7XT.{ [ R ^ T ' Q 0 # d z t +   t BXyXb g l j p E ! j i u 2 y 3 a 3 ; = O % % & * ; 3 C y m y V f A B.V v A f v z b n i t t t 7 t - # # $ 8 t t d f z k b b b k b b L.I.7X) ( k g l K.K.Q ( ) ~ :.wXwXwXwXwXwXvXsX2.4.3./ ] 3.qX/ 3.0X~ P :.` ` 0XqXqX{ { K hXkXjXjX_.^.^.D.G S.!.H.!.J.OX6X(.W.)./ Y =.xXxXr.e.dX} _.2X^.D.^.^.`.jXjXe.} | /._.^.D.D.Z.Y.AXhX5.@.3 ; 1 $.sXqXT.' K.Y.T.T.[ | 5.e.aX).`.2X1X1X_.!.^.} ^.} T e.y.cXxXaXgXgX7Xb l.K.G.S.S.!.H.G !.S.S.(.`.DXDX).Q.AXgXgXQ.T.L.I.( 0XwXyX9X0X,.,.4.8X0X4.,.4.qXwXwXyXwXtXhXyXqXI.L.Q L.Q g w q 0 q g k.r k.x.k.d 0 0 0 > t t t h h h v l.h t t t t i f b x.v v z.A 8Xy y 2 ; 3 ; O O % * & O - a C 5 3 C C C V 9X8X8X8X9XyX9XA A 8     . @ 4 5 @ u g ( [ [ T ^ [ [ [ { T._ _ I.T.BXtXU.eXMXV.eXh.d Q j l P.l.f x.B.z.d x.V.V.V ; % + u E H Y.AXQ.yX9X3 % M q.0.8.u.y.nX4.9XwXqXz 2 a A y y y y y y 3 3 a #.I s I L L D L *.2.2.",
"X.&.&.&.L P ! ~ >.~ >.a y y y C A 8XC >.wX4.a ;.sX6.-.-.8.7.m < % ; @.9X>.E Q Y.W ^ P a $ - f k x.B.x.x.z.eXP.h q L.L.K.U.k k x.V.V.eXP.rXqXeXqXtXqX0X{ [ R [ U W W q q t k z 2   # B.eXeX8Xh u p E x x i t t a a a m 3 , = = % & = ; * 3 3 y ; 8 V A A B.v f t z.z z z f t f d h z t 7 $ # # # # 7 t f h v n l.h h h l b ( x j q w r l h k b x >.7XlXvXvXvXsXwXlXhXqX3.] P / { qX` ,.3.~ >.,.) qXqXT.aXqXT.{ jXjX/.`._.^.~._.!.=X!.H.&XJ.OX4X+XY.).{ / 5.xXy.| | dX} } ^.D.D.^.`.jXjXjXdX| | | ^.^.^.^.A.A.K.T.;.5 3 ; , 5.FXDX).).).Q.Q./.5.aXaX5.T./.).1X1X1X~.!.!.D.D.^.| e.t.lXfXhXjXT.( i l W.J.Z.Z.!.!.S.~.S.G D._.(.(.D.Y.AXGXAXgXQ.Q g i ! ~ >.9X4.9XwX:.9XwX9X7X9XwXyXqXqX0XI.I.qXtXT.K.K.Q E p u u 0 w r k.h.r k.w d 0 0 0 h k i h h k h d v l.h y i f z l.B.v x.v z.8XA A 3 % * 3 ; % % & O @ , 2 3 a a a y y A B.9X9XA 8X8XA - @ 8 -   X @ o @ 2 4 u g ^ [ U J R | [ [ aXT.T.L.T.tXyX7XP.rXrXV.V.k h g j l b k z.B.8XB.j.B.B.f y y - + 0 W r A.Q.tXtXA * ; q.i.8.=.-.nXvX:.wXwXt @ - y y 2 c 9XA A 5 a a >.@.3 5 I ] ] R Y 2.5.5.",
"r.R S T ] ;.I 4 s I A a y 2 2 - 8 C C A 9X<.9X;.wXsXsX0.-.8.8.m = % < :.qX0XT.Q.Y.W ` c - - d d B.B.B.j.B.B.l.h g T.T.U.L.d d V.v.MXV.z.tXyXtXI.T.T.{ [ [ R [ ' T W _ l t i c y + . . $ v tXn c ) ! i i i y A a y 5 a C 3 m C 3 * * = & * ; * ; V V f f A v f A z t h v z h d t t t z z t t 7 7 7 7 7 0 t k b l.k k k k l j u 0 w w g g l j j ( _ ,.wXvXvXhXwX0XwXwXqX,./ I ~ ~ ~ ,.4.qX7X7XwX` qXT.T.gXqXT.gXjXjX).`._.!._.=X!.H.H.H.H.J.R.+XQ.Q.gXqX5.6.lXxX&.| ^._.!.^.^.~.).DXDXjXdXaX/././.} D.Y.A.G A.r l ;.5 3 3 , dXFXDXDXFXAXQ.Q.tXT.sXsXsXT.T.Q.,X,X(.~.~.~.D.' /.dXsX5.5.qXaXgXI.x 0 g K.W.S.Z.S.S.S.D.J.S.^._.^.W.A.r +XGXAXAXQ.l 0 0 p x s c ;.:.:.,.:.4.7X,.7X0X` 0XI.I.I.I.T.T.I.L.K._ Q ( E g 0 0 w g w h.h.k h.d 0 d l l k k l.h d k b z.v f y t f f v f f f A A A a 3 3 3 * * * % O & 3 3 C 3 y C V 9XV A C y y - - ; &   X y +   X $ 2 2 4 a K K ^ U R T ] [ [ 0XaXqXI.I.T.tXtXP.z.eXeXeXz.d h j x ( ) n z.B.B.B.f B.f f C y % + d K.H d.Q.E.9Xy X N zXw.6.u.wXsXsXwXa -   o * 2 - 3 A C 3 a y C #.#.@.I I Y R ] ] 5.5.5.;.",
"&.R S D I / P P a s a a 3 y 3 ; y y C A y a 4.wXwX6.sXlXlX0.0.8.7.m % 3 9XtXQ.gXQ.K.Q x + O y y B.V.j.V z.V.x.k l U.U.L.k.d k x.V.MXrXz.yXyXtXU.L.I.[ [ [ [ [ [ ' T T._ u 2 t 2 2 @ . . . t a 8XqX9X8X>.n c 8XV C y C C C a C 3 * O * & O % + 3 3 y y y B.A n B.v v f f f t t t 7 t z z.z z h t d t 0 $ 7 0 d g k k.k k.k k w 0 d q g L.K.Q Q I.0XqXwXwXwXhXwX0XqXqX4.,.0X,.,.;.;.7XwXwXwXqX8X7XU.T.tXtXgXQ.gXjXDXDXjX^.F ^.!.S.S.!.H.S.F.A.R.L.eXgXqXaXsXxXxXe.| } } D.~.~.(.1X2X2X`.dXaXe.dXe.' } Y.H D.Y.K.( 4.C C 3 s dXjX2XKXKXAXQ.W.U.T.hXhXtXqXqXQ.Q.W.OX,XW.W.(.D.^.dXaXaXe.e.hX` 7Xc u r K.G.G.Z.G G Z.D.~.D.D.(.(.W.W.W.<X<X<XAXAXU.q 0 x b y i c ~ c >.c ~ >.7X,.I.) ( ( I.I._ L.I.Q L.U.U.I.T.( g t w 0 w w w d d d g d g d h z b v h l.z.l.v n f t t t y f f B.8 y A A y ; 3 ; * % * O & 3 y a 3 C a A 4.pXA - - X + % O - - * * @   . $ > i P s I / Y I Y L R 5.5.[ qXtXI._ I.yXyX0XL.l.8XV.z.z.t b ) ! ! ) z v B.B.B.8 A B.A V y - - g K.A.K.Q.qX:.; O V lX<.u.nXwX4.wXV O O ; V y & % 3 C y 3 5 a O.@.#.1.2.;.P U T ] 1.5.Y L ",
"&.R R Y / Y P a I c a a y C V A V a y y a - - :.uX4.6.vXbX6.<.uXw.7.= * :.yXQ.+XW.H g t o o y A B.j.B.j.B.B.B.v k l.g k l.k d V.eXeXeXP.0XyXtXU.L.I.[ T.{ [ [ [ T [ _ ^ j u 2 2 2 > o o . + t 3 y >.9XyXB.B.9X9XA a y 3 a C y 2 , & * & O O O 3 - - ; y A 8XB.A A B.n v n f d d d d v l.h h f k t h h d 0 7 0 w k h.k.g h.r w 0 q g g L.K.L.K.T.gXqXqXqXqXqXqXyXwX0X;.9XwX4.7X9X4.qX9X7X7X~ ~ ! K.T.tXAXDXAXY.W.).2X`.^.G S.!.G J.(.H.Z.G.W.K.d ) qXaXhXfXxXlXe.| ' ^.D.!.!.(.1X2X`.`.).T.aX5.aXtXT./.Y.W.W.T.gXhXsX5 2 1.hX2XDXDX<X<X+X+XQ.Q I.tXqXtXtXtX+XQ.+X+XQ.W.D.Y.jXhXe.fXdXaXsX) s y i j K.A.Z.Z.Z.S.D.D.(.~.^.(.(.).+XJXKXGXAXJXAXQ.L.u p i t y s A ~ x c ~ ) c x ` 7X( j l E j Q T.I.U.Q.L.L.P.( h d d w w w 8 d h.d d d d d d d v x.x.8XE.v f b f t f A V f f A f y y y 2 ; * % y ; - * ; y y 3 3 y C <.:.A y X y ; % % % 3 a C 2 $ $ t 0 > u p ! { #.Y L *.R 5.5.] 3.qXqX( L.tXhXyX) b 8XrXB.k v z ) qX,.s A a y A V f y V A f y N - o 6 K.d.K.U.yX@.* & %.wXwXvXnXsX:.y ; ; ; C %.< ; 3 @.C 3 3 a $.L O.1.5.;.L P ^ U U ^ / ] ;.",
"e.5.R Y 1.] L 4 5 @.$.C C 3 C V A C 3 * 3 -   @ a :.4.vXcXwX6.0.uXiX5 O a qXeX+XA.e W u @ O y C f V B.f B.eXV.l.b b b l b k d x.v.eXBXz.P.tXtXtXU.T.I.qXqX[ 5.| J T U U ^ P 4 4 2 @ o #   O 2 O   $ y V f A B.V V A C C a A 3 y 3 , * O % & & - ; - - y c A A v y v n B.n f t f v n z.k d d k b k l l h w 0 d d d d.h.h.g w w g g k.Q K.K.Q K.I.qXT.I.I.7X7X0XqX7XqX,.qX9X;.:.wX9X,.~ ~ ) i t 0 k.Q.AXAXGXAXe H (.(.(.!.S.S.!.S.J.S.Z.Z.J.W.l.d v 0XsXaXaXaXsXe.jX/.^.D.J.~.*X1X1X(.Q.T.qXqXtXhXqXqXtX).).DXDXFXnXkXi > qXjXDX2XGXAXGXGXAX+XQ.eXtX8XeXeXrXMXMXeXMXQ.Q.W.Q.gXkX| dX| /.3.~ A a 2 Q K.A.H A.W.W.D.J.1X,XD.D.W.W.+XGX4XOXQ.Q.U.Q.Q.L.i > > u i s c ~ ) ) ) x i b ( ( j j l g l tXQ.Q.U.K.U.I.U.l g g l h k d d x.x.x.k.k b v d x.8X8XV.x.v z f y t y y f y y f y f 8 V 3 3 ; ; y 3 - y v 3 * 2 y ; C A C - O ; 9XC + & ; 3 5 a a x j u u q q K E { Y R *.*.*.1.e.5.0XqX0XP.0XyXyX8XI.P.8X8Xv n c z i 4.4.:.C y y :.V y y f C 3 3 2 o # 0 K.d.r L.qXC * * +.lXvXnXwXqXt $ * m V N < * Z <.C N 5 5 I #.#.*.*.*.U J U U { _ ] 3.4.9X",
"1.5.5.1.Y Y / ] L Y $.#.C a 3 3 C C 3 % & y ; o o 2 :.wXwXlXvX6.0.iXN O 3 8XeXQ.d.A.Y.g $ % ; C f B.B.f A V.8XA n P.) P.b d t z.V.x.eXU.l.7XtXtXI.I._ qXaX[ { { [ U U U / U P a 4 4 2 @     @ * X + - X + - % - y A 9X9XA a y a y y 3 * & * & & 3 ; 2 y v A v y f f y f f t y f n z.l.v v k f b b k k h h k g h.h.d r d d w w r k U.U.K.U.K.K.T.T.( _ I.I.` I.7X,.7X>.,.,.@.:.>.@.c a i c p 0 0 K.+XGXAXAX<XA.A.W.(.(.^.D.D.S.D.Z.Z.Z.Z.D.A.h t c >.{ /.e.| e.aXkX).D.D.(.(.J.W.(.W.Q.T.qXtXhXhX7XtXqXQ.AXJXKXDXjXjXE > qXAXJXJXGXGXGXGX4XGXGXNXtXtXeXrXMXeXeXeXU.tXtX/./.aXaXsXe.dXaXP @.<.c t j Q K.R.Y.Y.A.Y.W.(.~.D.Y.A.A.R.R.G.d.d.r w k.L.U.j u 0 t t a a c x x c c ( b b b l b Q Q b ( U.U.l.L.U.8XT.I.l l.l.h.d w 8 k d z.x.x.z.x.v B.eXV.z.v v z y y y y 2 - t 8 ; - ; V B.y - y - - - y V A ; $ 3 c C y 3 ; * O ; y ; o 3 ;.@.a 4 u ^ ^ q q J W ' W ^ R Y R R R 5.qX3.0X` 7X7XyXSX8Xn 8X8X8Xv z z z i t s @.C 5 2 y V V y ; N C 3 3 *   > k.c.d.K.eX8X3 * , @.lXPXwXx $   + * y V m = N %.N < C 6.2.=.L *.R L R ] ] U ! ,.wX0X9X:.A ",
"U Y ] / P U L Y 5.2.*.I @.@.a 2 3 a y 3 * 3 <.y * @ 3 :.>.wXIXhXwXlX@.@ * A yXE.A.A.K.0 @ + y V V B.V y f A B.A z c ! ) 8X7Xt k z.l.yXP.l I.yXyXtXI.I.qXqX3.3.5.5.R ] ] U Y ] U U 4 q > @ # @ - y ; y - % - + - % - <.uX<.C a y 3 C 3 < & O * ; - 3 ; ; f C y f v f f f f y 8 t z v v z.8Xb k l.k g g d w d d d w w w w w 0 0 w h U.U.U.T.T.K.K.T.Q Q ( ( ( ( ) ) ,.~ c ) A c a A c i t j j u j tXAXAXGXAX4X<X<XW.(.(.D.D.~.!.G Z.G Z.S.D.A.r i z ~ ] aXaX/.aXsXaXgXY.^.W.(.+X(.W.Q.Q.Q.tXtXyXtXeXU.U.Q.Q.DXDXDX`.jXaXq Y.AXAXKXJXAXJXGXGXJXKXAXNXtXeXMXrXrXeXv.eXU.T.tXsXqX5.sXaXfXaX4 y a a a Q K.K.K.Y.W W D.(.Y.D.D.W.K.r R.E.R.R.c.k.d.k k.L.U.L.j p i u u i i z h i t z b z k l b L.l g l L.l L.U.U.E.8XL.b z.k d d d f k d l.z.l.B.eX8Xv f v x.v f f t - y - % y y ; + 8 3 C 3 ; - - - y c c y 8 y y V 9XC - 2 ; O * X O 3 a :.s u K J J W H T W J ' ' T *.R L Y ] 5.qXI.I.( ) tXLXyX8Xh n n 8X8Xn 8 - z >.a a a 2 3 V V V 8 3 ; 3 @ @ O o 7 w w 9 k.eX<.3 = 5 <.vXPX~ >   + X ; V m O C +.5 5 5 L @.O.Y L L U L R ] ] ! 7XqX9X:.A c y ",
"Y I P / ] Y P S R *.R O.*.Y I 4 5 a C :.3 = C C y - * 2 a wXvXvXsXwX$.* & V 8XeXw e H 0 # o - C ; V A C ; V A a y a :.,.0X) x z v x.eX8XP.P.eXSXtX7XP.7XqX0X3.qX0X] ] ] ] ] U ^ K q > u u 4 2 a a a 3 * * % ; 9X; % ; C :.<.C y 2 ; ; C 3 ; * 3 ; - - 3 y y y y V f f V v v y t y t z n 8XeX8Xz.d k d k k k k h.h.d d w d g g u b P.U.L.U.Y.Q.Q.T._ g u j j b P.x x x ~ >.c @.c c s u 2 > u E Q.Q.AXAXNXGXJXJX).(.Y.^.J.(.(.J.D.W.W.Z.G G A.Q t t a / { [ aXaXaXhXjXT.Y.Y.Q.Q.Q.+XQ.NXeXtXtXeXU.L.eXtXAXAX<XAX2X2X2XgXQ.tX+XCXAXCXGXJX4XJXJXJXHX<X+XNXeXMXBXBXeX8X8X7X,.;.wX2.6.5.1.p y 3 y y A 0XQ g L.T.W Y.W Y.H G W.W.K.K.E.MXoXoXE.j.d d k b U.tXU.b p x p i c z i z z h b d d h h k l.l l k l.K.L.U.P.U.U.P.l.b k v x.x.f d v B.z.B.B.v z.B.B.z v c - & y C a y 2 - - - % % y 3 2 - t y y f z y a A A 9Xy ; * - & O * * 3 ;.c u u 4 u J q J F J J ' ' [ [ 5.R ] ] / { I.T.` j 8XLXyX) b z 8Xv z A A t $ y A a a 3 3 V C V V ; ; N , o o @ O $ h.d.w k.8X9X= 3 3 6.IXwX2   X X % V y X 3 @.L 1 D 1.D L &.R U S S S J J P ^ hXeXA f 3 - - ",
"wX4.4.,./ U L R L R R *.Y Y ;.;.I 5 1 :.<.3 ; C C 3 O o @ 5 9XhXvXhX@.* * V :.8XK.r K.g > . + y 3 V C y - V V y 2 a ;.>.C y a x P.f v eXrXP.n yXyXyX8X7X0XqX4.5.5.1.*.Y R ^ U ' ^ K J u u p x a a a y a 2 + - V C % % ; 3 V y y y * @ 3 V 3 3 ; * ; - y y A v 8 8 y y y ; 8 y t v z z z v P.P.eXz.k k l.x.z.l.x.d d d h l b x x P.P.U.U.K.U.U.Q.L.Q j l b b l.n b x c ) c ~ c c a t t > 0 g L.T.L.k.d.G.R.oX<XW.D.Y.Y.D.(.`.(.Y.D.J.D.H A.k.b i y :.;.! aXdXaXaXsXkX/./.tXtXE.E.E.tXrXeXE.tXQ.Q.NXHXNXGXHXAXAXDX2X2X).Y.AXNXCX%XNX4X4X4X4X4XJXJXAXDXHXBXBXBXBXrX) n 8XwX@.@.c @.a i 5 y c A c B.7X` Q U.L.E _ [ Y.Y.G Y.Y.r c.E.oXeXoXv.h.h.h.d k L.7XqX7X( s i t z z y d f t f f d d t t h k k k.l k.U.U.tXeXP.P.z.v f z.rXV.f t d x.A f v f f v f f n z - t C C y - $ - ; - - ; y a y y i t i y y f A 9XpXV - * + * O & ; y a s s u 4 : u F : H J W T T [ [ ] 5.] 3.0X{ ` I.I.( I.yXPX7Xt h >.v f f v f z z 8X:.a V a 3 V V Z V ; N 3 = @ o o # $ w d.d.R.rX<.3 O 3 vXIXI 2 X O % y C 3 , 5 4.L 5 L *.U R 5.R L T R U J K _ 0X0Xx t t ; 8 y ",
";.:.4.4.;.U U R R L T R R L Y 5.@.O.4 5 2.C , < C C ; X X @ i 4.PXvX:.< = 3 A rXL.r r r t . + - 3 3 3 3 ; C C a , 3 5 L a a a 2 i f n 8X8XB.v n yXZXyXI.) 7X4.3.5.;.Y ] R R U ' K.' H K u ^ ~ u 5 5 ;.4.>.3 O & ; % X ; % ; V V C 3 * y C C 3 ; ; ; 2 ; f V y * - - y ; - 2 t t i y z x x b z.U.8Xz.l.x.x.x.v f d w t d x ( ! x 7XeX8XU.K.l K.K.g l Q l.b b k b j i i z a i a i i i u u j _ _ Q k.r e k.d.d.R.R.H H Y.' D.(.W.D.H Y.Y.Y.K.Q ( z y :.a 5 sXhXaXsXaXe.qXaXgXI.8XeXeXMXMXMXeXtXNX<XJXHXGXHXHXAXSXGX6X2X(.K.CX+X%XNXCX4X4X3X4X3X4X2X6XJXKXAXBXBXBXBX8XP.9XV :.:.:.:.A >.B.9XrX8Xz.v ) ) ( L.Q E _ _ _ Y.W Y.K.g x.MXC.M.C.C.v.v.j.8 k b L.7X7X( s i t h v v f v f f f f k d d d k k k g k l.E.eXE.l l.P.8Xv z.rXeXf d t f f f f f f v y z A y 3 a C 2 - * - t C y a y 2 y a a i t i z v f A 8XA -   - - * O - 3 V a a p u t q q u J J T R Y ] ] ] qX3.^ { { T.T.I._ U.hXAXP.i h ) c f f t 8 8 v 8X9XA y C C V C V V ; C m < & @ O o o > g d.a.v.8XC ; O <.bX:., * X X ; V ; 3 4.2.L L D S R R R ] | | e.] T U T.0XT.j t $ t y y y ",
"4 a ;.4.qX1.L T e.T S L U U U 1.L O.@., 5 <.C & ; M 3 O o   @ a SXPXwXN = ; 9X9Xg 9 q 0 7 # + - & < < 3 ; C C C 3 3 5 5 a #.I @ $ n eXz.z.z.n z qXSXSX8Xx ) 3.3.qX;.#.R R R ^ ^ ' W W W E ^ P u s a a a a V 3 % % % % C - - A 9XA a y 3 C a C ; 2 ; * 3 y y - $ @ - y t - y y 2 2 t z v n v v v eXx.z.z.z.f d d f d d h z x ~ ) >.8XU.L.k.l g g g Q ( l h k z j h i i p i i i i t s x l I.I.( q g r k.E.R.R.R.A.A.A.Y.D.G Y.W.H A.K.K.U.L.l ( n y y 3 4 Y sXsXaXe.[ { aX0XP.8XeXeXrXrXMXMXtXNXGXJXKXGXGXHXGXHXAXJX1X).Q.CXoXCXCXGXGX4X4X3X,X<X4XJXJXAXCXHXLXSXBXeXyX8Xy 9XuX9X9X9X8X9XyXrX8Xz.v z x x Q p K ^ ^ W _ ' Y.Y.r E.eXj.M.V.v.V.V.V.x.eXL.l.T.qX( c >.z z A B.n z.8XB.x.x.z.z.k f k f d k k U.U.U.P.k k 8XrXz.x.8XV.f d f z.f f A f f n f A z 2 y C ; - 2 y 3 y f a y 3 y i a z i z ) 8XB.y - - % - ; y 3 ; o ; 3 :.C y p s p p p E W J U / :.] Y / 5.] ^ ^ _ I.I.U.L.SXSXI.t t x n n d 8 8 $ 7 A 9Xv a t 3 f V V N V y ; 5 = O O o   o 0 L.k.w h.A C X y bXZXa o O O m = % 3 6.:.;.I J L U L R T R T | R T J [ qX0X! d t h f v f y "
};
