/* XPM */
static const char *WALL1[] = {
/* columns rows colors chars-per-pixel */
"64 64 6 1 ",
"  c #494C36",
". c #5A5E44",
"X c #6F7455",
"o c #8F9479",
"O c #999D85",
"+ c #B6BC96",
/* pixels */
"XX..o++....oooo. O..O ..OXX...XooX...XXO.. O..O .oooo....++o..XX",
"X ..oXX++ooXXXX.. OO ..OXXXXXooooooXXXXXO.. OO ..XXXXoo++XXo.. X",
" ..o+XXXXXX XXXO..  ..OXXXX   XXXX   XXXXO..  ..OXXX XXXXXX+o.. ",
"..o+XX     .X XXOO...OXXXoXX. XooX .XXoXXXO...OOXX X.     XX+o..",
"oo+X+X .....X  XXXOOOXX XXoXXoo++ooXXoXX XXOOOXXX  X..... X+X+oo",
"XXXXX+X....oX   XXXXXX   XXX  XooX  XXX   XXXXXX   Xo....X+XXXXX",
"XXX  X+X...oX .          XoX. XXXX .XoX          . Xo...X+X  XXX",
" XX . XoX..oX ......... ooXXX XooX XXXoo ......... Xo..XoX . XX ",
" XX .. XoX.XX .......++oooXX XX++XX XXooo++....... XX.XoX .. XX ",
".XX ... XooX  .....++ooooXXX. X++X .XXXoooo++.....  XooX ... XX.",
".XX .... oXX .....++oooXXXXX. X++X .XXXXXooo++..... XXo .... XX.",
"+X ..oooXXX  ....++oXXXXXX  o X++X o  XXXXXXo++....  XXXooo.. X+",
"o++XXXXXX   ....+ooXXXXXX .. XX++XX .. XXXXXXoo+....   XXXXXX++o",
"oo++       ....+ooXX X  X ... X++X ... X  X XXoo+....       ++oo",
"XXo++     .....+ooX  X   o... X++X ...o   X  Xoo+.....     ++oXX",
"  XoO+   ....+++oXX  X .  oXXX+oo+XXXo  . X  XXo+++....   +OoX  ",
"   Xo+  ....+ooo+oX   o..    +oXXo+    ..o   Xo+ooo+....  +oX   ",
"X. XXO  ...+ooXXo+oX . o....X+oXXo+X....o . Xo+oXXoo+...  OXX .X",
" X. Xo  ..++XXXXXo+oX.. oXXX+oXXXXo+XXXo ..Xo+oXXXXX++..  oX .X ",
".X. Xo  .++oXX   XooXX..   +ooX  Xoo+   ..XXooX   XXo++.  oX .X.",
"X.. Xo   +oXX     XXoXX... +oXX  XXo+ ...XXoXX     XXo+   oX ..X",
"...XoX  +ooXXXXX.  XXoXX..+ooX    Xoo+..XXoXX  .XXXXXoo+  XoX...",
"..XoXX  +ooXX   X.  XXoXX+ooXX    XXoo+XXoXX  .X   XXoo+  XXoX..",
".XXXX   OoXXX    X.  XXo+ooXX      XXoo+oXX  .X    XXXoO   XXXX.",
"oooOOOOOOoXXXX..  o.  Xo+oXX   ..   XXo+oX  .o  ..XXXXoOOOOOOooo",
"oooooOOOoXXX  X.. o.  o+oXX   ....   XXo+o  .o ..X  XXXoOOOooooo",
"XXXXoooooXX    o. o. ++oXX   ++++++   XXo++ .o .o    XXoooooXXXX",
" X XXXXXXXX .. o. o++ooXX   +OO++OO+   XXoo++o .o .. XXXXXXXX X ",
" X. X  X   X...o.++oooXX   +O.OOOO.O+   XXooo++.o...X   X  X .X ",
".o..o.. o.. o..o+oooXXX  .+OoX....XoO+.  XXXooo+o..o ..o ..o..o.",
"oooooooooooooooooXXXX   ..Ooo O  O ooO..   XXXXooooooooooooooooo",
"++++++++++++++oXXXX    ...oooX    Xooo...    XXXXo++++++++++++++",
"XXXXXXXXXXXXXXXooXX  .....X ooXXXXoo X.....  XXooXXXXXXXXXXXXXXX",
"XXXXXXXXXXXXXXXXXoooo+....X. oooooo .X....+ooooXXXXXXXXXXXXXXXXX",
" X  X   X   X  XXXXXoo+... X. oooo .X ...+ooXXXXX  X   X   X  X ",
".o .o .o ..o   X XXXXoo+..  X  XX  X  ..+ooXXXX X   o.. o. o. o.",
".o.oooo++++  . X  XXXXo++..  XXXXXX  ..++oXXXX  X .  ++++oooo.o.",
"o++OOOOOOo+ .. o  X  Xo+++.   XXXX   .+++oX  X  o .. +oOOOOOO++o",
"oo+XXXXXOOo+..o . X   o++o+.  XXXX  .+o++o   X . o..+oOOXXXXX+oo",
"XXo+XXXXXOo+XX .. o . ++Xoo+   XX   +ooX++ . o .. XX+oOXXXXX+oXX",
" XXo+   XXOo+ ...o ..o+XXXoo+      +ooXXX+o.. o... +oOXX   +oXX ",
"  XXoo  XXOo+...o ..o+XXXXXoo+    +ooXXXXX+o.. o...+oOXX  ooXX  ",
"   XXo  XXXooXXX ..o+XXX  XXoo    ooXX  XXX+o.. XXXooXXX  oXX   ",
"X   Xo   XXOo   ..o+XXX    oXoo  ooXo    XXX+o..   oOXX   oX   X",
" X  Xo   XXXOo...o+XXX ... XoXooooXoX ... XXX+o...oOXXX   oX  X ",
".X  XX    XXXOooo+XXX ..oXXXXoXooXoXXXXo.. XXX+oooOXXX    XX  X.",
"X..XXo     XXOOooXXX ..o    XXX++XXX    o.. XXXooOOXX     oXX..X",
"...XoX  .   XXXOOXX ..o  ..  XX++XX  ..  o.. XXOOXXX   .  XoX...",
"..XXX  ...   XXXoOX .X  ..oXXXX++XXXXo..  X. XOoXXX   ...  XXX..",
"XXXX  .....    XXoO .X ..o    XooX    o.. X. OoXX    .....  XXXX",
"XXX  .......   XXXoO.X .o  ...X++X...  o. X.OoXXX   .......  XXX",
"XXXXoo+++....   XXXooX .X ...XX++XX... X. XooXXX   ....+++ooXXXX",
"XX   XXXXo+...   XXXOoooX ..o X++X o.. XoooOXXX   ...+oXXXX   XX",
" oX      Xo+...   XXXOOooo.X  X++X  X.oooOOXXX   ...+oX      Xo ",
" Xo     XoXo....   XXXXOOooo .X++X. oooOOXXXX   ....oXoX     oX ",
" Xo  ..X+X X+....    XXXXOOo.XX++XX.oOOXXXX    ....+X X+X..  oX ",
".XX ..XoX  X+.....      XXooX X++X XooXX      .....+X  XoX.. XX.",
"XXX .X+X   Xo...++++o   XXoX  XooX  XoXX   o++++...oX   X+X. XXX",
"XX+++oX  . XX..+oooooo+ XXoX .XXXX. XoXX +oooooo+..XX .  Xo+++XX",
"XXXXo+  ... X.+oXXXXXXo+XXoXXXXooXXXXoXX+oXXXXXXo+.X ...  +oXXXX",
"  XXXo .... XooXX    XXo+XoX  XooX  XoX+oXX    XXooX .... oXXX  ",
".. XXXoXooX ooXX  ..  XXo+ooooXXXXoooo+oXX  ..  XXoo XooXoXXX ..",
"XX. XXXXXXXooXX  .XX.  XXXXXXXXooXXXXXXXX  .XX.  XXooXXXXXXX .XX",
" X. XXX    XXX  .X  X.  XXX.  XXXX  .XXX  .X  X.  XXX    XXX .X "
};
