/* XPM */
static char *dummy[]={
"64 64 20 1",
"e c #000000",
"m c #000040",
"i c #00004c",
"g c #000058",
"f c #000064",
"# c #000070",
"d c #00007c",
"c c #000088",
"b c #000098",
"h c #0000a4",
"j c #0000b0",
"k c #0000bc",
"n c #0000d4",
"o c #0000fc",
"a c #202020",
"l c #2024fc",
"q c #2c2c2c",
". c #383838",
"p c #4040fc",
"r c #545454",
".###########################..#############..############.#####.",
"abbbbbbbbbbbbbbbbbbbbbcccd##eabbbbbbbbcddddeabbbbbbbbddfgehhhhce",
"abbbdb#bbc#cc#ccc##bd####fgieabbccdbbcddddieabjhjhjjjjjc#ehhdcde",
"abc#dccc##bcbgccgd##cc##fggieabcbbdcc#d#bfieabhjjbjkhjbc#ebbhcie",
"abdbfcfc###cdd#gdfcg#fggiiigeabcddcc#d#figieabjhbkjhbcddfedf##ie",
"abd#bbbg###bcccdd#fg###ffgigeabbdbb#fffdgiieabjbklkbjbcf#ecdfgie",
"abcchhbbbcbbbccfdi#g####fiiieabbbdd#fdddfgieabhjbjjbbh##fec#iiie",
"abbcbhhbc#gbbcdd#fffg##fgiggeabbd#ddd#d#giieabhjhbhhhb#f#ecgigie",
"abc#cbbdc#cffdddgg#difffggiieabcddfdbb#f#igeabhkhhddbbcfgeeeeeee",
"abdddb###bbfigifidf#fgffgiiieabddf##ddfgigieabhjbhdddcdgiechhhbe",
"ac#dbddfcbbffiiifg#fgf##figieacd#ffddf#gigieabhjjbdddd#ggebhchde",
"acdc##bdg#i#iiiiggdmmi###iiieacd#fffdififiieabhjjhbddc#ggecbdcge",
"ac#c#gdd#g#g#gififimmmiffigieac#dffggfgiggieabhjjbcc#dfiiecbcfie",
"acc###fgiig#gfggiiiimmiiiiiieaddffgiiiigigieabhbjdcdc##igedd#gfe",
"ac#cggfg#gfiigiggggiiiiiiiiieadgdggiiiiiiiieacjhjjdbdfgiie#fgiie",
"aeeeeeeeeeeeeeeeeeeeeeeeeeeeeaeeeeeeeeeeeeeeacjhbccddgigieeeeeee",
"bjhbhbbbbbhbbbbaaaaaaaaaaaaaaaaaaaaaaaaaaaaaachjcj#c##giiefkkkkk",
"jhbcbjhbdbb#bc#eaag#c#ccbb##iimmaaaifccbd#ffacjhjcckc#fgiedkknjk",
"jhccdbbd#cc##cceag#ccccbhbbdgffgiaafcb#d#d#geccbhjcc##figebknonh",
"hbchhcc###c####eaccchbhh#dcgfgigfaa#b#fg#gi#edhhjhcd#giggebkknhk",
"bdchjh##cc#ci##emhchdhb#if#fiigf#eaddb#ffifgedjhhffd#fggiehkkhbh",
"bbdchh#c##ggf##embbhhbhcf#figggifeafbddgi#iie#bbbfff#fiiiejkkhkb",
"hd#dcbc##cgf#iieibhhbkcd#fgggiffieaffgiigigge#cbbdfffgiiiehkhjhb",
"hbdc#c#cc#f#g#iefcbbd#ddff#fgfiifeaaeeeeeeeee#ccj##fffigiehkhbcj",
"hhcdhcccc##fiiiefcbd#cdfiffcf#f#febbjjbbccdeaccbcc#ffigiiebkkhkk",
"hbd#dhhg#cddfigefcd#hbc#f#dkhdfgfebjjbcdfd#eacjhbc##fgggiebkhkjh",
"bc#dbhhbc#ddfigeidd#chccddchd##f#ebcbbdfbfgeabjhjbcdfgiggebkkkhb",
"hchccbhbg#fffiiem##dhphdbc#cdfdg#ebbc#dbdffeabhbjbc#fggfiedkkkhh",
"bddbbcbbgfigiiiem##dchbbcbbdc#i#iebbbcbffdfeabbcbdcd#iiigedkhkkb",
"bcdbbbc#fgigmmiee#dcbdbdbhfhfigfiebkhbdfgggeabcbd####iiiiedkkjhh",
"cdcdbb#ggiiimmgeeg##c#cbcbhfig#iiebchbdfffgeabcjbcdffifiiedkkhcb",
"cdd#dd#ggf##gigeaig####cbf#cf#iiiebccb#ggfieabbhjbdfg##iiedkhkhc",
"cdbcf##fgf##giieaamiiiiiiiiiiiiimebcbgf#fgieabbhhbbc#g#giedkhkdd",
"cbcdd#ggigffgiieaaaeeeeeeeeeeeeeeebbd#gggiieabjjbccccdgiiedkkdcd",
"#ccd####igmiigieaaggggggfffggggiaabddfiigiieabjjbc#ccd#fiefkhkcc",
"#dd#f###immmiiieaagf#cc#cdd##ggieabbd#gigiieabcjcj#fd#fgiefkhccd",
"#dgf#g##immmmgieaag#ccdc#fdffdfieabb#cfgiiieabbbhccffgggiefhhcdd",
"#c#g#gfigmimmiieaagcdfccfdfifcffeabbcb#fgiieabjbccfiifiiiefhcdcd",
"#dcdf#fiiimmmiieaagc#c##cfdgiffieabcbcd#fggeabjcbcfgiifiiefhcccd",
"#cd#gf#fiigiiggeaagdcc#fgigiigiieabbd##fggieachcc##fggiiiefccc#c",
"eeeeeeeeeeeeeeeeaagcd#giigiifffieacc##gfigieacbc#i#iigiiieaeeeee",
"aaaaaaiiffddd#fgiiaeeeeeeeeeeeeeeacb#gffiigead#igiffgiiiieaffffa",
"aacbhjjjjjjjjjjjjhhhbbcc#aaaaaaaaacc#fgiiiiead#ggiiiigifieafi#ia",
"aabjjjjjhbhjbbbjbbhh#dddgeaiiggfaac#dfiiiiieaaeeeeeeeeeeeeaiiifa",
"aabjhhbhhjjjcbjjjhbdhg#igeaicdh#ead#dgfgiggeaaaaaaaaaaaaaaaaaaaa",
"aajjjhhjjccbjjchdbcc#dgigeaibhciea##gfgiiiieaajjjjjjjjjjjjjhhhba",
"aajbhbhhhcccjbddb#ccc#fiieaghhbdeaaeeeeeeeeeaajjjjhhbbhhhbbhjbde",
"aajjhcdhhbccbjjbbb#cc#iigeagbdfieadcbhbbbcddaajhhjhbkkbhbcjjccde",
"aajjcbjhdbhhh#bbobcgfgigieafcfiieacbhbchchffeajjhhbjjk##cd#cfd#e",
"aajjjjbdjdh##bdbbc#cc#gggeafdgigeabhhbd#dfigeajhjhbhhb###cb###fe",
"aajbjcbbjhc###bbf#c##gi#ieaaeeeeeacbdd#figiieajjhnnbcbc##bddcgie",
"aajhccjnjbdb##bbdd#cffgiieaaaaaaaaeeeeeeeeeeeajhbnnkjhbch#fccgie",
"aajbjbnpnccbcd#dddd#mmigieacccbbbbbbbcccddffaajhbckkbc#c#dcc#gie",
"aajhjhjnjb#bbggg#ddfmmmiieacbcdbdcbbdcb##ffieajbbhcdcdbd#dbdfgie",
"aajbjhhhddd#fggggfffimmiieaccdddbbbhcdddgfiieajjbccdd#dcccdfgiie",
"aabjhhb##cbcc#ggggfgi#iiieabdbbhcbcbbbcd#figeajhbc###f#dc#gigfie",
"aajbjhddh#bbcf#if##igiiigeabbdbcd#dcbbcd#iggeajhjhbdfii#fiimmgie",
"aajbjbcd#gdbbcfgi###igigieacdbcdb#dcccd#fgiieajjbb##ciigfiimmmie",
"aahbdddbgdgdccffg###iifiieacbd###df##d#fgiiieahcbcjc##gfifiimmie",
"aahbfgdgb##cigiigi##iiggieadcb#f#g#f#fffiggieahjb#cff#igiiigggie",
"aabbddgdigigfgfgfiiiiiiiieadcd#fgffgifiiggiieab#c#dc#fgigigiiiie",
"aabc#dcffffffggggggggggggead#ffffffggggggfgfaabc#d#ffgggggggggga",
"..#######################..#################..#################q",
"rrrrrrrrrrrrrrrrrrrrrrrrrrrrrrrrrrrrrrrrrrrrrrrrrrrrrrrrrrrrrrrr"};
